shared/src/main/assets/luts/dalur_rain_01.cube
TITLE "DALUR rain"
LUT_3D_SIZE 17
DOMAIN_MIN 0.0 0.0 0.0
DOMAIN_MAX 1.0 1.0 1.0
0.013075 0.016899 0.052751
0.067011 0.019402 0.055251
0.120946 0.021905 0.057750
0.174882 0.024409 0.060250
0.228817 0.026912 0.062749
0.282753 0.029416 0.065249
0.336689 0.031919 0.067749
0.390624 0.034423 0.070248
0.444560 0.036926 0.072748
0.498496 0.039429 0.075248
0.552431 0.041933 0.077747
0.606367 0.044436 0.080247
0.660302 0.046940 0.082746
0.714238 0.049443 0.085246
0.768174 0.051947 0.087746
0.822109 0.054450 0.090245
0.876045 0.056953 0.092745
0.018127 0.074816 0.057795
0.072062 0.077320 0.060295
0.125998 0.079823 0.062794
0.179934 0.082327 0.065294
0.233869 0.084830 0.067794
0.287805 0.087333 0.070293
0.341740 0.089837 0.072793
0.395676 0.092340 0.075292
0.449612 0.094844 0.077792
0.503547 0.097347 0.080292
0.557483 0.099851 0.082791
0.611419 0.102354 0.085291
0.665354 0.104858 0.087791
0.719290 0.107361 0.090290
0.773225 0.109864 0.092790
0.827161 0.112368 0.095289
0.881097 0.114871 0.097789
0.023179 0.132734 0.062839
0.077114 0.135238 0.065339
0.131050 0.137741 0.067838
0.184985 0.140244 0.070338
0.238921 0.142748 0.072838
0.292857 0.145251 0.075337
0.346792 0.147755 0.077837
0.400728 0.150258 0.080337
0.454664 0.152762 0.082836
0.508599 0.155265 0.085336
0.562535 0.157768 0.087835
0.616470 0.160272 0.090335
0.670406 0.162775 0.092835
0.724342 0.165279 0.095334
0.778277 0.167782 0.097834
0.832213 0.170286 0.100334
0.886149 0.172789 0.102833
0.028230 0.190652 0.067883
0.082166 0.193155 0.070383
0.136102 0.195659 0.072882
0.190037 0.198162 0.075382
0.243973 0.200666 0.077882
0.297908 0.203169 0.080381
0.351844 0.205673 0.082881
0.405780 0.208176 0.085381
0.459715 0.210679 0.087880
0.513651 0.213183 0.090380
0.567587 0.215686 0.092880
0.621522 0.218190 0.095379
0.675458 0.220693 0.097879
0.729393 0.223197 0.100378
0.783329 0.225700 0.102878
0.837265 0.228203 0.105378
0.891200 0.230707 0.107877
0.033282 0.248570 0.072927
0.087218 0.251073 0.075427
0.141153 0.253577 0.077927
0.195089 0.256080 0.080426
0.249025 0.258583 0.082926
0.302960 0.261087 0.085425
0.356896 0.263590 0.087925
0.410831 0.266094 0.090425
0.464767 0.268597 0.092924
0.518703 0.271101 0.095424
0.572638 0.273604 0.097924
0.626574 0.276107 0.100423
0.680510 0.278611 0.102923
0.734445 0.281114 0.105423
0.788381 0.283618 0.107922
0.842316 0.286121 0.110422
0.896252 0.288625 0.112921
0.038334 0.306488 0.077971
0.092269 0.308991 0.080471
0.146205 0.311494 0.082971
0.200141 0.313998 0.085470
0.254076 0.316501 0.087970
0.308012 0.319005 0.090470
0.361948 0.321508 0.092969
0.415883 0.324012 0.095469
0.469819 0.326515 0.097968
0.523754 0.329018 0.100468
0.577690 0.331522 0.102968
0.631626 0.334025 0.105467
0.685561 0.336529 0.107967
0.739497 0.339032 0.110467
0.793433 0.341536 0.112966
0.847368 0.344039 0.115466
0.901304 0.346542 0.117966
0.043386 0.364405 0.083016
0.097321 0.366909 0.085515
0.151257 0.369412 0.088015
0.205193 0.371916 0.090514
0.259128 0.374419 0.093014
0.313064 0.376923 0.095514
0.366999 0.379426 0.098013
0.420935 0.381929 0.100513
0.474871 0.384433 0.103013
0.528806 0.386936 0.105512
0.582742 0.389440 0.108012
0.636677 0.391943 0.110511
0.690613 0.394447 0.113011
0.744549 0.396950 0.115511
0.798484 0.399453 0.118010
0.852420 0.401957 0.120510
0.906356 0.404460 0.123010
0.048437 0.422323 0.088060
0.102373 0.424827 0.090559
0.156309 0.427330 0.093059
0.210244 0.429833 0.095559
0.264180 0.432337 0.098058
0.318116 0.434840 0.100558
0.372051 0.437344 0.103057
0.425987 0.439847 0.105557
0.479922 0.442351 0.108057
0.533858 0.444854 0.110556
0.587794 0.447357 0.113056
0.641729 0.449861 0.115556
0.695665 0.452364 0.118055
0.749601 0.454868 0.120555
0.803536 0.457371 0.123054
0.857472 0.459875 0.125554
0.911407 0.462378 0.128054
0.053489 0.480241 0.093104
0.107425 0.482744 0.095603
0.161360 0.485248 0.098103
0.215296 0.487751 0.100603
0.269232 0.490255 0.103102
0.323167 0.492758 0.105602
0.377103 0.495262 0.108102
0.431039 0.497765 0.110601
0.484974 0.500268 0.113101
0.538910 0.502772 0.115600
0.592845 0.505275 0.118100
0.646781 0.507779 0.120600
0.700717 0.510282 0.123099
0.754652 0.512786 0.125599
0.808588 0.515289 0.128099
0.862524 0.517792 0.130598
0.916459 0.520296 0.133098
0.058541 0.538159 0.098148
0.112477 0.540662 0.100647
0.166412 0.543166 0.103147
0.220348 0.545669 0.105647
0.274283 0.548173 0.108146
0.328219 0.550676 0.110646
0.382155 0.553179 0.113146
0.436090 0.555683 0.115645
0.490026 0.558186 0.118145
0.543962 0.560690 0.120645
0.597897 0.563193 0.123144
0.651833 0.565697 0.125644
0.705768 0.568200 0.128143
0.759704 0.570703 0.130643
0.813640 0.573207 0.133143
0.867575 0.575710 0.135642
0.921511 0.578214 0.138142
0.063593 0.596077 0.103192
0.117528 0.598580 0.105692
0.171464 0.601083 0.108191
0.225400 0.603587 0.110691
0.279335 0.606090 0.113190
0.333271 0.608594 0.115690
0.387206 0.611097 0.118190
0.441142 0.613601 0.120689
0.495078 0.616104 0.123189
0.549013 0.618607 0.125689
0.602949 0.621111 0.128188
0.656885 0.623614 0.130688
0.710820 0.626118 0.133188
0.764756 0.628621 0.135687
0.818691 0.631125 0.138187
0.872627 0.633628 0.140686
0.926563 0.636131 0.143186
0.068645 0.653994 0.108236
0.122580 0.656498 0.110736
0.176516 0.659001 0.113235
0.230451 0.661505 0.115735
0.284387 0.664008 0.118235
0.338323 0.666512 0.120734
0.392258 0.669015 0.123234
0.446194 0.671518 0.125733
0.500130 0.674022 0.128233
0.554065 0.676525 0.130733
0.608001 0.679029 0.133232
0.661936 0.681532 0.135732
0.715872 0.684036 0.138232
0.769808 0.686539 0.140731
0.823743 0.689042 0.143231
0.877679 0.691546 0.145731
0.931615 0.694049 0.148230
0.073696 0.711912 0.113280
0.127632 0.714416 0.115780
0.181568 0.716919 0.118279
0.235503 0.719422 0.120779
0.289439 0.721926 0.123279
0.343374 0.724429 0.125778
0.397310 0.726933 0.128278
0.451246 0.729436 0.130778
0.505181 0.731940 0.133277
0.559117 0.734443 0.135777
0.613053 0.736947 0.138276
0.666988 0.739450 0.140776
0.720924 0.741953 0.143276
0.774859 0.744457 0.145775
0.828795 0.746960 0.148275
0.882731 0.749464 0.150775
0.936666 0.751967 0.153274
0.078748 0.769830 0.118324
0.132684 0.772333 0.120824
0.186619 0.774837 0.123324
0.240555 0.777340 0.125823
0.294491 0.779844 0.128323
0.348426 0.782347 0.130822
0.402362 0.784851 0.133322
0.456297 0.787354 0.135822
0.510233 0.789857 0.138321
0.564169 0.792361 0.140821
0.618104 0.794864 0.143321
0.672040 0.797368 0.145820
0.725976 0.799871 0.148320
0.779911 0.802375 0.150820
0.833847 0.804878 0.153319
0.887782 0.807381 0.155819
0.941718 0.809885 0.158318
0.083800 0.827748 0.123368
0.137735 0.830251 0.125868
0.191671 0.832755 0.128368
0.245607 0.835258 0.130867
0.299542 0.837762 0.133367
0.353478 0.840265 0.135867
0.407414 0.842768 0.138366
0.461349 0.845272 0.140866
0.515285 0.847775 0.143365
0.569220 0.850279 0.145865
0.623156 0.852782 0.148365
0.677092 0.855286 0.150864
0.731027 0.857789 0.153364
0.784963 0.860292 0.155864
0.838899 0.862796 0.158363
0.892834 0.865299 0.160863
0.946770 0.867803 0.163363
0.088852 0.885666 0.128413
0.142787 0.888169 0.130912
0.196723 0.890672 0.133412
0.250659 0.893176 0.135911
0.304594 0.895679 0.138411
0.358530 0.898183 0.140911
0.412465 0.900686 0.143410
0.466401 0.903190 0.145910
0.520337 0.905693 0.148410
0.574272 0.908197 0.150909
0.628208 0.910700 0.153409
0.682144 0.913203 0.155908
0.736079 0.915707 0.158408
0.790015 0.918210 0.160908
0.843950 0.920714 0.163407
0.897886 0.923217 0.165907
0.951822 0.925721 0.168407
0.093903 0.943583 0.133457
0.147839 0.946087 0.135956
0.201775 0.948590 0.138456
0.255710 0.951094 0.140956
0.309646 0.953597 0.143455
0.363582 0.956101 0.145955
0.417517 0.958604 0.148454
0.471453 0.961107 0.150954
0.525388 0.963611 0.153454
0.579324 0.966114 0.155953
0.633260 0.968618 0.158453
0.687195 0.971121 0.160953
0.741131 0.973625 0.163452
0.795067 0.976128 0.165952
0.849002 0.978631 0.168451
0.902938 0.981135 0.170951
0.956873 0.983638 0.173451
0.014016 0.017840 0.104329
0.067952 0.020343 0.106829
0.121887 0.022847 0.109328
0.175823 0.025350 0.111828
0.229759 0.027853 0.114327
0.283694 0.030357 0.116827
0.337630 0.032860 0.119327
0.391566 0.035364 0.121826
0.445501 0.037867 0.124326
0.499437 0.040371 0.126826
0.553372 0.042874 0.129325
0.607308 0.045377 0.131825
0.661244 0.047881 0.134324
0.715179 0.050384 0.136824
0.769115 0.052888 0.139324
0.823051 0.055391 0.141823
0.876986 0.057895 0.144323
0.019068 0.075758 0.109373
0.073004 0.078261 0.111873
0.126939 0.080764 0.114372
0.180875 0.083268 0.116872
0.234810 0.085771 0.119372
0.288746 0.088275 0.121871
0.342682 0.090778 0.124371
0.396617 0.093282 0.126870
0.450553 0.095785 0.129370
0.504489 0.098288 0.131870
0.558424 0.100792 0.134369
0.612360 0.103295 0.136869
0.666295 0.105799 0.139369
0.720231 0.108302 0.141868
0.774167 0.110806 0.144368
0.828102 0.113309 0.146867
0.882038 0.115812 0.149367
0.024120 0.133675 0.114417
0.078055 0.136179 0.116917
0.131991 0.138682 0.119416
0.185927 0.141186 0.121916
0.239862 0.143689 0.124416
0.293798 0.146192 0.126915
0.347733 0.148696 0.129415
0.401669 0.151199 0.131915
0.455605 0.153703 0.134414
0.509540 0.156206 0.136914
0.563476 0.158710 0.139413
0.617412 0.161213 0.141913
0.671347 0.163716 0.144413
0.725283 0.166220 0.146912
0.779218 0.168723 0.149412
0.833154 0.171227 0.151912
0.887090 0.173730 0.154411
0.029171 0.191593 0.119461
0.083107 0.194097 0.121961
0.137043 0.196600 0.124460
0.190978 0.199103 0.126960
0.244914 0.201607 0.129460
0.298850 0.204110 0.131959
0.352785 0.206614 0.134459
0.406721 0.209117 0.136959
0.460656 0.211621 0.139458
0.514592 0.214124 0.141958
0.568528 0.216627 0.144458
0.622463 0.219131 0.146957
0.676399 0.221634 0.149457
0.730335 0.224138 0.151956
0.784270 0.226641 0.154456
0.838206 0.229145 0.156956
0.892141 0.231648 0.159455
0.034223 0.249511 0.124505
0.088159 0.252014 0.127005
0.142095 0.254518 0.129505
0.196030 0.257021 0.132004
0.249966 0.259525 0.134504
0.303901 0.262028 0.137003
0.357837 0.264532 0.139503
0.411773 0.267035 0.142003
0.465708 0.269538 0.144502
0.519644 0.272042 0.147002
0.573579 0.274545 0.149502
0.627515 0.277049 0.152001
0.681451 0.279552 0.154501
0.735386 0.282056 0.157001
0.789322 0.284559 0.159500
0.843258 0.287062 0.162000
0.897193 0.289566 0.164499
0.039275 0.307429 0.129549
0.093211 0.309932 0.132049
0.147146 0.312436 0.134549
0.201082 0.314939 0.137048
0.255018 0.317442 0.139548
0.308953 0.319946 0.142048
0.362889 0.322449 0.144547
0.416824 0.324953 0.147047
0.470760 0.327456 0.149547
0.524696 0.329960 0.152046
0.578631 0.332463 0.154546
0.632567 0.334966 0.157045
0.686503 0.337470 0.159545
0.740438 0.339973 0.162045
0.794374 0.342477 0.164544
0.848309 0.344980 0.167044
0.902245 0.347484 0.169544
0.044327 0.365347 0.134594
0.098262 0.367850 0.137093
0.152198 0.370353 0.139593
0.206134 0.372857 0.142092
0.260069 0.375360 0.144592
0.314005 0.377864 0.147092
0.367941 0.380367 0.149591
0.421876 0.382871 0.152091
0.475812 0.385374 0.154591
0.529747 0.387877 0.157090
0.583683 0.390381 0.159590
0.637619 0.392884 0.162090
0.691554 0.395388 0.164589
0.745490 0.397891 0.167089
0.799426 0.400395 0.169588
0.853361 0.402898 0.172088
0.907297 0.405401 0.174588
0.049379 0.423264 0.139638
0.103314 0.425768 0.142137
0.157250 0.428271 0.144637
0.211185 0.430775 0.147137
0.265121 0.433278 0.149636
0.319057 0.435782 0.152136
0.372992 0.438285 0.154635
0.426928 0.440788 0.157135
0.480864 0.443292 0.159635
0.534799 0.445795 0.162134
0.588735 0.448299 0.164634
0.642670 0.450802 0.167134
0.696606 0.453306 0.169633
0.750542 0.455809 0.172133
0.804477 0.458312 0.174633
0.858413 0.460816 0.177132
0.912349 0.463319 0.179632
0.054430 0.481182 0.144682
0.108366 0.483686 0.147181
0.162302 0.486189 0.149681
0.216237 0.488692 0.152181
0.270173 0.491196 0.154680
0.324108 0.493699 0.157180
0.378044 0.496203 0.159680
0.431980 0.498706 0.162179
0.485915 0.501210 0.164679
0.539851 0.503713 0.167178
0.593787 0.506216 0.169678
0.647722 0.508720 0.172178
0.701658 0.511223 0.174677
0.755593 0.513727 0.177177
0.809529 0.516230 0.179677
0.863465 0.518734 0.182176
0.917400 0.521237 0.184676
0.059482 0.539100 0.149726
0.113418 0.541603 0.152226
0.167353 0.544107 0.154725
0.221289 0.546610 0.157225
0.275225 0.549114 0.159724
0.329160 0.551617 0.162224
0.383096 0.554121 0.164724
0.437032 0.556624 0.167223
0.490967 0.559127 0.169723
0.544903 0.561631 0.172223
0.598838 0.564134 0.174722
0.652774 0.566638 0.177222
0.706710 0.569141 0.179721
0.760645 0.571645 0.182221
0.814581 0.574148 0.184721
0.868517 0.576651 0.187220
0.922452 0.579155 0.189720
0.064534 0.597018 0.154770
0.118470 0.599521 0.157270
0.172405 0.602025 0.159769
0.226341 0.604528 0.162269
0.280276 0.607031 0.164769
0.334212 0.609535 0.167268
0.388148 0.612038 0.169768
0.442083 0.614542 0.172267
0.496019 0.617045 0.174767
0.549955 0.619549 0.177267
0.603890 0.622052 0.179766
0.657826 0.624556 0.182266
0.711761 0.627059 0.184766
0.765697 0.629562 0.187265
0.819633 0.632066 0.189765
0.873568 0.634569 0.192264
0.927504 0.637073 0.194764
0.069586 0.654936 0.159814
0.123521 0.657439 0.162314
0.177457 0.659942 0.164813
0.231393 0.662446 0.167313
0.285328 0.664949 0.169813
0.339264 0.667453 0.172312
0.393199 0.669956 0.174812
0.447135 0.672460 0.177312
0.501071 0.674963 0.179811
0.555006 0.677466 0.182311
0.608942 0.679970 0.184810
0.662878 0.682473 0.187310
0.716813 0.684977 0.189810
0.770749 0.687480 0.192309
0.824684 0.689984 0.194809
0.878620 0.692487 0.197309
0.932556 0.694990 0.199808
0.074637 0.712853 0.164858
0.128573 0.715357 0.167358
0.182509 0.717860 0.169857
0.236444 0.720364 0.172357
0.290380 0.722867 0.174857
0.344316 0.725371 0.177356
0.398251 0.727874 0.179856
0.452187 0.730377 0.182356
0.506122 0.732881 0.184855
0.560058 0.735384 0.187355
0.613994 0.737888 0.189855
0.667929 0.740391 0.192354
0.721865 0.742895 0.194854
0.775801 0.745398 0.197353
0.829736 0.747901 0.199853
0.883672 0.750405 0.202353
0.937607 0.752908 0.204852
0.079689 0.770771 0.169902
0.133625 0.773275 0.172402
0.187561 0.775778 0.174902
0.241496 0.778281 0.177401
0.295432 0.780785 0.179901
0.349367 0.783288 0.182400
0.403303 0.785792 0.184900
0.457239 0.788295 0.187400
0.511174 0.790799 0.189899
0.565110 0.793302 0.192399
0.619046 0.795806 0.194899
0.672981 0.798309 0.197398
0.726917 0.800812 0.199898
0.780852 0.803316 0.202398
0.834788 0.805819 0.204897
0.888724 0.808323 0.207397
0.942659 0.810826 0.209896
0.084741 0.828689 0.174946
0.138677 0.831192 0.177446
0.192612 0.833696 0.179946
0.246548 0.836199 0.182445
0.300484 0.838703 0.184945
0.354419 0.841206 0.187445
0.408355 0.843710 0.189944
0.462290 0.846213 0.192444
0.516226 0.848716 0.194943
0.570162 0.851220 0.197443
0.624097 0.853723 0.199943
0.678033 0.856227 0.202442
0.731969 0.858730 0.204942
0.785904 0.861234 0.207442
0.839840 0.863737 0.209941
0.893775 0.866240 0.212441
0.947711 0.868744 0.214941
0.089793 0.886607 0.179991
0.143728 0.889110 0.182490
0.197664 0.891614 0.184990
0.251600 0.894117 0.187489
0.305535 0.896621 0.189989
0.359471 0.899124 0.192489
0.413407 0.901627 0.194988
0.467342 0.904131 0.197488
0.521278 0.906634 0.199988
0.575213 0.909138 0.202487
0.629149 0.911641 0.204987
0.683085 0.914145 0.207486
0.737020 0.916648 0.209986
0.790956 0.919151 0.212486
0.844892 0.921655 0.214985
0.898827 0.924158 0.217485
0.952763 0.926662 0.219985
0.094845 0.944525 0.185035
0.148780 0.947028 0.187534
0.202716 0.949531 0.190034
0.256651 0.952035 0.192534
0.310587 0.954538 0.195033
0.364523 0.957042 0.197533
0.418458 0.959545 0.200032
0.472394 0.962049 0.202532
0.526330 0.964552 0.205032
0.580265 0.967055 0.207531
0.634201 0.969559 0.210031
0.688136 0.972062 0.212531
0.742072 0.974566 0.215030
0.796008 0.977069 0.217530
0.849943 0.979573 0.220029
0.903879 0.982076 0.222529
0.957815 0.984580 0.225029
0.014957 0.018781 0.155907
0.068893 0.021284 0.158407
0.122829 0.023788 0.160906
0.176764 0.026291 0.163406
0.230700 0.028795 0.165905
0.284635 0.031298 0.168405
0.338571 0.033801 0.170905
0.392507 0.036305 0.173404
0.446442 0.038808 0.175904
0.500378 0.041312 0.178404
0.554314 0.043815 0.180903
0.608249 0.046319 0.183403
0.662185 0.048822 0.185903
0.716120 0.051325 0.188402
0.770056 0.053829 0.190902
0.823992 0.056332 0.193401
0.877927 0.058836 0.195901
0.020009 0.076699 0.160951
0.073945 0.079202 0.163451
0.127880 0.081706 0.165950
0.181816 0.084209 0.168450
0.235752 0.086712 0.170950
0.289687 0.089216 0.173449
0.343623 0.091719 0.175949
0.397558 0.094223 0.178448
0.451494 0.096726 0.180948
0.505430 0.099230 0.183448
0.559365 0.101733 0.185947
0.613301 0.104236 0.188447
0.667237 0.106740 0.190947
0.721172 0.109243 0.193446
0.775108 0.111747 0.195946
0.829043 0.114250 0.198446
0.882979 0.116754 0.200945
0.025061 0.134616 0.165995
0.078996 0.137120 0.168495
0.132932 0.139623 0.170994
0.186868 0.142127 0.173494
0.240803 0.144630 0.175994
0.294739 0.147134 0.178493
0.348675 0.149637 0.180993
0.402610 0.152141 0.183493
0.456546 0.154644 0.185992
0.510481 0.157147 0.188492
0.564417 0.159651 0.190991
0.618353 0.162154 0.193491
0.672288 0.164658 0.195991
0.726224 0.167161 0.198490
0.780160 0.169665 0.200990
0.834095 0.172168 0.203490
0.888031 0.174671 0.205989
0.030113 0.192534 0.171039
0.084048 0.195038 0.173539
0.137984 0.197541 0.176039
0.191920 0.200045 0.178538
0.245855 0.202548 0.181038
0.299791 0.205051 0.183537
0.353726 0.207555 0.186037
0.407662 0.210058 0.188537
0.461598 0.212562 0.191036
0.515533 0.215065 0.193536
0.569469 0.217569 0.196036
0.623405 0.220072 0.198535
0.677340 0.222575 0.201035
0.731276 0.225079 0.203534
0.785211 0.227582 0.206034
0.839147 0.230086 0.208534
0.893083 0.232589 0.211033
0.035164 0.250452 0.176083
0.089100 0.252956 0.178583
0.143036 0.255459 0.181083
0.196971 0.257962 0.183582
0.250907 0.260466 0.186082
0.304843 0.262969 0.188582
0.358778 0.265473 0.191081
0.412714 0.267976 0.193581
0.466649 0.270480 0.196080
0.520585 0.272983 0.198580
0.574521 0.275486 0.201080
0.628456 0.277990 0.203579
0.682392 0.280493 0.206079
0.736328 0.282997 0.208579
0.790263 0.285500 0.211078
0.844199 0.288004 0.213578
0.898134 0.290507 0.216077
0.040216 0.308370 0.181127
0.094152 0.310873 0.183627
0.148087 0.313377 0.186127
0.202023 0.315880 0.188626
0.255959 0.318384 0.191126
0.309894 0.320887 0.193626
0.363830 0.323391 0.196125
0.417766 0.325894 0.198625
0.471701 0.328397 0.201125
0.525637 0.330901 0.203624
0.579572 0.333404 0.206124
0.633508 0.335908 0.208623
0.687444 0.338411 0.211123
0.741379 0.340915 0.213623
0.795315 0.343418 0.216122
0.849251 0.345921 0.218622
0.903186 0.348425 0.221122
0.045268 0.366288 0.186172
0.099204 0.368791 0.188671
0.153139 0.371295 0.191171
0.207075 0.373798 0.193670
0.261010 0.376301 0.196170
0.314946 0.378805 0.198670
0.368882 0.381308 0.201169
0.422817 0.383812 0.203669
0.476753 0.386315 0.206169
0.530689 0.388819 0.208668
0.584624 0.391322 0.211168
0.638560 0.393825 0.213668
0.692495 0.396329 0.216167
0.746431 0.398832 0.218667
0.800367 0.401336 0.221166
0.854302 0.403839 0.223666
0.908238 0.406343 0.226166
0.050320 0.424206 0.191216
0.104255 0.426709 0.193715
0.158191 0.429212 0.196215
0.212127 0.431716 0.198715
0.266062 0.434219 0.201214
0.319998 0.436723 0.203714
0.373934 0.439226 0.206213
0.427869 0.441730 0.208713
0.481805 0.444233 0.211213
0.535740 0.446736 0.213712
0.589676 0.449240 0.216212
0.643612 0.451743 0.218712
0.697547 0.454247 0.221211
0.751483 0.456750 0.223711
0.805419 0.459254 0.226211
0.859354 0.461757 0.228710
0.913290 0.464260 0.231210
0.055372 0.482123 0.196260
0.109307 0.484627 0.198759
0.163243 0.487130 0.201259
0.217178 0.489634 0.203759
0.271114 0.492137 0.206258
0.325050 0.494640 0.208758
0.378985 0.497144 0.211258
0.432921 0.499647 0.213757
0.486857 0.502151 0.216257
0.540792 0.504654 0.218756
0.594728 0.507158 0.221256
0.648663 0.509661 0.223756
0.702599 0.512165 0.226255
0.756535 0.514668 0.228755
0.810470 0.517171 0.231255
0.864406 0.519675 0.233754
0.918342 0.522178 0.236254
0.060423 0.540041 0.201304
0.114359 0.542545 0.203804
0.168295 0.545048 0.206303
0.222230 0.547551 0.208803
0.276166 0.550055 0.211302
0.330101 0.552558 0.213802
0.384037 0.555062 0.216302
0.437973 0.557565 0.218801
0.491908 0.560069 0.221301
0.545844 0.562572 0.223801
0.599780 0.565075 0.226300
0.653715 0.567579 0.228800
0.707651 0.570082 0.231299
0.761586 0.572586 0.233799
0.815522 0.575089 0.236299
0.869458 0.577593 0.238798
0.923393 0.580096 0.241298
0.065475 0.597959 0.206348
0.119411 0.600462 0.208848
0.173346 0.602966 0.211347
0.227282 0.605469 0.213847
0.281218 0.607973 0.216347
0.335153 0.610476 0.218846
0.389089 0.612980 0.221346
0.443024 0.615483 0.223845
0.496960 0.617986 0.226345
0.550896 0.620490 0.228845
0.604831 0.622993 0.231344
0.658767 0.625497 0.233844
0.712703 0.628000 0.236344
0.766638 0.630504 0.238843
0.820574 0.633007 0.241343
0.874509 0.635510 0.243842
0.928445 0.638014 0.246342
0.070527 0.655877 0.211392
0.124463 0.658380 0.213892
0.178398 0.660884 0.216391
0.232334 0.663387 0.218891
0.286269 0.665890 0.221391
0.340205 0.668394 0.223890
0.394141 0.670897 0.226390
0.448076 0.673401 0.228890
0.502012 0.675904 0.231389
0.555948 0.678408 0.233889
0.609883 0.680911 0.236388
0.663819 0.683415 0.238888
0.717754 0.685918 0.241388
0.771690 0.688421 0.243887
0.825626 0.690925 0.246387
0.879561 0.693428 0.248887
0.933497 0.695932 0.251386
0.075579 0.713795 0.216436
0.129514 0.716298 0.218936
0.183450 0.718801 0.221436
0.237386 0.721305 0.223935
0.291321 0.723808 0.226435
0.345257 0.726312 0.228934
0.399192 0.728815 0.231434
0.453128 0.731319 0.233934
0.507064 0.733822 0.236433
0.560999 0.736325 0.238933
0.614935 0.738829 0.241433
0.668871 0.741332 0.243932
0.722806 0.743836 0.246432
0.776742 0.746339 0.248931
0.830677 0.748843 0.251431
0.884613 0.751346 0.253931
0.938549 0.753849 0.256430
0.080630 0.771712 0.221480
0.134566 0.774216 0.223980
0.188502 0.776719 0.226480
0.242437 0.779223 0.228979
0.296373 0.781726 0.231479
0.350309 0.784230 0.233979
0.404244 0.786733 0.236478
0.458180 0.789236 0.238978
0.512115 0.791740 0.241477
0.566051 0.794243 0.243977
0.619987 0.796747 0.246477
0.673922 0.799250 0.248976
0.727858 0.801754 0.251476
0.781794 0.804257 0.253976
0.835729 0.806760 0.256475
0.889665 0.809264 0.258975
0.943600 0.811767 0.261474
0.085682 0.829630 0.226524
0.139618 0.832134 0.229024
0.193553 0.834637 0.231524
0.247489 0.837140 0.234023
0.301425 0.839644 0.236523
0.355360 0.842147 0.239023
0.409296 0.844651 0.241522
0.463232 0.847154 0.244022
0.517167 0.849658 0.246522
0.571103 0.852161 0.249021
0.625038 0.854664 0.251521
0.678974 0.857168 0.254020
0.732910 0.859671 0.256520
0.786845 0.862175 0.259020
0.840781 0.864678 0.261519
0.894717 0.867182 0.264019
0.948652 0.869685 0.266519
0.090734 0.887548 0.231569
0.144670 0.890051 0.234068
0.198605 0.892555 0.236568
0.252541 0.895058 0.239067
0.306477 0.897562 0.241567
0.360412 0.900065 0.244067
0.414348 0.902569 0.246566
0.468283 0.905072 0.249066
0.522219 0.907575 0.251566
0.576155 0.910079 0.254065
0.630090 0.912582 0.256565
0.684026 0.915086 0.259065
0.737961 0.917589 0.261564
0.791897 0.920093 0.264064
0.845833 0.922596 0.266563
0.899768 0.925099 0.269063
0.953704 0.927603 0.271563
0.095786 0.945466 0.236613
0.149721 0.947969 0.239112
0.203657 0.950473 0.241612
0.257593 0.952976 0.244112
0.311528 0.955480 0.246611
0.365464 0.957983 0.249111
0.419400 0.960486 0.251610
0.473335 0.962990 0.254110
0.527271 0.965493 0.256610
0.581206 0.967997 0.259109
0.635142 0.970500 0.261609
0.689078 0.973004 0.264109
0.743013 0.975507 0.266608
0.796949 0.978010 0.269108
0.850885 0.980514 0.271608
0.904820 0.983017 0.274107
0.958756 0.985521 0.276607
0.015898 0.019722 0.207485
0.069834 0.022225 0.209985
0.123770 0.024729 0.212484
0.177705 0.027232 0.214984
0.231641 0.029736 0.217483
0.285577 0.032239 0.219983
0.339512 0.034743 0.222483
0.393448 0.037246 0.224982
0.447383 0.039750 0.227482
0.501319 0.042253 0.229982
0.555255 0.044756 0.232481
0.609190 0.047260 0.234981
0.663126 0.049763 0.237481
0.717062 0.052267 0.239980
0.770997 0.054770 0.242480
0.824933 0.057274 0.244979
0.878868 0.059777 0.247479
0.020950 0.077640 0.212529
