shared/src/main/assets/luts/dalur_street_200.cube
# Resampled 13pt -> 17pt (trilinear) from an MIT-licensed G'MIC film LUT.
# Source: github.com/YahiaAngelo/Film-Luts (MIT). See THIRD_PARTY_NOTICES.
TITLE "DALUR street 200"
# LUT size
LUT_3D_SIZE 17
# Data domain
DOMAIN_MIN 0.0 0.0 0.0
DOMAIN_MAX 1.0 1.0 1.0
# LUT data points
0.031278901 0.032790374 0.027503010
0.063892344 0.027183297 0.020358632
0.105098151 0.020696483 0.014144157
0.154056776 0.014354660 0.009114871
0.209928676 0.009182559 0.005526060
0.273762491 0.005136030 0.002800347
0.337998286 0.001995304 0.000969225
0.401772924 0.000221140 0.000035005
0.464223266 0.000274299 0.000000000
0.523264989 0.000405581 0.000000000
0.577488482 0.000234006 0.000000000
0.627824485 0.000014002 0.000000000
0.675203741 0.000000000 0.000000000
0.703947902 0.000000000 0.000000000
0.731339127 0.000000000 0.000000000
0.757715270 0.000000000 0.000000000
0.783414185 0.000000000 0.000000000
0.060866751 0.088941093 0.046055408
0.087898341 0.079569026 0.036391217
0.126677288 0.069454081 0.028566747
0.175294393 0.058007131 0.021186472
0.231840458 0.044639048 0.012854868
0.294023632 0.030735369 0.005325884
0.357472308 0.019009285 0.001454841
0.420872716 0.009910712 0.000070095
0.482911088 0.003889566 0.000000000
0.539827881 0.003120038 0.000000000
0.592755325 0.002867414 0.000000000
0.641477399 0.002502304 0.000000000
0.685778081 0.001395315 0.000000000
0.712807406 0.000348829 0.000000000
0.736926772 0.000000000 0.000000000
0.760351703 0.000000000 0.000000000
0.785297722 0.000000000 0.000000000
0.088209908 0.158591338 0.070714390
0.110496112 0.148718699 0.060051849
0.147436734 0.137738883 0.050225219
0.196564842 0.123759489 0.039265571
0.255413502 0.104888111 0.025203975
0.317332957 0.084764436 0.011602340
0.380159207 0.065923170 0.004176301
0.442815680 0.047833139 0.001069695
0.504225805 0.029963168 0.000426363
0.559269149 0.018869310 0.000111303
0.611058474 0.011234953 0.000003142
0.658380926 0.006151349 0.000000000
0.700023651 0.002709751 0.000000000
0.725927174 0.000975197 0.000000000
0.747677729 0.000607745 0.000000000
0.767767586 0.000720522 0.000000000
0.788689017 0.000426655 0.000000000
0.102302808 0.239930104 0.099149851
0.125639005 0.231243849 0.088801815
0.165493026 0.220288610 0.076576384
0.218374819 0.205101579 0.061381094
0.280794330 0.183719948 0.042123482
0.343634916 0.161350051 0.022877817
0.406508483 0.138212060 0.010719273
0.468591727 0.113462874 0.004246559
0.529061347 0.086259396 0.002058384
0.582598384 0.061633871 0.000883256
0.633026481 0.042016058 0.000307779
0.678748798 0.026678179 0.000123270
0.718168497 0.014892459 0.000121046
0.743103497 0.008844135 0.000040511
0.763888009 0.005293904 0.000006833
0.781767596 0.003263836 0.000000000
0.797987819 0.001776003 0.000000000
0.092139885 0.331146389 0.129031688
0.127280366 0.323756009 0.120102402
0.178962700 0.311840981 0.105077051
0.241231021 0.295523249 0.085561968
0.308129460 0.274924755 0.063163489
0.372873962 0.254619036 0.040400417
0.436969638 0.231351055 0.022669430
0.499190770 0.206274372 0.010813440
0.558311641 0.180542544 0.005675357
0.610825181 0.145394195 0.002865204
0.659287900 0.111890167 0.001212266
0.702794746 0.079799838 0.000493080
0.740440667 0.048892587 0.000484182
0.764132664 0.030920672 0.000162042
0.785853624 0.017529147 0.000027331
0.804156408 0.008732216 0.000000000
0.817593873 0.004544083 0.000000000
0.101712136 0.416976362 0.149798904
0.145254959 0.410366924 0.141147084
0.203086108 0.399033874 0.127015305
0.268772946 0.383307032 0.108399039
0.335882835 0.363516219 0.086293759
0.400187489 0.346155540 0.064998762
0.464881800 0.328422217 0.044628264
0.528470876 0.308442895 0.027126149
0.589459822 0.284344222 0.014436302
0.643237352 0.253767406 0.009729662
0.692457303 0.222573159 0.005543400
0.736028589 0.191250356 0.002901609
0.772860125 0.160287868 0.002828381
0.795439206 0.127108949 0.002498903
0.815841682 0.091970283 0.001843761
0.833323464 0.057659752 0.001170273
0.847140461 0.026965235 0.000785760
0.129032876 0.499379441 0.164008945
0.176942418 0.493310910 0.155408705
0.235573791 0.483797282 0.142789332
0.299982540 0.470725309 0.126421188
0.365224212 0.453981742 0.106574632
0.428235851 0.436710026 0.087246603
0.492380559 0.420539349 0.067016986
0.556440547 0.403204110 0.047472906
0.619198024 0.382438704 0.030201488
0.675587133 0.357663665 0.020295696
0.725259289 0.331201185 0.012980483
0.768108100 0.303678025 0.008823193
0.804027170 0.275720946 0.008391167
0.828381896 0.241466366 0.008554930
0.849734485 0.202089669 0.007708307
0.868004143 0.159898718 0.007178080
0.883110076 0.117201373 0.008291035
0.173432708 0.576759532 0.171166789
0.220589002 0.571119919 0.162505724
0.275690133 0.563777797 0.151359726
0.335578591 0.553903237 0.137456683
0.397096865 0.540666312 0.120524481
0.458316581 0.523109538 0.103904329
0.521330900 0.507540148 0.085865004
0.585069787 0.492143523 0.067130162
0.648463205 0.475105047 0.048423459
0.706493735 0.455175279 0.033896044
0.755918540 0.433994286 0.024133574
0.797710992 0.411742730 0.019059910
0.832844466 0.388601273 0.018598916
0.860248752 0.360695018 0.019518272
0.883933365 0.326845877 0.019804919
0.904161625 0.287938700 0.021165371
0.921196848 0.244858336 0.025306141
0.234242231 0.647520542 0.170777410
0.274440967 0.642325908 0.162056599
0.322699517 0.636622012 0.151687078
0.376279883 0.628965974 0.139333790
0.432444066 0.617914915 0.124661677
0.491727211 0.602181122 0.111732328
0.553597808 0.589262307 0.097201724
0.616328597 0.576846644 0.081374366
0.678192317 0.562622309 0.064554758
0.734576374 0.544394553 0.049863442
0.782659739 0.527172506 0.039612729
0.823514983 0.510104358 0.034413842
0.858214676 0.492338300 0.034878001
0.888327792 0.471496999 0.036577079
0.914839655 0.445197478 0.040317550
0.937759086 0.414269283 0.046274095
0.957094908 0.379541963 0.054621395
0.305398107 0.702292994 0.157439902
0.339144303 0.698263310 0.150052970
0.377748951 0.694479898 0.141138447
0.421832548 0.689308312 0.130192949
0.472015589 0.681114107 0.116713090
0.527745947 0.667453460 0.104788443
0.586890884 0.654355161 0.092143030
0.647303138 0.641575847 0.079216446
0.706835449 0.628872156 0.066448286
0.759753253 0.615097806 0.056612501
0.805210277 0.600165896 0.049724756
0.844316185 0.584668238 0.046475444
0.878180638 0.569196641 0.047554959
0.909795791 0.553274512 0.050818924
0.936575651 0.532191899 0.057414681
0.959368113 0.507784780 0.067022171
0.979021072 0.481889136 0.079321335
0.373215348 0.751944065 0.135202792
0.400461573 0.748807088 0.130623763
0.431531459 0.745638207 0.124902880
0.468888074 0.741067305 0.116333113
0.514994487 0.733724266 0.103207435
0.565776583 0.722385027 0.092819536
0.621474236 0.709880382 0.082384557
0.678999253 0.697026253 0.072031413
0.735263437 0.684638560 0.061889021
0.783417381 0.673350103 0.055785852
0.826980978 0.661934644 0.052190276
0.865539223 0.650022097 0.051590789
0.898677111 0.637242377 0.054475889
0.930410884 0.623978697 0.059000760
0.956051499 0.606367722 0.067244555
0.975913078 0.586438961 0.078805587
0.990309745 0.566221923 0.093282171
0.436880119 0.797064483 0.104818704
0.458935907 0.794485182 0.103267201
0.485255316 0.791184366 0.100989615
0.518482573 0.786273777 0.095154602
0.561261907 0.778865159 0.082930821
0.607494686 0.769302692 0.075401939
0.659370169 0.758291915 0.067693929
0.712860059 0.746402763 0.059998143
0.763936058 0.734205171 0.052505932
0.807452329 0.723678228 0.048809378
0.849138074 0.714782253 0.047586004
0.887232918 0.706076134 0.049115248
0.919976488 0.696118757 0.053676548
0.950470421 0.684558325 0.059496492
0.973186582 0.669989802 0.068970638
0.988205794 0.653900784 0.081953146
0.995608881 0.637778863 0.098298179
0.495578587 0.838244975 0.067040265
0.515110433 0.835825533 0.067481505
0.540128797 0.832205802 0.067407891
0.571652159 0.826958552 0.064057737
0.610698998 0.819656551 0.054669354
0.654575825 0.810533330 0.052111982
0.702600986 0.802043706 0.047838774
0.750328675 0.792910278 0.043295514
0.793313086 0.781855643 0.039927989
0.833741665 0.770608962 0.037108960
0.872847795 0.761012226 0.036488656
0.909446090 0.752740547 0.038404196
0.942351162 0.745469034 0.043192696
0.970271751 0.735962167 0.050680026
0.987900287 0.725322992 0.061756397
0.997058079 0.713839203 0.076793652
0.999566436 0.701798499 0.096163638
0.559345827 0.872913197 0.030485740
0.576740220 0.869883988 0.033351316
0.600238197 0.866566375 0.032635967
0.629050102 0.862518720 0.029699677
0.662386283 0.857299387 0.025902431
0.702774730 0.849400192 0.027546108
0.745519213 0.841775782 0.027560089
0.787542246 0.833863921 0.026626730
0.825766340 0.825102374 0.025428391
0.863134988 0.815739140 0.024168931
0.900153019 0.806853704 0.024198908
0.934925366 0.798713420 0.025468759
0.965556964 0.791585639 0.027928925
0.984905381 0.783755589 0.033495877
0.994845308 0.774187900 0.043772958
0.998724725 0.764016338 0.058031382
0.999891609 0.754374668 0.075542362
0.623933852 0.907346010 0.010084384
0.639584474 0.904056951 0.012465709
0.659843624 0.901100084 0.011762361
0.684379533 0.897913598 0.009924036
0.712860435 0.893935680 0.008900429
0.750398017 0.887285165 0.011688631
0.789633721 0.880779088 0.013669545
0.827935524 0.874370135 0.014746930
0.862671405 0.868010998 0.014824542
0.897107437 0.860501170 0.013971446
0.931450427 0.851932585 0.013317100
0.961510226 0.843766406 0.013558053
0.983096689 0.837463796 0.015390852
0.993259668 0.830715224 0.019516559
0.998083755 0.821739554 0.026878424
0.999640137 0.812101267 0.037059076
1.000000000 0.803364843 0.049641149
0.687414601 0.942212969 0.001400903
0.700771455 0.939061407 0.002217624
0.717174537 0.936451897 0.001859547
0.737421915 0.933841608 0.001200811
0.762311652 0.930687711 0.001115552
0.797471233 0.925778933 0.003025066
0.833934605 0.920685865 0.005042863
0.869517893 0.915751852 0.006652473
0.902037218 0.911320239 0.007337424
0.933288630 0.905188933 0.006485370
0.961830892 0.897067435 0.005089821
0.983560596 0.889155209 0.004585596
0.994374335 0.883651718 0.006407510
0.997476678 0.876945961 0.009281393
0.999255396 0.868267380 0.013035561
1.000000000 0.858832024 0.018075721
1.000000000 0.849855945 0.024807579
0.747860014 0.978183627 0.000000000
0.757429421 0.975614339 0.000000000
0.770460397 0.973266780 0.000000000
0.787958711 0.971001178 0.000000000
0.810930133 0.968677759 0.000000000
0.844019920 0.966472179 0.000040929
0.877411962 0.963128358 0.000555764
0.910298735 0.959332004 0.001339722
0.941872716 0.955768824 0.002188021
0.969308183 0.950096309 0.001679566
0.986385286 0.943076819 0.000763658
0.995436400 0.936135530 0.000464907
0.998793900 0.930697620 0.001807927
0.999698475 0.922552690 0.003329700
1.000000000 0.914060801 0.004207140
1.000000000 0.904946640 0.005280300
1.000000000 0.894934893 0.007389233
0.027412448 0.031640299 0.064578244
0.058270476 0.026977494 0.053603536
0.098705511 0.021521232 0.043002364
0.148620369 0.015562391 0.031317675
0.207917869 0.009391852 0.017092413
0.271874981 0.005007225 0.008659784
0.335049029 0.001881463 0.003360877
0.397444934 0.000340063 0.001217893
0.459067613 0.000708524 0.002253027
0.516304310 0.000447181 0.002587102
0.567841560 0.000182367 0.002255715
0.614948999 0.000003501 0.001669300
0.658896267 0.000000000 0.001238296
0.690652650 0.000000000 0.001186006
0.719871856 0.000000000 0.001638743
0.746813789 0.000000000 0.001742046
0.771738350 0.000000000 0.000641453
0.057425142 0.089381500 0.089172913
0.082888757 0.079150246 0.076990719
0.120962180 0.068688567 0.064348756
0.170182568 0.056879525 0.049441472
0.229087081 0.042606182 0.030463314
0.291492728 0.028427207 0.015290209
0.353675432 0.017240932 0.006212316
0.415446219 0.009539465 0.002200149
0.476616116 0.005814914 0.002224224
0.533224645 0.003804754 0.002167302
0.584041292 0.002594476 0.002158574
0.629676866 0.001716459 0.002117069
0.670742176 0.000703082 0.001961815
0.699610876 0.000175771 0.001929216
0.725355817 0.000000000 0.001938751
0.749200919 0.000000000 0.001764335
0.772370100 0.000000000 0.001179880
0.085128704 0.158420173 0.113691795
0.106950328 0.147999201 0.102455433
0.142811648 0.135961476 0.088552337
0.191548199 0.121056284 0.070969967
0.251995519 0.102032912 0.048695784
0.314398685 0.081992741 0.028446062
0.376224004 0.063324007 0.014471325
0.437320773 0.046410913 0.006206365
0.497538287 0.031637664 0.003085976
0.553430206 0.019336959 0.002163512
0.603382953 0.011117665 0.001961391
0.647509692 0.005858373 0.002063385
0.685923591 0.002437674 0.002053266
0.712989349 0.001501648 0.002044023
0.736199461 0.001206616 0.002051553
0.756879941 0.000989006 0.001845020
0.776356801 0.000285248 0.001193591
0.099139179 0.238740779 0.138781718
0.123067748 0.230174574 0.129303579
0.161726965 0.218222111 0.114869889
0.213474797 0.202286972 0.095687709
0.276669210 0.181772740 0.071964098
0.339934621 0.159139088 0.048721679
0.402089298 0.135722331 0.029937414
0.463003040 0.111670913 0.016180414
0.522545647 0.087133276 0.008019786
0.577633839 0.062559051 0.004523671
0.626439048 0.043262881 0.003010374
0.668852380 0.028214506 0.002652888
0.704764940 0.016383663 0.002624205
0.730834782 0.010227816 0.001945853
0.752752466 0.006331545 0.001939199
0.771258860 0.003767106 0.001953643
0.787094831 0.001606751 0.001338586
0.088072611 0.330327779 0.165089507
0.123853574 0.322326576 0.156841057
0.175181182 0.310352623 0.142558195
0.236719897 0.294765893 0.123379244
0.303134181 0.275926359 0.100442529
0.367442304 0.253301510 0.076711395
0.430665866 0.230027547 0.054410096
0.492427468 0.206035965 0.035066170
0.552349716 0.181258257 0.020207155
0.606548388 0.148986285 0.011195717
0.653782085 0.116541070 0.006651732
0.694109831 0.084570119 0.005030216
0.727590650 0.053720938 0.004786185
0.753193889 0.032604457 0.002050132
0.775364511 0.018086485 0.001563740
0.793745682 0.009134386 0.002059740
0.807980567 0.004715519 0.002270867
0.099129179 0.416437339 0.185256075
0.142018279 0.408990880 0.176688730
0.199321911 0.397939357 0.162834026
0.264395409 0.383757710 0.144871932
0.330594106 0.366920881 0.123982418
0.394694601 0.347703458 0.102967471
0.458870749 0.328527358 0.080958572
0.521806053 0.307833353 0.059889297
0.582184017 0.284062213 0.041693224
0.638053738 0.255943103 0.028351122
0.686125586 0.225738996 0.019726725
0.727013168 0.194421740 0.014703162
0.761330090 0.162963180 0.012163563
0.785927157 0.129094377 0.009168184
0.806773368 0.093397740 0.007360858
0.823961498 0.058599790 0.006370899
0.837584320 0.027427049 0.005827620
0.125677749 0.498115271 0.199291606
0.173672122 0.491218608 0.190862741
0.231808830 0.482334590 0.178146135
0.295420346 0.470985757 0.161763166
0.359839141 0.456694651 0.142335217
0.423196198 0.439154253 0.124049881
0.487032190 0.421971442 0.104175398
0.550016081 0.403265216 0.084172156
0.610816836 0.381154574 0.065500537
0.668351097 0.357786027 0.049100189
0.717007529 0.331883888 0.038287684
0.758109618 0.304487139 0.031585844
0.792980850 0.276634764 0.027517492
0.818911793 0.243262052 0.025367685
0.840963718 0.204065619 0.023738057
0.859218495 0.161006026 0.022896592
0.873757996 0.116043834 0.023111274
0.169275250 0.575168949 0.206874241
0.217346739 0.568510759 0.198845586
0.272002070 0.561587242 0.187428959
0.330921579 0.553091003 0.172680417
0.391785599 0.541714642 0.154656018
0.453860903 0.525414995 0.138695692
0.516417627 0.509617457 0.121750172
0.578499981 0.492691498 0.104497855
0.639152173 0.473006587 0.087617142
0.697296128 0.454150910 0.070110547
0.745892275 0.433211539 0.058902645
0.786786503 0.411062228 0.052176891
0.821824700 0.388576731 0.048116736
0.850029784 0.361789363 0.047544480
0.874722643 0.328742780 0.047649143
0.895618135 0.289050725 0.048732235
0.912431121 0.242326942 0.051095267
0.231478617 0.647405744 0.207682125
0.271573769 0.640368331 0.200119760
0.319261763 0.633746237 0.189616939
0.372025978 0.626714416 0.176251158
0.427349791 0.618447825 0.160099911
0.487602521 0.604246780 0.145641976
0.548294500 0.590723060 0.131372488
0.608700182 0.576472141 0.117449506
0.668094024 0.560089499 0.104031086
0.724744491 0.544673603 0.088049826
0.772244185 0.527957745 0.078139647
0.812431145 0.510442920 0.072974930
0.847143412 0.492630124 0.071230058
0.877163120 0.471358195 0.072594414
0.904837228 0.446081880 0.076047924
0.929261882 0.415431518 0.080973247
0.949533224 0.378037445 0.086753038
0.298589889 0.703008942 0.198140169
0.330324822 0.697141535 0.190710775
0.369584005 0.691533430 0.181140868
0.415443190 0.685962748 0.168859396
0.466978127 0.680207610 0.153295307
0.522977825 0.667555725 0.139375592
0.580990013 0.653624801 0.126470718
0.639464899 0.640093247 0.114759270
0.696852691 0.628639475 0.104419832
0.749441355 0.615922996 0.093511397
0.794532403 0.601592535 0.086655235
0.833354538 0.586470447 0.083759815
0.867136464 0.571379088 0.084733605
0.898419551 0.554179724 0.087343326
0.926725993 0.533743895 0.093065577
0.951591023 0.510585903 0.101191189
0.972549874 0.485220054 0.111010994
0.364050966 0.752974816 0.180260078
0.389616754 0.748466223 0.174254978
0.421675000 0.743787058 0.166192083
0.461339433 0.738716528 0.154931377
0.509723779 0.733033843 0.139332843
0.561026282 0.722257381 0.126182524
0.615776308 0.709598526 0.114760661
0.671595495 0.697074901 0.104968191
0.726105481 0.686704129 0.096706054
0.773854094 0.675606009 0.090185812
0.816687062 0.663988233 0.086452657
0.854665402 0.651963592 0.086139598
0.887850128 0.639644876 0.089879645
0.919416599 0.625739628 0.094216409
0.947131924 0.608348187 0.101652409
0.969701439 0.589567926 0.111558818
0.985830478 0.571496218 0.123306807
0.427317318 0.797782589 0.152776208
0.448733784 0.794413083 0.148070063
0.475796581 0.790474055 0.141594387
0.510657562 0.785520893 0.131539104
0.555468582 0.779108983 0.116094142
0.602530238 0.769972015 0.104995463
0.653589461 0.759445421 0.096077117
0.705678953 0.748361991 0.088795095
0.755831417 0.737554513 0.082605386
0.799058378 0.727031156 0.079367892
0.839642791 0.717369355 0.078393739
0.876652529 0.707911748 0.080486827
0.909155462 0.698000975 0.086451060
0.939913208 0.686800369 0.092678250
0.965470800 0.672163827 0.101967659
0.983855302 0.656724848 0.113699268
0.993093774 0.643116929 0.127253060
0.487844415 0.837911487 0.114422917
0.506960133 0.835052799 0.109473722
0.532210581 0.831561357 0.104171581
0.564340435 0.826920979 0.095754585
0.604094371 0.820615485 0.081460825
0.648272041 0.812319893 0.074747100
0.695365548 0.803966671 0.070254891
0.742302254 0.794899404 0.066958808
0.786009520 0.784461677 0.063833462
0.826129880 0.773506954 0.062352457
0.864334218 0.763960421 0.063340303
0.899604708 0.755304314 0.067174048
0.930923522 0.747020870 0.074230735
0.959668320 0.738124408 0.082193441
0.981158398 0.727459885 0.094170564
0.994314782 0.716403931 0.109235673
0.998058498 0.706333175 0.126462335
0.553461691 0.873956956 0.055303037
0.570812981 0.870393728 0.054504193
0.593841312 0.866866687 0.052575269
0.622371413 0.862961045 0.048495491
0.656228010 0.858262010 0.041244088
0.697286312 0.851123582 0.039891201
0.739800012 0.843804259 0.039125034
0.781709344 0.835996688 0.038539744
0.820954546 0.827393517 0.037729488
0.858211966 0.817951468 0.037460621
0.894103821 0.809262523 0.039532700
0.926858366 0.801010039 0.044279360
0.954703853 0.792877369 0.052034241
0.976928419 0.785440916 0.058837648
0.990173951 0.775670569 0.071003836
0.996810181 0.765237506 0.088320396
0.999206841 0.755812902 0.110574915
0.619422890 0.908731371 0.019538809
0.633703222 0.905338913 0.019870403
0.653530195 0.902115066 0.019629380
0.678564917 0.898727089 0.018489294
0.708468497 0.894842245 0.016123699
0.745688371 0.889066096 0.016336113
0.784087785 0.882931694 0.017323326
0.822150776 0.876478748 0.018414945
0.858361386 0.869746968 0.018940572
0.892785113 0.861642025 0.018666947
0.925985940 0.853471782 0.019712179
0.955017872 0.845613604 0.022713615
0.976934917 0.838444859 0.028308601
0.989588261 0.831397774 0.033246716
0.996151213 0.822307780 0.042788062
0.998820990 0.812509706 0.057556696
0.999794811 0.803338379 0.078176674
0.684255283 0.943164941 0.002791214
0.694881430 0.940237276 0.003008488
0.711408263 0.937709015 0.003187705
0.733381287 0.935094717 0.003337486
0.760346007 0.931908943 0.003466446
0.793505439 0.927419621 0.003419511
0.828529323 0.922570111 0.004594209
0.863984833 0.917514496 0.006124525
0.898439147 0.912406858 0.007144443
0.929308478 0.905193440 0.006479560
0.957151012 0.897505289 0.006032570
0.979340483 0.890255110 0.006694883
0.993250623 0.884355608 0.009357906
0.997326357 0.876880443 0.012411542
0.999342468 0.868234003 0.017781819
1.000000000 0.858974771 0.026672962
1.000000000 0.849661227 0.040289194
0.746486142 0.978187874 0.000721236
0.753598176 0.975437738 0.001354582
0.767606549 0.974051058 0.001104035
0.787280861 0.972939532 0.000641559
0.811390713 0.971014857 0.000639119
0.840764735 0.967456337 0.000479070
0.873425081 0.963940643 0.000682120
0.907569800 0.960272845 0.001208597
0.941396937 0.956258014 0.002018828
0.967241216 0.949220523 0.001406585
0.984769478 0.942280136 0.000647702
0.995083455 0.936074656 0.000441236
0.999284878 0.931241885 0.001486247
0.999821220 0.922774386 0.003323018
1.000000000 0.914311722 0.004243682
1.000000000 0.905386936 0.005397583
1.000000000 0.895533070 0.007934062
0.023423692 0.032728726 0.111391153
0.051811353 0.027678892 0.100222383
0.092113310 0.022412622 0.087146785
0.143017186 0.017019376 0.070440804
0.203210600 0.011588616 0.048380884
0.265837694 0.005531943 0.029383726
0.328300223 0.001984342 0.016981716
0.390125364 0.000486873 0.009971378
0.450840294 0.000580597 0.007149236
0.507047571 0.000269015 0.005722192
0.557715774 0.000082577 0.004278875
0.603163309 0.000000000 0.003103972
0.643708587 0.000000000 0.002482171
0.676569290 0.000000000 0.002196462
0.706861079 0.000000000 0.002894794
0.734827511 0.000000000 0.003141209
0.760712147 0.000000000 0.001499744
0.052147561 0.090059160 0.138356454
0.076080552 0.079307989 0.125918560
0.114216685 0.068288325 0.110813587
0.164290932 0.056377739 0.091843174
0.224038266 0.042953803 0.067808959
0.286084309 0.028307186 0.044353738
0.347287910 0.016860065 0.027608694
0.407811247 0.009046529 0.016645915
0.467816498 0.005300668 0.010537490
0.523298346 0.002876237 0.006827353
0.573046040 0.001489269 0.005380932
0.616957704 0.000742154 0.004891277
0.654931463 0.000237280 0.004051437
0.685271695 0.000059320 0.003077209
0.712350130 0.000000000 0.003744240
0.737157853 0.000000000 0.004386312
0.760685951 0.000000000 0.003337206
0.079268654 0.158324305 0.163282569
0.100146437 0.147669439 0.152396735
0.136148766 0.134976184 0.136923947
0.185570676 0.119857928 0.116581951
0.246707205 0.101928061 0.091088490
0.309048277 0.082358568 0.065633313
0.369821128 0.063449284 0.045123098
0.429462016 0.046207064 0.029380397
0.488407202 0.031638763 0.018227757
0.543484783 0.018570735 0.011158808
0.592126615 0.010093586 0.007660862
0.634363942 0.004913080 0.006135051
0.670228004 0.001734977 0.004982511
0.698315069 0.001388022 0.003990128
0.722876303 0.001208111 0.004851074
0.744741071 0.000894834 0.005498799
0.764738739 0.000147778 0.003866757
0.092749656 0.238131547 0.187999699
0.116016067 0.229507536 0.179491116
0.154877226 0.217114833 0.164570141
0.207242668 0.201270026 0.143883302
0.271021929 0.182289699 0.118077128
0.333971815 0.160390426 0.092594038
0.395019263 0.136616691 0.069596096
0.454553011 0.112005885 0.049587670
0.512961797 0.087595398 0.033073131
0.567952642 0.062616786 0.021397671
0.615377333 0.043102146 0.014468168
0.655813159 0.027921417 0.010604297
0.689837411 0.015944537 0.008125737
0.716430960 0.009978486 0.006346206
0.739370819 0.006035266 0.006805090
0.758951958 0.003396755 0.007179670
0.775469348 0.001344830 0.005147229
0.080553252 0.330088273 0.214338042
0.115696499 0.321566571 0.207035912
0.167369740 0.309342906 0.192844443
0.229693161 0.294424113 0.172973394
0.296786949 0.277817026 0.148632526
0.360097140 0.255107097 0.124607502
0.422001705 0.231226981 0.101098853
0.482559573 0.206480402 0.078680585
0.541829675 0.181171089 0.057926703
0.597047687 0.150278669 0.040225054
0.643218026 0.117721567 0.029152354
0.681736492 0.085175806 0.022068018
