shared/src/main/assets/luts/dalur_vivid_100.cube
# Resampled 13pt -> 17pt (trilinear) from an MIT-licensed G'MIC film LUT.
# Source: github.com/YahiaAngelo/Film-Luts (MIT). See THIRD_PARTY_NOTICES.
TITLE "DALUR vivid 100"
# LUT size
LUT_3D_SIZE 17
# Data domain
DOMAIN_MIN 0.0 0.0 0.0
DOMAIN_MAX 1.0 1.0 1.0
# LUT data points
0.022244053 0.024941823 0.018884532
0.045695466 0.019437865 0.017910651
0.075062681 0.015865850 0.018752214
0.107653750 0.013313488 0.020272536
0.140776724 0.010868492 0.021334929
0.180760860 0.005917766 0.017730444
0.223400176 0.003486574 0.014186515
0.272648104 0.003091917 0.012456393
0.332458079 0.004250799 0.014293327
0.399328411 0.002003629 0.015369621
0.470745444 0.000627286 0.013596696
0.544255272 0.000000000 0.010499513
0.617403984 0.000000000 0.007603036
0.677357212 0.000000000 0.005879107
0.734629273 0.000000000 0.004892080
0.788772464 0.000000000 0.004611404
0.839339077 0.000000000 0.005006528
0.044499175 0.066846350 0.026155973
0.067062612 0.059253147 0.025156713
0.094059340 0.052732463 0.025625614
0.125156481 0.046649347 0.026287682
0.160021160 0.040368847 0.025867923
0.199685217 0.028646518 0.022654379
0.243037757 0.018761833 0.019572682
0.292287529 0.012608630 0.017420630
0.349643283 0.012080746 0.016996018
0.416004732 0.005803942 0.014919633
0.485733662 0.001855837 0.012336578
0.556615226 0.000000000 0.009903497
0.626434579 0.000000000 0.008277037
0.690239225 0.000000000 0.005797570
0.745782323 0.000000000 0.005703281
0.795431785 0.000000000 0.007274068
0.841555521 0.000000000 0.009789833
0.071514240 0.113299109 0.036281018
0.090325489 0.105212481 0.034924482
0.113585759 0.097257593 0.034287625
0.142706390 0.089056170 0.034029354
0.179098725 0.080229936 0.033808578
0.218667321 0.067652503 0.031893335
0.262811832 0.052510132 0.028518796
0.312494181 0.037563216 0.024473947
0.368676290 0.025572151 0.020547777
0.435737941 0.013385384 0.016415220
0.505136088 0.005241057 0.012660225
0.575000346 0.000969244 0.009957731
0.643460333 0.000400012 0.008982677
0.706460595 0.000861540 0.008012246
0.759718508 0.000518387 0.009448904
0.806351073 0.000016044 0.012103587
0.849475294 0.000000000 0.014787233
0.097035414 0.165312577 0.048266920
0.111715229 0.157979300 0.046977405
0.131945390 0.149837510 0.045494728
0.159796972 0.140611806 0.044371048
0.197341047 0.130026789 0.044158521
0.237635320 0.118309660 0.042941666
0.283477355 0.100448713 0.039544894
0.334706964 0.078718851 0.034410972
0.391163960 0.055394979 0.027982663
0.459157595 0.035359029 0.021474610
0.528979134 0.019981257 0.015954813
0.598725200 0.009438711 0.012070877
0.666492417 0.003908438 0.010470412
0.725799836 0.003435741 0.011965305
0.776870564 0.001963150 0.015207260
0.821972493 0.000494881 0.018512437
0.863373518 0.000035151 0.020196994
0.114808865 0.223899230 0.061120935
0.127462963 0.218217038 0.061078927
0.147441685 0.210868485 0.060003407
0.175921720 0.201394107 0.058186262
0.214079753 0.189334437 0.055919379
0.256517362 0.175991923 0.053293723
0.305789277 0.158294819 0.051171016
0.360364780 0.136838714 0.048026329
0.418713152 0.112219192 0.042334732
0.486893252 0.082335953 0.031716028
0.557289213 0.055274745 0.023607516
0.627104357 0.031939383 0.017651603
0.693542004 0.013233678 0.013490699
0.748035461 0.008573723 0.017098920
0.797671229 0.004742274 0.022056662
0.842738211 0.001883260 0.025913093
0.883525312 0.000140605 0.026217382
0.105971243 0.300738607 0.075833092
0.125845999 0.297992243 0.074993699
0.153745608 0.292376017 0.072761759
0.188768266 0.283540790 0.069935155
0.230012164 0.271137420 0.067311771
0.279310578 0.255938230 0.064625277
0.332658954 0.237086385 0.063598537
0.389368579 0.215632642 0.061954396
0.448750742 0.192627756 0.057415701
0.519725451 0.163381390 0.046157996
0.591370411 0.132406014 0.036140317
0.660432905 0.101079321 0.028259760
0.723660216 0.070779002 0.023413423
0.775149196 0.048685025 0.026313650
0.823841497 0.030516265 0.030342846
0.869510815 0.016537902 0.034479562
0.911930844 0.007015116 0.037702347
0.101663813 0.386656031 0.088025644
0.127385058 0.386309847 0.086693685
0.162084069 0.382976212 0.083818203
0.203112353 0.375461146 0.080422097
0.247821413 0.362570673 0.077528264
0.303633740 0.345317084 0.074821614
0.360892504 0.325902443 0.073803933
0.420182753 0.304892838 0.072451957
0.482089534 0.282854356 0.068742417
0.554704834 0.255149087 0.057997239
0.626815438 0.225120325 0.048898226
0.695234157 0.192965093 0.041895271
0.756773800 0.158880416 0.037438270
0.807523407 0.128294368 0.038881191
0.855971172 0.100398178 0.042265911
0.901229285 0.074553288 0.047471569
0.942409933 0.050121141 0.054377306
0.099564910 0.479659602 0.095797751
0.131536023 0.479963530 0.094723691
0.172070924 0.478203371 0.092092394
0.218202100 0.472160837 0.088842107
0.266962036 0.459617637 0.085911080
0.329050884 0.440996267 0.083063408
0.390290499 0.421611935 0.081422656
0.452640891 0.401461447 0.079694803
0.518062070 0.380541608 0.076585831
0.591527395 0.355474124 0.067397138
0.663750499 0.328738488 0.060809120
0.731931299 0.299436883 0.056295951
0.793269709 0.266671490 0.053331806
0.844252959 0.234922173 0.054205829
0.892408364 0.203186266 0.057642469
0.935230728 0.169936026 0.064170408
0.970214859 0.133643713 0.074318327
0.097352870 0.577757418 0.097248569
0.137754777 0.575746968 0.097628526
0.183320031 0.573591799 0.096503988
0.233285628 0.568645522 0.094390208
0.286888570 0.558261752 0.091802441
0.355126046 0.539843559 0.088531336
0.420653507 0.521083802 0.086090155
0.486576580 0.502180614 0.083858730
0.556000888 0.483332127 0.081216894
0.629889131 0.462191582 0.074521078
0.702301800 0.438581318 0.070800878
0.770947516 0.412334874 0.069199612
0.833534896 0.383285791 0.068860598
0.884432718 0.356088862 0.071691854
0.931501180 0.327678785 0.076289136
0.968852252 0.296692729 0.083857369
0.990597904 0.261767864 0.095601477
0.116150506 0.671944574 0.087213358
0.160331956 0.666350022 0.087225270
0.210596057 0.661055528 0.086346879
0.265186325 0.655101165 0.085313022
0.322346278 0.647527009 0.084858537
0.388076760 0.634506594 0.084119638
0.455014639 0.619170889 0.082700633
0.524401085 0.601824729 0.080954052
0.597477272 0.582772948 0.079232423
0.672279980 0.563686706 0.075630011
0.743508846 0.541414753 0.074350184
0.809974685 0.516585387 0.074832163
0.870488316 0.489826910 0.076515170
0.920142699 0.465662319 0.080725312
0.958609976 0.440403614 0.087404121
0.984184396 0.414113039 0.097164108
0.995160207 0.386852838 0.110617785
0.169100989 0.750998318 0.068327270
0.208387530 0.745344535 0.068484113
0.255021270 0.740767241 0.068537690
0.308090508 0.735478252 0.068860672
0.366683543 0.727689385 0.069825731
0.429168753 0.717636108 0.070830740
0.496033028 0.703476653 0.070945960
0.566858120 0.686388165 0.070450587
0.641225785 0.667547792 0.069623813
0.713714495 0.649545230 0.069615565
0.782259136 0.630104616 0.072026268
0.845891967 0.609309025 0.075650160
0.903645247 0.587241530 0.079281483
0.949337304 0.566203758 0.084638561
0.977551535 0.542729452 0.093635622
0.992290676 0.518185090 0.105487183
0.997557461 0.493937150 0.119407758
0.244399190 0.819179848 0.043577380
0.275383443 0.815563191 0.043592848
0.314972427 0.812864535 0.044509119
0.363367351 0.808208853 0.046314230
0.420769423 0.798721120 0.048996212
0.479659429 0.789621379 0.051426443
0.544406567 0.776269346 0.052820857
0.613844499 0.759807371 0.053702287
0.686806887 0.741377801 0.054593565
0.754786983 0.724167407 0.057829904
0.819335073 0.707417771 0.063253449
0.879234165 0.690554649 0.069455385
0.933267266 0.673003793 0.075026898
0.970854100 0.654133089 0.081623731
0.989211880 0.632081665 0.092611168
0.995984275 0.608883981 0.106549484
0.998814955 0.586574495 0.121998955
0.330239981 0.880750358 0.015950760
0.354781635 0.879838675 0.014739268
0.388826281 0.877485007 0.015693866
0.432386026 0.871725038 0.018954763
0.485472977 0.860594451 0.024662167
0.540806189 0.850851685 0.028668553
0.600833148 0.839817226 0.030320045
0.665257037 0.826018795 0.032063100
0.733781040 0.807984114 0.036344178
0.796091750 0.791953489 0.041625188
0.855519056 0.776121080 0.047456047
0.910536081 0.760371119 0.054049620
0.959615946 0.744587839 0.061618775
0.983530656 0.725870222 0.069872949
0.994477034 0.705885619 0.081958283
0.998078376 0.686184809 0.098073902
0.999957979 0.668318570 0.118418932
0.420673050 0.933264747 0.006866115
0.442937793 0.931891255 0.006343818
0.473661579 0.928782232 0.006744789
0.511851922 0.922576983 0.008709749
0.556516334 0.911914811 0.012879420
0.608601525 0.902625304 0.014946537
0.664137393 0.893659733 0.014321193
0.722224910 0.883268803 0.013697248
0.781965047 0.869703218 0.015768564
0.838913620 0.853568256 0.022183044
0.892326161 0.838130422 0.027834988
0.940157704 0.823425360 0.033683955
0.980363280 0.809488714 0.040689507
0.991498906 0.791202597 0.049192303
0.997177079 0.772204667 0.061163460
0.999354906 0.753866721 0.079605630
0.999989495 0.737560555 0.107521463
0.521481454 0.972706348 0.002125273
0.540153608 0.972392954 0.001908783
0.566044629 0.969787255 0.002030369
0.597910240 0.964794405 0.002930125
0.634506166 0.957319558 0.005048146
0.680371337 0.949292041 0.006039485
0.730085775 0.941262931 0.005325583
0.781999767 0.932077050 0.004540152
0.834463596 0.920579225 0.005316902
0.884487286 0.907308258 0.009517136
0.930155605 0.894347981 0.012964469
0.967172772 0.881167226 0.016558694
0.991243005 0.867234826 0.021199604
0.996184081 0.852281868 0.026474101
0.998842359 0.836264789 0.035425631
0.999890208 0.820224471 0.053045090
1.000000000 0.805201799 0.084323376
0.633316711 0.995946199 0.000309484
0.648028504 0.996648803 0.000204173
0.668055497 0.995240375 0.000224231
0.692960400 0.992410813 0.000424130
0.722305924 0.988850012 0.000858341
0.759749305 0.983513489 0.001279828
0.802233100 0.977462254 0.001247193
0.847261470 0.969878294 0.001128755
0.892338574 0.959943593 0.001292835
0.930033747 0.951227833 0.002498958
0.963579886 0.942111067 0.003482639
0.987457491 0.931440689 0.004757406
0.996147066 0.918064088 0.006836786
0.998595342 0.907012157 0.008522484
0.999705717 0.894021489 0.013462381
1.000000000 0.880331129 0.026727270
1.000000000 0.867180124 0.053387946
0.756830335 0.999855340 0.000000000
0.768161908 0.999963835 0.000000000
0.781774253 0.999881893 0.000000000
0.799401820 0.999459714 0.000000000
0.822779059 0.998547494 0.000000000
0.850369111 0.997951239 0.000000000
0.884134173 0.997093141 0.000000000
0.920689881 0.994107291 0.000000000
0.956651866 0.987127781 0.000000000
0.972773999 0.983381316 0.000000000
0.987171501 0.978756994 0.000027645
0.996888071 0.972089723 0.000363660
0.998967409 0.962214410 0.001288769
0.999741852 0.953297585 0.002141590
1.000000000 0.941430271 0.003991295
1.000000000 0.929259762 0.008987157
1.000000000 0.919433355 0.019278448
0.018366829 0.020842167 0.044260931
0.038523386 0.016103592 0.042683567
0.064007880 0.014273067 0.040965903
0.094416107 0.013560419 0.039751142
0.129343864 0.012175474 0.039682489
0.171340596 0.006719189 0.037695096
0.217852104 0.003733884 0.034942670
0.270115894 0.002698139 0.031182642
0.329369470 0.003090537 0.026172440
0.393957024 0.001603834 0.022519758
0.463343363 0.000554133 0.020947903
0.535471406 0.000000000 0.020568631
0.608284071 0.000000000 0.020493695
0.669248559 0.000000000 0.016885066
0.726187713 0.000000000 0.013553400
0.778968498 0.000000000 0.012368922
0.827457875 0.000000000 0.015201857
0.039937890 0.060973196 0.054175251
0.060518303 0.053634899 0.052659968
0.085824742 0.048288113 0.051252521
0.116146156 0.043928835 0.049790406
0.151771495 0.039553060 0.048111120
0.192025548 0.027258387 0.044678358
0.236474687 0.016662372 0.040800847
0.287009913 0.009948861 0.036632280
0.345522225 0.009301700 0.032326349
0.410306309 0.004552394 0.028277749
0.478877109 0.001484646 0.024782758
0.549395650 0.000000000 0.021858387
0.620022960 0.000000000 0.019521648
0.682314085 0.000000000 0.015339166
0.736013439 0.000000000 0.015260173
0.783554623 0.000000000 0.018498536
0.827371240 0.000000000 0.024268121
0.066539928 0.107307739 0.064209752
0.084929018 0.099609250 0.062726795
0.108305972 0.092298957 0.061208163
0.137506787 0.085162656 0.059508150
0.173367459 0.077986148 0.057481052
0.212965446 0.064691078 0.054162078
0.256809806 0.049426245 0.050110286
0.306699051 0.034971950 0.045402821
0.364431694 0.024108491 0.040116832
0.430077332 0.012428482 0.035234628
0.498991532 0.005723723 0.030056582
0.569115328 0.002353224 0.025149742
0.638389751 0.000675994 0.021081157
0.699082727 0.000586662 0.019183503
0.750154745 0.000281116 0.021514601
0.794444183 0.000004011 0.026729297
0.834789418 0.000000000 0.033482440
0.092142573 0.159869453 0.074585956
0.107664682 0.153296767 0.073330928
0.129020660 0.145561040 0.071700069
0.157237931 0.136819125 0.069795309
0.193343919 0.127227874 0.067718579
0.233364504 0.114905510 0.064891951
0.278440455 0.097494924 0.061166697
0.329388170 0.076945080 0.056218750
0.387024043 0.055204945 0.049724043
0.453746894 0.034559663 0.043453668
0.523538189 0.020537784 0.036617539
0.593691730 0.011079831 0.030332067
0.661501318 0.004126327 0.025713665
0.719042704 0.002638253 0.027075428
0.768477669 0.001266681 0.030852606
0.811538231 0.000295548 0.036314576
0.849956404 0.000008788 0.042730718
0.110715456 0.218681999 0.085525382
0.124634450 0.213967572 0.084919250
0.145537898 0.207329808 0.083595481
0.174079520 0.198455482 0.081542816
0.210913036 0.187031370 0.078749996
0.252426934 0.173789932 0.075613670
0.300949633 0.156337829 0.072265791
0.355282133 0.135045928 0.067804548
0.414225437 0.110285096 0.061328133
0.481791796 0.080273500 0.052998146
0.552368633 0.053193246 0.044313793
0.622186147 0.030199979 0.037294730
0.687474534 0.012449343 0.033960612
0.741682235 0.007033042 0.037672293
0.790848248 0.003380029 0.041810113
0.834737819 0.001158125 0.046507742
0.873116195 0.000035151 0.051898855
0.099778771 0.296203762 0.096893952
0.119300438 0.293949263 0.096413544
0.146505116 0.288593431 0.094967439
0.181434566 0.280030378 0.092598299
0.224130549 0.268154220 0.089348789
0.273349356 0.253511100 0.086164109
0.327157810 0.235400483 0.083482927
0.384579731 0.214267859 0.079995004
0.444638938 0.190558719 0.074390100
0.514042057 0.161633524 0.066299306
0.584713353 0.131180118 0.057933080
0.653215002 0.099965160 0.050850543
0.716109183 0.068755307 0.046610815
0.768207846 0.045058277 0.048866974
0.817054039 0.026329551 0.051820231
0.861867525 0.013015126 0.056678373
0.901868068 0.005561001 0.064649183
0.096471601 0.382751886 0.105765347
0.118976569 0.382340717 0.105322420
0.151311826 0.378551640 0.103526492
0.192301143 0.371135117 0.100883330
0.240768293 0.359841615 0.097898700
0.297647984 0.343803369 0.095060829
0.356103079 0.325370989 0.092697619
0.416062595 0.304771351 0.089766049
0.477455549 0.282231329 0.085223096
0.547808019 0.254434085 0.078490849
0.618770722 0.224386640 0.071675973
0.686797883 0.191745327 0.065694455
0.748343728 0.156166482 0.061462279
0.800360110 0.123678141 0.062067631
0.848960772 0.094778534 0.064740901
0.893317165 0.069736049 0.070734352
0.932600737 0.048819074 0.081300245
0.094808099 0.477446478 0.110722100
0.121449140 0.477100561 0.110597036
0.158997108 0.474396442 0.108768987
0.205728489 0.468264734 0.106242129
0.259919768 0.457636049 0.104020642
0.323613192 0.440314670 0.101657113
0.386359853 0.421938463 0.099498315
0.449047622 0.402258568 0.096960068
0.512564374 0.381026126 0.093458194
0.583711336 0.354801768 0.088256092
0.655221254 0.327266254 0.083517514
0.723305027 0.297166782 0.079543033
0.784173556 0.263250547 0.076633225
0.836923988 0.230172328 0.076636000
0.884862309 0.197276615 0.080147306
0.927056621 0.164685169 0.087747376
0.962575022 0.132519751 0.100016437
0.088802418 0.579407647 0.110346740
0.124504446 0.576187421 0.111188549
0.168600040 0.573319845 0.110191267
0.220765837 0.567914262 0.108518919
0.280678473 0.557080016 0.107335526
0.349535355 0.538692936 0.105306243
0.416502543 0.520792022 0.103473462
0.482851706 0.502431680 0.101419449
0.549854517 0.482666314 0.098726466
0.622373659 0.458863156 0.094278354
0.694745459 0.434272405 0.091432740
0.763106670 0.407855825 0.090112841
0.823594049 0.378575183 0.090241872
0.876684442 0.351820534 0.091933813
0.923052512 0.322373431 0.097614631
0.961055774 0.291226761 0.106789141
0.989051744 0.259373412 0.118962159
0.102725177 0.673276123 0.098685067
0.146590276 0.668079888 0.100292590
0.195901241 0.663503183 0.100073796
0.251087793 0.657660104 0.099591126
0.312579656 0.648664746 0.100407024
0.380441757 0.633988520 0.099923402
0.449130020 0.618356934 0.098902029
0.519211684 0.601127064 0.097743205
0.591253988 0.581655987 0.096847230
0.665418104 0.560260971 0.093744002
0.736794215 0.537995118 0.092322042
0.802650349 0.513519448 0.093001481
0.860254537 0.485494981 0.096202448
0.911693905 0.462807126 0.100817553
0.952144533 0.437580301 0.108534904
0.980320690 0.410999930 0.118956881
0.994936645 0.384251436 0.131685862
0.156492595 0.751006544 0.078026155
0.196730042 0.746071642 0.080555436
0.242982927 0.741860095 0.081783460
0.295967306 0.736513540 0.082433500
0.356399238 0.728173614 0.083228827
0.421911330 0.716435457 0.084060874
0.490205286 0.702346023 0.084822909
0.561164171 0.685975524 0.085903591
0.634671047 0.667394169 0.087691581
0.706988515 0.647692980 0.087285553
0.775572479 0.628279384 0.088399029
0.838343874 0.607702566 0.091518188
0.893223636 0.584511712 0.097129209
0.941373535 0.564701185 0.103823161
0.973280106 0.541822374 0.113274688
0.991364017 0.517250885 0.124885170
0.998045936 0.492362324 0.138055984
0.234654873 0.818652615 0.050907939
0.266304489 0.815031130 0.053697459
0.305973153 0.811515199 0.056409635
0.354001390 0.806454093 0.058126805
0.410729725 0.798197083 0.057931304
0.472788853 0.788390446 0.059715122
0.538978430 0.775431039 0.062460924
0.608461442 0.759850252 0.066243018
0.680400878 0.742179479 0.071135712
0.747890289 0.723955738 0.074452868
0.812069299 0.706932247 0.078384307
0.871007428 0.689951903 0.083767568
0.922774196 0.671857607 0.091440187
0.964472236 0.653856877 0.099765708
0.987059429 0.632689856 0.110963370
0.996658599 0.609859489 0.124839750
0.999392569 0.586868722 0.141201420
0.321762212 0.882268041 0.019868354
0.346694361 0.879826795 0.021439030
0.380999975 0.875593111 0.025041693
0.423787059 0.869461287 0.027751804
0.474163622 0.861325622 0.026644822
0.531919103 0.852210190 0.028882608
0.594699539 0.840283729 0.033040899
0.660855778 0.825624444 0.039103900
0.728738666 0.808310539 0.047055814
0.788928822 0.791845798 0.054795806
0.847273722 0.775760747 0.060998486
0.901461195 0.759814180 0.067854231
0.949179068 0.743764892 0.077553416
0.979738917 0.726628371 0.087460262
0.994082704 0.707772955 0.100730337
0.998677280 0.688705605 0.119086363
0.999989495 0.670933276 0.144251063
0.411923204 0.934309658 0.010265366
0.434051816 0.932700047 0.009821281
0.464825899 0.928986214 0.010781698
0.502540078 0.922850727 0.012022443
0.545488980 0.913976155 0.012419342
0.599020812 0.904737367 0.013383767
0.656128082 0.894977486 0.014789034
0.715634583 0.883628027 0.017415145
0.776364103 0.869620506 0.022042097
0.831593220 0.854308613 0.029891157
0.884519922 0.839197410 0.036162165
0.932736727 0.824086756 0.043108315
0.973836157 0.808776509 0.052982805
0.989207688 0.792050064 0.064698150
0.996797837 0.774462434 0.081704530
0.999447451 0.757054959 0.105192973
0.999997374 0.740868982 0.136354509
0.513040308 0.972821124 0.004670882
0.531853713 0.972213123 0.003935710
0.558024650 0.969741534 0.003684708
0.589812238 0.965165215 0.003921719
0.625475593 0.958243020 0.004650587
0.672526903 0.950662963 0.005520791
0.723042551 0.942530531 0.005861856
0.775372889 0.932925450 0.006641901
0.827868268 0.920927443 0.008829044
0.877253106 0.908315193 0.013676391
0.923496742 0.895383291 0.017231449
0.962256400 0.882042687 0.021132045
0.989189304 0.868204333 0.027016002
0.995531332 0.853705792 0.036964203
0.998724062 0.838578753 0.053460801
0.999852087 0.823283648 0.079846363
1.000000000 0.808280908 0.119461452
0.625968620 0.995320182 0.001736955
0.640949640 0.995435568 0.001486895
0.661359088 0.994388841 0.001031242
0.686713270 0.992029017 0.000812611
0.716528490 0.988205109 0.001273621
0.754944180 0.983938653 0.002222395
0.797367578 0.978145776 0.002364337
0.841447446 0.970617156 0.002384982
0.884832546 0.961143468 0.002969865
0.923665680 0.952605957 0.004364235
0.958877180 0.942799266 0.005078112
0.985127121 0.931961806 0.005872803
0.997075580 0.920331985 0.007509612
0.998982293 0.908636718 0.013493814
0.999808932 0.896051440 0.025415625
1.000000000 0.882946582 0.049081100
1.000000000 0.869692571 0.090296293
0.751563236 0.999324575 0.000115641
0.762189187 0.999436926 0.000179417
0.775592074 0.999457903 0.000101819
0.794352908 0.999066401 0.000058098
0.821052700 0.997941315 0.000223508
0.848779444 0.998516113 0.000417291
0.881027795 0.997026131 0.000401446
0.915235005 0.993803587 0.000245198
0.948838323 0.989180699 0.000017772
0.968588144 0.985921323 0.000167420
0.985334232 0.979926214 0.000573927
0.996455800 0.972123943 0.001277973
0.999332055 0.963443086 0.002320241
0.999833014 0.953884006 0.003522376
1.000000000 0.942810021 0.006985474
1.000000000 0.931598671 0.018931754
1.000000000 0.921627492 0.045583433
0.015433151 0.018816128 0.074137626
0.032219114 0.014406714 0.071188335
0.055502649 0.012975502 0.068699323
0.084589131 0.012823630 0.066442458
0.118783932 0.012252239 0.064189611
0.161474471 0.006876652 0.061197974
0.209119283 0.003420489 0.057824416
0.262872303 0.001687775 0.052902818
0.323887467 0.001482533 0.045267060
0.388660513 0.000851195 0.038622323
0.457711741 0.000320375 0.035445270
0.528936982 0.000000000 0.034655768
0.600232065 0.000000000 0.035173686
0.660558902 0.000000000 0.033033859
0.717174232 0.000000000 0.030702101
0.769387461 0.000000000 0.031013796
0.816507995 0.000000000 0.036804326
0.035230163 0.055949007 0.085096161
0.053626119 0.049056101 0.082489603
0.077509982 0.044166248 0.079989379
0.107144210 0.040627263 0.077418302
0.142791259 0.037786959 0.074599186
0.183971892 0.026214253 0.070592622
0.228654034 0.015252511 0.065992370
0.279873346 0.007590841 0.060671689
0.340665489 0.005918353 0.054503839
0.405606491 0.003244918 0.048595080
0.473865334 0.001322944 0.043566407
0.543875277 0.000239127 0.039358106
0.614069581 0.000080159 0.035910460
0.673905423 0.000020040 0.033869500
0.726735838 0.000000000 0.035297838
0.773792302 0.000000000 0.040180824
0.816306293 0.000000000 0.048503804
0.061036908 0.101390695 0.094705720
0.078108005 0.094378079 0.092440994
0.101048059 0.087570360 0.090139296
0.130169519 0.081009305 0.087659367
0.165784832 0.074736678 0.084859946
0.205876595 0.061006168 0.080899696
0.249542184 0.045330062 0.076329254
0.299933938 0.030790196 0.071048279
0.360204197 0.020468408 0.064956429
0.425788986 0.010560442 0.058707257
0.494360611 0.005604764 0.052567486
0.563955732 0.003345694 0.046758691
0.632611006 0.001527551 0.041502447
0.690960597 0.000788534 0.040667133
0.741154991 0.000273155 0.044073395
0.784982253 0.000003085 0.050858881
0.824230447 0.000000000 0.060161240
0.086479808 0.154580701 0.103569929
0.101275910 0.148568129 0.101764287
0.122959035 0.141242812 0.099821282
0.151514016 0.132790308 0.097636349
0.186925683 0.123396176 0.095104920
0.226656469 0.109520430 0.091645546
0.271425335 0.091577607 0.087600767
0.322930150 0.071538561 0.082526138
0.382868782 0.051374148 0.075977213
0.449347667 0.031625561 0.068933126
0.518742941 0.019481931 0.061977858
0.588179948 0.011780355 0.055710733
0.654784031 0.005357929 0.050731069
0.711159768 0.002651073 0.051539123
0.759925272 0.001092224 0.055739076
0.802413151 0.000364936 0.062772330
0.839956008 0.000152762 0.072080283
0.105185285 0.214958534 0.112292420
0.118740977 0.209821735 0.111181262
0.140085066 0.203238577 0.109707545
0.169026654 0.194790822 0.107819946
0.205374844 0.184060231 0.105467137
0.245779401 0.170025069 0.102356523
0.293945089 0.151919607 0.098572606
0.348738052 0.130088654 0.093598814
0.409024432 0.104877021 0.086918574
0.476422209 0.075268067 0.079246953
0.546557695 0.049270540 0.071326873
0.615549527 0.028003762 0.065067437
