shared/src/main/assets/luts/dalur_classic_200.cube
# Resampled 13pt -> 17pt (trilinear) from an MIT-licensed G'MIC film LUT.
# Source: github.com/YahiaAngelo/Film-Luts (MIT). See THIRD_PARTY_NOTICES.
TITLE "DALUR classic 200"
# LUT size
LUT_3D_SIZE 17
# Data domain
DOMAIN_MIN 0.0 0.0 0.0
DOMAIN_MAX 1.0 1.0 1.0
# LUT data points
0.024057515 0.020073146 0.022880943
0.052228955 0.020132779 0.024910800
0.084303530 0.020703806 0.027070858
0.120381914 0.021928941 0.029127761
0.160564780 0.023950899 0.030848155
0.206317890 0.027176775 0.031498966
0.256105460 0.031134124 0.032409452
0.310380958 0.035640542 0.034134655
0.369597852 0.040513627 0.037229620
0.438221924 0.045022071 0.046591605
0.510928079 0.050172649 0.058615943
0.585467994 0.056989173 0.071176397
0.659593344 0.066495456 0.082146727
0.730512917 0.080503862 0.090556525
0.799337685 0.096250046 0.098850165
0.865814298 0.113140095 0.107350735
0.929689407 0.130580097 0.116381325
0.042112028 0.052038109 0.026954389
0.065789819 0.052458990 0.028329568
0.093866000 0.053389664 0.030081556
0.126860062 0.054894662 0.032044677
0.165291492 0.057038516 0.034053253
0.210410654 0.060119121 0.035697091
0.259902116 0.063810203 0.037446647
0.314151317 0.068070779 0.039896545
0.373543695 0.072859867 0.043641407
0.441685019 0.077703153 0.052175539
0.513744611 0.083382493 0.062911095
0.587768223 0.090667141 0.074315834
0.661801606 0.100326354 0.084857518
0.733071711 0.113924181 0.093682857
0.801980332 0.129436390 0.102586200
0.868321918 0.146237062 0.111873699
0.931890920 0.163700283 0.121851511
0.062552724 0.084971461 0.031082385
0.081524354 0.085844205 0.031738312
0.105405869 0.087270182 0.033014043
0.135180519 0.089152801 0.034889103
0.171831556 0.091395471 0.037343014
0.216293132 0.094267209 0.039996613
0.265605502 0.097608382 0.042944942
0.319956504 0.101474977 0.046556800
0.379533976 0.105922982 0.051200986
0.447108321 0.111104144 0.058755729
0.518237516 0.117346901 0.067799740
0.591328673 0.125126854 0.077504347
0.664788902 0.134919599 0.087040883
0.735953584 0.147973927 0.095930109
0.804661632 0.162877940 0.105158200
0.870723955 0.179105131 0.114974125
0.933951467 0.196128994 0.125626851
0.084498566 0.119340703 0.035257250
0.099269257 0.120758329 0.035184068
0.119204524 0.122736966 0.035952959
0.145749866 0.125037581 0.037655363
0.180350784 0.127421137 0.040382718
0.224024526 0.130060158 0.043954253
0.273099970 0.133004334 0.048139117
0.327521082 0.136395090 0.053003065
0.387231827 0.140373852 0.058611855
0.454260359 0.145836445 0.065153052
0.524411064 0.152566873 0.072448287
0.596415851 0.160762248 0.080323465
0.669006631 0.170619681 0.088604487
0.739686482 0.183056769 0.097333942
0.807921506 0.197109094 0.106704832
0.873509727 0.212464891 0.116897224
0.936249167 0.228812397 0.128091186
0.107068516 0.155613333 0.039471302
0.118861223 0.157671269 0.038713872
0.135543354 0.160181627 0.038982945
0.158974685 0.162883226 0.040337782
0.191014990 0.165514886 0.042837646
0.233664036 0.167937089 0.047126733
0.282269873 0.170473732 0.052263955
0.336569615 0.173373070 0.058122989
0.396300375 0.176883355 0.064577512
0.462909661 0.182511456 0.070188381
0.532269523 0.189543404 0.076023147
0.603296265 0.197967261 0.082354717
0.674906194 0.207771093 0.089455999
0.744798347 0.219576377 0.097930020
0.812299877 0.232664250 0.107364759
0.877168551 0.247036934 0.117888208
0.939162135 0.262696654 0.129628360
0.122117100 0.197316039 0.041900277
0.132921735 0.199662388 0.040645634
0.148917692 0.202381548 0.040165676
0.171618517 0.205168617 0.040853963
0.202537760 0.207718696 0.043104056
0.244682358 0.209959422 0.047226649
0.293193085 0.212188972 0.052412812
0.347665595 0.214744649 0.058326767
0.407695539 0.217963755 0.064632738
0.473929098 0.223478307 0.069867313
0.542694330 0.230396414 0.075211468
0.612972211 0.238624856 0.081070431
0.683743715 0.248070411 0.087849429
0.752685193 0.259341090 0.096490635
0.819225006 0.271777188 0.106659173
0.883129627 0.285454242 0.118219464
0.944165528 0.300447784 0.131035928
0.127252311 0.243734784 0.041920360
0.140112195 0.245761663 0.040097007
0.157894816 0.248117402 0.039057661
0.181884706 0.250531897 0.039168328
0.213366397 0.252735041 0.040795015
0.256026132 0.254697535 0.044456092
0.305133924 0.256681368 0.049250243
0.360133417 0.259023916 0.054766288
0.420468256 0.262062557 0.060593048
0.486610100 0.267236711 0.065783655
0.554889448 0.273754068 0.071081029
0.624442428 0.281547643 0.076938285
0.694405168 0.290550455 0.083808534
0.762425095 0.301316954 0.092858757
0.828035682 0.313317858 0.103828363
0.890889645 0.326568134 0.116494295
0.950639695 0.341082752 0.130633496
0.127541777 0.293644063 0.039201150
0.143805603 0.295012040 0.036876043
0.164625198 0.296671800 0.035395943
0.191074243 0.298432183 0.034996617
0.224226419 0.300102025 0.035913833
0.268090966 0.301747136 0.038981770
0.318226274 0.303506076 0.043152742
0.373983344 0.305667857 0.048038743
0.434713177 0.308521487 0.053251768
0.500831166 0.313212788 0.058457172
0.568715893 0.319171961 0.063866219
0.637608025 0.326380093 0.069895212
0.706748232 0.334818266 0.076960452
0.773967419 0.345065227 0.086415616
0.838531099 0.356597211 0.098007590
0.900076833 0.369339218 0.111518146
0.958242178 0.383216247 0.126729056
0.128053129 0.345818371 0.033412244
0.147374958 0.346456468 0.030790796
0.171259306 0.347327352 0.028917567
0.200488120 0.348328590 0.028054571
0.235843346 0.349357754 0.028463820
0.281272467 0.350703932 0.030970390
0.332604021 0.352218255 0.034496801
0.389225639 0.354133457 0.038741321
0.450524956 0.356682271 0.043402221
0.516470797 0.360832654 0.048407631
0.584034681 0.366205692 0.053801429
0.652370110 0.372766674 0.059878147
0.720630586 0.380480886 0.066932321
0.787261531 0.390147164 0.076542441
0.850510448 0.400926203 0.088332113
0.910319418 0.412728101 0.102096459
0.966630518 0.425462961 0.117630601
0.142305549 0.397114836 0.023692934
0.161278758 0.397461293 0.020981347
0.185381165 0.398203012 0.019003320
0.215288267 0.399053046 0.017984482
0.251675565 0.399724454 0.018150460
0.298416027 0.400583912 0.020321349
0.350765079 0.401724793 0.023381290
0.408013094 0.403313190 0.027097110
0.469450444 0.405515194 0.031235636
0.534994390 0.409154465 0.035824674
0.601846918 0.413879801 0.040763870
0.669344693 0.419663830 0.046321712
0.736824378 0.426479183 0.052766689
0.802114822 0.435181610 0.061520244
0.864185803 0.444883116 0.072357630
0.922172055 0.455445375 0.085043397
0.975208312 0.466730066 0.099342093
0.164937936 0.446607083 0.013479696
0.183094021 0.447196689 0.011203416
0.206660490 0.447916053 0.009565525
0.236354172 0.448613394 0.008715469
0.272891894 0.449136928 0.008802691
0.320095386 0.449701052 0.010353230
0.372729816 0.450571470 0.012628806
0.429953285 0.451866101 0.015499274
0.490923896 0.453702867 0.018834492
0.555522028 0.456809592 0.022794338
0.621273115 0.460835963 0.027077488
0.687566370 0.465775676 0.031816322
0.753791004 0.471622422 0.037143222
0.817753799 0.479123756 0.044307335
0.878310755 0.487572610 0.053510579
0.933893949 0.496830717 0.064752111
0.982935458 0.506759807 0.078031085
0.195335824 0.494327798 0.004937318
0.212708327 0.495273333 0.003540129
0.235460704 0.496040232 0.002577187
0.264381877 0.496658195 0.002102364
0.300260767 0.497156918 0.002169531
0.346995700 0.497550532 0.002965332
0.398961298 0.498209074 0.004229422
0.455281321 0.499230260 0.005937102
0.515079528 0.500711806 0.008063672
0.578121264 0.503269387 0.010905228
0.642292865 0.506590474 0.014106085
0.706972212 0.510674560 0.017631855
0.771537185 0.515521139 0.021448154
0.833954468 0.521661486 0.026451418
0.892720476 0.528776400 0.033458922
0.945409350 0.536696587 0.042859444
0.989595234 0.545252755 0.055041759
0.232884750 0.540309668 0.000230587
0.250009257 0.541301906 0.000074611
0.272145227 0.542149305 0.000011309
0.300067425 0.542836010 0.000000000
0.334550619 0.543346167 0.000000000
0.379802123 0.543627530 0.000056951
0.429922596 0.544088393 0.000173210
0.484232314 0.544843733 0.000399878
0.542051554 0.546008527 0.000788057
0.602859646 0.548005208 0.001745950
0.664885759 0.550659627 0.003213463
0.727499291 0.553932831 0.005038190
0.790069640 0.557785869 0.007067721
0.850492835 0.562482685 0.009500197
0.907250136 0.568276197 0.013870621
0.956642509 0.574855447 0.021002239
0.994970918 0.581909478 0.031718295
0.279947292 0.583356395 0.000057647
0.296826084 0.584379144 0.000018653
0.318273723 0.585112438 0.000002827
0.344930528 0.585631918 0.000000000
0.377436817 0.586013228 0.000000000
0.419488747 0.586263645 0.000014238
0.466479819 0.586602546 0.000043302
0.517744744 0.587101121 0.000099969
0.572618231 0.587830558 0.000197014
0.630730469 0.589346822 0.000436487
0.689851403 0.591424935 0.000803366
0.749521401 0.593994942 0.001278060
0.809280828 0.596986890 0.001840980
0.867240783 0.600515436 0.002493462
0.920904189 0.604920380 0.004017622
0.965786416 0.610031120 0.007762970
0.997402832 0.615677059 0.015079012
0.330774948 0.624616116 0.000013613
0.347196650 0.625374779 0.000016603
0.367575385 0.625917390 0.000008994
0.392507106 0.626277879 0.000000292
0.422587767 0.626490176 0.000000000
0.461567182 0.626548581 0.000000000
0.505339995 0.626604274 0.000000000
0.553339534 0.626715414 0.000000000
0.604999125 0.626940161 0.000000000
0.660187140 0.627934121 0.000000000
0.716093674 0.629454270 0.000000000
0.772536270 0.631459668 0.000012342
0.829332471 0.633909374 0.000049367
0.884593040 0.636309817 0.000078942
0.933890074 0.639315888 0.000366645
0.973120511 0.642821275 0.002041160
0.998181283 0.646719664 0.006231174
0.384201661 0.663720116 0.000519880
0.399890611 0.664083891 0.000636236
0.418893486 0.664348155 0.000553013
0.441854622 0.664488580 0.000337244
0.469418354 0.664480835 0.000055960
0.505396606 0.664182954 0.000013990
0.546067923 0.663820833 0.000000000
0.590897799 0.663436327 0.000000000
0.639351726 0.663071290 0.000000000
0.691366743 0.663291376 0.000000000
0.743973620 0.664328396 0.000000000
0.797123905 0.665929906 0.000000000
0.850769147 0.667843461 0.000000000
0.903243180 0.669291228 0.000000000
0.947477385 0.671007290 0.000026546
0.980184369 0.672957659 0.000737558
0.998076737 0.675108343 0.002790956
0.439061373 0.700299680 0.001997839
0.453677624 0.700301558 0.002445326
0.471071303 0.700188726 0.002158086
0.492030539 0.699978709 0.001347224
0.517343462 0.699689031 0.000223840
0.550336197 0.698867381 0.000055960
0.588228405 0.697979480 0.000000000
0.630300656 0.697013572 0.000000000
0.675833523 0.695957899 0.000000000
0.724406362 0.694942862 0.000000000
0.773852289 0.695628077 0.000000000
0.823864311 0.697008550 0.000000000
0.874135435 0.698079288 0.000000000
0.923884779 0.698885068 0.000000000
0.962935716 0.699539155 0.000106183
0.988517568 0.700172022 0.000752909
0.997859657 0.700914145 0.002374537
0.027286578 0.026201075 0.061000133
0.056637046 0.026328346 0.064069074
0.089789059 0.026970843 0.067308648
0.126612257 0.028264775 0.070189224
0.166976277 0.030346351 0.072181173
0.212405477 0.033690833 0.072889027
0.261858849 0.037628830 0.073801536
0.315943345 0.042046211 0.075663517
0.375265919 0.046828846 0.079219786
0.443440000 0.051666006 0.088147838
0.515382715 0.057369923 0.099376497
0.589106578 0.064851659 0.111241669
0.662624106 0.075022276 0.122079259
0.733037043 0.089809668 0.131081297
0.801228218 0.107016855 0.140849213
0.866897553 0.126055543 0.151570590
0.929744974 0.146337438 0.163433010
0.045140500 0.058683388 0.064402459
0.070240281 0.058940604 0.066744522
0.099484261 0.059799167 0.069401930
0.133151202 0.061259836 0.072088036
0.171519869 0.063323374 0.074516194
0.216198042 0.066479883 0.075828521
0.265353308 0.070169263 0.077497182
0.319408029 0.074350526 0.080055934
0.378784569 0.078982685 0.084038534
0.446521831 0.084023016 0.092253308
0.517908663 0.090104930 0.102375990
0.591214761 0.097910859 0.113217301
0.664709825 0.108123232 0.123587964
0.735443345 0.122489929 0.132907154
0.803775612 0.139145157 0.142970129
0.869489059 0.157471866 0.153853918
0.932366118 0.176853006 0.165635553
0.064719115 0.091985175 0.067774303
0.085496914 0.092660447 0.069229902
0.110751940 0.093883393 0.071249682
0.141171515 0.095588509 0.073670231
0.177442960 0.097710294 0.076328137
0.221422628 0.100608198 0.078617381
0.270375302 0.103929931 0.081348868
0.324514412 0.107744214 0.084849857
0.384053387 0.112119768 0.089447607
0.451316059 0.117340270 0.096833036
0.521976672 0.123810005 0.105593318
0.594540820 0.131928182 0.115038002
0.667514093 0.142094008 0.124476639
0.738175660 0.155706837 0.133681410
0.806368422 0.171348294 0.143626019
0.871937526 0.188533941 0.154418996
0.934728123 0.206779337 0.166168873
0.085043581 0.126777292 0.070931809
0.101960887 0.127948563 0.071536551
0.123515725 0.129608783 0.072897977
0.150806357 0.131624591 0.074960543
0.184931044 0.133862628 0.077668704
0.228187719 0.136460176 0.080933396
0.276968203 0.139363976 0.084744314
0.331231211 0.142743217 0.089216303
0.390935460 0.146767087 0.094464208
0.457759235 0.152126352 0.101007442
0.527644612 0.158894144 0.108381149
0.599311883 0.167217109 0.116343499
0.671481337 0.177241893 0.124652659
0.741700016 0.189912566 0.133478955
0.809467722 0.204296322 0.143072961
0.874638029 0.220135959 0.153659105
0.937064514 0.237174275 0.165461815
0.105135057 0.163730592 0.073691123
0.119186142 0.165265639 0.073675807
0.137699241 0.167360598 0.074392888
0.162188888 0.169741880 0.075983705
0.194169614 0.172135897 0.078589595
0.236601803 0.174420217 0.082454356
0.285175381 0.176924540 0.087071242
0.339527141 0.179863476 0.092326290
0.399293877 0.183451638 0.098105539
0.465787912 0.188889847 0.103896941
0.534970351 0.195766341 0.110092152
0.605755080 0.204091119 0.116773522
0.677055985 0.213874180 0.124023398
0.746482439 0.225559293 0.132374678
0.813534588 0.238659294 0.141567031
0.877985641 0.253172110 0.151967524
0.939608812 0.269095667 0.163943224
0.117464057 0.205687311 0.074549807
0.130764490 0.207497187 0.073829335
0.148633691 0.209752226 0.073888919
0.172521350 0.212202036 0.074917941
0.203877158 0.214596227 0.077105784
0.246211894 0.216642304 0.080935008
0.294982749 0.218812405 0.085665080
0.349692055 0.221372315 0.091042686
0.409842150 0.224587820 0.096814509
0.476145002 0.229817139 0.102291945
0.544844828 0.236500337 0.108047225
0.614929838 0.244567530 0.114304401
0.685388245 0.253948838 0.121287521
0.753970742 0.264980677 0.129617287
0.820090074 0.277111844 0.139093033
0.883537663 0.290574765 0.150046610
0.944104932 0.305601867 0.162809867
0.123121474 0.251957862 0.072726419
0.137376820 0.253576374 0.071420926
0.156295373 0.255591758 0.070871469
0.181118937 0.257762296 0.071327151
0.213089313 0.259846270 0.073037074
0.256126628 0.261615385 0.076549284
0.305702742 0.263494299 0.081032936
0.361142104 0.265771859 0.086201876
0.421769161 0.268736916 0.091769946
0.488026725 0.273616199 0.097190606
0.556366323 0.279955922 0.102868543
0.625874320 0.287628993 0.109103288
0.695637085 0.296508323 0.116194366
0.763315197 0.307003047 0.124987906
0.828506690 0.318557799 0.135235782
0.890922491 0.331406753 0.147144461
0.950273529 0.345784083 0.160920413
0.125624266 0.301561821 0.067867134
0.141587852 0.302735091 0.066101524
0.162390070 0.304259851 0.065021381
0.189021209 0.305921780 0.064944540
0.222471558 0.307506559 0.066188835
0.266822686 0.308958350 0.069297639
0.317651038 0.310557193 0.073363368
0.374068138 0.312582445 0.078138019
0.435185509 0.315313460 0.083373591
0.501466848 0.319759104 0.088824293
0.569517929 0.325626611 0.094595924
0.638498524 0.332782322 0.100998972
0.707568407 0.341092579 0.108343925
0.774404608 0.351089289 0.117753531
0.838610258 0.362232264 0.128879728
0.899829231 0.374615798 0.141785123
0.957705401 0.388334187 0.156532324
0.128489390 0.353518769 0.059618128
0.145962305 0.354205230 0.057522071
0.168623561 0.355137162 0.056019497
0.197267726 0.356179612 0.055503316
0.232689369 0.357197627 0.056366437
0.278776747 0.358290086 0.059180530
0.331143312 0.359588061 0.062844933
0.388661012 0.361324409 0.067185274
0.450201795 0.363731988 0.072027183
0.516499139 0.367717935 0.077424376
0.584282741 0.373005919 0.083269185
0.652712449 0.379534328 0.089820245
0.720948115 0.387241550 0.097336188
0.787127778 0.396702288 0.107181157
0.850226603 0.407370344 0.118909324
0.909946993 0.419149628 0.132492641
0.965991348 0.431944050 0.147903062
0.141783558 0.405089691 0.046704283
0.158961885 0.405625379 0.044357963
0.181768806 0.406339230 0.042655531
0.211039315 0.407069862 0.042003766
0.247608406 0.407655891 0.042809448
0.295128194 0.408460204 0.045463425
0.348392847 0.409447677 0.048856437
0.406481417 0.410842385 0.052856193
0.468472958 0.412868403 0.057330400
0.534447742 0.416418235 0.062397292
0.601541001 0.421057255 0.067957466
0.669101255 0.426800674 0.074184577
0.736477021 0.433663704 0.081252280
0.801293904 0.442268176 0.090571662
0.863109952 0.451966603 0.101846707
0.921042459 0.462646516 0.115001551
0.974208720 0.474195441 0.129960333
0.162883872 0.454755612 0.032226487
0.179658163 0.455376188 0.029885522
0.202230317 0.456018722 0.028351189
0.231504491 0.456603913 0.027826804
0.268384844 0.457052462 0.028515682
0.316604190 0.457571768 0.030879628
0.370209875 0.458330782 0.033856805
0.428225710 0.459481016 0.037353446
0.489675507 0.461173981 0.041275783
0.554735901 0.464202687 0.045841813
0.620686248 0.468150778 0.050867543
0.686935883 0.473068731 0.056439036
0.752894141 0.479007024 0.062642351
0.816309866 0.486478820 0.070649372
0.876436785 0.495036265 0.080739862
0.931935987 0.504539855 0.092980995
0.981468558 0.514850087 0.107439948
0.191996742 0.502188437 0.017767244
0.208571424 0.503028804 0.015822123
0.230839989 0.503673869 0.014757483
0.259705490 0.504212372 0.014527663
0.296070984 0.504733052 0.015087001
0.343843005 0.505056979 0.016969546
0.396788089 0.505645487 0.019281256
0.453838672 0.506600094 0.021968203
0.513927195 0.508022318 0.024976455
0.577369753 0.510474002 0.028809673
0.641633600 0.513716768 0.033062825
0.706106040 0.517787350 0.037682017
0.770174377 0.522722479 0.042613356
0.831822227 0.528865056 0.048674403
0.889839264 0.536134208 0.056937178
0.942360531 0.544386047 0.067755742
0.987521071 0.553476688 0.081484154
0.229328576 0.547060072 0.004909055
0.246221953 0.548154369 0.003885137
0.268429719 0.548802905 0.003525420
0.296684550 0.549325850 0.003661574
0.331719123 0.550043374 0.004125270
0.377482912 0.550348040 0.005273583
0.428321183 0.550799906 0.006565010
0.483265087 0.551559415 0.007991633
0.541345775 0.552787006 0.009545536
0.602355435 0.554634891 0.012352609
0.664298177 0.557185508 0.015606719
0.726501431 0.560405381 0.019011917
0.788292632 0.564261034 0.022272252
0.847477552 0.568957716 0.025906870
0.902949549 0.574815311 0.031787047
0.952049047 0.581741493 0.040650562
0.992116466 0.589643940 0.053235197
0.278209816 0.588623136 0.001227264
0.295170836 0.589466160 0.000971284
0.316777643 0.590098206 0.000881355
0.343654767 0.590671135 0.000926501
0.376426741 0.591336809 0.001075747
0.418634504 0.591783204 0.001373933
0.465985312 0.592230497 0.001721782
0.517642622 0.592728923 0.002134932
0.572769888 0.593328718 0.002629024
0.630730270 0.594668501 0.003627432
0.689739879 0.596618194 0.005065376
0.749049899 0.599087437 0.006718990
0.807911515 0.601985868 0.008364410
0.864018005 0.605401125 0.009932341
0.915739512 0.609905321 0.013087186
0.960119224 0.615412649 0.018993717
0.994200330 0.621837299 0.028816708
0.331673164 0.628204040 0.000003403
0.348033703 0.628828693 0.000004151
0.368256068 0.629379138 0.000002249
0.392991097 0.629934356 0.000007478
0.422889628 0.630573325 0.000029620
0.461656050 0.630922901 0.000037025
0.505611977 0.631038245 0.000053686
0.553991891 0.631037939 0.000091349
0.606030278 0.631040566 0.000161760
0.661006751 0.631722165 0.000359520
0.716903165 0.633060869 0.000775797
0.773119399 0.634844974 0.001310674
0.829055332 0.636862777 0.001864231
0.881984005 0.639359277 0.002303749
0.928938672 0.642521262 0.003472625
0.967419319 0.646452539 0.006507799
0.994925931 0.651256911 0.012546214
0.387698071 0.665616751 0.000129970
0.402983881 0.666068066 0.000159360
0.421327314 0.666470302 0.000158764
0.443521408 0.666913766 0.000176601
0.470359201 0.667488765 0.000261289
0.505911212 0.667523226 0.000069151
0.546710150 0.667094631 0.000002552
0.591987745 0.666450018 0.000000000
0.640975725 0.665836424 0.000000000
0.693001740 0.665718602 0.000000000
0.745787816 0.666341428 0.000000000
0.798885896 0.667410603 0.000000000
0.851847921 0.668631829 0.000000000
0.901463800 0.670269111 0.000000000
0.943036765 0.672187071 0.000075150
0.974829190 0.674642991 0.001030188
0.995103452 0.677894153 0.003669854
0.444263987 0.700675234 0.000499460
0.458194699 0.701010376 0.000612535
0.474453703 0.701196298 0.000621566
0.494073572 0.701407623 0.000705968
0.518086880 0.701818973 0.001045156
0.550763652 0.701340277 0.000276604
0.588788807 0.700271137 0.000010210
0.631305031 0.698928714 0.000000000
0.677455008 0.697630167 0.000000000
0.726532102 0.696580529 0.000000000
0.776393615 0.696287766 0.000000000
0.826525353 0.696516935 0.000000000
0.876413122 0.697033092 0.000000000
0.922545642 0.697567567 0.000000000
0.958523527 0.698426686 0.000026546
0.983228698 0.699765835 0.000398260
0.995543078 0.701740399 0.001433765
0.030272082 0.033044987 0.100053366
0.060950683 0.033252518 0.104148585
0.095426219 0.033959677 0.108554427
0.133233326 0.035341146 0.112384345
0.173906639 0.037571605 0.114751797
0.218755214 0.041127688 0.115444958
0.267762978 0.045191084 0.116333701
0.321523666 0.049695966 0.118198237
0.380631015 0.054576507 0.121818781
0.447992783 0.059801791 0.129957167
0.518837824 0.066056534 0.140042707
0.591533981 0.074017881 0.150885366
0.664449096 0.084362980 0.161295108
0.734763093 0.098994341 0.170730863
0.802784309 0.116127020 0.181104265
0.868205883 0.135222385 0.192621892
0.930720955 0.155741803 0.205490321
0.047973732 0.066048373 0.103122668
0.074658825 0.066288157 0.106427566
0.105254495 0.067085145 0.110062810
0.139785350 0.068503806 0.113512151
0.178275997 0.070608611 0.116259338
0.222420349 0.073878650 0.117510745
0.271197376 0.077653091 0.119028443
0.324967930 0.081896897 0.121455956
0.384092864 0.086575030 0.125436801
0.451157879 0.091872379 0.133080341
0.521644829 0.098346200 0.142373717
0.594057957 0.106507564 0.152454465
0.666901506 0.116867542 0.162460120
0.737355046 0.131140826 0.172092732
0.805434957 0.147786959 0.182621334
0.870881073 0.166214321 0.194164035
0.933433227 0.185831293 0.206838947
0.066891166 0.099996388 0.105971044
0.089532119 0.100482100 0.108341038
0.116245415 0.101515189 0.111181628
0.147495237 0.103073608 0.114179034
0.183745768 0.105135309 0.117019478
0.227245373 0.108067618 0.119097141
0.275858335 0.111427978 0.121552925
0.329728670 0.115286977 0.124784125
0.389000393 0.119715204 0.129188040
0.455763990 0.125079300 0.136229395
0.525727808 0.131765590 0.144537580
0.597560078 0.140076968 0.153592731
0.669929028 0.150316326 0.162874982
0.740192309 0.163932804 0.172298294
0.808042221 0.179599989 0.182570606
0.873277605 0.196897144 0.193836791
0.935697302 0.215403534 0.206241723
0.085894127 0.135436920 0.108454900
0.104892513 0.136248034 0.109884744
0.128064537 0.137600794 0.111933318
0.156275845 0.139378197 0.114433034
0.190392083 0.141463238 0.117216303
0.233300538 0.144042635 0.120117933
0.281832935 0.146953505 0.123518683
0.335888982 0.150367463 0.127562778
0.395368386 0.154456120 0.132394448
0.461848811 0.159857068 0.138818306
0.531225447 0.166674213 0.146120521
0.602319816 0.175031802 0.154084109
0.673953444 0.185054077 0.162492087
0.743713677 0.197787050 0.171442571
0.811062187 0.212197294 0.181214659
0.875832073 0.228128983 0.192069119
0.937856436 0.245426288 0.204266716
0.103852358 0.172917858 0.110430643
0.120061950 0.173999649 0.111054424
0.140377417 0.175692946 0.112340318
0.166040033 0.177745219 0.114322188
0.198291071 0.179903939 0.117033899
0.240656098 0.182151742 0.120486908
0.289208256 0.184667435 0.124537256
0.343531959 0.187639611 0.129171944
0.403211623 0.191256866 0.134377975
0.469450038 0.196640199 0.140261051
0.538276426 0.203431580 0.146708764
0.608616643 0.211677773 0.153712546
