shared/src/main/assets/luts/dalur_sunset_01.cube
TITLE "DALUR sunset"
LUT_3D_SIZE 5
DOMAIN_MIN 0.0 0.0 0.0
DOMAIN_MAX 1.0 1.0 1.0
0.047521 0.000000 0.000000
0.317079 0.000000 0.000000
0.586638 0.000000 0.000000
0.856196 0.000000 0.000000
1.000000 0.000000 0.000000
0.031718 0.251635 0.000000
0.301276 0.244103 0.000000
0.570834 0.236572 0.000000
0.840392 0.229040 0.000000
1.000000 0.221508 0.000000
0.015914 0.531979 0.000000
0.285472 0.524447 0.000000
0.555031 0.516916 0.000000
0.824589 0.509384 0.000000
1.000000 0.501852 0.000000
0.000111 0.812323 0.000000
0.269669 0.804791 0.000000
0.539227 0.797260 0.000000
0.808785 0.789728 0.000000
1.000000 0.782196 0.000000
0.000000 1.000000 0.000000
0.253865 1.000000 0.000000
0.523424 1.000000 0.000000
0.792982 1.000000 0.000000
1.000000 1.000000 0.000000
0.044562 0.000000 0.228482
0.314120 0.000000 0.220950
0.583678 0.000000 0.213418
0.853236 0.000000 0.205886
1.000000 0.000000 0.198355
0.028758 0.248676 0.212678
0.298317 0.241144 0.205147
0.567875 0.233612 0.197615
0.837433 0.226080 0.190083
1.000000 0.218549 0.182551
0.012955 0.529020 0.196875
0.282513 0.521488 0.189343
0.552071 0.513956 0.181811
0.821629 0.506424 0.174279
1.000000 0.498893 0.166748
0.000000 0.809364 0.181071
0.266709 0.801832 0.173539
0.536268 0.794300 0.166008
0.805826 0.786768 0.158476
1.000000 0.779237 0.150944
0.000000 1.000000 0.165268
0.250906 1.000000 0.157736
0.520464 1.000000 0.150204
0.790022 1.000000 0.142672
1.000000 1.000000 0.135141
0.041602 0.000000 0.511082
0.311161 0.000000 0.503551
0.580719 0.000000 0.496019
0.850277 0.000000 0.488487
1.000000 0.000000 0.480955
0.025799 0.245716 0.495279
0.295357 0.238185 0.487747
0.564915 0.230653 0.480215
0.834473 0.223121 0.472683
1.000000 0.215589 0.465152
0.009995 0.526060 0.479475
0.279554 0.518529 0.471944
0.549112 0.510997 0.464412
0.818670 0.503465 0.456880
1.000000 0.495933 0.449348
0.000000 0.806404 0.463672
0.263750 0.798873 0.456140
0.533308 0.791341 0.448608
0.802866 0.783809 0.441076
1.000000 0.776277 0.433545
0.000000 1.000000 0.447868
0.247947 1.000000 0.440337
0.517505 1.000000 0.432805
0.787063 1.000000 0.425273
1.000000 1.000000 0.417741
0.038643 0.000000 0.793683
0.308201 0.000000 0.786151
0.577759 0.000000 0.778619
0.847318 0.000000 0.771088
1.000000 0.000000 0.763556
0.022839 0.242757 0.777879
0.292398 0.235225 0.770348
0.561956 0.227693 0.762816
0.831514 0.220162 0.755284
1.000000 0.212630 0.747752
0.007036 0.523101 0.762076
0.276594 0.515569 0.754544
0.546152 0.508037 0.747012
0.815711 0.500506 0.739481
1.000000 0.492974 0.731949
0.000000 0.803445 0.746272
0.260791 0.795913 0.738741
0.530349 0.788381 0.731209
0.799907 0.780849 0.723677
1.000000 0.773318 0.716145
0.000000 1.000000 0.730469
0.244987 1.000000 0.722937
0.514545 1.000000 0.715405
0.784103 1.000000 0.707873
1.000000 1.000000 0.700342
0.035684 0.000000 1.000000
0.305242 0.000000 1.000000
0.574800 0.000000 1.000000
0.844358 0.000000 1.000000
1.000000 0.000000 1.000000
0.019880 0.239798 1.000000
0.289438 0.232266 1.000000
0.558996 0.224734 1.000000
0.828555 0.217202 1.000000
1.000000 0.209670 1.000000
0.004076 0.520141 1.000000
0.273635 0.512610 1.000000
0.543193 0.505078 1.000000
0.812751 0.497546 1.000000
1.000000 0.490014 1.000000
0.000000 0.800485 1.000000
0.257831 0.792954 1.000000
0.527389 0.785422 1.000000
0.796948 0.777890 1.000000
1.000000 0.770358 0.998746
0.000000 1.000000 1.000000
0.242028 1.000000 1.000000
0.511586 1.000000 0.998006
0.781144 1.000000 0.990474
1.000000 1.000000 0.982942
