shared/src/main/assets/luts/dalur_rain_01.cube
TITLE "DALUR rain"
LUT_3D_SIZE 5
DOMAIN_MIN 0.0 0.0 0.0
DOMAIN_MAX 1.0 1.0 1.0
0.013075 0.016899 0.052751
0.228817 0.026912 0.062749
0.444560 0.036926 0.072748
0.660302 0.046940 0.082746
0.876045 0.056953 0.092745
0.033282 0.248570 0.072927
0.249025 0.258583 0.082926
0.464767 0.268597 0.092924
0.680510 0.278611 0.102923
0.896252 0.288625 0.112921
0.053489 0.480241 0.093104
0.269232 0.490255 0.103102
0.484974 0.500268 0.113101
0.700717 0.510282 0.123099
0.916459 0.520296 0.133098
0.073696 0.711912 0.113280
0.289439 0.721926 0.123279
0.505181 0.731940 0.133277
0.720924 0.741953 0.143276
0.936666 0.751967 0.153274
0.093903 0.943583 0.133457
0.309646 0.953597 0.143455
0.525388 0.963611 0.153454
0.741131 0.973625 0.163452
0.956873 0.983638 0.173451
0.016840 0.020663 0.259063
0.232582 0.030677 0.269062
0.448325 0.040691 0.279060
0.664067 0.050704 0.289059
0.879810 0.060718 0.299057
0.037047 0.252334 0.279239
0.252789 0.262348 0.289238
0.468532 0.272362 0.299236
0.684274 0.282376 0.309235
0.900017 0.292389 0.319234
0.057254 0.484006 0.299416
0.272996 0.494019 0.309414
0.488739 0.504033 0.319413
0.704481 0.514047 0.329411
0.920224 0.524061 0.339410
0.077461 0.715677 0.319592
0.293204 0.725691 0.329591
0.508946 0.735704 0.339589
0.724689 0.745718 0.349588
0.940431 0.755732 0.359586
0.097668 0.947348 0.339769
0.313411 0.957362 0.349767
0.529153 0.967376 0.359766
0.744896 0.977389 0.369764
0.960638 0.987403 0.379763
0.020604 0.024428 0.465375
0.236347 0.034442 0.475374
0.452089 0.044455 0.485372
0.667832 0.054469 0.495371
0.883574 0.064483 0.505369
0.040812 0.256099 0.485552
0.256554 0.266113 0.495550
0.472297 0.276127 0.505549
0.688039 0.286140 0.515547
0.903782 0.296154 0.525546
0.061019 0.487770 0.505728
0.276761 0.497784 0.515727
0.492504 0.507798 0.525725
0.708246 0.517812 0.535724
0.923989 0.527825 0.545722
0.081226 0.719442 0.525904
0.296968 0.729455 0.535903
0.512711 0.739469 0.545901
0.728453 0.749483 0.555900
0.944196 0.759497 0.565899
0.101433 0.951113 0.546081
0.317175 0.961127 0.556079
0.532918 0.971140 0.566078
0.748660 0.981154 0.576076
0.964403 0.991168 0.586075
0.024369 0.028193 0.671687
0.240112 0.038206 0.681686
0.455854 0.048220 0.691684
0.671597 0.058234 0.701683
0.887339 0.068248 0.711681
0.044576 0.259864 0.691864
0.260319 0.269878 0.701862
0.476061 0.279891 0.711861
0.691804 0.289905 0.721859
0.907546 0.299919 0.731858
0.064783 0.491535 0.712040
0.280526 0.501549 0.722039
0.496268 0.511563 0.732037
0.712011 0.521576 0.742036
0.927753 0.531590 0.752034
0.084990 0.723206 0.732217
0.300733 0.733220 0.742215
0.516475 0.743234 0.752214
0.732218 0.753248 0.762212
0.947960 0.763261 0.772211
0.105198 0.954878 0.752393
0.320940 0.964891 0.762392
0.536683 0.974905 0.772390
0.752425 0.984919 0.782389
0.968168 0.994933 0.792387
0.028134 0.031957 0.877999
0.243876 0.041971 0.887998
0.459619 0.051985 0.897996
0.675361 0.061999 0.907995
0.891104 0.072012 0.917993
0.048341 0.263629 0.898176
0.264083 0.273642 0.908174
0.479826 0.283656 0.918173
0.695568 0.293670 0.928171
0.911311 0.303684 0.938170
0.068548 0.495300 0.918352
0.284291 0.505314 0.928351
0.500033 0.515327 0.938349
0.715776 0.525341 0.948348
0.931518 0.535355 0.958346
0.088755 0.726971 0.938529
0.304498 0.736985 0.948527
0.520240 0.746999 0.958526
0.735983 0.757012 0.968524
0.951725 0.767026 0.978523
0.108962 0.958642 0.958705
0.324705 0.968656 0.968704
0.540447 0.978670 0.978702
0.756190 0.988684 0.988701
0.971932 0.998697 0.998699
