shared/src/main/assets/luts/dalur_sunset_01.cube
TITLE "DALUR sunset"
LUT_3D_SIZE 17
DOMAIN_MIN 0.0 0.0 0.0
DOMAIN_MAX 1.0 1.0 1.0
0.047521 0.000000 0.000000
0.114911 0.000000 0.000000
0.182300 0.000000 0.000000
0.249690 0.000000 0.000000
0.317079 0.000000 0.000000
0.384469 0.000000 0.000000
0.451859 0.000000 0.000000
0.519248 0.000000 0.000000
0.586638 0.000000 0.000000
0.654027 0.000000 0.000000
0.721417 0.000000 0.000000
0.788806 0.000000 0.000000
0.856196 0.000000 0.000000
0.923585 0.000000 0.000000
0.990975 0.000000 0.000000
1.000000 0.000000 0.000000
1.000000 0.000000 0.000000
0.043570 0.041377 0.000000
0.110960 0.039494 0.000000
0.178349 0.037611 0.000000
0.245739 0.035728 0.000000
0.313129 0.033845 0.000000
0.380518 0.031963 0.000000
0.447908 0.030080 0.000000
0.515297 0.028197 0.000000
0.582687 0.026314 0.000000
0.650076 0.024431 0.000000
0.717466 0.022548 0.000000
0.784855 0.020665 0.000000
0.852245 0.018782 0.000000
0.919635 0.016899 0.000000
0.987024 0.015016 0.000000
1.000000 0.013133 0.000000
1.000000 0.011250 0.000000
0.039620 0.111463 0.000000
0.107009 0.109580 0.000000
0.174399 0.107697 0.000000
0.241788 0.105814 0.000000
0.309178 0.103931 0.000000
0.376567 0.102049 0.000000
0.443957 0.100166 0.000000
0.511346 0.098283 0.000000
0.578736 0.096400 0.000000
0.646125 0.094517 0.000000
0.713515 0.092634 0.000000
0.780905 0.090751 0.000000
0.848294 0.088868 0.000000
0.915684 0.086985 0.000000
0.983073 0.085102 0.000000
1.000000 0.083219 0.000000
1.000000 0.081336 0.000000
0.035669 0.181549 0.000000
0.103058 0.179666 0.000000
0.170448 0.177783 0.000000
0.237837 0.175900 0.000000
0.305227 0.174017 0.000000
0.372616 0.172135 0.000000
0.440006 0.170252 0.000000
0.507395 0.168369 0.000000
0.574785 0.166486 0.000000
0.642175 0.164603 0.000000
0.709564 0.162720 0.000000
0.776954 0.160837 0.000000
0.844343 0.158954 0.000000
0.911733 0.157071 0.000000
0.979122 0.155188 0.000000
1.000000 0.153305 0.000000
1.000000 0.151422 0.000000
0.031718 0.251635 0.000000
0.099107 0.249752 0.000000
0.166497 0.247869 0.000000
0.233886 0.245986 0.000000
0.301276 0.244103 0.000000
0.368665 0.242220 0.000000
0.436055 0.240338 0.000000
0.503445 0.238455 0.000000
0.570834 0.236572 0.000000
0.638224 0.234689 0.000000
0.705613 0.232806 0.000000
0.773003 0.230923 0.000000
0.840392 0.229040 0.000000
0.907782 0.227157 0.000000
0.975171 0.225274 0.000000
1.000000 0.223391 0.000000
1.000000 0.221508 0.000000
0.027767 0.321721 0.000000
0.095156 0.319838 0.000000
0.162546 0.317955 0.000000
0.229936 0.316072 0.000000
0.297325 0.314189 0.000000
0.364715 0.312306 0.000000
0.432104 0.310424 0.000000
0.499494 0.308541 0.000000
0.566883 0.306658 0.000000
0.634273 0.304775 0.000000
0.701662 0.302892 0.000000
0.769052 0.301009 0.000000
0.836441 0.299126 0.000000
0.903831 0.297243 0.000000
0.971221 0.295360 0.000000
1.000000 0.293477 0.000000
1.000000 0.291594 0.000000
0.023816 0.391807 0.000000
0.091206 0.389924 0.000000
0.158595 0.388041 0.000000
0.225985 0.386158 0.000000
0.293374 0.384275 0.000000
0.360764 0.382392 0.000000
0.428153 0.380510 0.000000
0.495543 0.378627 0.000000
0.562932 0.376744 0.000000
0.630322 0.374861 0.000000
0.697711 0.372978 0.000000
0.765101 0.371095 0.000000
0.832491 0.369212 0.000000
0.899880 0.367329 0.000000
0.967270 0.365446 0.000000
1.000000 0.363563 0.000000
1.000000 0.361680 0.000000
0.019865 0.461893 0.000000
0.087255 0.460010 0.000000
0.154644 0.458127 0.000000
0.222034 0.456244 0.000000
0.289423 0.454361 0.000000
0.356813 0.452478 0.000000
0.424202 0.450596 0.000000
0.491592 0.448713 0.000000
0.558982 0.446830 0.000000
0.626371 0.444947 0.000000
0.693761 0.443064 0.000000
0.761150 0.441181 0.000000
0.828540 0.439298 0.000000
0.895929 0.437415 0.000000
0.963319 0.435532 0.000000
1.000000 0.433649 0.000000
1.000000 0.431766 0.000000
0.015914 0.531979 0.000000
0.083304 0.530096 0.000000
0.150693 0.528213 0.000000
0.218083 0.526330 0.000000
0.285472 0.524447 0.000000
0.352862 0.522564 0.000000
0.420252 0.520682 0.000000
0.487641 0.518799 0.000000
0.555031 0.516916 0.000000
0.622420 0.515033 0.000000
0.689810 0.513150 0.000000
0.757199 0.511267 0.000000
0.824589 0.509384 0.000000
0.891978 0.507501 0.000000
0.959368 0.505618 0.000000
1.000000 0.503735 0.000000
1.000000 0.501852 0.000000
0.011963 0.602065 0.000000
0.079353 0.600182 0.000000
0.146742 0.598299 0.000000
0.214132 0.596416 0.000000
0.281522 0.594533 0.000000
0.348911 0.592650 0.000000
0.416301 0.590768 0.000000
0.483690 0.588885 0.000000
0.551080 0.587002 0.000000
0.618469 0.585119 0.000000
0.685859 0.583236 0.000000
0.753248 0.581353 0.000000
0.820638 0.579470 0.000000
0.888027 0.577587 0.000000
0.955417 0.575704 0.000000
1.000000 0.573821 0.000000
1.000000 0.571938 0.000000
0.008013 0.672151 0.000000
0.075402 0.670268 0.000000
0.142792 0.668385 0.000000
0.210181 0.666502 0.000000
0.277571 0.664619 0.000000
0.344960 0.662736 0.000000
0.412350 0.660854 0.000000
0.479739 0.658971 0.000000
0.547129 0.657088 0.000000
0.614518 0.655205 0.000000
0.681908 0.653322 0.000000
0.749298 0.651439 0.000000
0.816687 0.649556 0.000000
0.884077 0.647673 0.000000
0.951466 0.645790 0.000000
1.000000 0.643907 0.000000
1.000000 0.642024 0.000000
0.004062 0.742237 0.000000
0.071451 0.740354 0.000000
0.138841 0.738471 0.000000
0.206230 0.736588 0.000000
0.273620 0.734705 0.000000
0.341009 0.732822 0.000000
0.408399 0.730940 0.000000
0.475788 0.729057 0.000000
0.543178 0.727174 0.000000
0.610568 0.725291 0.000000
0.677957 0.723408 0.000000
0.745347 0.721525 0.000000
0.812736 0.719642 0.000000
0.880126 0.717759 0.000000
0.947515 0.715876 0.000000
1.000000 0.713993 0.000000
1.000000 0.712110 0.000000
0.000111 0.812323 0.000000
0.067500 0.810440 0.000000
0.134890 0.808557 0.000000
0.202279 0.806674 0.000000
0.269669 0.804791 0.000000
0.337058 0.802908 0.000000
0.404448 0.801026 0.000000
0.471838 0.799143 0.000000
0.539227 0.797260 0.000000
0.606617 0.795377 0.000000
0.674006 0.793494 0.000000
0.741396 0.791611 0.000000
0.808785 0.789728 0.000000
0.876175 0.787845 0.000000
0.943564 0.785962 0.000000
1.000000 0.784079 0.000000
1.000000 0.782196 0.000000
0.000000 0.882409 0.000000
0.063549 0.880526 0.000000
0.130939 0.878643 0.000000
0.198329 0.876760 0.000000
0.265718 0.874877 0.000000
0.333108 0.872994 0.000000
0.400497 0.871112 0.000000
0.467887 0.869229 0.000000
0.535276 0.867346 0.000000
0.602666 0.865463 0.000000
0.670055 0.863580 0.000000
0.737445 0.861697 0.000000
0.804834 0.859814 0.000000
0.872224 0.857931 0.000000
0.939614 0.856048 0.000000
1.000000 0.854165 0.000000
1.000000 0.852282 0.000000
0.000000 0.952495 0.000000
0.059599 0.950612 0.000000
0.126988 0.948729 0.000000
0.194378 0.946846 0.000000
0.261767 0.944963 0.000000
0.329157 0.943080 0.000000
0.396546 0.941198 0.000000
0.463936 0.939315 0.000000
0.531325 0.937432 0.000000
0.598715 0.935549 0.000000
0.666104 0.933666 0.000000
0.733494 0.931783 0.000000
0.800884 0.929900 0.000000
0.868273 0.928017 0.000000
0.935663 0.926134 0.000000
1.000000 0.924251 0.000000
1.000000 0.922368 0.000000
0.000000 1.000000 0.000000
0.055648 1.000000 0.000000
0.123037 1.000000 0.000000
0.190427 1.000000 0.000000
0.257816 1.000000 0.000000
0.325206 1.000000 0.000000
0.392595 1.000000 0.000000
0.459985 1.000000 0.000000
0.527374 1.000000 0.000000
0.594764 1.000000 0.000000
0.662154 1.000000 0.000000
0.729543 1.000000 0.000000
0.796933 0.999986 0.000000
0.864322 0.998103 0.000000
0.931712 0.996220 0.000000
0.999101 0.994337 0.000000
1.000000 0.992454 0.000000
0.000000 1.000000 0.000000
0.051697 1.000000 0.000000
0.119086 1.000000 0.000000
0.186476 1.000000 0.000000
0.253865 1.000000 0.000000
0.321255 1.000000 0.000000
0.388645 1.000000 0.000000
0.456034 1.000000 0.000000
0.523424 1.000000 0.000000
0.590813 1.000000 0.000000
0.658203 1.000000 0.000000
0.725592 1.000000 0.000000
0.792982 1.000000 0.000000
0.860371 1.000000 0.000000
0.927761 1.000000 0.000000
0.995150 1.000000 0.000000
1.000000 1.000000 0.000000
0.046781 0.000000 0.016531
0.114171 0.000000 0.014648
0.181561 0.000000 0.012766
0.248950 0.000000 0.010883
0.316340 0.000000 0.009000
0.383729 0.000000 0.007117
0.451119 0.000000 0.005234
0.518508 0.000000 0.003351
0.585898 0.000000 0.001468
0.653287 0.000000 0.000000
0.720677 0.000000 0.000000
0.788066 0.000000 0.000000
0.855456 0.000000 0.000000
0.922846 0.000000 0.000000
0.990235 0.000000 0.000000
1.000000 0.000000 0.000000
1.000000 0.000000 0.000000
0.042831 0.040637 0.012581
0.110220 0.038754 0.010698
0.177610 0.036872 0.008815
0.244999 0.034989 0.006932
0.312389 0.033106 0.005049
0.379778 0.031223 0.003166
0.447168 0.029340 0.001283
0.514557 0.027457 0.000000
0.581947 0.025574 0.000000
0.649336 0.023691 0.000000
0.716726 0.021808 0.000000
0.784116 0.019925 0.000000
0.851505 0.018042 0.000000
0.918895 0.016159 0.000000
0.986284 0.014276 0.000000
1.000000 0.012393 0.000000
1.000000 0.010510 0.000000
0.038880 0.110723 0.008630
0.106269 0.108840 0.006747
0.173659 0.106958 0.004864
0.241048 0.105075 0.002981
0.308438 0.103192 0.001098
0.375827 0.101309 0.000000
0.443217 0.099426 0.000000
0.510606 0.097543 0.000000
0.577996 0.095660 0.000000
0.645386 0.093777 0.000000
0.712775 0.091894 0.000000
0.780165 0.090011 0.000000
0.847554 0.088128 0.000000
0.914944 0.086245 0.000000
0.982333 0.084362 0.000000
1.000000 0.082479 0.000000
1.000000 0.080596 0.000000
0.034929 0.180809 0.004679
0.102318 0.178926 0.002796
0.169708 0.177043 0.000913
0.237097 0.175161 0.000000
0.304487 0.173278 0.000000
0.371877 0.171395 0.000000
0.439266 0.169512 0.000000
0.506656 0.167629 0.000000
0.574045 0.165746 0.000000
0.641435 0.163863 0.000000
0.708824 0.161980 0.000000
0.776214 0.160097 0.000000
0.843603 0.158214 0.000000
0.910993 0.156331 0.000000
0.978382 0.154448 0.000000
1.000000 0.152565 0.000000
1.000000 0.150682 0.000000
0.030978 0.250895 0.000728
0.098367 0.249012 0.000000
0.165757 0.247129 0.000000
0.233147 0.245247 0.000000
0.300536 0.243364 0.000000
0.367926 0.241481 0.000000
0.435315 0.239598 0.000000
0.502705 0.237715 0.000000
0.570094 0.235832 0.000000
0.637484 0.233949 0.000000
0.704873 0.232066 0.000000
0.772263 0.230183 0.000000
0.839652 0.228300 0.000000
0.907042 0.226417 0.000000
0.974432 0.224534 0.000000
1.000000 0.222651 0.000000
1.000000 0.220768 0.000000
0.027027 0.320981 0.000000
0.094417 0.319098 0.000000
0.161806 0.317215 0.000000
0.229196 0.315333 0.000000
0.296585 0.313450 0.000000
0.363975 0.311567 0.000000
0.431364 0.309684 0.000000
0.498754 0.307801 0.000000
0.566143 0.305918 0.000000
0.633533 0.304035 0.000000
0.700923 0.302152 0.000000
0.768312 0.300269 0.000000
0.835702 0.298386 0.000000
0.903091 0.296503 0.000000
0.970481 0.294620 0.000000
1.000000 0.292737 0.000000
1.000000 0.290854 0.000000
0.023076 0.391067 0.000000
0.090466 0.389184 0.000000
0.157855 0.387301 0.000000
0.225245 0.385419 0.000000
0.292634 0.383536 0.000000
0.360024 0.381653 0.000000
0.427413 0.379770 0.000000
0.494803 0.377887 0.000000
0.562193 0.376004 0.000000
0.629582 0.374121 0.000000
0.696972 0.372238 0.000000
0.764361 0.370355 0.000000
0.831751 0.368472 0.000000
0.899140 0.366589 0.000000
0.966530 0.364706 0.000000
1.000000 0.362823 0.000000
1.000000 0.360940 0.000000
0.019125 0.461153 0.000000
0.086515 0.459270 0.000000
0.153904 0.457387 0.000000
0.221294 0.455505 0.000000
0.288683 0.453622 0.000000
0.356073 0.451739 0.000000
0.423463 0.449856 0.000000
0.490852 0.447973 0.000000
0.558242 0.446090 0.000000
0.625631 0.444207 0.000000
0.693021 0.442324 0.000000
0.760410 0.440441 0.000000
0.827800 0.438558 0.000000
0.895189 0.436675 0.000000
0.962579 0.434792 0.000000
1.000000 0.432909 0.000000
1.000000 0.431026 0.000000
0.015174 0.531239 0.000000
0.082564 0.529356 0.000000
0.149953 0.527473 0.000000
0.217343 0.525591 0.000000
0.284733 0.523708 0.000000
0.352122 0.521825 0.000000
0.419512 0.519942 0.000000
0.486901 0.518059 0.000000
0.554291 0.516176 0.000000
0.621680 0.514293 0.000000
0.689070 0.512410 0.000000
0.756459 0.510527 0.000000
0.823849 0.508644 0.000000
0.891239 0.506761 0.000000
0.958628 0.504878 0.000000
1.000000 0.502995 0.000000
1.000000 0.501112 0.000000
0.011224 0.601325 0.000000
0.078613 0.599442 0.000000
0.146003 0.597559 0.000000
0.213392 0.595677 0.000000
0.280782 0.593794 0.000000
0.348171 0.591911 0.000000
0.415561 0.590028 0.000000
0.482950 0.588145 0.000000
0.550340 0.586262 0.000000
0.617729 0.584379 0.000000
0.685119 0.582496 0.000000
0.752509 0.580613 0.000000
0.819898 0.578730 0.000000
0.887288 0.576847 0.000000
0.954677 0.574964 0.000000
1.000000 0.573081 0.000000
1.000000 0.571198 0.000000
0.007273 0.671411 0.000000
0.074662 0.669528 0.000000
0.142052 0.667645 0.000000
0.209441 0.665763 0.000000
0.276831 0.663880 0.000000
0.344220 0.661997 0.000000
0.411610 0.660114 0.000000
0.478999 0.658231 0.000000
0.546389 0.656348 0.000000
0.613779 0.654465 0.000000
0.681168 0.652582 0.000000
0.748558 0.650699 0.000000
0.815947 0.648816 0.000000
0.883337 0.646933 0.000000
0.950726 0.645050 0.000000
1.000000 0.643167 0.000000
1.000000 0.641284 0.000000
0.003322 0.741497 0.000000
0.070711 0.739614 0.000000
0.138101 0.737731 0.000000
0.205490 0.735849 0.000000
0.272880 0.733966 0.000000
0.340270 0.732083 0.000000
0.407659 0.730200 0.000000
0.475049 0.728317 0.000000
0.542438 0.726434 0.000000
0.609828 0.724551 0.000000
0.677217 0.722668 0.000000
0.744607 0.720785 0.000000
0.811996 0.718902 0.000000
0.879386 0.717019 0.000000
0.946775 0.715136 0.000000
1.000000 0.713253 0.000000
1.000000 0.711370 0.000000
0.000000 0.811583 0.000000
0.066760 0.809700 0.000000
0.134150 0.807817 0.000000
0.201540 0.805935 0.000000
0.268929 0.804052 0.000000
0.336319 0.802169 0.000000
0.403708 0.800286 0.000000
0.471098 0.798403 0.000000
0.538487 0.796520 0.000000
0.605877 0.794637 0.000000
0.673266 0.792754 0.000000
0.740656 0.790871 0.000000
0.808045 0.788988 0.000000
0.875435 0.787105 0.000000
0.942825 0.785222 0.000000
1.000000 0.783339 0.000000
1.000000 0.781456 0.000000
0.000000 0.881669 0.000000
0.062810 0.879786 0.000000
0.130199 0.877903 0.000000
0.197589 0.876021 0.000000
0.264978 0.874138 0.000000
0.332368 0.872255 0.000000
0.399757 0.870372 0.000000
0.467147 0.868489 0.000000
0.534536 0.866606 0.000000
0.601926 0.864723 0.000000
0.669315 0.862840 0.000000
0.736705 0.860957 0.000000
0.804095 0.859074 0.000000
0.871484 0.857191 0.000000
0.938874 0.855308 0.000000
1.000000 0.853425 0.000000
1.000000 0.851542 0.000000
0.000000 0.951755 0.000000
0.058859 0.949872 0.000000
0.126248 0.947989 0.000000
0.193638 0.946107 0.000000
0.261027 0.944224 0.000000
0.328417 0.942341 0.000000
0.395806 0.940458 0.000000
0.463196 0.938575 0.000000
0.530586 0.936692 0.000000
0.597975 0.934809 0.000000
0.665365 0.932926 0.000000
0.732754 0.931043 0.000000
0.800144 0.929160 0.000000
0.867533 0.927277 0.000000
0.934923 0.925394 0.000000
1.000000 0.923511 0.000000
1.000000 0.921628 0.000000
0.000000 1.000000 0.000000
0.054908 1.000000 0.000000
0.122297 1.000000 0.000000
0.189687 1.000000 0.000000
0.257076 1.000000 0.000000
0.324466 1.000000 0.000000
0.391856 1.000000 0.000000
0.459245 1.000000 0.000000
0.526635 1.000000 0.000000
0.594024 1.000000 0.000000
0.661414 1.000000 0.000000
0.728803 1.000000 0.000000
0.796193 0.999246 0.000000
0.863582 0.997363 0.000000
0.930972 0.995480 0.000000
0.998361 0.993597 0.000000
1.000000 0.991714 0.000000
0.000000 1.000000 0.000000
0.050957 1.000000 0.000000
0.118346 1.000000 0.000000
0.185736 1.000000 0.000000
0.253126 1.000000 0.000000
0.320515 1.000000 0.000000
0.387905 1.000000 0.000000
0.455294 1.000000 0.000000
0.522684 1.000000 0.000000
0.590073 1.000000 0.000000
0.657463 1.000000 0.000000
0.724852 1.000000 0.000000
0.792242 1.000000 0.000000
0.859631 1.000000 0.000000
0.927021 1.000000 0.000000
0.994411 1.000000 0.000000
1.000000 1.000000 0.000000
0.046042 0.000000 0.087182
0.113431 0.000000 0.085299
0.180821 0.000000 0.083416
0.248210 0.000000 0.081533
0.315600 0.000000 0.079650
0.382989 0.000000 0.077767
0.450379 0.000000 0.075884
0.517768 0.000000 0.074001
0.585158 0.000000 0.072118
0.652547 0.000000 0.070235
0.719937 0.000000 0.068352
0.787327 0.000000 0.066469
0.854716 0.000000 0.064586
0.922106 0.000000 0.062703
0.989495 0.000000 0.060820
1.000000 0.000000 0.058937
1.000000 0.000000 0.057054
0.042091 0.039898 0.083231
0.109480 0.038015 0.081348
0.176870 0.036132 0.079465
0.244259 0.034249 0.077582
0.311649 0.032366 0.075699
0.379038 0.030483 0.073816
0.446428 0.028600 0.071933
0.513818 0.026717 0.070050
0.581207 0.024834 0.068167
0.648597 0.022951 0.066284
0.715986 0.021068 0.064401
0.783376 0.019185 0.062518
0.850765 0.017302 0.060635
0.918155 0.015419 0.058752
0.985544 0.013536 0.056869
1.000000 0.011653 0.054986
1.000000 0.009770 0.053103
0.038140 0.109984 0.079280
0.105529 0.108101 0.077397
0.172919 0.106218 0.075514
0.240308 0.104335 0.073631
0.307698 0.102452 0.071748
0.375088 0.100569 0.069865
0.442477 0.098686 0.067982
0.509867 0.096803 0.066099
0.577256 0.094920 0.064216
0.644646 0.093037 0.062333
0.712035 0.091154 0.060450
0.779425 0.089271 0.058567
0.846814 0.087388 0.056684
0.914204 0.085505 0.054801
0.981593 0.083622 0.052918
1.000000 0.081739 0.051036
1.000000 0.079856 0.049153
0.034189 0.180070 0.075329
0.101578 0.178187 0.073446
0.168968 0.176304 0.071563
0.236358 0.174421 0.069680
0.303747 0.172538 0.067797
0.371137 0.170655 0.065914
0.438526 0.168772 0.064031
0.505916 0.166889 0.062148
0.573305 0.165006 0.060265
0.640695 0.163123 0.058382
0.708084 0.161240 0.056499
0.775474 0.159357 0.054616
0.842863 0.157474 0.052733
0.910253 0.155591 0.050851
0.977643 0.153708 0.048968
1.000000 0.151825 0.047085
1.000000 0.149942 0.045202
0.030238 0.250156 0.071378
0.097628 0.248273 0.069495
0.165017 0.246390 0.067612
0.232407 0.244507 0.065729
0.299796 0.242624 0.063846
0.367186 0.240741 0.061963
0.434575 0.238858 0.060080
0.501965 0.236975 0.058197
0.569354 0.235092 0.056314
0.636744 0.233209 0.054431
0.704134 0.231326 0.052549
0.771523 0.229443 0.050666
0.838913 0.227560 0.048783
0.906302 0.225677 0.046900
0.973692 0.223794 0.045017
1.000000 0.221911 0.043134
1.000000 0.220028 0.041251
0.026287 0.320242 0.067427
0.093677 0.318359 0.065544
0.161066 0.316476 0.063661
0.228456 0.314593 0.061778
0.295845 0.312710 0.059895
0.363235 0.310827 0.058012
0.430624 0.308944 0.056129
0.498014 0.307061 0.054246
0.565404 0.305178 0.052364
0.632793 0.303295 0.050481
0.700183 0.301412 0.048598
0.767572 0.299529 0.046715
0.834962 0.297646 0.044832
0.902351 0.295763 0.042949
0.969741 0.293880 0.041066
1.000000 0.291997 0.039183
1.000000 0.290114 0.037300
0.022336 0.390328 0.063476
0.089726 0.388445 0.061593
0.157115 0.386562 0.059710
0.224505 0.384679 0.057827
0.291894 0.382796 0.055944
0.359284 0.380913 0.054062
0.426674 0.379030 0.052179
0.494063 0.377147 0.050296
0.561453 0.375264 0.048413
0.628842 0.373381 0.046530
0.696232 0.371498 0.044647
0.763621 0.369615 0.042764
0.831011 0.367732 0.040881
0.898400 0.365849 0.038998
0.965790 0.363966 0.037115
1.000000 0.362083 0.035232
1.000000 0.360200 0.033349
0.018385 0.460414 0.059525
0.085775 0.458531 0.057642
0.153165 0.456648 0.055760
0.220554 0.454765 0.053877
0.287944 0.452882 0.051994
0.355333 0.450999 0.050111
0.422723 0.449116 0.048228
0.490112 0.447233 0.046345
0.557502 0.445350 0.044462
0.624891 0.443467 0.042579
0.692281 0.441584 0.040696
0.759670 0.439701 0.038813
0.827060 0.437818 0.036930
0.894450 0.435935 0.035047
0.961839 0.434052 0.033164
1.000000 0.432169 0.031281
1.000000 0.430286 0.029398
0.014435 0.530500 0.055575
0.081824 0.528617 0.053692
0.149214 0.526734 0.051809
0.216603 0.524851 0.049926
0.283993 0.522968 0.048043
0.351382 0.521085 0.046160
0.418772 0.519202 0.044277
0.486161 0.517319 0.042394
0.553551 0.515436 0.040511
0.620940 0.513553 0.038628
0.688330 0.511670 0.036745
0.755720 0.509787 0.034862
0.823109 0.507904 0.032979
0.890499 0.506021 0.031096
0.957888 0.504138 0.029213
1.000000 0.502255 0.027330
1.000000 0.500372 0.025447
0.010484 0.600586 0.051624
0.077873 0.598703 0.049741
0.145263 0.596820 0.047858
0.212652 0.594937 0.045975
0.280042 0.593054 0.044092
0.347431 0.591171 0.042209
0.414821 0.589288 0.040326
0.482210 0.587405 0.038443
0.549600 0.585522 0.036560
0.616990 0.583639 0.034677
0.684379 0.581756 0.032794
0.751769 0.579873 0.030911
0.819158 0.577990 0.029028
0.886548 0.576107 0.027145
0.953937 0.574224 0.025262
1.000000 0.572341 0.023379
1.000000 0.570458 0.021496
0.006533 0.670672 0.047673
0.073922 0.668789 0.045790
0.141312 0.666906 0.043907
0.208701 0.665023 0.042024
0.276091 0.663140 0.040141
0.343481 0.661257 0.038258
0.410870 0.659374 0.036375
0.478260 0.657491 0.034492
0.545649 0.655608 0.032609
0.613039 0.653725 0.030726
0.680428 0.651842 0.028843
0.747818 0.649959 0.026960
0.815207 0.648076 0.025077
0.882597 0.646193 0.023194
0.949986 0.644310 0.021311
1.000000 0.642427 0.019428
1.000000 0.640544 0.017546
0.002582 0.740758 0.043722
0.069971 0.738875 0.041839
0.137361 0.736992 0.039956
0.204751 0.735109 0.038073
0.272140 0.733226 0.036190
0.339530 0.731343 0.034307
0.406919 0.729460 0.032424
0.474309 0.727577 0.030541
0.541698 0.725694 0.028658
0.609088 0.723811 0.026775
0.676477 0.721928 0.024892
0.743867 0.720045 0.023009
0.811256 0.718162 0.021126
0.878646 0.716279 0.019244
0.946036 0.714396 0.017361
1.000000 0.712513 0.015478
1.000000 0.710630 0.013595
0.000000 0.810844 0.039771
0.066021 0.808961 0.037888
0.133410 0.807078 0.036005
0.200800 0.805195 0.034122
0.268189 0.803312 0.032239
0.335579 0.801429 0.030356
0.402968 0.799546 0.028473
0.470358 0.797663 0.026590
0.537747 0.795780 0.024707
0.605137 0.793897 0.022824
0.672527 0.792014 0.020942
0.739916 0.790131 0.019059
0.807306 0.788248 0.017176
0.874695 0.786365 0.015293
0.942085 0.784482 0.013410
1.000000 0.782599 0.011527
1.000000 0.780716 0.009644
0.000000 0.880930 0.035820
0.062070 0.879047 0.033937
0.129459 0.877164 0.032054
0.196849 0.875281 0.030171
0.264238 0.873398 0.028288
0.331628 0.871515 0.026405
0.399017 0.869632 0.024522
0.466407 0.867749 0.022639
0.533797 0.865866 0.020757
0.601186 0.863983 0.018874
0.668576 0.862100 0.016991
0.735965 0.860217 0.015108
0.803355 0.858334 0.013225
0.870744 0.856451 0.011342
0.938134 0.854568 0.009459
1.000000 0.852685 0.007576
1.000000 0.850802 0.005693
0.000000 0.951016 0.031869
0.058119 0.949133 0.029986
0.125508 0.947250 0.028103
0.192898 0.945367 0.026220
0.260287 0.943484 0.024337
0.327677 0.941601 0.022455
0.395067 0.939718 0.020572
0.462456 0.937835 0.018689
0.529846 0.935952 0.016806
0.597235 0.934069 0.014923
0.664625 0.932186 0.013040
0.732014 0.930303 0.011157
0.799404 0.928420 0.009274
0.866793 0.926537 0.007391
0.934183 0.924654 0.005508
1.000000 0.922771 0.003625
1.000000 0.920888 0.001742
0.000000 1.000000 0.027918
0.054168 1.000000 0.026035
0.121557 1.000000 0.024152
0.188947 1.000000 0.022270
0.256337 1.000000 0.020387
0.323726 1.000000 0.018504
0.391116 1.000000 0.016621
0.458505 1.000000 0.014738
0.525895 1.000000 0.012855
0.593284 1.000000 0.010972
0.660674 1.000000 0.009089
0.728063 1.000000 0.007206
0.795453 0.998506 0.005323
0.862843 0.996623 0.003440
0.930232 0.994740 0.001557
0.997622 0.992857 0.000000
1.000000 0.990974 0.000000
0.000000 1.000000 0.023968
0.050217 1.000000 0.022085
0.117607 1.000000 0.020202
0.184996 1.000000 0.018319
0.252386 1.000000 0.016436
0.319775 1.000000 0.014553
0.387165 1.000000 0.012670
0.454554 1.000000 0.010787
0.521944 1.000000 0.008904
0.589333 1.000000 0.007021
0.656723 1.000000 0.005138
0.724113 1.000000 0.003255
0.791502 1.000000 0.001372
0.858892 1.000000 0.000000
0.926281 1.000000 0.000000
0.993671 1.000000 0.000000
1.000000 1.000000 0.000000
0.045302 0.000000 0.157832
0.112691 0.000000 0.155949
0.180081 0.000000 0.154066
0.247470 0.000000 0.152183
0.314860 0.000000 0.150300
0.382249 0.000000 0.148417
0.449639 0.000000 0.146534
0.517029 0.000000 0.144651
0.584418 0.000000 0.142768
0.651808 0.000000 0.140885
0.719197 0.000000 0.139002
0.786587 0.000000 0.137119
0.853976 0.000000 0.135236
0.921366 0.000000 0.133353
0.988755 0.000000 0.131470
1.000000 0.000000 0.129587
1.000000 0.000000 0.127704
0.041351 0.039158 0.153881
