shared/src/main/assets/luts/dalur_night_01.cube
TITLE "DALUR night"
LUT_3D_SIZE 9
DOMAIN_MIN 0.0 0.0 0.0
DOMAIN_MAX 1.0 1.0 1.0
0.008000 0.008000 0.008000
0.072622 0.008000 0.008000
0.194101 0.008000 0.008000
0.315580 0.008000 0.008000
0.437059 0.008000 0.008000
0.558539 0.008000 0.009380
0.680018 0.008000 0.013286
0.801497 0.008000 0.017192
0.922976 0.008000 0.021098
0.008000 0.083347 0.008000
0.080480 0.087253 0.008000
0.201959 0.091159 0.008000
0.323438 0.095065 0.009426
0.444917 0.098972 0.013332
0.566396 0.102878 0.017238
0.687875 0.106784 0.021144
0.809355 0.110690 0.025050
0.930834 0.114596 0.028956
0.008000 0.211681 0.008000
0.088337 0.215587 0.009471
0.209817 0.219493 0.013377
0.331296 0.223399 0.017284
0.452775 0.227305 0.021190
0.574254 0.231211 0.025096
0.695733 0.235117 0.029002
0.817212 0.239024 0.032908
0.938691 0.242930 0.036814
0.008000 0.340015 0.013423
0.096195 0.343921 0.017329
0.217674 0.347827 0.021235
0.339153 0.351733 0.025141
0.460633 0.355639 0.029047
0.582112 0.359545 0.032953
0.703591 0.363451 0.036859
0.825070 0.367357 0.040765
0.946549 0.371263 0.044671
0.008000 0.468349 0.021281
0.104053 0.472255 0.025187
0.225532 0.476161 0.029093
0.347011 0.480067 0.032999
0.468490 0.483973 0.036905
0.589969 0.487879 0.040811
0.711449 0.491785 0.044717
0.832928 0.495691 0.048623
0.954407 0.499597 0.052529
0.008000 0.596683 0.029139
0.111911 0.600589 0.033045
0.233390 0.604495 0.036951
0.354869 0.608401 0.040857
0.476348 0.612307 0.044763
0.597827 0.616213 0.048669
0.719306 0.620119 0.052575
0.840785 0.624025 0.056481
0.962265 0.627931 0.060387
0.008000 0.725017 0.036996
0.119768 0.728923 0.040902
0.241247 0.732829 0.044808
0.362727 0.736735 0.048714
0.484206 0.740641 0.052620
0.605685 0.744547 0.056526
0.727164 0.748453 0.060433
0.848643 0.752359 0.064339
0.968000 0.756265 0.068245
0.008000 0.853351 0.044854
0.127626 0.857257 0.048760
0.249105 0.861163 0.052666
0.370584 0.865069 0.056572
0.492063 0.868975 0.060478
0.613543 0.872881 0.064384
0.735022 0.876787 0.068290
0.856501 0.880693 0.072196
0.968000 0.884599 0.076102
0.014005 0.968000 0.052712
0.135484 0.968000 0.056618
0.256963 0.968000 0.060524
0.378442 0.968000 0.064430
0.499921 0.968000 0.068336
0.621400 0.968000 0.072242
0.742879 0.968000 0.076148
0.864359 0.968000 0.080054
0.968000 0.968000 0.083960
0.008000 0.008000 0.107442
0.074093 0.008000 0.111348
0.195572 0.008000 0.115255
0.317051 0.008000 0.119161
0.438530 0.008000 0.123067
0.560009 0.008000 0.126973
0.681489 0.008000 0.130879
0.802968 0.008000 0.134785
0.924447 0.008000 0.138691
0.008000 0.084818 0.115300
0.081951 0.088724 0.119206
0.203430 0.092630 0.123112
0.324909 0.096536 0.127018
0.446388 0.100442 0.130924
0.567867 0.104348 0.134830
0.689346 0.108254 0.138736
0.810825 0.112161 0.142642
0.932305 0.116067 0.146548
0.008000 0.213152 0.123158
0.089808 0.217058 0.127064
0.211287 0.220964 0.130970
0.332767 0.224870 0.134876
0.454246 0.228776 0.138782
0.575725 0.232682 0.142688
0.697204 0.236588 0.146594
0.818683 0.240494 0.150500
0.940162 0.244400 0.154406
0.008000 0.341486 0.131016
0.097666 0.345392 0.134922
0.219145 0.349298 0.138828
0.340624 0.353204 0.142734
0.462103 0.357110 0.146640
0.583583 0.361016 0.150546
0.705062 0.364922 0.154452
0.826541 0.368828 0.158358
0.948020 0.372734 0.162264
0.008000 0.469820 0.138873
0.105524 0.473726 0.142779
0.227003 0.477632 0.146685
0.348482 0.481538 0.150591
0.469961 0.485444 0.154497
0.591440 0.489350 0.158404
0.712919 0.493256 0.162310
0.834399 0.497162 0.166216
0.955878 0.501068 0.170122
0.008000 0.598154 0.146731
0.113381 0.602060 0.150637
0.234861 0.605966 0.154543
0.356340 0.609872 0.158449
0.477819 0.613778 0.162355
0.599298 0.617684 0.166261
0.720777 0.621590 0.170167
0.842256 0.625496 0.174073
0.963736 0.629402 0.177979
0.008000 0.726488 0.154589
0.121239 0.730394 0.158495
0.242718 0.734300 0.162401
0.364197 0.738206 0.166307
0.485677 0.742112 0.170213
0.607156 0.746018 0.174119
0.728635 0.749924 0.178025
0.850114 0.753830 0.181931
0.968000 0.757736 0.185837
0.008000 0.854822 0.162446
0.129097 0.858728 0.166353
0.250576 0.862634 0.170259
0.372055 0.866540 0.174165
0.493534 0.870446 0.178071
0.615013 0.874352 0.181977
0.736493 0.878258 0.185883
0.857972 0.882164 0.189789
0.968000 0.886070 0.193695
0.015475 0.968000 0.170304
0.136955 0.968000 0.174210
0.258434 0.968000 0.178116
0.379913 0.968000 0.182022
0.501392 0.968000 0.185928
0.622871 0.968000 0.189834
0.744350 0.968000 0.193740
0.865830 0.968000 0.197646
0.968000 0.968000 0.201553
0.008000 0.008000 0.225035
0.075564 0.008000 0.228941
0.197043 0.008000 0.232847
0.318522 0.008000 0.236753
0.440001 0.008000 0.240659
0.561480 0.008000 0.244565
0.682959 0.008000 0.248471
0.804439 0.008000 0.252377
0.925918 0.008000 0.256283
0.008000 0.086289 0.232893
0.083421 0.090195 0.236799
0.204901 0.094101 0.240705
0.326380 0.098007 0.244611
0.447859 0.101913 0.248517
0.569338 0.105819 0.252423
0.690817 0.109725 0.256329
0.812296 0.113631 0.260235
0.933776 0.117537 0.264141
0.008000 0.214623 0.240750
0.091279 0.218529 0.244656
0.212758 0.222435 0.248562
0.334237 0.226341 0.252468
0.455717 0.230247 0.256375
0.577196 0.234153 0.260281
0.698675 0.238059 0.264187
0.820154 0.241965 0.268093
0.941633 0.245871 0.271999
0.008000 0.342957 0.248608
0.099137 0.346863 0.252514
0.220616 0.350769 0.256420
0.342095 0.354675 0.260326
0.463574 0.358581 0.264232
0.585053 0.362487 0.268138
0.706533 0.366393 0.272044
0.828012 0.370299 0.275950
0.949491 0.374205 0.279856
0.008000 0.471291 0.256466
0.106995 0.475197 0.260372
0.228474 0.479103 0.264278
0.349953 0.483009 0.268184
0.471432 0.486915 0.272090
0.592911 0.490821 0.275996
0.714390 0.494727 0.279902
0.835870 0.498633 0.283808
0.957349 0.502539 0.287714
0.008000 0.599625 0.264324
0.114852 0.603531 0.268230
0.236331 0.607437 0.272136
0.357811 0.611343 0.276042
0.479290 0.615249 0.279948
0.600769 0.619155 0.283854
0.722248 0.623061 0.287760
0.843727 0.626967 0.291666
0.965206 0.630873 0.295572
0.008000 0.727959 0.272181
0.122710 0.731865 0.276087
0.244189 0.735771 0.279993
0.365668 0.739677 0.283899
0.487147 0.743583 0.287805
0.608627 0.747489 0.291711
0.730106 0.751395 0.295617
0.851585 0.755301 0.299524
0.968000 0.759207 0.303430
0.009089 0.856292 0.280039
0.130568 0.860198 0.283945
0.252047 0.864104 0.287851
0.373526 0.868011 0.291757
0.495005 0.871917 0.295663
0.616484 0.875823 0.299569
0.737964 0.879729 0.303475
0.859443 0.883635 0.307381
0.968000 0.887541 0.311287
0.016946 0.968000 0.287897
0.138425 0.968000 0.291803
0.259905 0.968000 0.295709
0.381384 0.968000 0.299615
0.502863 0.968000 0.303521
0.624342 0.968000 0.307427
0.745821 0.968000 0.311333
0.867300 0.968000 0.315239
0.968000 0.968000 0.319145
0.008000 0.008000 0.342627
0.077035 0.008000 0.346533
0.198514 0.008000 0.350439
0.319993 0.008000 0.354345
0.441472 0.008000 0.358252
0.562951 0.008000 0.362158
0.684430 0.008000 0.366064
0.805909 0.008000 0.369970
0.927389 0.008000 0.373876
0.008000 0.087760 0.350485
0.084892 0.091666 0.354391
0.206371 0.095572 0.358297
0.327851 0.099478 0.362203
0.449330 0.103384 0.366109
0.570809 0.107290 0.370015
0.692288 0.111196 0.373921
0.813767 0.115102 0.377827
0.935246 0.119008 0.381733
0.008000 0.216094 0.358343
0.092750 0.220000 0.362249
0.214229 0.223906 0.366155
0.335708 0.227812 0.370061
0.457187 0.231718 0.373967
0.578667 0.235624 0.377873
0.700146 0.239530 0.381779
0.821625 0.243436 0.385685
0.943104 0.247342 0.389591
0.008000 0.344428 0.366201
0.100608 0.348334 0.370107
0.222087 0.352240 0.374013
0.343566 0.356146 0.377919
0.465045 0.360052 0.381825
0.586524 0.363958 0.385731
0.708003 0.367864 0.389637
0.829483 0.371770 0.393543
0.950962 0.375676 0.397449
0.008000 0.472762 0.374058
0.108465 0.476668 0.377964
0.229945 0.480574 0.381870
0.351424 0.484480 0.385776
0.472903 0.488386 0.389682
0.594382 0.492292 0.393588
0.715861 0.496198 0.397495
0.837340 0.500104 0.401401
0.958820 0.504010 0.405307
0.008000 0.601096 0.381916
0.116323 0.605002 0.385822
0.237802 0.608908 0.389728
0.359281 0.612814 0.393634
0.480761 0.616720 0.397540
0.602240 0.620626 0.401446
0.723719 0.624532 0.405352
0.845198 0.628438 0.409258
0.966677 0.632344 0.413164
0.008000 0.729429 0.389774
0.124181 0.733335 0.393680
0.245660 0.737241 0.397586
0.367139 0.741148 0.401492
0.488618 0.745054 0.405398
0.610098 0.748960 0.409304
0.731577 0.752866 0.413210
0.853056 0.756772 0.417116
0.968000 0.760678 0.421022
0.010559 0.857763 0.397631
0.132039 0.861669 0.401537
0.253518 0.865575 0.405444
0.374997 0.869481 0.409350
0.496476 0.873387 0.413256
0.617955 0.877293 0.417162
0.739434 0.881200 0.421068
0.860914 0.885106 0.424974
0.968000 0.889012 0.428880
0.018417 0.968000 0.405489
0.139896 0.968000 0.409395
0.261375 0.968000 0.413301
0.382855 0.968000 0.417207
0.504334 0.968000 0.421113
0.625813 0.968000 0.425019
0.747292 0.968000 0.428925
0.868771 0.968000 0.432831
0.968000 0.968000 0.436737
0.008000 0.008000 0.460220
0.078505 0.008000 0.464126
0.199985 0.008000 0.468032
0.321464 0.008000 0.471938
0.442943 0.008000 0.475844
0.564422 0.008000 0.479750
0.685901 0.008000 0.483656
0.807380 0.008000 0.487562
0.928860 0.008000 0.491468
0.008000 0.089231 0.468078
0.086363 0.093137 0.471984
0.207842 0.097043 0.475890
0.329321 0.100949 0.479796
0.450801 0.104855 0.483702
0.572280 0.108761 0.487608
0.693759 0.112667 0.491514
0.815238 0.116573 0.495420
0.936717 0.120479 0.499326
0.008000 0.217565 0.475935
0.094221 0.221471 0.479841
0.215700 0.225377 0.483747
0.337179 0.229283 0.487653
0.458658 0.233189 0.491559
0.580137 0.237095 0.495465
0.701617 0.241001 0.499372
0.823096 0.244907 0.503278
0.944575 0.248813 0.507184
0.008000 0.345899 0.483793
0.102079 0.349805 0.487699
0.223558 0.353711 0.491605
0.345037 0.357617 0.495511
0.466516 0.361523 0.499417
0.587995 0.365429 0.503323
0.709474 0.369335 0.507229
0.830954 0.373241 0.511135
0.952433 0.377147 0.515041
0.008000 0.474232 0.491651
0.109936 0.478139 0.495557
0.231415 0.482045 0.499463
0.352895 0.485951 0.503369
0.474374 0.489857 0.507275
0.595853 0.493763 0.511181
0.717332 0.497669 0.515087
0.838811 0.501575 0.518993
0.960290 0.505481 0.522899
0.008000 0.602566 0.499508
0.117794 0.606472 0.503414
0.239273 0.610378 0.507321
0.360752 0.614284 0.511227
0.482231 0.618191 0.515133
0.603711 0.622097 0.519039
0.725190 0.626003 0.522945
0.846669 0.629909 0.526851
0.968000 0.633815 0.530757
0.008000 0.730900 0.507366
0.125652 0.734806 0.511272
0.247131 0.738712 0.515178
0.368610 0.742618 0.519084
0.490089 0.746524 0.522990
0.611568 0.750430 0.526896
0.733048 0.754337 0.530802
0.854527 0.758243 0.534708
0.968000 0.762149 0.538615
0.012030 0.859234 0.515224
0.133509 0.863140 0.519130
0.254989 0.867046 0.523036
0.376468 0.870952 0.526942
0.497947 0.874858 0.530848
0.619426 0.878764 0.534754
0.740905 0.882670 0.538660
0.862384 0.886576 0.542566
0.968000 0.890482 0.546472
0.019888 0.968000 0.523082
0.141367 0.968000 0.526988
0.262846 0.968000 0.530894
0.384326 0.968000 0.534800
0.505805 0.968000 0.538706
0.627284 0.968000 0.542612
0.748763 0.968000 0.546518
0.870242 0.968000 0.550424
0.968000 0.968000 0.554330
0.008000 0.008000 0.577812
0.079976 0.008000 0.581718
0.201455 0.008000 0.585624
0.322935 0.008000 0.589530
0.444414 0.008000 0.593436
0.565893 0.008000 0.597343
0.687372 0.008000 0.601249
0.808851 0.008000 0.605155
0.930330 0.008000 0.609061
0.008000 0.090702 0.585670
0.087834 0.094608 0.589576
0.209313 0.098514 0.593482
0.330792 0.102420 0.597388
0.452271 0.106326 0.601294
0.573751 0.110232 0.605200
0.695230 0.114138 0.609106
0.816709 0.118044 0.613012
0.938188 0.121950 0.616918
0.008000 0.219036 0.593528
0.095692 0.222942 0.597434
0.217171 0.226848 0.601340
0.338650 0.230754 0.605246
0.460129 0.234660 0.609152
0.581608 0.238566 0.613058
0.703088 0.242472 0.616964
0.824567 0.246378 0.620870
0.946046 0.250284 0.624776
0.008000 0.347369 0.601385
0.103549 0.351276 0.605292
0.225029 0.355182 0.609198
0.346508 0.359088 0.613104
0.467987 0.362994 0.617010
0.589466 0.366900 0.620916
0.710945 0.370806 0.624822
0.832424 0.374712 0.628728
0.953904 0.378618 0.632634
0.008000 0.475703 0.609243
0.111407 0.479609 0.613149
0.232886 0.483515 0.617055
0.354365 0.487421 0.620961
0.475845 0.491328 0.624867
0.597324 0.495234 0.628773
0.718803 0.499140 0.632679
0.840282 0.503046 0.636585
0.961761 0.506952 0.640492
0.008000 0.604037 0.617101
0.119265 0.607943 0.621007
0.240744 0.611849 0.624913
0.362223 0.615755 0.628819
0.483702 0.619661 0.632725
0.605182 0.623567 0.636631
0.726661 0.627473 0.640537
0.848140 0.631380 0.644443
0.968000 0.635286 0.648349
0.008000 0.732371 0.624959
0.127123 0.736277 0.628865
0.248602 0.740183 0.632771
0.370081 0.744089 0.636677
0.491560 0.747995 0.640583
0.613039 0.751901 0.644489
0.734518 0.755807 0.648395
0.855998 0.759713 0.652301
0.968000 0.763619 0.656207
0.013501 0.860705 0.632816
0.134980 0.864611 0.636722
0.256459 0.868517 0.640628
0.377939 0.872423 0.644534
0.499418 0.876329 0.648441
0.620897 0.880235 0.652347
0.742376 0.884141 0.656253
0.863855 0.888047 0.660159
0.968000 0.891953 0.664065
0.021359 0.968000 0.640674
0.142838 0.968000 0.644580
0.264317 0.968000 0.648486
0.385796 0.968000 0.652392
0.507276 0.968000 0.656298
0.628755 0.968000 0.660204
0.750234 0.968000 0.664110
0.871713 0.968000 0.668016
0.968000 0.968000 0.671922
0.008000 0.008000 0.695405
0.081447 0.008000 0.699311
0.202926 0.008000 0.703217
0.324405 0.008000 0.707123
0.445885 0.008000 0.711029
0.567364 0.008000 0.714935
0.688843 0.008000 0.718841
0.810322 0.008000 0.722747
0.931801 0.008000 0.726653
0.008000 0.092173 0.703263
0.089305 0.096079 0.707169
0.210784 0.099985 0.711075
0.332263 0.103891 0.714981
0.453742 0.107797 0.718887
0.575222 0.111703 0.722793
0.696701 0.115609 0.726699
0.818180 0.119515 0.730605
0.939659 0.123421 0.734511
0.008000 0.220506 0.711120
0.097163 0.224413 0.715026
0.218642 0.228319 0.718932
0.340121 0.232225 0.722838
0.461600 0.236131 0.726744
0.583079 0.240037 0.730650
0.704558 0.243943 0.734556
0.826038 0.247849 0.738463
0.947517 0.251755 0.742369
0.008000 0.348840 0.718978
0.105020 0.352746 0.722884
0.226499 0.356652 0.726790
0.347979 0.360558 0.730696
0.469458 0.364465 0.734602
0.590937 0.368371 0.738508
0.712416 0.372277 0.742414
0.833895 0.376183 0.746320
0.955374 0.380089 0.750226
0.008000 0.477174 0.726836
0.112878 0.481080 0.730742
0.234357 0.484986 0.734648
0.355836 0.488892 0.738554
0.477316 0.492798 0.742460
0.598795 0.496704 0.746366
0.720274 0.500610 0.750272
0.841753 0.504517 0.754178
0.963232 0.508423 0.758084
0.008000 0.605508 0.734693
0.120736 0.609414 0.738599
0.242215 0.613320 0.742505
0.363694 0.617226 0.746412
0.485173 0.621132 0.750318
0.606652 0.625038 0.754224
0.728132 0.628944 0.758130
0.849611 0.632850 0.762036
0.968000 0.636756 0.765942
0.008000 0.733842 0.742551
0.128593 0.737748 0.746457
0.250073 0.741654 0.750363
0.371552 0.745560 0.754269
0.493031 0.749466 0.758175
0.614510 0.753372 0.762081
0.735989 0.757278 0.765987
0.857468 0.761184 0.769893
0.968000 0.765090 0.773799
0.014972 0.862176 0.750409
0.136451 0.866082 0.754315
0.257930 0.869988 0.758221
0.379410 0.873894 0.762127
0.500889 0.877800 0.766033
0.622368 0.881706 0.769939
0.743847 0.885612 0.773845
0.865326 0.889518 0.777751
0.968000 0.893424 0.781657
0.022830 0.968000 0.758267
0.144309 0.968000 0.762173
0.265788 0.968000 0.766079
0.387267 0.968000 0.769985
0.508746 0.968000 0.773891
0.630226 0.968000 0.777797
0.751705 0.968000 0.781703
0.873184 0.968000 0.785609
0.968000 0.968000 0.789515
0.008000 0.008000 0.812997
0.082918 0.008000 0.816903
0.204397 0.008000 0.820809
0.325876 0.008000 0.824715
0.447356 0.008000 0.828621
0.568835 0.008000 0.832527
0.690314 0.008000 0.836434
0.811793 0.008000 0.840340
0.933272 0.008000 0.844246
0.008000 0.093643 0.820855
0.090776 0.097550 0.824761
0.212255 0.101456 0.828667
0.333734 0.105362 0.832573
0.455213 0.109268 0.836479
0.576692 0.113174 0.840385
0.698172 0.117080 0.844291
0.819651 0.120986 0.848197
0.941130 0.124892 0.852103
0.008000 0.221977 0.828713
0.098633 0.225883 0.832619
0.220113 0.229789 0.836525
0.341592 0.233695 0.840431
0.463071 0.237602 0.844337
0.584550 0.241508 0.848243
0.706029 0.245414 0.852149
0.827508 0.249320 0.856055
0.948988 0.253226 0.859961
0.008000 0.350311 0.836570
0.106491 0.354217 0.840476
0.227970 0.358123 0.844383
0.349450 0.362029 0.848289
0.470929 0.365935 0.852195
0.592408 0.369841 0.856101
0.713887 0.373747 0.860007
0.835366 0.377654 0.863913
0.956845 0.381560 0.867819
0.008000 0.478645 0.844428
0.114349 0.482551 0.848334
0.235828 0.486457 0.852240
0.357307 0.490363 0.856146
0.478786 0.494269 0.860052
0.600266 0.498175 0.863958
0.721745 0.502081 0.867864
0.843224 0.505987 0.871770
0.964703 0.509893 0.875676
0.008000 0.606979 0.852286
0.122207 0.610885 0.856192
0.243686 0.614791 0.860098
0.365165 0.618697 0.864004
0.486644 0.622603 0.867910
0.608123 0.626509 0.871816
0.729602 0.630415 0.875722
0.851082 0.634321 0.879628
0.968000 0.638227 0.883534
0.008585 0.735313 0.860144
0.130064 0.739219 0.864050
0.251544 0.743125 0.867956
0.373023 0.747031 0.871862
0.494502 0.750937 0.875768
0.615981 0.754843 0.879674
0.737460 0.758749 0.883580
0.858939 0.762655 0.887486
0.968000 0.766561 0.891392
0.016443 0.863647 0.868001
0.137922 0.867553 0.871907
0.259401 0.871459 0.875813
0.380880 0.875365 0.879719
0.502360 0.879271 0.883625
0.623839 0.883177 0.887532
0.745318 0.887083 0.891438
0.866797 0.890989 0.895344
0.968000 0.894895 0.899250
0.024301 0.968000 0.875859
0.145780 0.968000 0.879765
0.267259 0.968000 0.883671
0.388738 0.968000 0.887577
0.510217 0.968000 0.891483
0.631696 0.968000 0.895389
0.753176 0.968000 0.899295
0.874655 0.968000 0.903201
0.968000 0.968000 0.907107
0.008000 0.008000 0.930590
0.084389 0.008000 0.934496
0.205868 0.008000 0.938402
0.327347 0.008000 0.942308
0.448826 0.008000 0.946214
0.570306 0.008000 0.950120
0.691785 0.008000 0.954026
0.813264 0.008000 0.957932
0.934743 0.008000 0.961838
0.008000 0.095114 0.938447
0.092247 0.099020 0.942354
0.213726 0.102926 0.946260
0.335205 0.106832 0.950166
0.456684 0.110739 0.954072
0.578163 0.114645 0.957978
0.699642 0.118551 0.961884
0.821122 0.122457 0.965790
0.942601 0.126363 0.968000
0.008000 0.223448 0.946305
0.100104 0.227354 0.950211
0.221584 0.231260 0.954117
0.343063 0.235166 0.958023
0.464542 0.239072 0.961929
0.586021 0.242978 0.965835
0.707500 0.246884 0.968000
0.828979 0.250791 0.968000
0.950458 0.254697 0.968000
0.008000 0.351782 0.954163
0.107962 0.355688 0.958069
0.229441 0.359594 0.961975
0.350920 0.363500 0.965881
0.472400 0.367406 0.968000
0.593879 0.371312 0.968000
0.715358 0.375218 0.968000
0.836837 0.379124 0.968000
0.958316 0.383030 0.968000
0.008000 0.480116 0.962021
0.115820 0.484022 0.965927
0.237299 0.487928 0.968000
0.358778 0.491834 0.968000
0.480257 0.495740 0.968000
0.601736 0.499646 0.968000
0.723216 0.503552 0.968000
0.844695 0.507458 0.968000
0.966174 0.511364 0.968000
0.008000 0.608450 0.968000
0.123678 0.612356 0.968000
0.245157 0.616262 0.968000
0.366636 0.620168 0.968000
0.488115 0.624074 0.968000
0.609594 0.627980 0.968000
0.731073 0.631886 0.968000
0.852552 0.635792 0.968000
0.968000 0.639698 0.968000
0.010056 0.736784 0.968000
0.131535 0.740690 0.968000
0.253014 0.744596 0.968000
0.374494 0.748502 0.968000
0.495973 0.752408 0.968000
0.617452 0.756314 0.968000
0.738931 0.760220 0.968000
0.860410 0.764126 0.968000
0.968000 0.768032 0.968000
0.017914 0.865118 0.968000
0.139393 0.869024 0.968000
0.260872 0.872930 0.968000
0.382351 0.876836 0.968000
0.503830 0.880742 0.968000
0.625310 0.884648 0.968000
0.746789 0.888554 0.968000
0.868268 0.892460 0.968000
0.968000 0.896366 0.968000
0.025772 0.968000 0.968000
0.147251 0.968000 0.968000
0.268730 0.968000 0.968000
0.390209 0.968000 0.968000
0.511688 0.968000 0.968000
0.633167 0.968000 0.968000
0.754646 0.968000 0.968000
0.876126 0.968000 0.968000
0.968000 0.968000 0.968000
