shared/src/main/assets/luts/dalur_summer_01.cube
TITLE "DALUR summer"
LUT_3D_SIZE 5
DOMAIN_MIN 0.0 0.0 0.0
DOMAIN_MAX 1.0 1.0 1.0
0.039240 0.000000 0.000000
0.316279 0.000000 0.000000
0.593318 0.000000 0.000000
0.870357 0.000000 0.000000
1.000000 0.000000 0.000000
0.014725 0.262182 0.000000
0.291764 0.250265 0.000000
0.568803 0.238348 0.000000
0.845842 0.226431 0.000000
1.000000 0.214514 0.000000
0.000000 0.540455 0.000000
0.267248 0.528538 0.000000
0.544287 0.516621 0.000000
0.821326 0.504704 0.000000
1.000000 0.492787 0.000000
0.000000 0.818729 0.000000
0.242733 0.806812 0.000000
0.519772 0.794895 0.000000
0.796811 0.782978 0.000000
1.000000 0.771061 0.000000
0.000000 1.000000 0.000000
0.218217 1.000000 0.000000
0.495256 1.000000 0.000000
0.772295 1.000000 0.000000
1.000000 1.000000 0.000000
0.034600 0.000000 0.255928
0.311639 0.000000 0.244011
0.588678 0.000000 0.232094
0.865717 0.000000 0.220177
1.000000 0.000000 0.208260
0.010084 0.257541 0.231412
0.287123 0.245624 0.219495
0.564162 0.233707 0.207578
0.841201 0.221790 0.195661
1.000000 0.209874 0.183745
0.000000 0.535815 0.206897
0.262608 0.523898 0.194980
0.539647 0.511981 0.183063
0.816686 0.500064 0.171146
1.000000 0.488147 0.159229
0.000000 0.814088 0.182381
0.238092 0.802171 0.170464
0.515132 0.790255 0.158548
0.792171 0.778338 0.146631
1.000000 0.766421 0.134714
0.000000 1.000000 0.157866
0.213577 1.000000 0.145949
0.490616 1.000000 0.134032
0.767655 1.000000 0.122115
1.000000 1.000000 0.110198
0.029960 0.000000 0.546392
0.306999 0.000000 0.534475
0.584038 0.000000 0.522558
0.861077 0.000000 0.510641
1.000000 0.000000 0.498724
0.005444 0.252901 0.521876
0.282483 0.240984 0.509959
0.559522 0.229067 0.498042
0.836561 0.217150 0.486125
1.000000 0.205233 0.474208
0.000000 0.531175 0.497361
0.257968 0.519258 0.485444
0.535007 0.507341 0.473527
0.812046 0.495424 0.461610
1.000000 0.483507 0.449693
0.000000 0.809448 0.472845
0.233452 0.797531 0.460928
0.510491 0.785614 0.449011
0.787530 0.773697 0.437094
1.000000 0.761780 0.425177
0.000000 1.000000 0.448330
0.208937 1.000000 0.436413
0.485976 1.000000 0.424496
0.763015 1.000000 0.412579
1.000000 1.000000 0.400662
0.025319 0.000000 0.836855
0.302358 0.000000 0.824938
0.579397 0.000000 0.813021
0.856436 0.000000 0.801104
1.000000 0.000000 0.789188
0.000804 0.248261 0.812340
0.277843 0.236344 0.800423
0.554882 0.224427 0.788506
0.831921 0.212510 0.776589
1.000000 0.200593 0.764672
0.000000 0.526534 0.787824
0.253327 0.514617 0.775907
0.530366 0.502700 0.763990
0.807406 0.490784 0.752074
1.000000 0.478867 0.740157
0.000000 0.804808 0.763309
0.228812 0.792891 0.751392
0.505851 0.780974 0.739475
0.782890 0.769057 0.727558
1.000000 0.757140 0.715641
0.000000 1.000000 0.738793
0.204296 1.000000 0.726876
0.481336 1.000000 0.714960
0.758375 1.000000 0.703043
1.000000 1.000000 0.691126
0.020679 0.000000 1.000000
0.297718 0.000000 1.000000
0.574757 0.000000 1.000000
0.851796 0.000000 1.000000
1.000000 0.000000 1.000000
0.000000 0.243621 1.000000
0.273203 0.231704 1.000000
0.550242 0.219787 1.000000
0.827281 0.207870 1.000000
1.000000 0.195953 1.000000
0.000000 0.521894 1.000000
0.248687 0.509977 1.000000
0.525726 0.498060 1.000000
0.802765 0.486143 1.000000
1.000000 0.474226 1.000000
0.000000 0.800168 1.000000
0.224172 0.788251 1.000000
0.501211 0.776334 1.000000
0.778250 0.764417 1.000000
1.000000 0.752500 1.000000
0.000000 1.000000 1.000000
0.199656 1.000000 1.000000
0.476695 1.000000 1.000000
0.753734 1.000000 0.993506
1.000000 1.000000 0.981589
