shared/src/main/assets/luts/dalur_red_100.cube
# Resampled 13pt -> 17pt (trilinear) from an MIT-licensed G'MIC film LUT.
# Source: github.com/YahiaAngelo/Film-Luts (MIT). See THIRD_PARTY_NOTICES.
TITLE "DALUR red 100"
# LUT size
LUT_3D_SIZE 17
# Data domain
DOMAIN_MIN 0.0 0.0 0.0
DOMAIN_MAX 1.0 1.0 1.0
# LUT data points
0.021429025 0.011478604 0.012066097
0.046752791 0.015418591 0.015891295
0.075757390 0.019745464 0.020540439
0.111093722 0.024076267 0.028997305
0.155412689 0.028028047 0.044245671
0.203706142 0.029989183 0.062959564
0.253922969 0.033804397 0.082133811
0.307805352 0.040803907 0.103324391
0.367095470 0.052317929 0.128087282
0.426306799 0.063499256 0.154129341
0.484330714 0.073059037 0.179410689
0.539751261 0.081780678 0.203304600
0.591152489 0.090447582 0.225184351
0.634261757 0.099821875 0.243563060
0.676712632 0.108218506 0.261635296
0.716999426 0.115007261 0.278679848
0.753616452 0.119557925 0.293975502
0.025614342 0.023510282 0.013805554
0.049334312 0.027202682 0.017601545
0.075996419 0.031154960 0.021845935
0.108845314 0.036084842 0.029358515
0.151125647 0.042710052 0.042959074
0.198934911 0.048065734 0.061599020
0.249297343 0.054235471 0.081133093
0.303789096 0.062404963 0.102826147
0.363986321 0.073759907 0.127943035
0.423702039 0.085039661 0.153948440
0.482419048 0.096290493 0.179354530
0.539331742 0.106835484 0.203746759
0.593634516 0.115997713 0.226710584
0.637911886 0.123579837 0.245543843
0.680467993 0.131125582 0.263637682
0.720038436 0.137657229 0.280475866
0.755358815 0.142197059 0.295542158
0.029797596 0.039656029 0.016142341
0.051703438 0.043986182 0.020137607
0.076934078 0.048684404 0.024586232
0.108197737 0.054393790 0.031746167
0.148202635 0.061757434 0.043875361
0.193810431 0.068546396 0.060838798
0.243441768 0.075731460 0.079802273
0.298097223 0.084486864 0.101544460
0.358777374 0.095986843 0.126844034
0.419765208 0.108563998 0.153175475
0.480255626 0.121582597 0.179117098
0.539295010 0.133516103 0.204267463
0.595929742 0.142837975 0.228225127
0.642152742 0.149450305 0.247849878
0.685049430 0.156175680 0.266049601
0.724113174 0.161993310 0.282650858
0.758837342 0.165882401 0.297480211
0.035523692 0.061630919 0.019808946
0.054662829 0.065329315 0.023324055
0.077941622 0.070081758 0.027770482
0.107645737 0.076041594 0.034856691
0.146060843 0.083362168 0.046291142
0.188662067 0.090366283 0.060887376
0.236643681 0.097720295 0.078337421
0.290835783 0.106851926 0.099417510
0.352068469 0.119188895 0.124903878
0.415136976 0.133736419 0.151937778
0.477956612 0.148143206 0.178704519
0.539268456 0.160783454 0.204751998
0.597813591 0.170031361 0.229628112
0.646625068 0.176227907 0.250277090
0.690319613 0.182177229 0.268774770
0.729335971 0.187038464 0.285305262
0.764112890 0.189970750 0.300052673
0.044337537 0.091150023 0.025537858
0.059015146 0.090792306 0.026985457
0.078390308 0.093094986 0.030407836
0.105684064 0.098066736 0.037386518
0.144117460 0.105716228 0.049503028
0.183819182 0.112460509 0.061953234
0.229190521 0.119629908 0.076934606
0.282110825 0.129302466 0.096383475
0.344459444 0.143556222 0.122236170
0.410458013 0.160221078 0.150362680
0.475638166 0.175180174 0.178122915
0.538879469 0.187598456 0.205085654
0.599061489 0.196640864 0.230819672
0.650969610 0.202707272 0.252621405
0.696141213 0.207938656 0.271716908
0.735819161 0.211815655 0.288539514
0.771246314 0.213818908 0.303522557
0.051414138 0.123057107 0.031012049
0.062821514 0.125224153 0.032863986
0.077290448 0.129287974 0.036137324
0.099726791 0.134750186 0.042455343
0.135036394 0.141112402 0.053441321
0.174780873 0.146121159 0.065599191
0.220531987 0.151723620 0.078684465
0.274940129 0.160530461 0.096210335
0.340655692 0.175152354 0.121689994
0.408018332 0.192409818 0.150572468
0.473904084 0.206736553 0.178429581
0.537938192 0.217489096 0.205355470
0.599745899 0.224023983 0.231444269
0.654795725 0.228697696 0.254706331
0.702340357 0.232904965 0.274775676
0.743756510 0.236040884 0.292320875
0.780420899 0.237500545 0.308010496
0.051385326 0.161919855 0.037362618
0.061521510 0.166437672 0.039835586
0.074045466 0.171524134 0.042833287
0.093307119 0.176945353 0.047820529
0.123656392 0.182467446 0.056262117
0.163128462 0.186976943 0.067807574
0.209805027 0.192696735 0.081207598
0.266129255 0.200904762 0.098739520
0.334544316 0.212878965 0.122680672
0.403851926 0.229100233 0.151118714
0.470767297 0.242351573 0.178607892
0.535791606 0.251697194 0.205481946
0.599426031 0.256201304 0.232074618
0.658169247 0.258604955 0.256687351
0.708842531 0.261845116 0.278034054
0.752566099 0.264590381 0.296583738
0.790460169 0.265509345 0.312805414
0.044852911 0.208626989 0.045406116
0.054299777 0.213614157 0.047550014
0.066597436 0.218159970 0.049677293
0.084332571 0.222481268 0.052864843
0.110091867 0.226794891 0.058189556
0.148744316 0.231934082 0.069101299
0.195990717 0.238976568 0.083977357
0.254101718 0.247161746 0.102649983
0.325347967 0.255729012 0.124951432
0.398131413 0.269068655 0.151915004
0.467110254 0.280827843 0.178807743
0.533724695 0.289834140 0.205805152
0.599414945 0.294915110 0.233082734
0.661710478 0.297016246 0.258981412
0.715846360 0.300310064 0.281769775
0.762262389 0.303188698 0.301497191
0.801398367 0.304044284 0.318213031
0.032418702 0.264067233 0.055959094
0.040340955 0.265934899 0.055657027
0.052888431 0.267551988 0.055850908
0.070710674 0.269186959 0.056971054
0.094457231 0.271108270 0.059447780
0.131510803 0.277898796 0.070003284
0.178070135 0.286990434 0.086467095
0.237281032 0.296037786 0.106620679
0.312289298 0.302695453 0.128245503
0.391029410 0.311091416 0.152874921
0.463815406 0.320967972 0.179179028
0.533022448 0.331511326 0.206665155
0.601025701 0.341907680 0.234840631
0.666039720 0.348518766 0.262005463
0.723550469 0.353850767 0.286260575
0.772859842 0.357560389 0.307230324
0.813269734 0.359304339 0.324539065
0.018155203 0.318942815 0.065427781
0.022498727 0.320883455 0.063923619
0.028277573 0.321346205 0.061680668
0.038130588 0.321576335 0.060148733
0.054696618 0.322819114 0.060777617
0.079082125 0.329065168 0.068256654
0.123983857 0.337156761 0.082078800
0.189941758 0.345747836 0.100727675
0.277495772 0.353492334 0.122686904
0.366220206 0.361107992 0.148601913
0.451391526 0.371779203 0.177198837
0.532046247 0.383949496 0.207448815
0.607220888 0.396062396 0.238322988
0.672358960 0.404329328 0.265734801
0.730385564 0.411323845 0.290387779
0.781910151 0.416923279 0.312408797
0.827542171 0.421004958 0.331924729
0.007118824 0.377159953 0.074859083
0.009909392 0.379336845 0.072821347
0.012208288 0.379346900 0.069331505
0.016342984 0.378809039 0.066040638
0.024640954 0.379342183 0.064599825
0.037054215 0.384072404 0.069216839
0.074313907 0.390092649 0.078899361
0.139385559 0.397598524 0.093837325
0.235234700 0.406785637 0.114220660
0.334437983 0.416223224 0.141481641
0.430448152 0.428304702 0.171843197
0.521264471 0.440988019 0.204427712
0.604886204 0.452231124 0.238357566
0.675620012 0.460989431 0.268072950
0.737352088 0.468886726 0.294428654
0.792091303 0.475783341 0.317982331
0.841846526 0.481539607 0.339291632
0.000627708 0.438866675 0.085179171
0.003050793 0.440982882 0.082806896
0.004147290 0.440943770 0.078691005
0.005203577 0.440158242 0.074250180
0.007506030 0.440035202 0.070903106
0.011863657 0.442666152 0.073015098
0.036702264 0.446346290 0.078360132
0.088369617 0.452297769 0.088386862
0.173213486 0.461742744 0.104543943
0.287219950 0.473179845 0.131966208
0.397530485 0.486595444 0.163422819
0.501087045 0.499678327 0.198112080
0.594831586 0.510117278 0.235232294
0.673927136 0.518930200 0.268306691
0.741621852 0.526965581 0.297333848
0.801178623 0.534320287 0.323101575
0.855860338 0.541091189 0.346397683
0.000000000 0.504211009 0.097314216
0.002400768 0.505509377 0.094336953
0.003561297 0.505526513 0.089646753
0.004568085 0.504897118 0.084380770
0.006507634 0.504255891 0.079676159
0.009947033 0.504592061 0.079782693
0.018790907 0.506465882 0.081892464
0.039651119 0.510553494 0.086813524
0.079139531 0.517531037 0.095353924
0.216103315 0.528720587 0.120507719
0.349183723 0.542702407 0.152248412
0.471923895 0.557071850 0.189012155
0.577866971 0.569424272 0.229235098
0.665384591 0.578582764 0.265722807
0.740366668 0.585986584 0.298054010
0.806947440 0.592713833 0.326917179
0.869261146 0.599842608 0.353000790
0.000000000 0.568132967 0.108909076
0.002277046 0.568658926 0.105646447
0.003478815 0.568606772 0.099252830
0.004208892 0.568037000 0.091764056
0.005070862 0.567010105 0.085215954
0.007079278 0.565844506 0.082257243
0.009920148 0.565095037 0.078172229
0.017276901 0.565974873 0.076355122
0.032832965 0.569697186 0.080200130
0.118149498 0.579750553 0.101508908
0.247759876 0.593483619 0.130696237
0.395130737 0.608933132 0.168177845
0.533728719 0.624135837 0.214369457
0.642927773 0.635801122 0.258273114
0.732005976 0.644914828 0.295666598
0.807924815 0.652931303 0.328228422
0.877645776 0.661304891 0.357637100
0.000000000 0.630612582 0.117294252
0.001411780 0.630707376 0.112915467
0.002483020 0.630644158 0.105495086
0.003342935 0.630231060 0.096853407
0.004120741 0.629276216 0.088810731
0.004988461 0.627503432 0.083228026
0.005323332 0.625614196 0.075809810
0.007023342 0.624836758 0.070508441
0.011986482 0.626399368 0.071276274
0.047835469 0.633628793 0.086138553
0.133662276 0.644661173 0.107158342
0.265613825 0.658924200 0.138653108
0.439837039 0.675845563 0.184940316
0.590499245 0.691679560 0.240713505
0.708924770 0.704788476 0.288068578
0.803557321 0.715849847 0.327885151
0.882840604 0.725541204 0.361042842
0.000000000 0.690824538 0.123461563
0.000440816 0.689845119 0.117680405
0.001136039 0.689593621 0.109564460
0.001961579 0.689884894 0.100245133
0.002793346 0.690533787 0.090853829
0.003055068 0.688954815 0.083103979
0.003041959 0.687226810 0.074320544
0.003738230 0.686100714 0.067681521
0.006128090 0.686327472 0.066364901
0.009068044 0.689805325 0.073136004
0.041869064 0.697098009 0.083320689
0.126908755 0.708283935 0.103629750
0.286564723 0.723441511 0.140773976
0.477580283 0.743905481 0.204305772
0.642642885 0.762506500 0.265386119
0.778076779 0.778376266 0.319384266
0.880206212 0.790646479 0.361669458
0.000000000 0.747943521 0.128402829
0.000000000 0.744262546 0.121477650
0.000000000 0.743410110 0.112651892
0.000056188 0.745404094 0.102535542
0.000224753 0.750262380 0.091738589
0.000659584 0.749584630 0.082294039
0.001117534 0.749136329 0.073219769
0.002269356 0.748728305 0.066282401
0.004785799 0.748171389 0.063248560
0.005754037 0.747730166 0.061240608
0.007358379 0.751657069 0.060869239
0.022551122 0.758251220 0.066299576
0.064284563 0.765811741 0.081696741
0.273652166 0.790166289 0.140311709
0.504680157 0.814967871 0.217745394
0.715715006 0.837417364 0.296222664
0.865103185 0.854715645 0.357968390
0.028266129 0.014945411 0.026924489
0.054738116 0.019514042 0.030865390
0.087100543 0.025080071 0.036198817
0.125182105 0.030655767 0.044474090
0.168811496 0.035253397 0.057240527
0.216400467 0.038023596 0.074574146
0.266086379 0.043362209 0.092299492
0.319011666 0.051032477 0.111657792
0.376318760 0.060797640 0.133890275
0.435033126 0.070599443 0.158736555
0.492476873 0.079778289 0.183297511
0.547384873 0.088539346 0.206814737
0.598491997 0.097087776 0.228529826
0.641305014 0.105606842 0.246712289
0.682466708 0.113472559 0.264127443
0.720199615 0.120122205 0.280087337
0.752726272 0.124993058 0.293904021
0.033542017 0.028856741 0.029206092
0.057036449 0.033262093 0.032976014
0.085983085 0.038463892 0.037920879
0.121060775 0.044146604 0.045120246
0.162948372 0.049994695 0.055653676
0.209809359 0.055205268 0.071509870
0.259402506 0.061669696 0.089063538
0.312927339 0.069850448 0.109133967
0.371583387 0.080209993 0.132540442
0.431179378 0.091097513 0.157935925
0.489918593 0.102172896 0.182967109
0.546731716 0.112546097 0.207117535
0.600549430 0.121327070 0.229870743
0.644400571 0.128295536 0.248484673
0.685783964 0.135262238 0.266051353
0.723464182 0.141387743 0.282056815
0.756205801 0.145832619 0.295987086
0.040622920 0.047538232 0.032718008
0.060492240 0.051537436 0.036124981
0.086191805 0.056520861 0.040703382
0.118687569 0.062292012 0.047235970
0.158945486 0.068654392 0.056505505
0.203990261 0.074927696 0.070176183
0.252904607 0.081916811 0.086843410
0.306668091 0.090517702 0.106995583
0.366260279 0.101626333 0.131121101
0.427128453 0.114400607 0.156994140
0.487508895 0.127315501 0.182573938
0.546186555 0.138886279 0.207379306
0.601946384 0.147628208 0.230929056
0.647803027 0.153572376 0.250409810
0.689818844 0.159552808 0.268235579
0.727596274 0.164833773 0.284235043
0.760737754 0.168679543 0.298236884
0.048219811 0.070796483 0.036795249
0.064633940 0.073744608 0.039750478
0.087062605 0.078259592 0.044066644
0.116953782 0.083928808 0.050370714
0.155755450 0.090339627 0.059289655
0.198600296 0.096783076 0.070925523
0.246295423 0.103841481 0.085921353
0.299899234 0.112839310 0.105137814
0.360470131 0.125101029 0.129435578
0.423348013 0.140097418 0.156030872
0.485570663 0.154429002 0.182255853
0.545817349 0.166550094 0.207644101
0.602767341 0.174915010 0.231729195
0.651150678 0.180221565 0.252319012
0.694302011 0.185246196 0.270587005
0.732600256 0.189543368 0.286722144
0.766424328 0.192667547 0.300913399
0.055043667 0.098438093 0.040772826
0.068989999 0.099288146 0.043290692
0.087931383 0.102688697 0.047530983
0.114750712 0.107893808 0.054073932
0.152330875 0.114157537 0.063499767
0.193296589 0.120363603 0.074110329
0.239277694 0.127181632 0.086579614
0.292286081 0.136620341 0.103455834
0.354333639 0.150688451 0.127287200
0.420305721 0.167776642 0.155165794
0.484426782 0.182736298 0.182150710
0.545692056 0.194527742 0.207955969
0.603096783 0.202111296 0.232295591
0.654081821 0.207027305 0.254043587
0.698964126 0.211244328 0.273012515
0.738480493 0.214599598 0.289618237
0.773367718 0.216930348 0.304276615
0.060033014 0.129237010 0.044725812
0.071148289 0.132619045 0.048140319
0.085409888 0.138048044 0.052970257
0.107379692 0.144296564 0.059708193
0.141619580 0.150137162 0.068846694
0.182882348 0.155270033 0.079317325
0.230847031 0.160596107 0.090480611
0.286828521 0.168624618 0.105546509
0.352141710 0.181864800 0.127724975
0.419719928 0.198687811 0.155507628
0.484291028 0.212824696 0.182415882
0.545598023 0.223573097 0.208236856
0.603383925 0.230230656 0.232757672
0.656235227 0.234636798 0.255385011
0.703559360 0.238119096 0.275381386
0.745434880 0.240577904 0.293010544
0.781940348 0.241913578 0.308536232
0.058177546 0.167961206 0.050557493
0.068135203 0.172675739 0.054145790
0.080537442 0.178785108 0.058843130
0.099529513 0.185250168 0.064863080
0.129256671 0.191031773 0.072419210
0.169924017 0.195584885 0.081425013
0.218789617 0.200495208 0.092372108
0.277119337 0.207642814 0.107517667
0.346179046 0.218907777 0.129118862
0.416214122 0.233801721 0.156021164
0.482208092 0.246623854 0.182613338
0.544762572 0.256653760 0.208661269
0.604479179 0.263171019 0.233930841
0.660155825 0.267682618 0.257627356
0.709934425 0.271051488 0.278683595
0.753723148 0.273165955 0.297180021
0.791430168 0.273914343 0.313197095
0.049696433 0.214521272 0.058695545
0.058717377 0.218721889 0.061114600
0.070777855 0.223902011 0.064675183
0.088405194 0.229498239 0.069267741
0.114126721 0.234947175 0.074782721
0.153670031 0.239191543 0.081748040
0.202840811 0.244411562 0.092938289
0.263073978 0.251395195 0.109055223
0.335804453 0.260930405 0.130800593
0.409202498 0.273113992 0.156436098
0.477895087 0.284719742 0.182657212
0.543068400 0.294887959 0.209160138
0.605908617 0.302758951 0.235641081
0.665200127 0.308331465 0.260646923
0.717786446 0.312306755 0.282878692
0.763578217 0.314700080 0.302266707
0.802486081 0.315526698 0.318741286
0.034808846 0.268827796 0.069567648
0.041661445 0.270021155 0.068854247
0.053594940 0.272400875 0.069992000
0.071211751 0.275784399 0.072651322
0.095114300 0.279989175 0.076502629
0.133368827 0.283973390 0.081601048
0.182735972 0.289877798 0.092863339
0.244607891 0.297602028 0.109845093
0.320376739 0.307045706 0.132101905
0.398099255 0.316620247 0.156482128
0.471069127 0.327698328 0.182461632
0.540398199 0.339393925 0.209664389
0.607198313 0.350821018 0.237714373
0.670724645 0.358750042 0.264320014
0.726812549 0.364150148 0.287926227
0.775233004 0.367516609 0.308410641
0.815756992 0.369344696 0.325650886
0.018922616 0.325022070 0.080686620
0.022509264 0.325314069 0.077962351
0.028576396 0.326052238 0.076035253
0.038244254 0.327784851 0.075427613
0.052633082 0.331060179 0.076661716
0.079392744 0.335206541 0.080167312
0.131139507 0.341096038 0.090051757
0.202493089 0.348623992 0.105777111
0.288073208 0.357685728 0.126805433
0.373224626 0.367113084 0.152203911
0.456245081 0.379265648 0.180044292
0.535592097 0.392437901 0.209549583
0.609723199 0.404924320 0.239942797
0.675750130 0.413214159 0.267659501
0.734276891 0.419251994 0.292363293
0.786015728 0.423586727 0.314309053
0.831678886 0.426767260 0.333751660
0.007567836 0.383274864 0.090061986
0.009786621 0.383574545 0.086755959
0.012480896 0.383735312 0.083395792
0.016721118 0.384611690 0.080781857
0.023577747 0.387058206 0.079714530
0.037885696 0.390196452 0.080987819
0.082137031 0.395156162 0.088084470
0.152296646 0.402163018 0.100685647
0.244329434 0.411442701 0.118472512
0.339492581 0.421817217 0.145067657
0.434386060 0.434729666 0.174969689
0.525052186 0.448141018 0.206965055
0.607533276 0.460012246 0.239840202
0.679333363 0.468418328 0.270238996
0.741630770 0.474982984 0.296672579
0.796540227 0.480052666 0.320028340
0.846176460 0.483973823 0.341193665
0.001131349 0.443501018 0.098579223
0.003220487 0.444243930 0.095470000
0.004480736 0.444483970 0.091660444
0.005877816 0.445019773 0.087939129
0.008377450 0.446649970 0.085094627
0.013092019 0.448249465 0.083920373
0.041897982 0.451661870 0.087252338
0.097220060 0.457549438 0.095360699
0.181482974 0.466574425 0.108515634
0.291918980 0.478009058 0.135169131
0.401471840 0.491398345 0.166528873
0.505210553 0.504704847 0.200950303
0.598204117 0.515891124 0.236788861
0.678062999 0.524554396 0.270649960
0.745772716 0.531630954 0.299479310
0.804834996 0.537405328 0.324673095
0.858751569 0.542162050 0.347627498
0.000000000 0.505615368 0.107123809
0.002537837 0.506763566 0.104339401
0.003748211 0.507332087 0.100416037
0.004949816 0.507763952 0.096124500
0.007461342 0.508502185 0.092235569
0.009256048 0.508671924 0.088822781
0.016591796 0.510216862 0.087846222
0.040464828 0.514113590 0.090592268
0.091871385 0.521338701 0.098347291
0.225519682 0.532965016 0.122604097
0.353482198 0.546579652 0.154012892
0.472499285 0.560330957 0.190544825
0.579311296 0.572367281 0.230171043
0.668527693 0.581814211 0.267483859
0.743601255 0.589483738 0.299408715
0.808928531 0.596135616 0.327347914
0.868906066 0.602529600 0.352703758
0.000000000 0.567778435 0.116954421
0.002249319 0.568621657 0.113474976
0.003484029 0.569229474 0.108214174
0.004292092 0.569554155 0.102189836
0.005261468 0.569547966 0.096419784
0.006155669 0.568874704 0.090770079
0.008410232 0.568284078 0.084664275
0.017346431 0.569416608 0.081778025
0.038285536 0.573912814 0.085786980
0.127038043 0.583753029 0.104928121
0.255952809 0.596871126 0.132931772
0.400323926 0.611610485 0.169699103
0.535445489 0.626314484 0.215131286
0.644858290 0.638739889 0.259526535
0.735452861 0.648863783 0.297276666
0.812243987 0.657426372 0.329779083
0.880246457 0.665167864 0.358431190
0.000000000 0.629264928 0.125693475
0.001193270 0.629492827 0.120978440
0.002186786 0.630207460 0.114653437
0.003028528 0.630729789 0.107341389
0.003766473 0.630380772 0.099665220
0.004317142 0.629340919 0.092131321
0.004688877 0.628152270 0.083310382
0.007575901 0.628087439 0.077472822
0.015672433 0.630419038 0.078889062
0.056069606 0.637181474 0.090872878
0.142827749 0.647703100 0.109977425
0.273754566 0.661553491 0.140532285
0.446657762 0.678302221 0.186867042
0.593749361 0.694501517 0.242071582
0.711527407 0.708158024 0.289254243
0.806013012 0.719451562 0.328789100
0.883227289 0.728561953 0.361050230
0.000000000 0.689148605 0.135417851
0.000175044 0.688184775 0.129078844
0.000733203 0.688847810 0.121713149
0.001491742 0.689982241 0.113181013
0.002267927 0.690432601 0.103342680
0.002731065 0.689273353 0.093163907
0.003127271 0.688514633 0.082975838
0.005030945 0.688317459 0.075857420
0.010016487 0.688842848 0.074887599
0.015654278 0.692162107 0.078590651
0.048800509 0.699285513 0.086362920
0.134128650 0.710534294 0.105445841
0.296312169 0.726229679 0.143080851
0.482654137 0.746596175 0.205855789
0.645535612 0.765081644 0.266502636
0.779096656 0.780689898 0.319774770
0.877477333 0.792424750 0.360425567
0.000000000 0.746503219 0.148204427
0.000000000 0.743505202 0.140005237
0.000000000 0.743732288 0.131372632
0.000014350 0.746002898 0.121310561
0.000057400 0.749135450 0.108822970
0.000388039 0.747874789 0.094125238
0.001424954 0.748064362 0.082851942
0.003589269 0.748298045 0.075112581
0.007302108 0.747169718 0.071016656
0.008831965 0.747606684 0.066233720
0.008564581 0.751828305 0.063301323
0.022783625 0.758927215 0.066841241
0.067772765 0.767996043 0.081475252
0.279025852 0.792520944 0.141615948
0.511188190 0.817349829 0.220183041
0.720355965 0.839620095 0.298132900
0.862625360 0.856469139 0.356421895
0.034010068 0.017995460 0.041901488
0.064255467 0.024047158 0.046895616
0.100227641 0.030588733 0.053006553
0.140542525 0.036773169 0.060955167
0.183816053 0.041753447 0.071462324
0.230712667 0.045653021 0.087044758
0.280169394 0.052474698 0.103627793
0.332441032 0.061038112 0.121778071
0.387782380 0.070162896 0.142062232
0.444398057 0.078035923 0.164544234
0.500800028 0.085965635 0.187676076
0.555318594 0.094066407 0.210488880
0.606284052 0.102452610 0.232013769
0.647508085 0.110577247 0.249395953
0.686342120 0.118212556 0.265900746
0.721678168 0.124847273 0.280966241
0.752408236 0.129970133 0.294030532
0.042092300 0.035229248 0.045723298
0.066101073 0.040158865 0.049603648
0.097546327 0.046038344 0.055023480
0.135014617 0.052038381 0.062097583
0.177092498 0.057329669 0.070940743
0.222924141 0.062626493 0.083736557
0.271715750 0.069673798 0.099103139
0.324083657 0.078142575 0.117295342
0.380644195 0.087703817 0.138568023
0.438907737 0.097379893 0.162418442
0.497181907 0.107770931 0.186672530
0.553913776 0.117823391 0.210513091
0.607550412 0.126483730 0.233122930
0.650454346 0.132918867 0.251253568
0.690050419 0.139423131 0.267993730
0.725736473 0.145345171 0.283122030
0.756910346 0.150033632 0.296417084
0.052480022 0.056380571 0.050486853
0.070310991 0.059820261 0.053283834
0.096525754 0.064737121 0.057845133
0.130456851 0.070409334 0.064118677
0.171436824 0.076115080 0.072052391
0.216120725 0.081945908 0.082381689
0.264096921 0.088811617 0.095966265
0.316410720 0.097237014 0.113509253
0.374107428 0.107746907 0.135713786
0.434094943 0.120006043 0.160724642
0.494094316 0.132617019 0.185898062
0.552516114 0.144022725 0.210484182
0.607770905 0.152666051 0.233733136
0.653111547 0.157909881 0.252905485
0.694182329 0.163199967 0.270201094
0.730756938 0.168110575 0.285605198
0.762609065 0.172215972 0.299103029
0.062153371 0.080696279 0.055186864
0.075368662 0.082770822 0.057347545
0.096548070 0.086816733 0.061328331
0.126535601 0.092172028 0.067155008
0.166175259 0.098174722 0.074853360
0.209754924 0.104083598 0.083541726
0.256965024 0.110592864 0.095098948
0.309377740 0.119073801 0.111238196
0.368565250 0.130897692 0.133672642
0.430558049 0.145717704 0.159689394
0.492056601 0.159853287 0.185514079
0.551463708 0.171782557 0.210473281
0.607182175 0.179983629 0.233893584
0.655018294 0.184462492 0.254188935
0.698118817 0.188614995 0.272313900
0.736292886 0.192372297 0.288297949
0.769349642 0.195665555 0.302170552
0.068092480 0.107423224 0.058818039
0.079757530 0.108750023 0.061206150
0.096995426 0.112408850 0.065329892
0.122917238 0.117612467 0.071343132
0.160634033 0.123573635 0.079399742
0.203279246 0.129511892 0.087778245
0.249972176 0.135722242 0.097382966
0.302940235 0.144405305 0.111300568
0.364410833 0.157761700 0.132617712
0.428895429 0.174318206 0.159539262
0.491588108 0.188829124 0.185681991
0.551094659 0.200221036 0.210551521
0.606020868 0.207420520 0.233653471
