shared/src/main/assets/luts/dalur_cinema_01.cube
TITLE "DALUR cinema"
LUT_3D_SIZE 9
DOMAIN_MIN 0.0 0.0 0.0
DOMAIN_MAX 1.0 1.0 1.0
0.000000 0.000000 0.000000
0.091868 0.000000 0.000000
0.232226 0.000000 0.000000
0.372583 0.000000 0.000000
0.512940 0.000000 0.000000
0.653298 0.000000 0.000000
0.793655 0.000000 0.000000
0.934012 0.000000 0.000000
1.000000 0.000000 0.000000
0.000000 0.097229 0.000000
0.089232 0.095234 0.000000
0.229590 0.093239 0.000000
0.369947 0.091244 0.000000
0.510304 0.089249 0.000000
0.650662 0.087254 0.000000
0.791019 0.085259 0.000000
0.931376 0.083263 0.000000
1.000000 0.081268 0.000000
0.000000 0.235013 0.000000
0.086597 0.233017 0.000000
0.226954 0.231022 0.000000
0.367311 0.229027 0.000000
0.507668 0.227032 0.000000
0.648026 0.225037 0.000000
0.788383 0.223042 0.000000
0.928740 0.221046 0.000000
1.000000 0.219051 0.000000
0.000000 0.372796 0.000000
0.083961 0.370800 0.000000
0.224318 0.368805 0.000000
0.364675 0.366810 0.000000
0.505033 0.364815 0.000000
0.645390 0.362820 0.000000
0.785747 0.360825 0.000000
0.925896 0.359096 0.000000
1.000000 0.357466 0.000000
0.000000 0.510579 0.000000
0.081325 0.508584 0.000000
0.221682 0.506588 0.000000
0.362039 0.504593 0.000000
0.502397 0.502598 0.000000
0.642556 0.500856 0.000000
0.782626 0.499226 0.000000
0.923268 0.497762 0.000000
1.000000 0.497337 0.000000
0.000000 0.648362 0.000000
0.078689 0.646367 0.000000
0.219046 0.644372 0.000000
0.359216 0.642616 0.000000
0.499286 0.640986 0.000000
0.639775 0.639477 0.000000
0.784016 0.639053 0.000000
0.928257 0.638628 0.000000
1.000000 0.638203 0.000000
0.000000 0.786145 0.000000
0.075876 0.784376 0.000000
0.215946 0.782746 0.000000
0.356281 0.781193 0.000000
0.500522 0.780768 0.000000
0.644763 0.780343 0.000000
0.789004 0.779919 0.000000
0.933245 0.779494 0.000000
1.000000 0.779069 0.000000
0.000000 0.924506 0.000000
0.072788 0.922909 0.000000
0.217029 0.922484 0.000000
0.361270 0.922059 0.000000
0.505511 0.921634 0.000000
0.649752 0.921210 0.000000
0.793993 0.920785 0.000000
0.938234 0.920360 0.000000
1.000000 0.919935 0.000000
0.000000 1.000000 0.000000
0.077777 1.000000 0.000000
0.222018 1.000000 0.000000
0.366259 1.000000 0.000000
0.510500 1.000000 0.000000
0.654741 1.000000 0.000000
0.798982 1.000000 0.000000
0.943223 1.000000 0.000000
1.000000 1.000000 0.000000
0.000000 0.000000 0.101484
0.091356 0.000000 0.099395
0.231714 0.000000 0.097307
0.372071 0.000000 0.095219
0.512428 0.000000 0.093130
0.652786 0.000000 0.091042
0.793143 0.000000 0.088954
0.933500 0.000000 0.086865
1.000000 0.000000 0.084777
0.000000 0.096469 0.097384
0.088721 0.094474 0.095295
0.229078 0.092478 0.093207
0.369435 0.090483 0.091119
0.509793 0.088488 0.089030
0.650150 0.086493 0.086942
0.790507 0.084498 0.084854
0.930864 0.082503 0.082765
1.000000 0.080508 0.080677
0.000000 0.234252 0.093284
0.086085 0.232257 0.091196
0.226442 0.230262 0.089107
0.366799 0.228266 0.087019
0.507157 0.226271 0.084930
0.647514 0.224276 0.082842
0.787871 0.222281 0.080754
0.928229 0.220286 0.078665
1.000000 0.218344 0.076644
0.000000 0.372035 0.089184
0.083449 0.370040 0.087096
0.223806 0.368045 0.085007
0.364163 0.366049 0.082919
0.504521 0.364054 0.080831
0.644878 0.362059 0.078742
0.785204 0.360104 0.076704
0.925274 0.358474 0.075074
1.000000 0.356845 0.073445
0.000000 0.509818 0.085084
0.080813 0.507823 0.082996
0.221170 0.505828 0.080907
0.361527 0.503833 0.078819
0.501864 0.501864 0.076764
0.641934 0.500234 0.075134
0.782005 0.498605 0.073505
0.924237 0.497600 0.070523
1.000000 0.497175 0.066285
0.000000 0.647601 0.080984
0.078177 0.645606 0.078896
0.218524 0.643624 0.076824
0.358594 0.641994 0.075194
0.498665 0.640365 0.073565
0.640744 0.639315 0.070679
0.784985 0.638891 0.066441
0.929226 0.638466 0.062203
1.000000 0.638041 0.057965
0.000000 0.785384 0.076884
0.075254 0.783754 0.075254
0.215325 0.782125 0.073625
0.357250 0.781031 0.070835
0.501491 0.780606 0.066597
0.645732 0.780182 0.062359
0.789973 0.779757 0.058121
0.934214 0.779332 0.053883
1.000000 0.778907 0.049645
0.000000 0.923885 0.073685
0.073757 0.922747 0.070991
0.217998 0.922322 0.066753
0.362239 0.921897 0.062515
0.506480 0.921472 0.058277
0.650721 0.921048 0.054039
0.794962 0.920623 0.049801
0.939203 0.920198 0.045563
1.000000 0.919773 0.041325
0.000000 1.000000 0.066909
0.078745 1.000000 0.062671
0.222986 1.000000 0.058433
0.367227 1.000000 0.054195
0.511468 1.000000 0.049957
0.655709 1.000000 0.045719
0.799950 1.000000 0.041481
0.944191 1.000000 0.037243
1.000000 1.000000 0.033005
0.000000 0.000000 0.242387
0.090845 0.000000 0.240299
0.231202 0.000000 0.238211
0.371559 0.000000 0.236122
0.511917 0.000000 0.234034
0.652274 0.000000 0.231946
0.792631 0.000000 0.229857
0.932989 0.000000 0.227769
1.000000 0.000000 0.225681
0.000000 0.095708 0.238288
0.088209 0.093713 0.236199
0.228566 0.091718 0.234111
0.368923 0.089723 0.232022
0.509281 0.087727 0.229934
0.649638 0.085732 0.227846
0.789995 0.083737 0.225757
0.930353 0.081742 0.223669
1.000000 0.079747 0.221581
0.000000 0.233491 0.234188
0.085573 0.231496 0.232099
0.225930 0.229501 0.230011
0.366287 0.227506 0.227923
0.506645 0.225511 0.225834
0.647002 0.223515 0.223746
0.787359 0.221520 0.221658
0.927717 0.219525 0.219569
1.000000 0.217723 0.217723
0.000000 0.371274 0.230088
0.082937 0.369279 0.227999
0.223294 0.367284 0.225911
0.363651 0.365289 0.223823
0.504009 0.363294 0.221734
0.644366 0.361298 0.219646
0.784583 0.359483 0.217783
0.924653 0.357853 0.216153
1.000000 0.356224 0.214524
0.000000 0.509057 0.225988
0.080301 0.507062 0.223900
0.220658 0.505067 0.221811
0.361015 0.503072 0.219723
0.501243 0.501243 0.217843
0.641313 0.499613 0.216213
0.781384 0.497983 0.214583
0.925206 0.497438 0.210607
1.000000 0.497013 0.206369
0.000000 0.646840 0.221888
0.077665 0.644845 0.219800
0.217903 0.643003 0.217903
0.357973 0.641373 0.216273
0.498043 0.639743 0.214643
0.641713 0.639153 0.210763
0.785954 0.638729 0.206525
0.930195 0.638304 0.202287
1.000000 0.637879 0.198049
0.000000 0.784763 0.217962
0.074633 0.783133 0.216333
0.214703 0.781503 0.214703
0.358219 0.780869 0.210919
0.502460 0.780444 0.206681
0.646701 0.780020 0.202443
0.790942 0.779595 0.198205
0.935183 0.779170 0.193967
1.000000 0.778745 0.189729
0.000000 0.923263 0.214763
0.074726 0.922585 0.211075
0.218967 0.922160 0.206837
0.363208 0.921735 0.202599
0.507449 0.921310 0.198361
0.651690 0.920886 0.194123
0.795931 0.920461 0.189885
0.940172 0.920036 0.185647
1.000000 0.919611 0.181410
0.000000 1.000000 0.206993
0.079714 1.000000 0.202755
0.223955 1.000000 0.198517
0.368196 1.000000 0.194279
0.512437 1.000000 0.190041
0.656678 1.000000 0.185803
0.800919 1.000000 0.181565
0.945160 1.000000 0.177328
1.000000 1.000000 0.173090
0.000000 0.000000 0.383291
0.090333 0.000000 0.381203
0.230690 0.000000 0.379114
0.371047 0.000000 0.377026
0.511405 0.000000 0.374938
0.651762 0.000000 0.372849
0.792119 0.000000 0.370761
0.932477 0.000000 0.368673
1.000000 0.000000 0.366584
0.000000 0.094947 0.379191
0.087697 0.092952 0.377103
0.228054 0.090957 0.375015
0.368411 0.088962 0.372926
0.508769 0.086967 0.370838
0.649126 0.084972 0.368750
0.789483 0.082976 0.366661
0.929841 0.080981 0.364573
1.000000 0.078986 0.362484
0.000000 0.232730 0.375091
0.085061 0.230735 0.373003
0.225418 0.228740 0.370915
0.365775 0.226745 0.368826
0.506133 0.224750 0.366738
0.646490 0.222755 0.364650
0.786847 0.220760 0.362561
0.927205 0.218764 0.360473
1.000000 0.217101 0.358801
0.000000 0.370514 0.370992
0.082425 0.368518 0.368903
0.222782 0.366523 0.366815
0.363139 0.364528 0.364726
0.503497 0.362533 0.362638
0.643854 0.360538 0.360550
0.783961 0.358861 0.358861
0.924032 0.357232 0.357232
1.000000 0.355985 0.354774
0.000000 0.508297 0.366892
0.079789 0.506301 0.364803
0.220146 0.504306 0.362715
0.360503 0.502311 0.360627
0.500621 0.500621 0.358921
0.640692 0.498992 0.357292
0.781934 0.497701 0.354929
0.926175 0.497276 0.350691
1.000000 0.496851 0.346454
0.000000 0.646080 0.362792
0.077153 0.644085 0.360703
0.217281 0.642381 0.358981
0.357352 0.640752 0.357352
0.498440 0.639416 0.355085
0.642681 0.638992 0.350847
0.786922 0.638567 0.346609
0.931163 0.638142 0.342372
1.000000 0.637717 0.338134
0.000000 0.784141 0.359041
0.074012 0.782512 0.357412
0.214947 0.781132 0.355241
0.359188 0.780707 0.351003
0.503429 0.780282 0.346765
0.647670 0.779858 0.342527
0.791911 0.779433 0.338290
0.936152 0.779008 0.334052
1.000000 0.778583 0.329814
0.000000 0.922848 0.355397
0.075694 0.922423 0.351159
0.219935 0.921998 0.346921
0.364176 0.921573 0.342683
0.508417 0.921148 0.338445
0.652658 0.920724 0.334208
0.796899 0.920299 0.329970
0.941140 0.919874 0.325732
1.000000 0.919449 0.321494
0.000000 1.000000 0.347077
0.080683 1.000000 0.342839
0.224924 1.000000 0.338601
0.369165 1.000000 0.334363
0.513406 1.000000 0.330126
0.657647 1.000000 0.325888
0.801888 1.000000 0.321650
0.946129 1.000000 0.317412
1.000000 1.000000 0.313174
0.000000 0.000000 0.524195
0.089821 0.000000 0.522107
0.230178 0.000000 0.520018
0.370535 0.000000 0.517930
0.510893 0.000000 0.515842
0.651250 0.000000 0.513753
0.791607 0.000000 0.511665
0.931965 0.000000 0.509576
1.000000 0.000000 0.507488
0.000000 0.094187 0.520095
0.087185 0.092191 0.518007
0.227542 0.090196 0.515918
0.367899 0.088201 0.513830
0.508257 0.086206 0.511742
0.648614 0.084211 0.509653
0.788971 0.082216 0.507565
0.929329 0.080221 0.505477
1.000000 0.078225 0.503388
0.000000 0.231970 0.515995
0.084549 0.229975 0.513907
0.224906 0.227979 0.511818
0.365263 0.225984 0.509730
0.505621 0.223989 0.507642
0.645978 0.221994 0.505553
0.786335 0.219999 0.503465
0.926610 0.218110 0.501510
1.000000 0.216480 0.499880
0.000000 0.369753 0.511895
0.081913 0.367758 0.509807
0.222270 0.365763 0.507719
0.362628 0.363767 0.505630
0.502985 0.361772 0.503542
0.643270 0.359870 0.501570
0.783340 0.358240 0.499940
0.923410 0.356610 0.498310
1.000000 0.355823 0.494858
0.000000 0.507536 0.507795
0.079277 0.505541 0.505707
0.219634 0.503546 0.503619
0.359930 0.501630 0.501630
0.500000 0.500000 0.500000
0.640070 0.498370 0.498370
0.782903 0.497539 0.495014
0.927144 0.497114 0.490776
1.000000 0.496689 0.486538
0.000000 0.645319 0.503696
0.076589 0.643390 0.501690
0.216660 0.641760 0.500060
0.356730 0.640130 0.498430
0.499409 0.639254 0.495170
0.643650 0.638830 0.490932
0.787891 0.638405 0.486694
0.932132 0.637980 0.482456
1.000000 0.637555 0.478218
0.000000 0.783520 0.500120
0.073390 0.781890 0.498490
0.215916 0.780970 0.495325
0.360157 0.780545 0.491088
0.504398 0.780120 0.486850
0.648639 0.779696 0.482612
0.792880 0.779271 0.478374
0.937121 0.778846 0.474136
1.000000 0.778421 0.469898
0.000000 0.922686 0.495481
0.076663 0.922261 0.491243
0.220904 0.921836 0.487006
0.365145 0.921411 0.482768
0.509386 0.920986 0.478530
0.653627 0.920562 0.474292
0.797868 0.920137 0.470054
0.942109 0.919712 0.465816
1.000000 0.919287 0.461578
0.000000 1.000000 0.487161
0.081652 1.000000 0.482923
0.225893 1.000000 0.478686
0.370134 1.000000 0.474448
0.514375 1.000000 0.470210
0.658616 1.000000 0.465972
0.802857 1.000000 0.461734
0.947098 1.000000 0.457496
1.000000 1.000000 0.453258
0.000000 0.000000 0.665099
0.089309 0.000000 0.663010
0.229666 0.000000 0.660922
0.370023 0.000000 0.658834
0.510381 0.000000 0.656745
0.650738 0.000000 0.654657
0.791095 0.000000 0.652569
0.931453 0.000000 0.650480
1.000000 0.000000 0.648392
0.000000 0.093426 0.660999
0.086673 0.091431 0.658910
0.227030 0.089436 0.656822
0.367387 0.087441 0.654734
0.507745 0.085445 0.652645
0.648102 0.083450 0.650557
0.788459 0.081455 0.648469
0.928817 0.079460 0.646380
1.000000 0.077465 0.644292
0.000000 0.231209 0.656899
0.084037 0.229214 0.654811
0.224394 0.227219 0.652722
0.364752 0.225224 0.650634
0.505109 0.223228 0.648546
0.645466 0.221233 0.646457
0.785824 0.219238 0.644369
0.925988 0.217488 0.642588
1.000000 0.215859 0.640959
0.000000 0.368992 0.652799
0.081401 0.366997 0.650711
0.221758 0.365002 0.648622
0.362116 0.363007 0.646534
0.502473 0.361012 0.644446
0.642648 0.359248 0.642648
0.782719 0.357619 0.641019
0.923124 0.356086 0.639180
1.000000 0.355661 0.634942
0.000000 0.506775 0.648699
0.078765 0.504780 0.646611
0.219122 0.502785 0.644522
0.359308 0.501008 0.642708
0.499379 0.499379 0.641079
0.639630 0.497802 0.639336
0.783871 0.497377 0.635098
0.928112 0.496952 0.630860
1.000000 0.496527 0.626622
0.000000 0.644558 0.644599
0.075968 0.642768 0.642768
0.216039 0.641139 0.641139
0.356137 0.639517 0.639492
0.500378 0.639092 0.635254
0.644619 0.638668 0.631016
0.788860 0.638243 0.626778
0.933101 0.637818 0.622540
1.000000 0.637393 0.618302
0.000000 0.782899 0.641199
0.072769 0.781269 0.639569
0.216885 0.780808 0.635410
0.361126 0.780383 0.631172
0.505367 0.779958 0.626934
0.649608 0.779534 0.622696
0.793849 0.779109 0.618458
0.938090 0.778684 0.614220
1.000000 0.778259 0.609982
0.000000 0.922524 0.635566
0.077632 0.922099 0.631328
0.221873 0.921674 0.627090
0.366114 0.921249 0.622852
0.510355 0.920825 0.618614
0.654596 0.920400 0.614376
0.798837 0.919975 0.610138
0.943078 0.919550 0.605900
1.000000 0.919125 0.601662
0.000000 1.000000 0.627246
0.082621 1.000000 0.623008
0.226862 1.000000 0.618770
0.371103 1.000000 0.614532
0.515344 1.000000 0.610294
0.659585 1.000000 0.606056
0.803826 1.000000 0.601818
0.948067 1.000000 0.597580
1.000000 1.000000 0.593342
0.000000 0.000000 0.806003
0.088797 0.000000 0.803914
0.229154 0.000000 0.801826
0.369512 0.000000 0.799737
0.509869 0.000000 0.797649
0.650226 0.000000 0.795561
0.790584 0.000000 0.793472
0.930941 0.000000 0.791384
1.000000 0.000000 0.789296
0.000000 0.092665 0.801903
0.086161 0.090670 0.799814
0.226518 0.088675 0.797726
0.366876 0.086680 0.795638
0.507233 0.084685 0.793549
0.647590 0.082690 0.791461
0.787948 0.080694 0.789372
0.928305 0.078699 0.787284
1.000000 0.076737 0.785237
0.000000 0.230448 0.797803
0.083525 0.228453 0.795714
0.223882 0.226458 0.793626
0.364240 0.224463 0.791538
0.504597 0.222468 0.789449
0.644954 0.220473 0.787361
0.785297 0.218497 0.785297
0.925367 0.216867 0.783667
1.000000 0.215238 0.782038
0.000000 0.368231 0.793703
0.080889 0.366236 0.791615
0.221246 0.364241 0.789526
0.361604 0.362246 0.787438
0.501957 0.360257 0.785357
0.642027 0.358627 0.783727
0.782097 0.356997 0.782097
0.924093 0.355924 0.779264
1.000000 0.355499 0.775026
0.000000 0.506015 0.789603
0.078253 0.504019 0.787515
0.218610 0.502024 0.785426
0.358687 0.500387 0.783787
0.498757 0.498757 0.782157
0.640599 0.497640 0.779420
0.784840 0.497215 0.775182
0.929081 0.496790 0.770944
1.000000 0.496365 0.766706
0.000000 0.643798 0.785503
0.075347 0.642147 0.783847
0.215417 0.640517 0.782217
0.357106 0.639355 0.779576
0.501347 0.638930 0.775338
0.645588 0.638506 0.771100
0.789829 0.638081 0.766862
0.934070 0.637656 0.762624
1.000000 0.637231 0.758386
0.000000 0.782277 0.782277
0.073612 0.781071 0.779732
0.217853 0.780646 0.775494
0.362094 0.780221 0.771256
0.506335 0.779797 0.767018
0.650576 0.779372 0.762780
0.794817 0.778947 0.758542
0.939058 0.778522 0.754304
1.000000 0.778097 0.750066
0.000000 0.922362 0.775650
0.078601 0.921937 0.771412
0.222842 0.921512 0.767174
0.367083 0.921087 0.762936
0.511324 0.920663 0.758698
0.655565 0.920238 0.754460
0.799806 0.919813 0.750222
0.944047 0.919388 0.745984
1.000000 0.918963 0.741746
0.000000 1.000000 0.767330
0.083589 1.000000 0.763092
0.227830 1.000000 0.758854
0.372071 1.000000 0.754616
0.516312 1.000000 0.750378
0.660553 1.000000 0.746140
0.804794 1.000000 0.741902
0.949035 1.000000 0.737664
1.000000 1.000000 0.733426
0.000000 0.000000 0.946906
0.088285 0.000000 0.944818
0.228642 0.000000 0.942730
0.369000 0.000000 0.940641
0.509357 0.000000 0.938553
0.649714 0.000000 0.936464
0.790072 0.000000 0.934376
0.930429 0.000000 0.932288
1.000000 0.000000 0.930199
0.000000 0.091905 0.942806
0.085649 0.089909 0.940718
0.226006 0.087914 0.938630
0.366364 0.085919 0.936541
0.506721 0.083924 0.934453
0.647078 0.081929 0.932365
0.787436 0.079934 0.930276
0.927793 0.077939 0.928188
1.000000 0.076115 0.926315
0.000000 0.229688 0.938707
0.083013 0.227693 0.936618
0.223370 0.225697 0.934530
0.363728 0.223702 0.932441
0.504085 0.221707 0.930353
0.644442 0.219712 0.928265
0.784675 0.217875 0.926375
0.924746 0.216246 0.924746
1.000000 0.214616 0.923116
0.000000 0.367471 0.934607
0.080377 0.365476 0.932518
0.220734 0.363480 0.930430
0.361092 0.361485 0.928342
0.501335 0.359635 0.926435
0.641406 0.358006 0.924806
0.781476 0.356376 0.923176
0.925062 0.355762 0.919348
1.000000 0.355337 0.915110
0.000000 0.505254 0.930507
0.077741 0.503259 0.928418
0.217995 0.501395 0.926495
0.358066 0.499766 0.924866
0.498136 0.498136 0.923236
0.641568 0.497478 0.919504
0.785809 0.497053 0.915266
0.930050 0.496628 0.911028
1.000000 0.496203 0.906790
0.000000 0.643155 0.926555
0.074726 0.641526 0.924926
0.214796 0.639896 0.923296
0.358075 0.639193 0.919660
0.502316 0.638768 0.915422
0.646557 0.638344 0.911184
0.790798 0.637919 0.906946
0.935039 0.637494 0.902708
1.000000 0.637069 0.898470
0.000000 0.781656 0.923356
0.074581 0.780909 0.919816
0.218822 0.780484 0.915578
0.363063 0.780059 0.911340
0.507304 0.779635 0.907102
0.651545 0.779210 0.902864
0.795786 0.778785 0.898626
0.940027 0.778360 0.894388
1.000000 0.777935 0.890151
0.000000 0.922200 0.915734
0.079570 0.921775 0.911496
0.223811 0.921350 0.907258
0.368052 0.920925 0.903020
0.512293 0.920501 0.898782
0.656534 0.920076 0.894544
0.800775 0.919651 0.890306
0.945016 0.919226 0.886069
1.000000 0.918802 0.881831
0.000000 1.000000 0.907414
0.084558 1.000000 0.903176
0.228799 1.000000 0.898938
0.373040 1.000000 0.894700
0.517281 1.000000 0.890462
0.661522 1.000000 0.886224
0.805763 1.000000 0.881986
0.950004 1.000000 0.877749
1.000000 1.000000 0.873511
0.000000 0.000000 1.000000
0.087773 0.000000 1.000000
0.228130 0.000000 1.000000
0.368488 0.000000 1.000000
0.508845 0.000000 1.000000
0.649202 0.000000 1.000000
0.789560 0.000000 1.000000
0.929917 0.000000 1.000000
1.000000 0.000000 1.000000
0.000000 0.091144 1.000000
0.085137 0.089149 1.000000
0.225494 0.087154 1.000000
0.365852 0.085158 1.000000
0.506209 0.083163 1.000000
0.646566 0.081168 1.000000
0.786924 0.079173 1.000000
0.927281 0.077178 1.000000
1.000000 0.075494 1.000000
0.000000 0.228927 1.000000
0.082501 0.226932 1.000000
0.222858 0.224937 1.000000
0.363216 0.222942 1.000000
0.503573 0.220946 1.000000
0.643930 0.218951 1.000000
0.784054 0.217254 1.000000
0.924124 0.215624 1.000000
1.000000 0.214309 1.000000
0.000000 0.366710 1.000000
0.079865 0.364715 1.000000
0.220223 0.362720 1.000000
0.360580 0.360725 1.000000
0.500714 0.359014 1.000000
0.640784 0.357384 1.000000
0.781789 0.356025 1.000000
0.926030 0.355600 1.000000
1.000000 0.355175 1.000000
0.000000 0.504493 1.000000
0.077229 0.502498 1.000000
0.217374 0.500774 1.000000
0.357444 0.499144 1.000000
0.498296 0.497740 1.000000
0.642537 0.497316 1.000000
0.786778 0.496891 1.000000
0.931019 0.496466 1.000000
1.000000 0.496041 1.000000
0.000000 0.642534 1.000000
0.074104 0.640904 1.000000
0.214802 0.639456 1.000000
0.359043 0.639031 1.000000
0.503284 0.638607 1.000000
0.647525 0.638182 1.000000
0.791766 0.637757 1.000000
0.936007 0.637332 1.000000
1.000000 0.636907 1.000000
0.000000 0.781172 1.000000
0.075550 0.780747 1.000000
0.219791 0.780322 1.000000
0.364032 0.779897 1.000000
0.508273 0.779473 1.000000
0.652514 0.779048 1.000000
0.796755 0.778623 1.000000
0.940996 0.778198 1.000000
1.000000 0.777773 1.000000
0.000000 0.922038 1.000000
0.080538 0.921613 1.000000
0.224779 0.921188 1.000000
0.369020 0.920763 1.000000
0.513261 0.920339 1.000000
0.657503 0.919914 1.000000
0.801744 0.919489 1.000000
0.945985 0.919064 1.000000
1.000000 0.918640 1.000000
0.000000 1.000000 1.000000
0.085527 1.000000 1.000000
0.229768 1.000000 1.000000
0.374009 1.000000 1.000000
0.518250 1.000000 1.000000
0.662491 1.000000 1.000000
0.806732 1.000000 1.000000
0.950973 1.000000 1.000000
1.000000 1.000000 1.000000
