shared/src/main/assets/luts/dalur_night_01.cube
TITLE "DALUR night"
LUT_3D_SIZE 17
DOMAIN_MIN 0.0 0.0 0.0
DOMAIN_MAX 1.0 1.0 1.0
0.008000 0.008000 0.008000
0.011882 0.008000 0.008000
0.072622 0.008000 0.008000
0.133361 0.008000 0.008000
0.194101 0.008000 0.008000
0.254841 0.008000 0.008000
0.315580 0.008000 0.008000
0.376320 0.008000 0.008000
0.437059 0.008000 0.008000
0.497799 0.008000 0.008000
0.558539 0.008000 0.009380
0.619278 0.008000 0.011333
0.680018 0.008000 0.013286
0.740757 0.008000 0.015239
0.801497 0.008000 0.017192
0.862236 0.008000 0.019145
0.922976 0.008000 0.021098
0.008000 0.019180 0.008000
0.015811 0.021133 0.008000
0.076551 0.023086 0.008000
0.137290 0.025039 0.008000
0.198030 0.026992 0.008000
0.258770 0.028946 0.008000
0.319509 0.030899 0.008000
0.380249 0.032852 0.008000
0.440988 0.034805 0.009403
0.501728 0.036758 0.011356
0.562467 0.038711 0.013309
0.623207 0.040664 0.015262
0.683947 0.042617 0.017215
0.744686 0.044570 0.019168
0.805426 0.046523 0.021121
0.866165 0.048476 0.023074
0.926905 0.050429 0.025027
0.008000 0.083347 0.008000
0.019740 0.085300 0.008000
0.080480 0.087253 0.008000
0.141219 0.089206 0.008000
0.201959 0.091159 0.008000
0.262698 0.093112 0.008000
0.323438 0.095065 0.009426
0.384178 0.097018 0.011379
0.444917 0.098972 0.013332
0.505657 0.100925 0.015285
0.566396 0.102878 0.017238
0.627136 0.104831 0.019191
0.687875 0.106784 0.021144
0.748615 0.108737 0.023097
0.809355 0.110690 0.025050
0.870094 0.112643 0.027003
0.930834 0.114596 0.028956
0.008000 0.147514 0.008000
0.023669 0.149467 0.008000
0.084408 0.151420 0.008000
0.145148 0.153373 0.008000
0.205888 0.155326 0.009449
0.266627 0.157279 0.011402
0.327367 0.159232 0.013355
0.388106 0.161185 0.015308
0.448846 0.163138 0.017261
0.509586 0.165091 0.019214
0.570325 0.167044 0.021167
0.631065 0.168998 0.023120
0.691804 0.170951 0.025073
0.752544 0.172904 0.027026
0.813283 0.174857 0.028979
0.874023 0.176810 0.030932
0.934763 0.178763 0.032885
0.008000 0.211681 0.008000
0.027598 0.213634 0.008000
0.088337 0.215587 0.009471
0.149077 0.217540 0.011424
0.209817 0.219493 0.013377
0.270556 0.221446 0.015330
0.331296 0.223399 0.017284
0.392035 0.225352 0.019237
0.452775 0.227305 0.021190
0.513514 0.229258 0.023143
0.574254 0.231211 0.025096
0.634994 0.233164 0.027049
0.695733 0.235117 0.029002
0.756473 0.237070 0.030955
0.817212 0.239024 0.032908
0.877952 0.240977 0.034861
0.938691 0.242930 0.036814
0.008000 0.275848 0.009494
0.031527 0.277801 0.011447
0.092266 0.279754 0.013400
0.153006 0.281707 0.015353
0.213745 0.283660 0.017306
0.274485 0.285613 0.019259
0.335225 0.287566 0.021212
0.395964 0.289519 0.023165
0.456704 0.291472 0.025118
0.517443 0.293425 0.027071
0.578183 0.295378 0.029024
0.638922 0.297331 0.030977
0.699662 0.299284 0.032930
0.760402 0.301237 0.034884
0.821141 0.303190 0.036837
0.881881 0.305143 0.038790
0.942620 0.307096 0.040743
0.008000 0.340015 0.013423
0.035455 0.341968 0.015376
0.096195 0.343921 0.017329
0.156935 0.345874 0.019282
0.217674 0.347827 0.021235
0.278414 0.349780 0.023188
0.339153 0.351733 0.025141
0.399893 0.353686 0.027094
0.460633 0.355639 0.029047
0.521372 0.357592 0.031000
0.582112 0.359545 0.032953
0.642851 0.361498 0.034906
0.703591 0.363451 0.036859
0.764330 0.365404 0.038812
0.825070 0.367357 0.040765
0.885810 0.369310 0.042718
0.946549 0.371263 0.044671
0.008000 0.404182 0.017352
0.039384 0.406135 0.019305
0.100124 0.408088 0.021258
0.160864 0.410041 0.023211
0.221603 0.411994 0.025164
0.282343 0.413947 0.027117
0.343082 0.415900 0.029070
0.403822 0.417853 0.031023
0.464561 0.419806 0.032976
0.525301 0.421759 0.034929
0.586041 0.423712 0.036882
0.646780 0.425665 0.038835
0.707520 0.427618 0.040788
0.768259 0.429571 0.042741
0.828999 0.431524 0.044694
0.889738 0.433477 0.046647
0.950478 0.435430 0.048600
0.008000 0.468349 0.021281
0.043313 0.470302 0.023234
0.104053 0.472255 0.025187
0.164792 0.474208 0.027140
0.225532 0.476161 0.029093
0.286272 0.478114 0.031046
0.347011 0.480067 0.032999
0.407751 0.482020 0.034952
0.468490 0.483973 0.036905
0.529230 0.485926 0.038858
0.589969 0.487879 0.040811
0.650709 0.489832 0.042764
0.711449 0.491785 0.044717
0.772188 0.493738 0.046670
0.832928 0.495691 0.048623
0.893667 0.497644 0.050576
0.954407 0.499597 0.052529
0.008000 0.532516 0.025210
0.047242 0.534469 0.027163
0.107982 0.536422 0.029116
0.168721 0.538375 0.031069
0.229461 0.540328 0.033022
0.290200 0.542281 0.034975
0.350940 0.544234 0.036928
0.411680 0.546187 0.038881
0.472419 0.548140 0.040834
0.533159 0.550093 0.042787
0.593898 0.552046 0.044740
0.654638 0.553999 0.046693
0.715377 0.555952 0.048646
0.776117 0.557905 0.050599
0.836857 0.559858 0.052552
0.897596 0.561811 0.054505
0.958336 0.563764 0.056458
0.008000 0.596683 0.029139
0.051171 0.598636 0.031092
0.111911 0.600589 0.033045
0.172650 0.602542 0.034998
0.233390 0.604495 0.036951
0.294129 0.606448 0.038904
0.354869 0.608401 0.040857
0.415608 0.610354 0.042810
0.476348 0.612307 0.044763
0.537088 0.614260 0.046716
0.597827 0.616213 0.048669
0.658567 0.618166 0.050622
0.719306 0.620119 0.052575
0.780046 0.622072 0.054528
0.840785 0.624025 0.056481
0.901525 0.625978 0.058434
0.962265 0.627931 0.060387
0.008000 0.660850 0.033067
0.055100 0.662803 0.035020
0.115839 0.664756 0.036973
0.176579 0.666709 0.038926
0.237319 0.668662 0.040880
0.298058 0.670615 0.042833
0.358798 0.672568 0.044786
0.419537 0.674521 0.046739
0.480277 0.676474 0.048692
0.541016 0.678427 0.050645
0.601756 0.680380 0.052598
0.662496 0.682333 0.054551
0.723235 0.684286 0.056504
0.783975 0.686239 0.058457
0.844714 0.688192 0.060410
0.905454 0.690145 0.062363
0.966194 0.692098 0.064316
0.008000 0.725017 0.036996
0.059029 0.726970 0.038949
0.119768 0.728923 0.040902
0.180508 0.730876 0.042855
0.241247 0.732829 0.044808
0.301987 0.734782 0.046761
0.362727 0.736735 0.048714
0.423466 0.738688 0.050667
0.484206 0.740641 0.052620
0.544945 0.742594 0.054573
0.605685 0.744547 0.056526
0.666424 0.746500 0.058480
0.727164 0.748453 0.060433
0.787904 0.750406 0.062386
0.848643 0.752359 0.064339
0.909383 0.754312 0.066292
0.968000 0.756265 0.068245
0.008000 0.789184 0.040925
0.062958 0.791137 0.042878
0.123697 0.793090 0.044831
0.184437 0.795043 0.046784
0.245176 0.796996 0.048737
0.305916 0.798949 0.050690
0.366655 0.800902 0.052643
0.427395 0.802855 0.054596
0.488135 0.804808 0.056549
0.548874 0.806761 0.058502
0.609614 0.808714 0.060455
0.670353 0.810667 0.062408
0.731093 0.812620 0.064361
0.791832 0.814573 0.066314
0.852572 0.816526 0.068267
0.913312 0.818479 0.070220
0.968000 0.820432 0.072173
0.008000 0.853351 0.044854
0.066886 0.855304 0.046807
0.127626 0.857257 0.048760
0.188366 0.859210 0.050713
0.249105 0.861163 0.052666
0.309845 0.863116 0.054619
0.370584 0.865069 0.056572
0.431324 0.867022 0.058525
0.492063 0.868975 0.060478
0.552803 0.870928 0.062431
0.613543 0.872881 0.064384
0.674282 0.874834 0.066337
0.735022 0.876787 0.068290
0.795761 0.878740 0.070243
0.856501 0.880693 0.072196
0.917241 0.882646 0.074149
0.968000 0.884599 0.076102
0.010076 0.917518 0.048783
0.070815 0.919471 0.050736
0.131555 0.921424 0.052689
0.192294 0.923377 0.054642
0.253034 0.925330 0.056595
0.313774 0.927283 0.058548
0.374513 0.929236 0.060501
0.435253 0.931189 0.062454
0.495992 0.933142 0.064407
0.556732 0.935095 0.066360
0.617471 0.937048 0.068313
0.678211 0.939001 0.070266
0.738951 0.940954 0.072219
0.799690 0.942907 0.074172
0.860430 0.944860 0.076125
0.921169 0.946813 0.078078
0.968000 0.948766 0.080031
0.014005 0.968000 0.052712
0.074744 0.968000 0.054665
0.135484 0.968000 0.056618
0.196223 0.968000 0.058571
0.256963 0.968000 0.060524
0.317702 0.968000 0.062477
0.378442 0.968000 0.064430
0.439182 0.968000 0.066383
0.499921 0.968000 0.068336
0.560661 0.968000 0.070289
0.621400 0.968000 0.072242
0.682140 0.968000 0.074195
0.742879 0.968000 0.076148
0.803619 0.968000 0.078101
0.864359 0.968000 0.080054
0.925098 0.968000 0.082007
0.968000 0.968000 0.083960
0.008000 0.008000 0.048646
0.012618 0.008000 0.050599
0.073357 0.008000 0.052552
0.134097 0.008000 0.054505
0.194837 0.008000 0.056458
0.255576 0.008000 0.058411
0.316316 0.008000 0.060364
0.377055 0.008000 0.062317
0.437795 0.008000 0.064270
0.498534 0.008000 0.066223
0.559274 0.008000 0.068176
0.620014 0.008000 0.070129
0.680753 0.008000 0.072082
0.741493 0.008000 0.074035
0.802232 0.008000 0.075988
0.862972 0.008000 0.077941
0.923711 0.008000 0.079895
0.008000 0.019916 0.052575
0.016547 0.021869 0.054528
0.077286 0.023822 0.056481
0.138026 0.025775 0.058434
0.198765 0.027728 0.060387
0.259505 0.029681 0.062340
0.320245 0.031634 0.064293
0.380984 0.033587 0.066246
0.441724 0.035540 0.068199
0.502463 0.037493 0.070152
0.563203 0.039446 0.072105
0.623942 0.041399 0.074058
0.684682 0.043352 0.076011
0.745422 0.045305 0.077964
0.806161 0.047258 0.079917
0.866901 0.049211 0.081870
0.927640 0.051164 0.083823
0.008000 0.084083 0.056504
0.020475 0.086036 0.058457
0.081215 0.087989 0.060410
0.141955 0.089942 0.062363
0.202694 0.091895 0.064316
0.263434 0.093848 0.066269
0.324173 0.095801 0.068222
0.384913 0.097754 0.070175
0.445653 0.099707 0.072128
0.506392 0.101660 0.074081
0.567132 0.103613 0.076034
0.627871 0.105566 0.077987
0.688611 0.107519 0.079940
0.749350 0.109472 0.081893
0.810090 0.111425 0.083846
0.870830 0.113378 0.085799
0.931569 0.115331 0.087752
0.008000 0.148250 0.060433
0.024404 0.150203 0.062386
0.085144 0.152156 0.064339
0.145884 0.154109 0.066292
0.206623 0.156062 0.068245
0.267363 0.158015 0.070198
0.328102 0.159968 0.072151
0.388842 0.161921 0.074104
0.449581 0.163874 0.076057
0.510321 0.165827 0.078010
0.571061 0.167780 0.079963
0.631800 0.169733 0.081916
0.692540 0.171686 0.083869
0.753279 0.173639 0.085822
0.814019 0.175592 0.087775
0.874758 0.177545 0.089728
0.935498 0.179498 0.091681
0.008000 0.212417 0.064362
0.028333 0.214370 0.066315
0.089073 0.216323 0.068268
0.149812 0.218276 0.070221
0.210552 0.220229 0.072174
0.271292 0.222182 0.074127
0.332031 0.224135 0.076080
0.392771 0.226088 0.078033
0.453510 0.228041 0.079986
0.514250 0.229994 0.081939
0.574989 0.231947 0.083892
0.635729 0.233900 0.085845
0.696469 0.235853 0.087798
0.757208 0.237806 0.089751
0.817948 0.239759 0.091704
0.878687 0.241712 0.093657
0.939427 0.243665 0.095610
0.008000 0.276584 0.068290
0.032262 0.278537 0.070244
0.093002 0.280490 0.072197
0.153741 0.282443 0.074150
0.214481 0.284396 0.076103
0.275220 0.286349 0.078056
0.335960 0.288302 0.080009
0.396700 0.290255 0.081962
0.457439 0.292208 0.083915
0.518179 0.294161 0.085868
0.578918 0.296114 0.087821
0.639658 0.298067 0.089774
0.700397 0.300020 0.091727
0.761137 0.301973 0.093680
0.821877 0.303926 0.095633
0.882616 0.305879 0.097586
0.943356 0.307832 0.099539
0.008000 0.340751 0.072219
0.036191 0.342704 0.074172
0.096931 0.344657 0.076125
0.157670 0.346610 0.078078
0.218410 0.348563 0.080031
0.279149 0.350516 0.081984
0.339889 0.352469 0.083937
0.400628 0.354422 0.085890
0.461368 0.356375 0.087844
0.522108 0.358328 0.089797
0.582847 0.360281 0.091750
0.643587 0.362234 0.093703
0.704326 0.364187 0.095656
0.765066 0.366140 0.097609
0.825805 0.368093 0.099562
0.886545 0.370046 0.101515
0.947285 0.371999 0.103468
0.008000 0.404917 0.076148
0.040120 0.406871 0.078101
0.100859 0.408824 0.080054
0.161599 0.410777 0.082007
0.222339 0.412730 0.083960
0.283078 0.414683 0.085913
0.343818 0.416636 0.087866
0.404557 0.418589 0.089819
0.465297 0.420542 0.091772
0.526036 0.422495 0.093725
0.586776 0.424448 0.095678
0.647516 0.426401 0.097631
0.708255 0.428354 0.099584
0.768995 0.430307 0.101537
0.829734 0.432260 0.103490
0.890474 0.434213 0.105444
0.951213 0.436166 0.107397
0.008000 0.469084 0.080077
0.044049 0.471037 0.082030
0.104788 0.472990 0.083983
0.165528 0.474943 0.085936
0.226267 0.476897 0.087889
0.287007 0.478850 0.089842
0.347747 0.480803 0.091795
0.408486 0.482756 0.093748
0.469226 0.484709 0.095701
0.529965 0.486662 0.097654
0.590705 0.488615 0.099607
0.651444 0.490568 0.101560
0.712184 0.492521 0.103513
0.772924 0.494474 0.105466
0.833663 0.496427 0.107419
0.894403 0.498380 0.109372
0.955142 0.500333 0.111325
0.008000 0.533251 0.084006
0.047978 0.535204 0.085959
0.108717 0.537157 0.087912
0.169457 0.539110 0.089865
0.230196 0.541063 0.091818
0.290936 0.543016 0.093771
0.351675 0.544969 0.095724
0.412415 0.546923 0.097677
0.473155 0.548876 0.099630
0.533894 0.550829 0.101583
0.594634 0.552782 0.103536
0.655373 0.554735 0.105489
0.716113 0.556688 0.107442
0.776852 0.558641 0.109395
0.837592 0.560594 0.111348
0.898332 0.562547 0.113301
0.959071 0.564500 0.115254
0.008000 0.597418 0.087935
0.051906 0.599371 0.089888
0.112646 0.601324 0.091841
0.173386 0.603277 0.093794
0.234125 0.605230 0.095747
0.294865 0.607183 0.097700
0.355604 0.609136 0.099653
0.416344 0.611089 0.101606
0.477083 0.613042 0.103559
0.537823 0.614996 0.105512
0.598563 0.616949 0.107465
0.659302 0.618902 0.109418
0.720042 0.620855 0.111371
0.780781 0.622808 0.113324
0.841521 0.624761 0.115277
0.902261 0.626714 0.117230
0.963000 0.628667 0.119183
0.008000 0.661585 0.091864
0.055835 0.663538 0.093817
0.116575 0.665491 0.095770
0.177314 0.667444 0.097723
0.238054 0.669397 0.099676
0.298794 0.671350 0.101629
0.359533 0.673303 0.103582
0.420273 0.675256 0.105535
0.481012 0.677209 0.107488
0.541752 0.679162 0.109441
0.602491 0.681115 0.111394
0.663231 0.683068 0.113347
0.723971 0.685022 0.115300
0.784710 0.686975 0.117253
0.845450 0.688928 0.119206
0.906189 0.690881 0.121159
0.966929 0.692834 0.123112
0.008000 0.725752 0.095793
0.059764 0.727705 0.097746
0.120504 0.729658 0.099699
0.181243 0.731611 0.101652
0.241983 0.733564 0.103605
0.302722 0.735517 0.105558
0.363462 0.737470 0.107511
0.424202 0.739423 0.109464
0.484941 0.741376 0.111417
0.545681 0.743329 0.113370
0.606420 0.745282 0.115323
0.667160 0.747235 0.117276
0.727899 0.749188 0.119229
0.788639 0.751141 0.121182
0.849379 0.753094 0.123135
0.910118 0.755048 0.125088
0.968000 0.757001 0.127041
0.008000 0.789919 0.099721
0.063693 0.791872 0.101674
0.124433 0.793825 0.103627
0.185172 0.795778 0.105580
0.245912 0.797731 0.107533
0.306651 0.799684 0.109486
0.367391 0.801637 0.111440
0.428130 0.803590 0.113393
0.488870 0.805543 0.115346
0.549610 0.807496 0.117299
0.610349 0.809449 0.119252
0.671089 0.811402 0.121205
0.731828 0.813355 0.123158
0.792568 0.815308 0.125111
0.853308 0.817261 0.127064
0.914047 0.819214 0.129017
0.968000 0.821167 0.130970
0.008000 0.854086 0.103650
0.067622 0.856039 0.105603
0.128361 0.857992 0.107556
0.189101 0.859945 0.109509
0.249841 0.861898 0.111462
0.310580 0.863851 0.113415
0.371320 0.865804 0.115368
0.432059 0.867757 0.117321
0.492799 0.869710 0.119274
0.553538 0.871663 0.121227
0.614278 0.873616 0.123180
0.675018 0.875569 0.125133
0.735757 0.877522 0.127086
0.796497 0.879475 0.129040
0.857236 0.881428 0.130993
0.917976 0.883381 0.132946
0.968000 0.885334 0.134899
0.010811 0.918253 0.107579
0.071551 0.920206 0.109532
0.132290 0.922159 0.111485
0.193030 0.924112 0.113438
0.253769 0.926065 0.115391
0.314509 0.928018 0.117344
0.375249 0.929971 0.119297
0.435988 0.931924 0.121250
0.496728 0.933877 0.123203
0.557467 0.935830 0.125156
0.618207 0.937783 0.127109
0.678946 0.939736 0.129062
0.739686 0.941689 0.131015
0.800426 0.943642 0.132968
0.861165 0.945595 0.134921
0.921905 0.947548 0.136874
0.968000 0.949501 0.138827
0.014740 0.968000 0.111508
0.075480 0.968000 0.113461
0.136219 0.968000 0.115414
0.196959 0.968000 0.117367
0.257698 0.968000 0.119320
0.318438 0.968000 0.121273
0.379177 0.968000 0.123226
0.439917 0.968000 0.125179
0.500657 0.968000 0.127132
0.561396 0.968000 0.129085
0.622136 0.968000 0.131038
0.682875 0.968000 0.132991
0.743615 0.968000 0.134944
0.804355 0.968000 0.136897
0.865094 0.968000 0.138850
0.925834 0.968000 0.140803
0.968000 0.968000 0.142756
0.008000 0.008000 0.107442
0.013353 0.008000 0.109395
0.074093 0.008000 0.111348
0.134832 0.008000 0.113301
0.195572 0.008000 0.115255
0.256312 0.008000 0.117208
0.317051 0.008000 0.119161
0.377791 0.008000 0.121114
0.438530 0.008000 0.123067
0.499270 0.008000 0.125020
0.560009 0.008000 0.126973
0.620749 0.008000 0.128926
0.681489 0.008000 0.130879
0.742228 0.008000 0.132832
0.802968 0.008000 0.134785
0.863707 0.008000 0.136738
0.924447 0.008000 0.138691
0.008000 0.020651 0.111371
0.017282 0.022604 0.113324
0.078022 0.024557 0.115277
0.138761 0.026510 0.117230
0.199501 0.028463 0.119183
0.260240 0.030416 0.121136
0.320980 0.032369 0.123089
0.381720 0.034322 0.125042
0.442459 0.036275 0.126995
0.503199 0.038228 0.128948
0.563938 0.040181 0.130901
0.624678 0.042135 0.132855
0.685417 0.044088 0.134808
0.746157 0.046041 0.136761
0.806897 0.047994 0.138714
0.867636 0.049947 0.140667
0.928376 0.051900 0.142620
0.008000 0.084818 0.115300
0.021211 0.086771 0.117253
0.081951 0.088724 0.119206
0.142690 0.090677 0.121159
0.203430 0.092630 0.123112
0.264169 0.094583 0.125065
0.324909 0.096536 0.127018
0.385648 0.098489 0.128971
0.446388 0.100442 0.130924
0.507128 0.102395 0.132877
0.567867 0.104348 0.134830
0.628607 0.106301 0.136783
0.689346 0.108254 0.138736
0.750086 0.110207 0.140689
0.810825 0.112161 0.142642
0.871565 0.114114 0.144595
0.932305 0.116067 0.146548
0.008000 0.148985 0.119229
0.025140 0.150938 0.121182
0.085879 0.152891 0.123135
0.146619 0.154844 0.125088
0.207359 0.156797 0.127041
0.268098 0.158750 0.128994
0.328838 0.160703 0.130947
0.389577 0.162656 0.132900
0.450317 0.164609 0.134853
0.511056 0.166562 0.136806
0.571796 0.168515 0.138759
0.632536 0.170468 0.140712
0.693275 0.172421 0.142665
0.754015 0.174374 0.144618
0.814754 0.176327 0.146571
0.875494 0.178280 0.148524
0.936233 0.180233 0.150477
0.008000 0.213152 0.123158
0.029069 0.215105 0.125111
0.089808 0.217058 0.127064
0.150548 0.219011 0.129017
0.211287 0.220964 0.130970
0.272027 0.222917 0.132923
0.332767 0.224870 0.134876
0.393506 0.226823 0.136829
0.454246 0.228776 0.138782
0.514985 0.230729 0.140735
0.575725 0.232682 0.142688
0.636464 0.234635 0.144641
0.697204 0.236588 0.146594
0.757944 0.238541 0.148547
0.818683 0.240494 0.150500
0.879423 0.242447 0.152453
0.940162 0.244400 0.154406
0.008000 0.277319 0.127087
0.032998 0.279272 0.129040
0.093737 0.281225 0.130993
0.154477 0.283178 0.132946
0.215216 0.285131 0.134899
0.275956 0.287084 0.136852
0.336695 0.289037 0.138805
0.397435 0.290990 0.140758
0.458175 0.292943 0.142711
0.518914 0.294896 0.144664
0.579654 0.296849 0.146617
0.640393 0.298802 0.148570
0.701133 0.300755 0.150523
0.761872 0.302708 0.152476
0.822612 0.304661 0.154429
0.883352 0.306614 0.156382
0.944091 0.308567 0.158335
0.008000 0.341486 0.131016
0.036926 0.343439 0.132969
0.097666 0.345392 0.134922
0.158406 0.347345 0.136875
0.219145 0.349298 0.138828
0.279885 0.351251 0.140781
0.340624 0.353204 0.142734
0.401364 0.355157 0.144687
0.462103 0.357110 0.146640
0.522843 0.359063 0.148593
0.583583 0.361016 0.150546
0.644322 0.362969 0.152499
0.705062 0.364922 0.154452
0.765801 0.366875 0.156405
0.826541 0.368828 0.158358
0.887280 0.370781 0.160311
0.948020 0.372734 0.162264
0.008000 0.405653 0.134944
0.040855 0.407606 0.136897
0.101595 0.409559 0.138850
0.162334 0.411512 0.140804
0.223074 0.413465 0.142757
0.283814 0.415418 0.144710
0.344553 0.417371 0.146663
0.405293 0.419324 0.148616
0.466032 0.421277 0.150569
0.526772 0.423230 0.152522
0.587511 0.425183 0.154475
0.648251 0.427136 0.156428
0.708991 0.429089 0.158381
0.769730 0.431042 0.160334
0.830470 0.432995 0.162287
0.891209 0.434948 0.164240
0.951949 0.436901 0.166193
0.008000 0.469820 0.138873
0.044784 0.471773 0.140826
0.105524 0.473726 0.142779
0.166263 0.475679 0.144732
0.227003 0.477632 0.146685
0.287742 0.479585 0.148638
0.348482 0.481538 0.150591
0.409222 0.483491 0.152544
0.469961 0.485444 0.154497
0.530701 0.487397 0.156450
0.591440 0.489350 0.158404
0.652180 0.491303 0.160357
0.712919 0.493256 0.162310
0.773659 0.495209 0.164263
0.834399 0.497162 0.166216
0.895138 0.499115 0.168169
0.955878 0.501068 0.170122
0.008000 0.533987 0.142802
0.048713 0.535940 0.144755
0.109453 0.537893 0.146708
0.170192 0.539846 0.148661
0.230932 0.541799 0.150614
0.291671 0.543752 0.152567
0.352411 0.545705 0.154520
0.413150 0.547658 0.156473
0.473890 0.549611 0.158426
0.534630 0.551564 0.160379
0.595369 0.553517 0.162332
0.656109 0.555470 0.164285
0.716848 0.557423 0.166238
0.777588 0.559376 0.168191
0.838327 0.561329 0.170144
0.899067 0.563282 0.172097
0.959807 0.565235 0.174050
0.008000 0.598154 0.146731
0.052642 0.600107 0.148684
0.113381 0.602060 0.150637
0.174121 0.604013 0.152590
0.234861 0.605966 0.154543
0.295600 0.607919 0.156496
0.356340 0.609872 0.158449
0.417079 0.611825 0.160402
0.477819 0.613778 0.162355
0.538558 0.615731 0.164308
0.599298 0.617684 0.166261
0.660038 0.619637 0.168214
0.720777 0.621590 0.170167
0.781517 0.623543 0.172120
0.842256 0.625496 0.174073
0.902996 0.627449 0.176026
0.963736 0.629402 0.177979
0.008000 0.662321 0.150660
0.056571 0.664274 0.152613
0.117310 0.666227 0.154566
0.178050 0.668180 0.156519
0.238789 0.670133 0.158472
0.299529 0.672086 0.160425
0.360269 0.674039 0.162378
0.421008 0.675992 0.164331
0.481748 0.677945 0.166284
0.542487 0.679898 0.168237
0.603227 0.681851 0.170190
0.663966 0.683804 0.172143
0.724706 0.685757 0.174096
0.785446 0.687710 0.176049
0.846185 0.689663 0.178002
0.906925 0.691616 0.179955
0.967664 0.693569 0.181908
0.008000 0.726488 0.154589
0.060500 0.728441 0.156542
0.121239 0.730394 0.158495
0.181979 0.732347 0.160448
0.242718 0.734300 0.162401
0.303458 0.736253 0.164354
0.364197 0.738206 0.166307
0.424937 0.740159 0.168260
0.485677 0.742112 0.170213
0.546416 0.744065 0.172166
0.607156 0.746018 0.174119
0.667895 0.747971 0.176072
0.728635 0.749924 0.178025
0.789375 0.751877 0.179978
0.850114 0.753830 0.181931
0.910854 0.755783 0.183884
0.968000 0.757736 0.185837
0.008000 0.790655 0.158518
0.064428 0.792608 0.160471
0.125168 0.794561 0.162424
0.185908 0.796514 0.164377
0.246647 0.798467 0.166330
0.307387 0.800420 0.168283
0.368126 0.802373 0.170236
0.428866 0.804326 0.172189
0.489605 0.806279 0.174142
0.550345 0.808232 0.176095
0.611085 0.810185 0.178048
0.671824 0.812138 0.180001
0.732564 0.814091 0.181954
0.793303 0.816044 0.183907
0.854043 0.817997 0.185860
0.914783 0.819950 0.187813
0.968000 0.821903 0.189766
0.008000 0.854822 0.162446
0.068357 0.856775 0.164400
0.129097 0.858728 0.166353
0.189836 0.860681 0.168306
0.250576 0.862634 0.170259
0.311316 0.864587 0.172212
0.372055 0.866540 0.174165
0.432795 0.868493 0.176118
0.493534 0.870446 0.178071
0.554274 0.872399 0.180024
0.615013 0.874352 0.181977
0.675753 0.876305 0.183930
0.736493 0.878258 0.185883
0.797232 0.880211 0.187836
0.857972 0.882164 0.189789
0.918711 0.884117 0.191742
0.968000 0.886070 0.193695
0.011547 0.918988 0.166375
0.072286 0.920941 0.168328
0.133026 0.922895 0.170281
0.193765 0.924848 0.172234
0.254505 0.926801 0.174187
0.315244 0.928754 0.176140
0.375984 0.930707 0.178093
0.436724 0.932660 0.180046
0.497463 0.934613 0.182000
0.558203 0.936566 0.183953
0.618942 0.938519 0.185906
0.679682 0.940472 0.187859
0.740422 0.942425 0.189812
0.801161 0.944378 0.191765
0.861901 0.946331 0.193718
0.922640 0.948284 0.195671
0.968000 0.950237 0.197624
0.015475 0.968000 0.170304
0.076215 0.968000 0.172257
0.136955 0.968000 0.174210
0.197694 0.968000 0.176163
0.258434 0.968000 0.178116
0.319173 0.968000 0.180069
0.379913 0.968000 0.182022
0.440652 0.968000 0.183975
0.501392 0.968000 0.185928
0.562132 0.968000 0.187881
0.622871 0.968000 0.189834
0.683611 0.968000 0.191787
0.744350 0.968000 0.193740
0.805090 0.968000 0.195693
0.865830 0.968000 0.197646
0.926569 0.968000 0.199600
0.968000 0.968000 0.201553
0.008000 0.008000 0.166239
0.014089 0.008000 0.168192
0.074828 0.008000 0.170145
0.135568 0.008000 0.172098
0.196307 0.008000 0.174051
0.257047 0.008000 0.176004
0.317787 0.008000 0.177957
0.378526 0.008000 0.179910
0.439266 0.008000 0.181863
0.500005 0.008000 0.183816
0.560745 0.008000 0.185769
0.621484 0.008000 0.187722
0.682224 0.008000 0.189675
0.742964 0.008000 0.191628
0.803703 0.008000 0.193581
0.864443 0.008000 0.195534
0.925182 0.008000 0.197487
0.008000 0.021387 0.170168
