shared/src/main/assets/luts/dalur_memory_01.cube
TITLE "DALUR memory"
LUT_3D_SIZE 5
DOMAIN_MIN 0.0 0.0 0.0
DOMAIN_MAX 1.0 1.0 1.0
0.062290 0.029876 0.021035
0.305227 0.026368 0.017527
0.548163 0.022859 0.014018
0.791100 0.019350 0.010509
1.000000 0.015841 0.007000
0.055175 0.277310 0.013920
0.298111 0.273801 0.010411
0.541048 0.270292 0.006902
0.783984 0.266783 0.003393
1.000000 0.263274 0.000000
0.048059 0.524744 0.006805
0.290996 0.521235 0.003296
0.533933 0.517726 0.000000
0.776869 0.514217 0.000000
1.000000 0.510708 0.000000
0.040944 0.772177 0.000000
0.283881 0.768668 0.000000
0.526817 0.765160 0.000000
0.769754 0.761651 0.000000
1.000000 0.758142 0.000000
0.033829 1.000000 0.000000
0.276766 1.000000 0.000000
0.519702 1.000000 0.000000
0.762639 1.000000 0.000000
1.000000 1.000000 0.000000
0.060936 0.028523 0.269091
0.303873 0.025014 0.265582
0.546809 0.021505 0.262073
0.789746 0.017996 0.258564
1.000000 0.014487 0.255055
0.053821 0.275956 0.261975
0.296757 0.272447 0.258467
0.539694 0.268938 0.254958
0.782631 0.265429 0.251449
1.000000 0.261921 0.247940
0.046706 0.523390 0.254860
0.289642 0.519881 0.251351
0.532579 0.516372 0.247842
0.775515 0.512863 0.244333
1.000000 0.509354 0.240825
0.039590 0.770823 0.247745
0.282527 0.767315 0.244236
0.525463 0.763806 0.240727
0.768400 0.760297 0.237218
1.000000 0.756788 0.233709
0.032475 1.000000 0.240630
0.275412 1.000000 0.237121
0.518348 1.000000 0.233612
0.761285 1.000000 0.230103
1.000000 1.000000 0.226594
0.059582 0.027169 0.517146
0.302519 0.023660 0.513637
0.545455 0.020151 0.510128
0.788392 0.016642 0.506619
1.000000 0.013133 0.503110
0.052467 0.274602 0.510031
0.295403 0.271093 0.506522
0.538340 0.267584 0.503013
0.781277 0.264076 0.499504
1.000000 0.260567 0.495995
0.045352 0.522036 0.502915
0.288288 0.518527 0.499406
0.531225 0.515018 0.495898
0.774161 0.511509 0.492389
1.000000 0.508000 0.488880
0.038236 0.769470 0.495800
0.281173 0.765961 0.492291
0.524110 0.762452 0.488782
0.767046 0.758943 0.485273
1.000000 0.755434 0.481764
0.031121 1.000000 0.488685
0.274058 1.000000 0.485176
0.516994 1.000000 0.481667
0.759931 1.000000 0.478158
1.000000 1.000000 0.474649
0.058228 0.025815 0.765201
0.301165 0.022306 0.761692
0.544101 0.018797 0.758183
0.787038 0.015288 0.754674
1.000000 0.011779 0.751165
0.051113 0.273248 0.758086
0.294050 0.269739 0.754577
0.536986 0.266230 0.751068
0.779923 0.262722 0.747559
1.000000 0.259213 0.744050
0.043998 0.520682 0.750971
0.286934 0.517173 0.747462
0.529871 0.513664 0.743953
0.772807 0.510155 0.740444
1.000000 0.506646 0.736935
0.036882 0.768116 0.743855
0.279819 0.764607 0.740346
0.522756 0.761098 0.736837
0.765692 0.757589 0.733329
1.000000 0.754080 0.729820
0.029767 1.000000 0.736740
0.272704 1.000000 0.733231
0.515640 1.000000 0.729722
0.758577 1.000000 0.726213
1.000000 1.000000 0.722704
0.056874 0.024461 1.000000
0.299811 0.020952 1.000000
0.542747 0.017443 1.000000
0.785684 0.013934 1.000000
1.000000 0.010425 0.999221
0.049759 0.271894 1.000000
0.292696 0.268385 1.000000
0.535632 0.264877 0.999123
0.778569 0.261368 0.995614
1.000000 0.257859 0.992105
0.042644 0.519328 0.999026
0.285580 0.515819 0.995517
0.528517 0.512310 0.992008
0.771454 0.508801 0.988499
1.000000 0.505292 0.984990
0.035529 0.766762 0.991911
0.278465 0.763253 0.988402
0.521402 0.759744 0.984893
0.764338 0.756235 0.981384
1.000000 0.752726 0.977875
0.028413 1.000000 0.984795
0.271350 1.000000 0.981286
0.514286 1.000000 0.977777
0.757223 1.000000 0.974269
1.000000 1.000000 0.970760
