shared/src/main/assets/luts/dalur_soft_01.cube
TITLE "DALUR soft"
LUT_3D_SIZE 17
DOMAIN_MIN 0.0 0.0 0.0
DOMAIN_MAX 1.0 1.0 1.0
0.107585 0.089235 0.086241
0.157971 0.090179 0.087184
0.208357 0.091123 0.088128
0.258743 0.092066 0.089071
0.309129 0.093010 0.090015
0.359515 0.093953 0.090959
0.409901 0.094897 0.091902
0.460287 0.095841 0.092846
0.510673 0.096784 0.093789
0.561059 0.097728 0.094733
0.611445 0.098672 0.095677
0.661831 0.099615 0.096620
0.712217 0.100559 0.097564
0.762603 0.101502 0.098508
0.812989 0.102446 0.099451
0.863375 0.103390 0.100395
0.913761 0.104333 0.101338
0.109481 0.141720 0.088136
0.159867 0.142664 0.089080
0.210253 0.143607 0.090023
0.260639 0.144551 0.090967
0.311025 0.145495 0.091911
0.361410 0.146438 0.092854
0.411796 0.147382 0.093798
0.462182 0.148325 0.094741
0.512568 0.149269 0.095685
0.562954 0.150213 0.096629
0.613340 0.151156 0.097572
0.663726 0.152100 0.098516
0.714112 0.153043 0.099459
0.764498 0.153987 0.100403
0.814884 0.154931 0.101347
0.865270 0.155874 0.102290
0.915656 0.156818 0.103234
0.111376 0.194205 0.090032
0.161762 0.195148 0.090975
0.212148 0.196092 0.091919
0.262534 0.197036 0.092862
0.312920 0.197979 0.093806
0.363306 0.198923 0.094750
0.413692 0.199866 0.095693
0.464078 0.200810 0.096637
0.514464 0.201754 0.097580
0.564850 0.202697 0.098524
0.615236 0.203641 0.099468
0.665622 0.204585 0.100411
0.716008 0.205528 0.101355
0.766394 0.206472 0.102299
0.816780 0.207415 0.103242
0.867166 0.208359 0.104186
0.917552 0.209303 0.105129
0.113272 0.246689 0.091927
0.163658 0.247633 0.092871
0.214044 0.248577 0.093814
0.264430 0.249520 0.094758
0.314815 0.250464 0.095701
0.365201 0.251408 0.096645
0.415587 0.252351 0.097589
0.465973 0.253295 0.098532
0.516359 0.254238 0.099476
0.566745 0.255182 0.100420
0.617131 0.256126 0.101363
0.667517 0.257069 0.102307
0.717903 0.258013 0.103250
0.768289 0.258956 0.104194
0.818675 0.259900 0.105138
0.869061 0.260844 0.106081
0.919447 0.261787 0.107025
0.115167 0.299174 0.093822
0.165553 0.300118 0.094766
0.215939 0.301061 0.095710
0.266325 0.302005 0.096653
0.316711 0.302949 0.097597
0.367097 0.303892 0.098541
0.417483 0.304836 0.099484
0.467869 0.305779 0.100428
0.518255 0.306723 0.101371
0.568641 0.307667 0.102315
0.619027 0.308610 0.103259
0.669413 0.309554 0.104202
0.719799 0.310498 0.105146
0.770185 0.311441 0.106089
0.820571 0.312385 0.107033
0.870957 0.313328 0.107977
0.921343 0.314272 0.108920
0.117063 0.351659 0.095718
0.167449 0.352603 0.096662
0.217834 0.353546 0.097605
0.268220 0.354490 0.098549
0.318606 0.355433 0.099492
0.368992 0.356377 0.100436
0.419378 0.357321 0.101380
0.469764 0.358264 0.102323
0.520150 0.359208 0.103267
0.570536 0.360151 0.104210
0.620922 0.361095 0.105154
0.671308 0.362039 0.106098
0.721694 0.362982 0.107041
0.772080 0.363926 0.107985
0.822466 0.364869 0.108929
0.872852 0.365813 0.109872
0.923238 0.366757 0.110816
0.118958 0.404144 0.097613
0.169344 0.405087 0.098557
0.219730 0.406031 0.099501
0.270116 0.406974 0.100444
0.320502 0.407918 0.101388
0.370888 0.408862 0.102332
0.421274 0.409805 0.103275
0.471660 0.410749 0.104219
0.522046 0.411692 0.105162
0.572432 0.412636 0.106106
0.622818 0.413580 0.107050
0.673204 0.414523 0.107993
0.723590 0.415467 0.108937
0.773976 0.416411 0.109880
0.824362 0.417354 0.110824
0.874748 0.418298 0.111768
0.925134 0.419241 0.112711
0.120854 0.456628 0.099509
0.171239 0.457572 0.100453
0.221625 0.458516 0.101396
0.272011 0.459459 0.102340
0.322397 0.460403 0.103283
0.372783 0.461346 0.104227
0.423169 0.462290 0.105171
0.473555 0.463234 0.106114
0.523941 0.464177 0.107058
0.574327 0.465121 0.108001
0.624713 0.466064 0.108945
0.675099 0.467008 0.109889
0.725485 0.467952 0.110832
0.775871 0.468895 0.111776
0.826257 0.469839 0.112720
0.876643 0.470782 0.113663
0.927029 0.471726 0.114607
0.122749 0.509113 0.101404
0.173135 0.510057 0.102348
0.223521 0.511000 0.103292
0.273907 0.511944 0.104235
0.324293 0.512887 0.105179
0.374679 0.513831 0.106122
0.425065 0.514775 0.107066
0.475451 0.515718 0.108010
0.525837 0.516662 0.108953
0.576223 0.517605 0.109897
0.626609 0.518549 0.110841
0.676995 0.519493 0.111784
0.727381 0.520436 0.112728
0.777767 0.521380 0.113671
0.828153 0.522324 0.114615
0.878539 0.523267 0.115559
0.928924 0.524211 0.116502
0.124644 0.561598 0.103300
0.175030 0.562541 0.104244
0.225416 0.563485 0.105187
0.275802 0.564429 0.106131
0.326188 0.565372 0.107074
0.376574 0.566316 0.108018
0.426960 0.567259 0.108962
0.477346 0.568203 0.109905
0.527732 0.569147 0.110849
0.578118 0.570090 0.111792
0.628504 0.571034 0.112736
0.678890 0.571977 0.113680
0.729276 0.572921 0.114623
0.779662 0.573865 0.115567
0.830048 0.574808 0.116510
0.880434 0.575752 0.117454
0.930820 0.576695 0.118398
0.126540 0.614082 0.105195
0.176926 0.615026 0.106139
0.227312 0.615970 0.107083
0.277698 0.616913 0.108026
0.328084 0.617857 0.108970
0.378470 0.618800 0.109913
0.428856 0.619744 0.110857
0.479242 0.620688 0.111801
0.529628 0.621631 0.112744
0.580014 0.622575 0.113688
0.630400 0.623518 0.114632
0.680786 0.624462 0.115575
0.731172 0.625406 0.116519
0.781558 0.626349 0.117462
0.831944 0.627293 0.118406
0.882329 0.628237 0.119350
0.932715 0.629180 0.120293
0.128435 0.666567 0.107091
0.178821 0.667511 0.108034
0.229207 0.668454 0.108978
0.279593 0.669398 0.109922
0.329979 0.670342 0.110865
0.380365 0.671285 0.111809
0.430751 0.672229 0.112753
0.481137 0.673172 0.113696
0.531523 0.674116 0.114640
0.581909 0.675060 0.115583
0.632295 0.676003 0.116527
0.682681 0.676947 0.117471
0.733067 0.677890 0.118414
0.783453 0.678834 0.119358
0.833839 0.679778 0.120301
0.884225 0.680721 0.121245
0.934611 0.681665 0.122189
0.130331 0.719052 0.108986
0.180717 0.719995 0.109930
0.231103 0.720939 0.110874
0.281489 0.721883 0.111817
0.331875 0.722826 0.112761
0.382261 0.723770 0.113704
0.432647 0.724713 0.114648
0.483033 0.725657 0.115592
0.533419 0.726601 0.116535
0.583805 0.727544 0.117479
0.634191 0.728488 0.118422
0.684577 0.729431 0.119366
0.734963 0.730375 0.120310
0.785349 0.731319 0.121253
0.835734 0.732262 0.122197
0.886120 0.733206 0.123141
0.936506 0.734150 0.124084
0.132226 0.771536 0.110882
0.182612 0.772480 0.111825
0.232998 0.773424 0.112769
0.283384 0.774367 0.113713
0.333770 0.775311 0.114656
0.384156 0.776255 0.115600
0.434542 0.777198 0.116544
0.484928 0.778142 0.117487
0.535314 0.779085 0.118431
0.585700 0.780029 0.119374
0.636086 0.780973 0.120318
0.686472 0.781916 0.121262
0.736858 0.782860 0.122205
0.787244 0.783803 0.123149
0.837630 0.784747 0.124092
0.888016 0.785691 0.125036
0.938402 0.786634 0.125980
0.134122 0.824021 0.112777
0.184508 0.824965 0.113721
0.234894 0.825908 0.114665
0.285280 0.826852 0.115608
0.335666 0.827796 0.116552
0.386052 0.828739 0.117495
0.436438 0.829683 0.118439
0.486824 0.830626 0.119383
0.537210 0.831570 0.120326
0.587596 0.832514 0.121270
0.637982 0.833457 0.122213
0.688368 0.834401 0.123157
0.738753 0.835344 0.124101
0.789139 0.836288 0.125044
0.839525 0.837232 0.125988
0.889911 0.838175 0.126931
0.940297 0.839119 0.127875
0.136017 0.876506 0.114673
0.186403 0.877449 0.115616
0.236789 0.878393 0.116560
0.287175 0.879337 0.117504
0.337561 0.880280 0.118447
0.387947 0.881224 0.119391
0.438333 0.882168 0.120334
0.488719 0.883111 0.121278
0.539105 0.884055 0.122222
0.589491 0.884998 0.123165
0.639877 0.885942 0.124109
0.690263 0.886886 0.125053
0.740649 0.887829 0.125996
0.791035 0.888773 0.126940
0.841421 0.889716 0.127883
0.891807 0.890660 0.128827
0.942193 0.891604 0.129771
0.137913 0.928991 0.116568
0.188299 0.929934 0.117512
0.238685 0.930878 0.118455
0.289071 0.931821 0.119399
0.339457 0.932765 0.120343
0.389843 0.933709 0.121286
0.440229 0.934652 0.122230
0.490615 0.935596 0.123174
0.541001 0.936539 0.124117
0.591387 0.937483 0.125061
0.641773 0.938427 0.126004
0.692158 0.939370 0.126948
0.742544 0.940314 0.127892
0.792930 0.941257 0.128835
0.843316 0.942201 0.129779
0.893702 0.943145 0.130722
0.944088 0.944088 0.131666
0.107947 0.089597 0.136321
0.158333 0.090541 0.137265
0.208719 0.091484 0.138208
0.259105 0.092428 0.139152
0.309491 0.093372 0.140096
0.359877 0.094315 0.141039
0.410263 0.095259 0.141983
0.460649 0.096202 0.142927
0.511035 0.097146 0.143870
0.561421 0.098090 0.144814
0.611807 0.099033 0.145757
0.662193 0.099977 0.146701
0.712579 0.100921 0.147645
0.762965 0.101864 0.148588
0.813350 0.102808 0.149532
0.863736 0.103751 0.150475
0.914122 0.104695 0.151419
0.109842 0.142082 0.138217
0.160228 0.143026 0.139160
0.210614 0.143969 0.140104
0.261000 0.144913 0.141048
0.311386 0.145856 0.141991
0.361772 0.146800 0.142935
0.412158 0.147744 0.143878
0.462544 0.148687 0.144822
0.512930 0.149631 0.145766
0.563316 0.150574 0.146709
0.613702 0.151518 0.147653
0.664088 0.152462 0.148596
0.714474 0.153405 0.149540
0.764860 0.154349 0.150484
0.815246 0.155292 0.151427
0.865632 0.156236 0.152371
0.916018 0.157180 0.153315
0.111738 0.194567 0.140112
0.162124 0.195510 0.141056
0.212510 0.196454 0.141999
0.262896 0.197397 0.142943
0.313282 0.198341 0.143887
0.363668 0.199285 0.144830
0.414054 0.200228 0.145774
0.464440 0.201172 0.146718
0.514826 0.202115 0.147661
0.565212 0.203059 0.148605
0.615598 0.204003 0.149548
0.665984 0.204946 0.150492
0.716370 0.205890 0.151436
0.766755 0.206834 0.152379
0.817141 0.207777 0.153323
0.867527 0.208721 0.154266
0.917913 0.209664 0.155210
0.113633 0.247051 0.142008
0.164019 0.247995 0.142951
0.214405 0.248939 0.143895
0.264791 0.249882 0.144839
0.315177 0.250826 0.145782
0.365563 0.251769 0.146726
0.415949 0.252713 0.147669
0.466335 0.253657 0.148613
0.516721 0.254600 0.149557
0.567107 0.255544 0.150500
0.617493 0.256487 0.151444
0.667879 0.257431 0.152387
0.718265 0.258375 0.153331
0.768651 0.259318 0.154275
0.819037 0.260262 0.155218
0.869423 0.261205 0.156162
0.919809 0.262149 0.157105
0.115529 0.299536 0.143903
0.165915 0.300480 0.144847
0.216301 0.301423 0.145790
0.266687 0.302367 0.146734
0.317073 0.303310 0.147678
0.367459 0.304254 0.148621
0.417845 0.305198 0.149565
0.468231 0.306141 0.150508
0.518617 0.307085 0.151452
0.569003 0.308028 0.152396
0.619389 0.308972 0.153339
0.669775 0.309916 0.154283
0.720160 0.310859 0.155227
0.770546 0.311803 0.156170
0.820932 0.312747 0.157114
0.871318 0.313690 0.158057
0.921704 0.314634 0.159001
0.117424 0.352021 0.145799
0.167810 0.352964 0.146742
0.218196 0.353908 0.147686
0.268582 0.354852 0.148629
0.318968 0.355795 0.149573
0.369354 0.356739 0.150517
0.419740 0.357682 0.151460
0.470126 0.358626 0.152404
0.520512 0.359570 0.153348
0.570898 0.360513 0.154291
0.621284 0.361457 0.155235
0.671670 0.362400 0.156178
0.722056 0.363344 0.157122
0.772442 0.364288 0.158066
0.822828 0.365231 0.159009
0.873214 0.366175 0.159953
0.923600 0.367118 0.160896
0.119320 0.404505 0.147694
0.169706 0.405449 0.148638
0.220092 0.406393 0.149581
0.270478 0.407336 0.150525
0.320864 0.408280 0.151469
0.371250 0.409223 0.152412
0.421636 0.410167 0.153356
0.472022 0.411111 0.154299
0.522408 0.412054 0.155243
0.572794 0.412998 0.156187
0.623180 0.413941 0.157130
0.673565 0.414885 0.158074
0.723951 0.415829 0.159017
0.774337 0.416772 0.159961
0.824723 0.417716 0.160905
0.875109 0.418660 0.161848
0.925495 0.419603 0.162792
0.121215 0.456990 0.149590
0.171601 0.457934 0.150533
0.221987 0.458877 0.151477
0.272373 0.459821 0.152420
0.322759 0.460765 0.153364
0.373145 0.461708 0.154308
0.423531 0.462652 0.155251
0.473917 0.463595 0.156195
0.524303 0.464539 0.157139
0.574689 0.465483 0.158082
0.625075 0.466426 0.159026
0.675461 0.467370 0.159969
0.725847 0.468313 0.160913
0.776233 0.469257 0.161857
0.826619 0.470201 0.162800
0.877005 0.471144 0.163744
0.927391 0.472088 0.164687
0.123111 0.509475 0.151485
0.173497 0.510418 0.152429
0.223883 0.511362 0.153372
0.274269 0.512306 0.154316
0.324655 0.513249 0.155260
0.375041 0.514193 0.156203
0.425427 0.515136 0.157147
0.475813 0.516080 0.158090
0.526199 0.517024 0.159034
0.576584 0.517967 0.159978
0.626970 0.518911 0.160921
0.677356 0.519854 0.161865
0.727742 0.520798 0.162808
0.778128 0.521742 0.163752
0.828514 0.522685 0.164696
0.878900 0.523629 0.165639
0.929286 0.524573 0.166583
0.125006 0.561959 0.153381
0.175392 0.562903 0.154324
0.225778 0.563847 0.155268
0.276164 0.564790 0.156211
0.326550 0.565734 0.157155
0.376936 0.566678 0.158099
0.427322 0.567621 0.159042
0.477708 0.568565 0.159986
0.528094 0.569508 0.160929
0.578480 0.570452 0.161873
0.628866 0.571396 0.162817
0.679252 0.572339 0.163760
0.729638 0.573283 0.164704
0.780024 0.574226 0.165648
0.830410 0.575170 0.166591
0.880796 0.576114 0.167535
0.931182 0.577057 0.168478
0.126902 0.614444 0.155276
0.177288 0.615388 0.156220
0.227674 0.616331 0.157163
0.278060 0.617275 0.158107
0.328446 0.618219 0.159051
0.378832 0.619162 0.159994
0.429218 0.620106 0.160938
0.479604 0.621049 0.161881
0.529989 0.621993 0.162825
0.580375 0.622937 0.163769
0.630761 0.623880 0.164712
0.681147 0.624824 0.165656
0.731533 0.625767 0.166599
0.781919 0.626711 0.167543
0.832305 0.627655 0.168487
0.882691 0.628598 0.169430
0.933077 0.629542 0.170374
0.128797 0.666929 0.157172
0.179183 0.667872 0.158115
0.229569 0.668816 0.159059
0.279955 0.669760 0.160002
0.330341 0.670703 0.160946
0.380727 0.671647 0.161890
0.431113 0.672591 0.162833
0.481499 0.673534 0.163777
0.531885 0.674478 0.164720
0.582271 0.675421 0.165664
0.632657 0.676365 0.166608
0.683043 0.677309 0.167551
0.733429 0.678252 0.168495
0.783815 0.679196 0.169439
0.834201 0.680139 0.170382
0.884587 0.681083 0.171326
0.934973 0.682027 0.172269
0.130693 0.719414 0.159067
0.181079 0.720357 0.160011
0.231465 0.721301 0.160954
0.281851 0.722244 0.161898
0.332237 0.723188 0.162841
0.382623 0.724132 0.163785
0.433009 0.725075 0.164729
0.483394 0.726019 0.165672
0.533780 0.726962 0.166616
0.584166 0.727906 0.167560
0.634552 0.728850 0.168503
0.684938 0.729793 0.169447
0.735324 0.730737 0.170390
0.785710 0.731680 0.171334
0.836096 0.732624 0.172278
0.886482 0.733568 0.173221
0.936868 0.734511 0.174165
0.132588 0.771898 0.160963
0.182974 0.772842 0.161906
0.233360 0.773785 0.162850
0.283746 0.774729 0.163793
0.334132 0.775673 0.164737
0.384518 0.776616 0.165681
0.434904 0.777560 0.166624
0.485290 0.778504 0.167568
0.535676 0.779447 0.168511
0.586062 0.780391 0.169455
0.636448 0.781334 0.170399
0.686834 0.782278 0.171342
0.737220 0.783222 0.172286
0.787606 0.784165 0.173229
0.837992 0.785109 0.174173
0.888378 0.786052 0.175117
0.938764 0.786996 0.176060
0.134484 0.824383 0.162858
0.184870 0.825327 0.163802
0.235256 0.826270 0.164745
0.285642 0.827214 0.165689
0.336028 0.828157 0.166632
0.386414 0.829101 0.167576
0.436799 0.830045 0.168520
0.487185 0.830988 0.169463
0.537571 0.831932 0.170407
0.587957 0.832875 0.171350
0.638343 0.833819 0.172294
0.688729 0.834763 0.173238
0.739115 0.835706 0.174181
0.789501 0.836650 0.175125
0.839887 0.837594 0.176069
0.890273 0.838537 0.177012
0.940659 0.839481 0.177956
0.136379 0.876868 0.164753
0.186765 0.877811 0.165697
0.237151 0.878755 0.166641
0.287537 0.879698 0.167584
0.337923 0.880642 0.168528
0.388309 0.881586 0.169472
0.438695 0.882529 0.170415
0.489081 0.883473 0.171359
0.539467 0.884417 0.172302
0.589853 0.885360 0.173246
0.640239 0.886304 0.174190
0.690625 0.887247 0.175133
0.741011 0.888191 0.176077
0.791397 0.889135 0.177020
0.841783 0.890078 0.177964
0.892169 0.891022 0.178908
0.942555 0.891965 0.179851
0.138275 0.929352 0.166649
0.188661 0.930296 0.167593
0.239047 0.931240 0.168536
0.289433 0.932183 0.169480
0.339819 0.933127 0.170423
0.390204 0.934070 0.171367
0.440590 0.935014 0.172311
0.490976 0.935958 0.173254
0.541362 0.936901 0.174198
0.591748 0.937845 0.175141
0.642134 0.938788 0.176085
0.692520 0.939732 0.177029
0.742906 0.940676 0.177972
0.793292 0.941619 0.178916
0.843678 0.942563 0.179860
0.894064 0.943507 0.180803
0.944450 0.944450 0.181747
0.108309 0.089959 0.186402
0.158695 0.090903 0.187346
0.209081 0.091846 0.188289
0.259467 0.092790 0.189233
0.309853 0.093733 0.190176
0.360239 0.094677 0.191120
0.410625 0.095621 0.192064
0.461010 0.096564 0.193007
0.511396 0.097508 0.193951
0.561782 0.098451 0.194894
0.612168 0.099395 0.195838
0.662554 0.100339 0.196782
0.712940 0.101282 0.197725
0.763326 0.102226 0.198669
0.813712 0.103170 0.199613
0.864098 0.104113 0.200556
0.914484 0.105057 0.201500
0.110204 0.142444 0.188297
0.160590 0.143387 0.189241
0.210976 0.144331 0.190185
0.261362 0.145275 0.191128
0.311748 0.146218 0.192072
0.362134 0.147162 0.193015
0.412520 0.148105 0.193959
0.462906 0.149049 0.194903
0.513292 0.149993 0.195846
0.563678 0.150936 0.196790
0.614064 0.151880 0.197734
0.664450 0.152823 0.198677
0.714836 0.153767 0.199621
0.765222 0.154711 0.200564
0.815608 0.155654 0.201508
0.865994 0.156598 0.202452
0.916380 0.157541 0.203395
0.112100 0.194928 0.190193
0.162486 0.195872 0.191137
0.212872 0.196816 0.192080
0.263258 0.197759 0.193024
0.313644 0.198703 0.193967
0.364030 0.199646 0.194911
0.414415 0.200590 0.195855
0.464801 0.201534 0.196798
0.515187 0.202477 0.197742
0.565573 0.203421 0.198685
0.615959 0.204364 0.199629
0.666345 0.205308 0.200573
0.716731 0.206252 0.201516
0.767117 0.207195 0.202460
0.817503 0.208139 0.203403
0.867889 0.209083 0.204347
0.918275 0.210026 0.205291
0.113995 0.247413 0.192088
0.164381 0.248357 0.193032
0.214767 0.249300 0.193976
0.265153 0.250244 0.194919
0.315539 0.251188 0.195863
0.365925 0.252131 0.196806
0.416311 0.253075 0.197750
0.466697 0.254018 0.198694
0.517083 0.254962 0.199637
0.567469 0.255906 0.200581
0.617855 0.256849 0.201524
0.668241 0.257793 0.202468
0.718627 0.258736 0.203412
0.769013 0.259680 0.204355
0.819399 0.260624 0.205299
0.869785 0.261567 0.206243
0.920171 0.262511 0.207186
0.115891 0.299898 0.193984
0.166277 0.300841 0.194927
0.216663 0.301785 0.195871
0.267049 0.302729 0.196815
0.317435 0.303672 0.197758
0.367820 0.304616 0.198702
0.418206 0.305559 0.199646
0.468592 0.306503 0.200589
0.518978 0.307447 0.201533
0.569364 0.308390 0.202476
0.619750 0.309334 0.203420
0.670136 0.310278 0.204364
0.720522 0.311221 0.205307
0.770908 0.312165 0.206251
0.821294 0.313108 0.207194
0.871680 0.314052 0.208138
0.922066 0.314996 0.209082
0.117786 0.352382 0.195879
0.168172 0.353326 0.196823
0.218558 0.354270 0.197767
0.268944 0.355213 0.198710
0.319330 0.356157 0.199654
0.369716 0.357101 0.200597
0.420102 0.358044 0.201541
0.470488 0.358988 0.202485
0.520874 0.359931 0.203428
0.571260 0.360875 0.204372
0.621646 0.361819 0.205315
0.672032 0.362762 0.206259
0.722418 0.363706 0.207203
0.772804 0.364649 0.208146
0.823190 0.365593 0.209090
0.873576 0.366537 0.210034
0.923962 0.367480 0.210977
0.119682 0.404867 0.197775
0.170068 0.405811 0.198718
0.220454 0.406754 0.199662
0.270840 0.407698 0.200606
0.321225 0.408642 0.201549
0.371611 0.409585 0.202493
0.421997 0.410529 0.203436
0.472383 0.411472 0.204380
0.522769 0.412416 0.205324
0.573155 0.413360 0.206267
0.623541 0.414303 0.207211
0.673927 0.415247 0.208155
0.724313 0.416191 0.209098
0.774699 0.417134 0.210042
0.825085 0.418078 0.210985
0.875471 0.419021 0.211929
0.925857 0.419965 0.212873
0.121577 0.457352 0.199670
0.171963 0.458295 0.200614
0.222349 0.459239 0.201558
0.272735 0.460183 0.202501
0.323121 0.461126 0.203445
0.373507 0.462070 0.204388
0.423893 0.463014 0.205332
0.474279 0.463957 0.206276
0.524665 0.464901 0.207219
0.575051 0.465844 0.208163
0.625437 0.466788 0.209106
0.675823 0.467732 0.210050
0.726209 0.468675 0.210994
0.776595 0.469619 0.211937
0.826981 0.470562 0.212881
0.877367 0.471506 0.213824
0.927753 0.472450 0.214768
0.123473 0.509837 0.201566
0.173859 0.510780 0.202509
0.224245 0.511724 0.203453
0.274630 0.512667 0.204397
0.325016 0.513611 0.205340
0.375402 0.514555 0.206284
0.425788 0.515498 0.207227
0.476174 0.516442 0.208171
0.526560 0.517385 0.209115
0.576946 0.518329 0.210058
0.627332 0.519273 0.211002
0.677718 0.520216 0.211946
0.728104 0.521160 0.212889
0.778490 0.522104 0.213833
0.828876 0.523047 0.214776
0.879262 0.523991 0.215720
0.929648 0.524934 0.216664
0.125368 0.562321 0.203461
0.175754 0.563265 0.204405
0.226140 0.564208 0.205348
0.276526 0.565152 0.206292
0.326912 0.566096 0.207236
0.377298 0.567039 0.208179
0.427684 0.567983 0.209123
0.478070 0.568927 0.210067
0.528456 0.569870 0.211010
0.578842 0.570814 0.211954
0.629228 0.571757 0.212897
0.679614 0.572701 0.213841
0.730000 0.573645 0.214785
0.780386 0.574588 0.215728
0.830772 0.575532 0.216672
0.881158 0.576475 0.217615
0.931544 0.577419 0.218559
0.127264 0.614806 0.205357
0.177650 0.615750 0.206300
0.228035 0.616693 0.207244
0.278421 0.617637 0.208188
0.328807 0.618580 0.209131
0.379193 0.619524 0.210075
0.429579 0.620468 0.211018
0.479965 0.621411 0.211962
0.530351 0.622355 0.212906
0.580737 0.623298 0.213849
0.631123 0.624242 0.214793
0.681509 0.625186 0.215736
0.731895 0.626129 0.216680
0.782281 0.627073 0.217624
0.832667 0.628017 0.218567
0.883053 0.628960 0.219511
0.933439 0.629904 0.220455
0.129159 0.667291 0.207252
0.179545 0.668234 0.208196
0.229931 0.669178 0.209139
0.280317 0.670121 0.210083
0.330703 0.671065 0.211027
0.381089 0.672009 0.211970
0.431475 0.672952 0.212914
0.481861 0.673896 0.213858
0.532247 0.674840 0.214801
0.582633 0.675783 0.215745
0.633019 0.676727 0.216688
0.683405 0.677670 0.217632
0.733791 0.678614 0.218576
0.784177 0.679558 0.219519
0.834563 0.680501 0.220463
0.884949 0.681445 0.221406
0.935334 0.682388 0.222350
0.131054 0.719775 0.209148
0.181440 0.720719 0.210091
0.231826 0.721663 0.211035
0.282212 0.722606 0.211979
0.332598 0.723550 0.212922
0.382984 0.724493 0.213866
0.433370 0.725437 0.214809
0.483756 0.726381 0.215753
0.534142 0.727324 0.216697
0.584528 0.728268 0.217640
0.634914 0.729211 0.218584
0.685300 0.730155 0.219527
0.735686 0.731099 0.220471
0.786072 0.732042 0.221415
0.836458 0.732986 0.222358
0.886844 0.733930 0.223302
0.937230 0.734873 0.224245
0.132950 0.772260 0.211043
0.183336 0.773204 0.211987
0.233722 0.774147 0.212930
0.284108 0.775091 0.213874
0.334494 0.776034 0.214818
0.384880 0.776978 0.215761
0.435266 0.777922 0.216705
0.485652 0.778865 0.217648
0.536038 0.779809 0.218592
0.586424 0.780753 0.219536
0.636810 0.781696 0.220479
0.687196 0.782640 0.221423
0.737582 0.783583 0.222367
0.787968 0.784527 0.223310
0.838354 0.785471 0.224254
0.888739 0.786414 0.225197
0.939125 0.787358 0.226141
0.134845 0.824745 0.212939
0.185231 0.825688 0.213882
0.235617 0.826632 0.214826
0.286003 0.827576 0.215769
0.336389 0.828519 0.216713
0.386775 0.829463 0.217657
0.437161 0.830406 0.218600
0.487547 0.831350 0.219544
0.537933 0.832294 0.220488
0.588319 0.833237 0.221431
0.638705 0.834181 0.222375
0.689091 0.835124 0.223318
0.739477 0.836068 0.224262
0.789863 0.837012 0.225206
0.840249 0.837955 0.226149
0.890635 0.838899 0.227093
0.941021 0.839843 0.228036
0.136741 0.877229 0.214834
0.187127 0.878173 0.215778
0.237513 0.879117 0.216721
0.287899 0.880060 0.217665
0.338285 0.881004 0.218609
0.388671 0.881947 0.219552
0.439057 0.882891 0.220496
0.489443 0.883835 0.221439
0.539829 0.884778 0.222383
0.590215 0.885722 0.223327
0.640601 0.886666 0.224270
0.690987 0.887609 0.225214
0.741373 0.888553 0.226157
0.791759 0.889496 0.227101
0.842144 0.890440 0.228045
0.892530 0.891384 0.228988
0.942916 0.892327 0.229932
0.138636 0.929714 0.216730
0.189022 0.930658 0.217673
0.239408 0.931601 0.218617
0.289794 0.932545 0.219560
0.340180 0.933489 0.220504
0.390566 0.934432 0.221448
0.440952 0.935376 0.222391
0.491338 0.936319 0.223335
0.541724 0.937263 0.224279
0.592110 0.938207 0.225222
0.642496 0.939150 0.226166
0.692882 0.940094 0.227109
0.743268 0.941037 0.228053
0.793654 0.941981 0.228997
0.844040 0.942925 0.229940
0.894426 0.943868 0.230884
0.944812 0.944812 0.231827
0.108671 0.090321 0.236483
0.159056 0.091264 0.237426
0.209442 0.092208 0.238370
0.259828 0.093152 0.239313
0.310214 0.094095 0.240257
0.360600 0.095039 0.241201
0.410986 0.095982 0.242144
0.461372 0.096926 0.243088
0.511758 0.097870 0.244032
0.562144 0.098813 0.244975
0.612530 0.099757 0.245919
0.662916 0.100701 0.246862
0.713302 0.101644 0.247806
0.763688 0.102588 0.248750
0.814074 0.103531 0.249693
0.864460 0.104475 0.250637
0.914846 0.105419 0.251580
0.110566 0.142805 0.238378
