shared/src/main/assets/luts/dalur_chrome_100.cube
# Resampled 13pt -> 17pt (trilinear) from an MIT-licensed G'MIC film LUT.
# Source: github.com/YahiaAngelo/Film-Luts (MIT). See THIRD_PARTY_NOTICES.
TITLE "DALUR chrome 100"
# LUT size
LUT_3D_SIZE 17
# Data domain
DOMAIN_MIN 0.0 0.0 0.0
DOMAIN_MAX 1.0 1.0 1.0
# LUT data points
0.025589587 0.013863224 0.003526381
0.054154838 0.017803088 0.005338059
0.085030813 0.020951514 0.006837314
0.119668495 0.022490217 0.007350809
0.159518868 0.021600910 0.006205211
0.205869820 0.023168784 0.006682923
0.261785515 0.026500320 0.008684959
0.323800877 0.030177868 0.011322250
0.388450831 0.032783777 0.013705729
0.469890185 0.040621364 0.017898407
0.556299955 0.048746461 0.022619816
0.643780395 0.057318718 0.027292791
0.728431761 0.066497788 0.031340163
0.794063717 0.082952788 0.036279781
0.852967441 0.099490784 0.040533941
0.904744029 0.114601677 0.043956599
0.948994577 0.126775369 0.046401709
0.041674628 0.032993234 0.004075237
0.067572857 0.038015029 0.005361287
0.095183625 0.040819961 0.006310813
0.126710088 0.042356060 0.006979353
0.164355405 0.043571356 0.007422447
0.213233668 0.050921115 0.009063191
0.268005121 0.056554627 0.011088891
0.328161886 0.060906436 0.013322428
0.393196084 0.064411083 0.015586678
0.473940024 0.073321236 0.019344202
0.559932068 0.083410829 0.023234089
0.647312932 0.094198661 0.027099969
0.732223332 0.105203534 0.030785471
0.797867090 0.121265054 0.035154937
0.857062057 0.139549280 0.038368696
0.909640245 0.159214277 0.040592746
0.955433667 0.179418113 0.041993085
0.058325278 0.063006941 0.004999602
0.079866924 0.067790731 0.005889835
0.104505440 0.070571615 0.006679086
0.134240915 0.072725907 0.007609730
0.171073437 0.075629918 0.008924140
0.220797909 0.084539424 0.011038565
0.275474619 0.091672646 0.013022647
0.335124407 0.097373556 0.014947652
0.399768114 0.101986129 0.016884846
0.480908826 0.112898269 0.020493863
0.567017868 0.124826537 0.023978219
0.654424794 0.137081688 0.027252211
0.739459157 0.148974475 0.030230137
0.804165885 0.165702845 0.034290775
0.862804309 0.185069744 0.036690839
0.915204719 0.206767024 0.037897375
0.961197406 0.230486542 0.038377432
0.077187564 0.105887827 0.006121366
0.092701179 0.109374964 0.006767983
0.113730876 0.111950099 0.007660913
0.141905881 0.114739140 0.008912668
0.178855419 0.118867990 0.010635761
0.229121536 0.127255379 0.012698031
0.284473661 0.136019230 0.014581789
0.344564894 0.144208973 0.016326154
0.409048334 0.150874037 0.017970246
0.491721839 0.162482733 0.021469213
0.578589305 0.174801927 0.024796724
0.665436376 0.187624032 0.027768127
0.748048693 0.200741459 0.030198770
0.811893336 0.218205841 0.034053426
0.869659245 0.237821879 0.035740330
0.921394613 0.259430313 0.035894627
0.967147633 0.282871887 0.035151458
0.099907517 0.163619369 0.007262421
0.107739763 0.165012497 0.007840011
0.123594549 0.166699037 0.008975070
0.149349891 0.169535141 0.010558895
0.186883807 0.174376965 0.012482782
0.238763541 0.182300646 0.014130574
0.295281902 0.193759233 0.015861878
0.356359802 0.206042428 0.017586162
0.421918154 0.216439933 0.019212894
0.507304311 0.225204900 0.022392075
0.595678329 0.235145338 0.025634122
0.680668071 0.247481924 0.028666328
0.755901396 0.263435334 0.031215983
0.819982678 0.280713722 0.034809024
0.877091914 0.299575388 0.035757132
0.928167090 0.319374539 0.034608638
0.974146187 0.339465380 0.031911872
0.103045590 0.231424563 0.007635083
0.110022836 0.233405941 0.008438130
0.125759787 0.236139562 0.009855143
0.152701889 0.239827567 0.011657057
0.193294588 0.244672097 0.013614804
0.249369339 0.253384356 0.015082739
0.307600629 0.264342792 0.016330109
0.369631892 0.275836174 0.017671757
0.437106565 0.286153272 0.019422524
0.524246350 0.294667754 0.022602267
0.613205247 0.303939903 0.025697962
0.697224576 0.315682019 0.028424894
0.769545659 0.331606403 0.030498348
0.831486203 0.348054480 0.032901616
0.887405969 0.365824733 0.032675968
0.936349325 0.383622754 0.030610525
0.977360636 0.400154136 0.027494408
0.078380113 0.307547674 0.007898398
0.091261533 0.309335332 0.008571456
0.116196884 0.310984530 0.009886618
0.153188802 0.313150160 0.011741706
0.202239923 0.316487119 0.014034540
0.261099251 0.325631618 0.015628489
0.320742667 0.336028591 0.016664180
0.384166833 0.346675053 0.017680063
0.454368412 0.356568024 0.019214593
0.541896760 0.366396252 0.022335525
0.630261093 0.376075700 0.025154981
0.713650256 0.387388546 0.027434401
0.786253095 0.402116969 0.028935227
0.844525181 0.417034030 0.029635880
0.898063198 0.432100289 0.028349125
0.944241546 0.446557593 0.025818099
0.980434626 0.459647790 0.022785942
0.050878248 0.387173928 0.007992135
0.071358511 0.388442339 0.008541617
0.107513373 0.388583329 0.009798521
0.155941302 0.388811382 0.011665946
0.213240769 0.390340984 0.014046987
0.273548565 0.398843441 0.015727355
0.335071087 0.408347309 0.016734269
0.401264820 0.418065829 0.017655125
0.475586250 0.427212246 0.019077319
0.562283136 0.438394230 0.021922985
0.648824565 0.448623359 0.024300871
0.730583318 0.459284505 0.025998486
0.802932173 0.471762538 0.026803342
0.857271783 0.485174991 0.025946426
0.908322699 0.497275501 0.023925652
0.951789059 0.508035477 0.021310836
0.983374998 0.517426327 0.018671795
0.045507155 0.465488553 0.007856063
0.070216430 0.466368631 0.008650237
0.112316787 0.466285348 0.010319878
0.166090060 0.466119692 0.012282880
0.225818083 0.466752648 0.013957139
0.286312569 0.472820833 0.015338868
0.350948960 0.480829626 0.016410558
0.422226049 0.489515267 0.017640985
0.502642632 0.497613996 0.019498922
0.587433070 0.508665524 0.021695784
0.670874357 0.518653512 0.023431322
0.748661965 0.528052896 0.024420783
0.816491365 0.537338614 0.024379415
0.867898181 0.549999982 0.022767863
0.917443573 0.560223818 0.020554598
0.958937168 0.567912832 0.018168210
0.986188591 0.572969735 0.016037287
0.057781179 0.538301632 0.008007528
0.082365224 0.538373157 0.009446225
0.125049136 0.537648693 0.011141087
0.179940672 0.537451420 0.012748587
0.241147589 0.539104521 0.013925197
0.302003813 0.544770375 0.014794314
0.372528002 0.550692275 0.016258178
0.450528836 0.557034129 0.018355554
0.533814996 0.563959844 0.021125207
0.616622277 0.572766347 0.022742601
0.695063591 0.580296643 0.023225586
0.766370188 0.587351866 0.022940228
0.827773318 0.594733149 0.022252598
0.877768252 0.605243787 0.020289737
0.925302334 0.614046901 0.018230500
0.963746089 0.620432641 0.016360423
0.986470044 0.623691157 0.014965043
0.085236065 0.602699041 0.008780326
0.112688371 0.603193462 0.010389337
0.156361779 0.602371588 0.011908774
0.210339455 0.601874702 0.013177151
0.268704563 0.603344083 0.014032985
0.329902146 0.608580805 0.014829174
0.404324941 0.613134414 0.016360990
0.486392125 0.618051387 0.018579823
0.570522875 0.624378204 0.021437066
0.645455748 0.630679250 0.022322429
0.717445403 0.636148915 0.022080578
0.783324681 0.641834259 0.021176975
0.839926422 0.648782343 0.020077080
0.887950122 0.656769805 0.018231816
0.933107764 0.663730472 0.016381649
0.968598366 0.668872640 0.014857967
0.987620950 0.671404600 0.013992160
0.131673096 0.660085768 0.009999694
0.160822048 0.661326211 0.011152748
0.203196717 0.660975307 0.012313981
0.254010164 0.660489175 0.013266107
0.308475450 0.661323935 0.013791840
0.371860217 0.665234171 0.014699014
0.447203256 0.669175804 0.016124751
0.528338801 0.673758667 0.017986650
0.609101087 0.679592595 0.020202307
0.674919881 0.683598910 0.020481681
0.740191035 0.687689357 0.019978279
0.800907958 0.692611910 0.018957200
0.853064060 0.699114546 0.017683545
0.898755670 0.704756171 0.016180878
0.941368051 0.709933445 0.014573348
0.974028900 0.713970575 0.013281462
0.989865914 0.716191769 0.012725726
0.200893551 0.711866796 0.011490870
0.226402432 0.713268071 0.011409629
0.262495950 0.713981122 0.012047749
0.307676554 0.714394480 0.012712987
0.360446692 0.714896679 0.012713100
0.429730676 0.715712517 0.013659403
0.502026424 0.719836205 0.014955221
0.574891746 0.725347593 0.016248889
0.645884454 0.730326533 0.017188741
0.706001073 0.732720003 0.017266775
0.765471727 0.736396998 0.016900665
0.820502535 0.740796655 0.016107077
0.867299616 0.745358109 0.014902676
0.910496771 0.749381021 0.013723699
0.950591385 0.753314734 0.012370899
0.980572596 0.756464198 0.011251525
0.993429542 0.758134365 0.010772825
0.291891202 0.757966906 0.010581144
0.313060839 0.758511953 0.010682368
0.345810559 0.758370742 0.010812763
0.387505308 0.758038525 0.010864466
0.435510032 0.758010551 0.010729614
0.501268186 0.760200351 0.011937919
0.565777134 0.763479747 0.012669331
0.626435734 0.766907439 0.013169467
0.680642843 0.769542128 0.013683944
0.738062568 0.771918196 0.013751677
0.791677870 0.775181606 0.013310154
0.840839770 0.779501155 0.012516126
0.884899288 0.785045639 0.011526344
0.925853781 0.789057419 0.010339280
0.962450862 0.792686053 0.009182109
0.988214210 0.795129873 0.008415850
0.996667504 0.795587212 0.008401519
0.392992958 0.797129422 0.008079080
0.410510879 0.797441050 0.008159155
0.438321419 0.797607541 0.008345024
0.473749824 0.797854953 0.008608764
0.514121339 0.798409343 0.008922450
0.571833838 0.800079711 0.009569350
0.626362458 0.801584274 0.009623565
0.675993636 0.803085342 0.009587065
0.719013810 0.804745227 0.009961820
0.771372542 0.807123095 0.010231637
0.819529012 0.810203135 0.009758957
0.863792129 0.814345792 0.008812056
0.904470801 0.819911510 0.007659209
0.940569289 0.822755165 0.006838881
0.971579760 0.825175002 0.006174480
0.992560469 0.826736555 0.005877283
0.998569667 0.827005357 0.006158567
0.498253554 0.831641287 0.004846932
0.512087287 0.831895135 0.004868263
0.534113530 0.832669541 0.005234739
0.562013429 0.833682895 0.005817636
0.593468130 0.834653586 0.006488232
0.640406474 0.835291203 0.006433126
0.683797084 0.835237183 0.006088006
0.723591123 0.835499790 0.005856269
0.759739757 0.837087288 0.006141311
0.805942338 0.839707673 0.006560460
0.848340243 0.842287153 0.006138486
0.887517180 0.845372852 0.005206074
0.924056858 0.849511892 0.004093907
0.955323122 0.851270583 0.003705487
0.979402430 0.852392256 0.003524064
0.994604539 0.853116740 0.003615248
0.999239206 0.853683859 0.004044649
0.601727724 0.863789439 0.001746952
0.611124799 0.863713980 0.001837966
0.627271891 0.864534765 0.002072114
0.647899449 0.865361482 0.002362838
0.670737922 0.865303814 0.002623584
0.705964938 0.865775436 0.002408682
0.738095701 0.865525872 0.002332740
0.769253865 0.865769267 0.002331663
0.801563084 0.867719769 0.002341356
0.841783300 0.871044904 0.002591948
0.877426654 0.872259229 0.002340152
0.910172492 0.872624621 0.001909387
0.941700161 0.873402953 0.001623071
0.970795110 0.875399992 0.001422082
0.987343222 0.875948489 0.001406913
0.995339587 0.876102924 0.001609166
0.998779297 0.876917779 0.002060445
0.024979056 0.014011997 0.007899831
0.053082453 0.017011021 0.009245499
0.082607251 0.019258529 0.010130957
0.115862607 0.020813708 0.010877203
0.155157674 0.021735748 0.011805231
0.202168282 0.024518286 0.013367978
0.258677365 0.028357219 0.016017912
0.321761275 0.032567512 0.019253987
0.388496362 0.036464131 0.022575158
0.473006191 0.044654936 0.026896245
0.560721800 0.052263691 0.031216624
0.647649013 0.060190043 0.035248221
0.729793653 0.069333643 0.038702964
0.795640320 0.083282726 0.041669184
0.853941016 0.099928610 0.043455641
0.904818460 0.116665837 0.044879193
0.948395371 0.130888950 0.046756700
0.038833955 0.034706028 0.008838779
0.064550840 0.040059391 0.010313807
0.091911059 0.043536772 0.011362163
0.123093270 0.045435004 0.012309586
0.160276128 0.046050921 0.013481813
0.208846227 0.051556752 0.015560831
0.265030831 0.057584945 0.018412984
0.327161359 0.063489115 0.021670124
0.393569229 0.068622879 0.024964106
0.476216595 0.077366806 0.028905363
0.562696576 0.086860937 0.032680717
0.649385491 0.097135208 0.036277063
0.732659660 0.108219553 0.039681295
0.797470232 0.124477610 0.041970786
0.855947196 0.144019170 0.042734316
0.908087456 0.164451829 0.042855009
0.953887910 0.183383184 0.043215992
0.056128125 0.066323199 0.010688527
0.076840081 0.071028696 0.011660421
0.101119591 0.074256657 0.012550808
0.130629763 0.076781925 0.013667768
0.167033706 0.079379342 0.015319379
0.216384740 0.086258432 0.017607586
0.272653203 0.093796494 0.020463273
0.334365875 0.101066618 0.023585420
0.400049534 0.107141893 0.026673004
0.482223810 0.117239970 0.030312808
0.568240564 0.128557879 0.033826370
0.654760662 0.140603559 0.037109100
0.738444969 0.152884954 0.040056405
0.802413369 0.170477232 0.041730487
0.860676177 0.191245602 0.041652577
0.913192833 0.213256737 0.040691827
0.959922776 0.234577307 0.039717390
0.074902779 0.109649975 0.012728141
0.089608054 0.113139815 0.013068593
0.110230586 0.115917891 0.013894720
0.138189111 0.119197819 0.015368830
0.174902368 0.124193212 0.017653233
0.225129017 0.131569564 0.019820755
0.281674171 0.140005093 0.022272355
0.343319436 0.148370538 0.024891543
0.408846414 0.155536636 0.027561831
0.492013634 0.166593423 0.031119598
0.578464359 0.178931376 0.034644757
0.664556818 0.192003659 0.037783454
0.746649239 0.205263431 0.040181834
0.810690933 0.222668740 0.041203116
0.868422182 0.243149101 0.040402937
0.920232361 0.265089913 0.038507795
0.966510843 0.286876576 0.036244190
0.093199128 0.165472820 0.014236686
0.102512637 0.169613629 0.014321574
0.119241782 0.173020182 0.015591724
0.145488337 0.177026034 0.017829854
0.183354076 0.182964738 0.020818680
0.235424255 0.190436384 0.022512855
0.292223424 0.199223965 0.023943802
0.353966651 0.208471391 0.025480159
0.420869008 0.217322569 0.027490563
0.506571867 0.227746156 0.031326752
0.594478555 0.239558293 0.035127053
0.679556251 0.252744068 0.038339247
0.756772131 0.267288573 0.040411119
0.822524127 0.282439282 0.040643502
0.879479438 0.301270857 0.039177907
0.929303810 0.321960708 0.036421061
0.973662987 0.342686243 0.032779693
0.097593514 0.235450301 0.014294434
0.105133160 0.237566941 0.014401922
0.120280484 0.241601030 0.016275098
0.146834908 0.246431233 0.019262513
0.188595858 0.250936215 0.022712720
0.244675334 0.258517919 0.024215576
0.303513842 0.266961575 0.025077352
0.366752302 0.275926520 0.025951197
0.436031636 0.285072087 0.027490261
0.523361363 0.295839829 0.031352378
0.611893674 0.307421867 0.035081619
0.696248526 0.320364595 0.038012487
0.771045875 0.335214404 0.039479489
0.833775801 0.349650284 0.039253982
0.889512699 0.367292021 0.036864666
0.937709993 0.385714957 0.033151603
0.977821104 0.402494431 0.028954856
0.072393063 0.312131781 0.013573518
0.084922117 0.313360996 0.014004491
0.108685239 0.316102749 0.016134587
0.145122094 0.319521985 0.019329472
0.195672350 0.322783649 0.022954812
0.255571977 0.330373440 0.024764612
0.316735843 0.338928282 0.025660798
0.382019211 0.348050004 0.026509082
0.454277340 0.357340433 0.028175177
0.541647128 0.367659430 0.031753167
0.629432559 0.378670899 0.035069506
0.712610470 0.391003443 0.037512995
0.786157697 0.405285664 0.038472436
0.845041210 0.419058846 0.037593139
0.898536384 0.434637563 0.034756349
0.944238763 0.449837252 0.030752972
0.979743890 0.462473352 0.026373918
0.043876587 0.391356749 0.012798345
0.063051652 0.392337075 0.013655317
0.097749620 0.393531267 0.015857793
0.145789189 0.395124312 0.018895034
0.204989056 0.397301199 0.022256302
0.267898672 0.404045975 0.024294728
0.331645383 0.412391661 0.025374704
0.399741740 0.421569430 0.026498195
0.475700295 0.430810457 0.028667166
0.562469210 0.440485358 0.031986170
0.648323378 0.450765343 0.034788715
0.729192972 0.462136178 0.036635711
0.801008169 0.475083627 0.037088067
0.855898545 0.488005160 0.035523374
0.906831425 0.500940192 0.032550401
0.949848341 0.512531958 0.028717948
0.980990827 0.521423690 0.024574818
0.038322900 0.468964696 0.012693323
0.060693912 0.469836459 0.013880434
0.100767201 0.470892511 0.016132315
0.154275485 0.472064238 0.018823504
0.216951482 0.473283023 0.021328537
0.281439912 0.477578552 0.022940687
0.347998418 0.484619286 0.023899634
0.419894254 0.493212385 0.025262919
0.500394672 0.502165012 0.028088083
0.586867660 0.511598011 0.031508437
0.669794299 0.521165155 0.033937245
0.746546920 0.531238366 0.035175574
0.814497858 0.542189568 0.035024487
0.865925997 0.553829417 0.032907087
0.914678752 0.563832618 0.029944268
0.955496944 0.572003435 0.026539311
0.983121395 0.578146130 0.023095498
0.049040689 0.540921010 0.013240359
0.074026712 0.541395253 0.014848630
0.116421778 0.541823367 0.016962982
0.171291166 0.542798094 0.019170884
0.233700153 0.544912174 0.021059803
0.297987302 0.548601051 0.021991069
0.368330124 0.553855513 0.022431894
0.445819225 0.560339313 0.023690828
0.531545211 0.567716205 0.027076420
0.616382328 0.575892720 0.029842912
0.693973256 0.583844205 0.031613721
0.763934687 0.591931649 0.032348233
0.825883310 0.600516036 0.032005830
0.875097697 0.609898814 0.028913568
0.922171140 0.618302986 0.025870586
0.960719806 0.624961518 0.023199779
0.984359860 0.629107375 0.021224044
0.076131640 0.605047315 0.014331098
0.103424976 0.605857683 0.016452733
0.146386434 0.605671164 0.018524699
0.200416039 0.606024548 0.020294371
0.260913813 0.608454630 0.021509124
0.325309633 0.612015609 0.022299410
0.400260042 0.615990654 0.022681534
0.482257785 0.621081764 0.023728519
0.567795604 0.627990939 0.026513390
0.644453155 0.634370506 0.028109978
0.715861011 0.640320085 0.029111630
0.780855903 0.646663079 0.029369698
0.838274561 0.654222891 0.028735535
0.885555038 0.661742592 0.025607686
0.930471241 0.668471511 0.022847661
0.966277707 0.673681913 0.020749791
0.986228973 0.676646061 0.019608404
0.122030789 0.662225220 0.015954411
0.150352221 0.663729627 0.018499910
0.191840819 0.663472187 0.020335358
0.243367090 0.663365912 0.021451103
0.301801544 0.665323813 0.021837496
0.367149227 0.668447524 0.022553651
0.443804601 0.671928510 0.023190077
0.525526362 0.676480162 0.024104419
0.606073208 0.682815872 0.025654321
0.672832008 0.687284617 0.026008228
0.737895019 0.691593446 0.026248031
0.798482887 0.696692646 0.026036620
0.851816252 0.703532502 0.025036885
0.897170062 0.709347104 0.022480298
0.939600084 0.714484494 0.020214191
0.972422313 0.718459286 0.018546032
0.988952745 0.720786091 0.017783288
0.189173169 0.713336334 0.018099171
0.216271963 0.715516958 0.020797329
0.253964581 0.716262721 0.021912853
0.301861307 0.716444492 0.021898223
0.359572425 0.716933146 0.021205917
0.427248409 0.718522098 0.021441735
0.498980228 0.722572885 0.022499049
0.571941383 0.727574933 0.023546953
0.643305376 0.732017666 0.023754543
0.703270752 0.734888300 0.023236255
0.762512736 0.738664940 0.022839986
0.817987952 0.743280336 0.022145650
0.866653025 0.748667240 0.020733160
0.909814809 0.752698701 0.019022260
0.949578695 0.756488234 0.017308873
0.979405288 0.759588301 0.015945190
0.992755190 0.761551365 0.015283402
0.283575248 0.758646131 0.017323349
0.304468671 0.760613503 0.020343611
0.337988156 0.761316858 0.020830730
0.382070038 0.761299001 0.019711271
0.434650652 0.761102736 0.017911797
0.499316807 0.763281908 0.018216631
0.562383366 0.766490096 0.019171877
0.622608339 0.769880902 0.020158687
0.678749740 0.772607926 0.020558214
0.735903306 0.774812249 0.019791433
0.789483326 0.777645785 0.018897767
0.838721576 0.781529958 0.017922240
0.882849835 0.786886193 0.016909877
0.924248736 0.790653632 0.015331217
0.960444849 0.793890543 0.013874225
0.986009004 0.796243283 0.012825346
0.995512031 0.797358207 0.012471027
0.386410359 0.798304699 0.013790097
0.403219464 0.799795058 0.015898650
0.431594590 0.800884038 0.016252336
0.469199699 0.801902395 0.015402138
0.513698757 0.803180881 0.013899036
0.568939785 0.804301932 0.013981730
0.622198675 0.805275396 0.014400102
0.672146209 0.806459779 0.014946952
0.717453167 0.808213592 0.015415082
0.769769302 0.810206914 0.014934343
0.817894395 0.812485114 0.014009062
0.861946702 0.815736646 0.012892209
0.902044475 0.820649967 0.011836751
0.938996743 0.823350141 0.010635739
0.970003214 0.825709946 0.009717891
0.990735097 0.827530382 0.009307400
0.996863604 0.828612447 0.009628460
0.492415078 0.833609827 0.008684497
0.506073730 0.834398801 0.009544176
0.528820280 0.835714212 0.009906199
0.558490043 0.837560567 0.009784476
0.592918333 0.839942377 0.009192916
0.636690506 0.839853836 0.008948962
0.679567520 0.838984340 0.008772235
0.720400666 0.838620976 0.008806388
0.758041237 0.840050828 0.009195074
0.804153067 0.842164802 0.009259965
0.846733768 0.843948334 0.008608861
0.886032678 0.846247411 0.007593617
0.922299139 0.849908020 0.006566089
0.954207491 0.851523180 0.005880901
0.978868660 0.852973938 0.005585048
0.994121688 0.854293869 0.005840408
0.997805621 0.855516545 0.006808854
0.596325979 0.865859300 0.003191634
0.606580857 0.865761913 0.003361924
0.623701625 0.866557330 0.003520846
0.645180818 0.867579412 0.003671933
0.668510973 0.868162021 0.003818718
0.703142136 0.868209284 0.003330260
0.735631265 0.867672488 0.002876788
0.767217387 0.867673904 0.002631632
0.799139529 0.869335800 0.002768120
0.838338930 0.871778421 0.003363280
0.874989264 0.872800857 0.003132151
0.909348853 0.873409268 0.002564525
0.941676021 0.874609813 0.002150195
0.970029641 0.875907701 0.002011778
0.987656057 0.876710013 0.002220874
0.996706899 0.877378013 0.002873422
0.999333799 0.878272966 0.004065360
0.024111505 0.015079618 0.015779787
0.051397119 0.018631398 0.017845878
0.080002286 0.020953866 0.019237335
0.112437604 0.022520559 0.020366549
0.151213668 0.023805012 0.021645908
0.198963962 0.026310253 0.023135592
0.256020967 0.029993868 0.025753440
0.319485996 0.034298630 0.029029702
0.386460364 0.038667312 0.032494631
0.473314337 0.048246740 0.037459616
0.562094390 0.056360717 0.042088501
0.648966402 0.064242669 0.046115049
0.730096251 0.073126025 0.049273023
0.795246862 0.086766986 0.050755370
0.852990657 0.102628771 0.050407563
0.904228114 0.119109657 0.049307672
0.949859709 0.134607919 0.048533766
0.036924152 0.037589884 0.017526851
0.061654492 0.043335668 0.019411792
0.088498595 0.047212526 0.021024417
0.119394184 0.049218342 0.022365941
0.156278981 0.049351003 0.023437583
0.205694483 0.053533770 0.025396849
0.263351866 0.059624397 0.028426553
0.326686358 0.066246744 0.031968977
0.393133186 0.072024673 0.035466403
0.477353968 0.081359178 0.039849924
0.564599685 0.091112408 0.043965349
0.651214814 0.101295023 0.047554176
0.733543828 0.111917680 0.050357901
0.796597354 0.128711603 0.050955156
0.854135960 0.148228711 0.049698088
0.906394036 0.168325243 0.047605701
0.953605972 0.186857440 0.045696998
0.053826015 0.069935223 0.019868256
0.073747511 0.074638842 0.020979463
0.097446972 0.078013909 0.022251698
0.126531847 0.080618810 0.023682800
0.162609588 0.083011932 0.025270612
0.212829990 0.089211097 0.027772495
0.270823540 0.097018450 0.030958959
0.333998069 0.104799058 0.034419867
0.399761409 0.110917985 0.037745079
0.483300809 0.121366398 0.041698519
0.570263050 0.132987431 0.045494253
0.656922732 0.145119195 0.048786320
0.739554450 0.157099798 0.051228756
0.801421132 0.175569423 0.050964450
0.858651854 0.196660679 0.048842374
0.911361676 0.218277176 0.045740433
0.959665656 0.238322522 0.042536530
0.072121617 0.113357148 0.022522775
0.086878301 0.116515064 0.022560894
0.106747936 0.119217941 0.023456533
0.133822106 0.122729260 0.025174414
0.170192393 0.128312498 0.027679259
0.221118685 0.136058380 0.030451889
0.279092553 0.144558662 0.033274279
0.342127746 0.152649357 0.036155358
0.408238012 0.159166481 0.039104057
0.492699665 0.170859897 0.042971066
0.580194559 0.183680205 0.046686015
0.666641751 0.196923868 0.049796117
0.747960299 0.209887352 0.051848584
0.810053142 0.227995678 0.050979061
0.866876256 0.248772440 0.048141571
0.918937691 0.270388422 0.044089065
0.966745496 0.291014411 0.039574498
0.089115482 0.169097170 0.025209181
0.100248985 0.172938479 0.024168088
0.116302008 0.176684547 0.025176276
0.141236471 0.181556985 0.027698070
0.179014295 0.188777402 0.031197791
0.231308766 0.196791764 0.033624388
0.288815469 0.204627663 0.035296130
0.351782005 0.212491428 0.036948439
0.420455977 0.220589392 0.039316738
0.507095341 0.232431171 0.043633231
0.595504284 0.244885147 0.047551435
0.680923469 0.257917725 0.050568203
