shared/src/main/assets/luts/dalur_mono_01.cube
TITLE "DALUR mono"
LUT_3D_SIZE 17
DOMAIN_MIN 0.0 0.0 0.0
DOMAIN_MAX 1.0 1.0 1.0
0.015000 0.010000 0.005000
0.034061 0.028687 0.023127
0.053122 0.047375 0.041254
0.072184 0.066062 0.059381
0.091245 0.084750 0.077507
0.110306 0.103437 0.095634
0.129368 0.122125 0.113761
0.148429 0.140813 0.131888
0.167490 0.159500 0.150015
0.186551 0.178187 0.168142
0.205612 0.196875 0.186269
0.224674 0.215562 0.204396
0.243735 0.234250 0.222523
0.262796 0.252937 0.240649
0.281858 0.271625 0.258776
0.300919 0.290312 0.276903
0.319980 0.309000 0.295030
0.052421 0.046687 0.040587
0.071483 0.065375 0.058714
0.090544 0.084062 0.076841
0.109605 0.102750 0.094967
0.128666 0.121437 0.113094
0.147728 0.140125 0.131221
0.166789 0.158813 0.149348
0.185850 0.177500 0.167475
0.204911 0.196188 0.185602
0.223972 0.214875 0.203729
0.243034 0.233563 0.221856
0.262095 0.252250 0.239982
0.281156 0.270937 0.258109
0.300218 0.289625 0.276236
0.319279 0.308312 0.294363
0.338340 0.327000 0.312490
0.357401 0.345687 0.330617
0.089842 0.083375 0.076174
0.108904 0.102062 0.094301
0.127965 0.120750 0.112427
0.147026 0.139437 0.130554
0.166087 0.158125 0.148681
0.185149 0.176812 0.166808
0.204210 0.195500 0.184935
0.223271 0.214188 0.203062
0.242333 0.232875 0.221189
0.261394 0.251562 0.239316
0.280455 0.270250 0.257442
0.299516 0.288937 0.275569
0.318578 0.307625 0.293696
0.337639 0.326313 0.311823
0.356700 0.345000 0.329950
0.375761 0.363687 0.348077
0.394823 0.382375 0.366204
0.127264 0.120062 0.111761
0.146325 0.138750 0.129887
0.165386 0.157438 0.148014
0.184447 0.176125 0.166141
0.203509 0.194812 0.184268
0.222570 0.213500 0.202395
0.241631 0.232187 0.220522
0.260692 0.250875 0.238649
0.279754 0.269562 0.256776
0.298815 0.288250 0.274902
0.317876 0.306937 0.293029
0.336938 0.325625 0.311156
0.355999 0.344313 0.329283
0.375060 0.363000 0.347410
0.394121 0.381688 0.365537
0.413183 0.400375 0.383664
0.432244 0.419063 0.401791
0.164685 0.156750 0.147347
0.183746 0.175437 0.165474
0.202807 0.194125 0.183601
0.221869 0.212813 0.201728
0.240930 0.231500 0.219855
0.259991 0.250188 0.237982
0.279052 0.268875 0.256109
0.298114 0.287562 0.274236
0.317175 0.306250 0.292363
0.336236 0.324937 0.310489
0.355297 0.343625 0.328616
0.374359 0.362312 0.346743
0.393420 0.381000 0.364870
0.412481 0.399687 0.382997
0.431542 0.418375 0.401124
0.450604 0.437062 0.419251
0.469665 0.455750 0.437377
0.202106 0.193437 0.182934
0.221167 0.212125 0.201061
0.240229 0.230812 0.219188
0.259290 0.249500 0.237315
0.278351 0.268187 0.255442
0.297413 0.286875 0.273569
0.316474 0.305562 0.291696
0.335535 0.324250 0.309822
0.354596 0.342938 0.327949
0.373657 0.361625 0.346076
0.392719 0.380312 0.364203
0.411780 0.399000 0.382330
0.430841 0.417687 0.400457
0.449902 0.436375 0.418584
0.468964 0.455062 0.436711
0.488025 0.473750 0.454837
0.507086 0.492437 0.472964
0.239528 0.230125 0.218521
0.258589 0.248812 0.236648
0.277650 0.267500 0.254775
0.296711 0.286187 0.272902
0.315773 0.304875 0.291029
0.334834 0.323562 0.309156
0.353895 0.342250 0.327282
0.372956 0.360938 0.345409
0.392018 0.379625 0.363536
0.411079 0.398312 0.381663
0.430140 0.417000 0.399790
0.449201 0.435688 0.417917
0.468262 0.454375 0.436044
0.487324 0.473062 0.454171
0.506385 0.491750 0.472297
0.525446 0.510437 0.490424
0.544507 0.529125 0.508551
0.276949 0.266813 0.254108
0.296010 0.285500 0.272235
0.315071 0.304187 0.290362
0.334133 0.322875 0.308489
0.353194 0.341562 0.326616
0.372255 0.360250 0.344743
0.391316 0.378938 0.362869
0.410378 0.397625 0.380996
0.429439 0.416312 0.399123
0.448500 0.435000 0.417250
0.467561 0.453688 0.435377
0.486623 0.472375 0.453504
0.505684 0.491063 0.471631
0.524745 0.509750 0.489758
0.543806 0.528438 0.507884
0.562867 0.547125 0.526011
0.581929 0.565813 0.544138
0.314370 0.303500 0.289695
0.333431 0.322188 0.307822
0.352492 0.340875 0.325949
0.371554 0.359563 0.344076
0.390615 0.378250 0.362202
0.409676 0.396937 0.380329
0.428738 0.415625 0.398456
0.447799 0.434312 0.416583
0.466860 0.453000 0.434710
0.485921 0.471687 0.452837
0.504983 0.490375 0.470964
0.524044 0.509062 0.489091
0.543105 0.527750 0.507217
0.562166 0.546438 0.525344
0.581228 0.565125 0.543471
0.600289 0.583812 0.561598
0.619350 0.602500 0.579725
0.351791 0.340187 0.325282
0.370853 0.358875 0.343409
0.389914 0.377562 0.361536
0.408975 0.396250 0.379662
0.428036 0.414937 0.397789
0.447097 0.433625 0.415916
0.466159 0.452313 0.434043
0.485220 0.471000 0.452170
0.504281 0.489687 0.470297
0.523342 0.508375 0.488424
0.542404 0.527062 0.506551
0.561465 0.545750 0.524677
0.580526 0.564437 0.542804
0.599588 0.583125 0.560931
0.618649 0.601812 0.579058
0.637710 0.620500 0.597185
0.656771 0.639188 0.615312
0.389212 0.376875 0.360869
0.408274 0.395562 0.378996
0.427335 0.414250 0.397122
0.446396 0.432937 0.415249
0.465457 0.451625 0.433376
0.484519 0.470312 0.451503
0.503580 0.489000 0.469630
0.522641 0.507687 0.487757
0.541702 0.526375 0.505884
0.560764 0.545063 0.524011
0.579825 0.563750 0.542137
0.598886 0.582437 0.560264
0.617947 0.601125 0.578391
0.637009 0.619812 0.596518
0.656070 0.638500 0.614645
0.675131 0.657187 0.632772
0.694192 0.675875 0.650899
0.426634 0.413562 0.396456
0.445695 0.432250 0.414583
0.464756 0.450937 0.432709
0.483818 0.469625 0.450836
0.502879 0.488312 0.468963
0.521940 0.507000 0.487090
0.541001 0.525687 0.505217
0.560063 0.544375 0.523344
0.579124 0.563063 0.541471
0.598185 0.581750 0.559597
0.617246 0.600437 0.577724
0.636307 0.619125 0.595851
0.655369 0.637813 0.613978
0.674430 0.656500 0.632105
0.693491 0.675188 0.650232
0.712553 0.693875 0.668359
0.731614 0.712562 0.686486
0.464055 0.450250 0.432042
0.483116 0.468938 0.450169
0.502177 0.487625 0.468296
0.521239 0.506312 0.486423
0.540300 0.525000 0.504550
0.559361 0.543687 0.522677
0.578422 0.562375 0.540804
0.597484 0.581063 0.558931
0.616545 0.599750 0.577058
0.635606 0.618437 0.595184
0.654667 0.637125 0.613311
0.673729 0.655812 0.631438
0.692790 0.674500 0.649565
0.711851 0.693187 0.667692
0.730913 0.711875 0.685819
0.749974 0.730563 0.703946
0.769035 0.749250 0.722072
0.501476 0.486937 0.467629
0.520537 0.505625 0.485756
0.539599 0.524312 0.503883
0.558660 0.543000 0.522010
0.577721 0.561688 0.540137
0.596782 0.580375 0.558264
0.615844 0.599062 0.576391
0.634905 0.617750 0.594518
0.653966 0.636437 0.612644
0.673028 0.655125 0.630771
0.692089 0.673812 0.648898
0.711150 0.692500 0.667025
0.730211 0.711187 0.685152
0.749273 0.729875 0.703279
0.768334 0.748563 0.721406
0.787395 0.767250 0.739532
0.806456 0.785937 0.757659
0.538898 0.523625 0.503216
0.557959 0.542312 0.521343
0.577020 0.561000 0.539470
0.596081 0.579688 0.557597
0.615143 0.598375 0.575724
0.634204 0.617062 0.593851
0.653265 0.635750 0.611978
0.672326 0.654438 0.630104
0.691388 0.673125 0.648231
0.710449 0.691812 0.666358
0.729510 0.710500 0.684485
0.748571 0.729187 0.702612
0.767633 0.747875 0.720739
0.786694 0.766563 0.738866
0.805755 0.785250 0.756992
0.824816 0.803937 0.775119
0.843877 0.822625 0.793246
0.576319 0.560312 0.538803
0.595380 0.579000 0.556930
0.614441 0.597688 0.575057
0.633502 0.616375 0.593184
0.652564 0.635062 0.611311
0.671625 0.653750 0.629437
0.690686 0.672438 0.647564
0.709747 0.691125 0.665691
0.728809 0.709812 0.683818
0.747870 0.728500 0.701945
0.766931 0.747188 0.720072
0.785992 0.765875 0.738199
0.805054 0.784563 0.756326
0.824115 0.803250 0.774452
0.843176 0.821937 0.792579
0.862237 0.840625 0.810706
0.881299 0.859312 0.828833
0.613740 0.597000 0.574390
0.632801 0.615687 0.592517
0.651863 0.634375 0.610644
0.670924 0.653062 0.628771
0.689985 0.671750 0.646897
0.709046 0.690437 0.665024
0.728108 0.709125 0.683151
0.747169 0.727812 0.701278
0.766230 0.746500 0.719405
0.785291 0.765187 0.737532
0.804353 0.783875 0.755659
0.823414 0.802562 0.773786
0.842475 0.821250 0.791913
0.861536 0.839938 0.810039
0.880598 0.858625 0.828166
0.899659 0.877312 0.846293
0.918720 0.896000 0.864420
0.022267 0.017125 0.011911
0.041329 0.035812 0.030038
0.060390 0.054500 0.048165
0.079451 0.073188 0.066292
0.098513 0.091875 0.084419
0.117574 0.110562 0.102546
0.136635 0.129250 0.120673
0.155696 0.147937 0.138799
0.174758 0.166625 0.156926
0.193819 0.185312 0.175053
0.212880 0.204000 0.193180
0.231941 0.222687 0.211307
0.251003 0.241375 0.229434
0.270064 0.260063 0.247561
0.289125 0.278750 0.265687
0.308186 0.297437 0.283814
0.327248 0.316125 0.301941
0.059689 0.053812 0.047498
0.078750 0.072500 0.065625
0.097811 0.091188 0.083752
0.116873 0.109875 0.101879
0.135934 0.128562 0.120006
0.154995 0.147250 0.138132
0.174056 0.165938 0.156259
0.193117 0.184625 0.174386
0.212179 0.203313 0.192513
0.231240 0.222000 0.210640
0.250301 0.240687 0.228767
0.269362 0.259375 0.246894
0.288424 0.278062 0.265021
0.307485 0.296750 0.283147
0.326546 0.315437 0.301274
0.345607 0.334125 0.319401
0.364669 0.352812 0.337528
0.097110 0.090500 0.083085
0.116171 0.109187 0.101212
0.135232 0.127875 0.119339
0.154294 0.146562 0.137466
0.173355 0.165250 0.155592
0.192416 0.183937 0.173719
0.211477 0.202625 0.191846
0.230539 0.221312 0.209973
0.249600 0.240000 0.228100
0.268661 0.258687 0.246227
0.287722 0.277375 0.264354
0.306784 0.296062 0.282481
0.325845 0.314750 0.300608
0.344906 0.333437 0.318734
0.363967 0.352125 0.336861
0.383029 0.370812 0.354988
0.402090 0.389500 0.373115
0.134531 0.127188 0.118672
0.153593 0.145875 0.136799
0.172654 0.164563 0.154926
0.191715 0.183250 0.173052
0.210776 0.201937 0.191179
0.229837 0.220625 0.209306
0.248899 0.239312 0.227433
0.267960 0.258000 0.245560
0.287021 0.276687 0.263687
0.306083 0.295375 0.281814
0.325144 0.314062 0.299941
0.344205 0.332750 0.318068
0.363266 0.351438 0.336194
0.382327 0.370125 0.354321
0.401389 0.388813 0.372448
0.420450 0.407500 0.390575
0.439511 0.426187 0.408702
0.171953 0.163875 0.154259
0.191014 0.182562 0.172386
0.210075 0.201250 0.190512
0.229136 0.219938 0.208639
0.248197 0.238625 0.226766
0.267259 0.257312 0.244893
0.286320 0.276000 0.263020
0.305381 0.294687 0.281147
0.324443 0.313375 0.299274
0.343504 0.332062 0.317401
0.362565 0.350750 0.335527
0.381626 0.369437 0.353654
0.400688 0.388125 0.371781
0.419749 0.406812 0.389908
0.438810 0.425500 0.408035
0.457871 0.444187 0.426162
0.476932 0.462875 0.444289
0.209374 0.200562 0.189846
0.228435 0.219250 0.207972
0.247496 0.237937 0.226099
0.266558 0.256625 0.244226
0.285619 0.275312 0.262353
0.304680 0.294000 0.280480
0.323741 0.312687 0.298607
0.342803 0.331375 0.316734
0.361864 0.350062 0.334861
0.380925 0.368750 0.352987
0.399986 0.387437 0.371114
0.419047 0.406125 0.389241
0.438109 0.424812 0.407368
0.457170 0.443500 0.425495
0.476231 0.462187 0.443622
0.495292 0.480875 0.461749
0.514354 0.499562 0.479876
0.246795 0.237250 0.225432
0.265856 0.255937 0.243559
0.284917 0.274625 0.261686
0.303979 0.293312 0.279813
0.323040 0.312000 0.297940
0.342101 0.330687 0.316067
0.361162 0.349375 0.334194
0.380224 0.368063 0.352321
0.399285 0.386750 0.370447
0.418346 0.405437 0.388574
0.437408 0.424125 0.406701
0.456469 0.442812 0.424828
0.475530 0.461500 0.442955
0.494591 0.480187 0.461082
0.513652 0.498875 0.479209
0.532714 0.517563 0.497336
0.551775 0.536250 0.515462
0.284216 0.273938 0.261019
0.303278 0.292625 0.279146
0.322339 0.311312 0.297273
0.341400 0.330000 0.315400
0.360461 0.348687 0.333527
0.379523 0.367375 0.351654
0.398584 0.386063 0.369781
0.417645 0.404750 0.387907
0.436706 0.423437 0.406034
0.455767 0.442125 0.424161
0.474829 0.460813 0.442288
0.493890 0.479500 0.460415
0.512951 0.498188 0.478542
0.532013 0.516875 0.496669
0.551074 0.535563 0.514796
0.570135 0.554250 0.532922
0.589196 0.572938 0.551049
0.321638 0.310625 0.296606
0.340699 0.329313 0.314733
0.359760 0.348000 0.332860
0.378821 0.366687 0.350987
0.397882 0.385375 0.369114
0.416944 0.404062 0.387241
0.436005 0.422750 0.405367
0.455066 0.441437 0.423494
0.474127 0.460125 0.441621
0.493189 0.478812 0.459748
0.512250 0.497500 0.477875
0.531311 0.516188 0.496002
0.550373 0.534875 0.514129
0.569434 0.553563 0.532256
0.588495 0.572250 0.550382
0.607556 0.590938 0.568509
0.626618 0.609625 0.586636
0.359059 0.347312 0.332193
0.378120 0.366000 0.350320
0.397181 0.384687 0.368447
0.416243 0.403375 0.386574
0.435304 0.422062 0.404701
0.454365 0.440750 0.422827
0.473426 0.459437 0.440954
0.492487 0.478125 0.459081
0.511549 0.496812 0.477208
0.530610 0.515500 0.495335
0.549671 0.534188 0.513462
0.568732 0.552875 0.531589
0.587794 0.571562 0.549716
0.606855 0.590250 0.567843
0.625916 0.608938 0.585969
0.644977 0.627625 0.604096
0.664039 0.646313 0.622223
0.396480 0.384000 0.367780
0.415541 0.402687 0.385907
0.434602 0.421375 0.404034
0.453664 0.440062 0.422161
0.472725 0.458750 0.440287
0.491786 0.477437 0.458414
0.510848 0.496125 0.476541
0.529909 0.514813 0.494668
0.548970 0.533500 0.512795
0.568031 0.552188 0.530922
0.587093 0.570875 0.549049
0.606154 0.589562 0.567176
0.625215 0.608250 0.585302
0.644276 0.626938 0.603429
0.663338 0.645625 0.621556
0.682399 0.664312 0.639683
0.701460 0.683000 0.657810
0.433901 0.420687 0.403367
0.452963 0.439375 0.421494
0.472024 0.458062 0.439621
0.491085 0.476750 0.457747
0.510146 0.495437 0.475874
0.529208 0.514125 0.494001
0.548269 0.532813 0.512128
0.567330 0.551500 0.530255
0.586391 0.570188 0.548382
0.605453 0.588875 0.566509
0.624514 0.607563 0.584636
0.643575 0.626250 0.602762
0.662636 0.644938 0.620889
0.681698 0.663625 0.639016
0.700759 0.682313 0.657143
0.719820 0.701000 0.675270
0.738881 0.719688 0.693397
0.471322 0.457375 0.438954
0.490384 0.476062 0.457081
0.509445 0.494750 0.475207
0.528506 0.513437 0.493334
0.547568 0.532125 0.511461
0.566629 0.550813 0.529588
0.585690 0.569500 0.547715
0.604751 0.588188 0.565842
0.623813 0.606875 0.583969
0.642874 0.625563 0.602096
0.661935 0.644250 0.620223
0.680996 0.662937 0.638349
0.700057 0.681625 0.656476
0.719119 0.700313 0.674603
0.738180 0.719000 0.692730
0.757241 0.737688 0.710857
0.776303 0.756375 0.728984
0.508744 0.494062 0.474541
0.527805 0.512750 0.492668
0.546866 0.531438 0.510794
0.565928 0.550125 0.528921
0.584989 0.568813 0.547048
0.604050 0.587500 0.565175
0.623111 0.606187 0.583302
0.642173 0.624875 0.601429
0.661234 0.643563 0.619556
0.680295 0.662250 0.637682
0.699356 0.680937 0.655809
0.718417 0.699625 0.673936
0.737479 0.718313 0.692063
0.756540 0.737000 0.710190
0.775601 0.755688 0.728317
0.794663 0.774375 0.746444
0.813724 0.793063 0.764571
0.546165 0.530750 0.510128
0.565226 0.549438 0.528254
0.584288 0.568125 0.546381
0.603349 0.586813 0.564508
0.622410 0.605500 0.582635
0.641471 0.624188 0.600762
0.660533 0.642875 0.618889
0.679594 0.661563 0.637016
0.698655 0.680250 0.655142
0.717716 0.698937 0.673269
0.736778 0.717625 0.691396
0.755839 0.736313 0.709523
0.774900 0.755000 0.727650
0.793961 0.773688 0.745777
0.813023 0.792375 0.763904
0.832084 0.811063 0.782031
0.851145 0.829750 0.800157
0.583586 0.567438 0.545714
0.602648 0.586125 0.563841
0.621709 0.604813 0.581968
0.640770 0.623500 0.600095
0.659831 0.642188 0.618222
0.678893 0.660875 0.636349
0.697954 0.679563 0.654476
0.717015 0.698250 0.672602
0.736076 0.716938 0.690729
0.755138 0.735625 0.708856
0.774199 0.754313 0.726983
0.793260 0.773000 0.745110
0.812321 0.791688 0.763237
0.831383 0.810375 0.781364
0.850444 0.829063 0.799491
0.869505 0.847750 0.817617
0.888566 0.866437 0.835744
0.621008 0.604125 0.581301
0.640069 0.622812 0.599428
0.659130 0.641500 0.617555
0.678191 0.660188 0.635682
0.697253 0.678875 0.653809
0.716314 0.697562 0.671936
0.735375 0.716250 0.690063
0.754436 0.734938 0.708189
0.773498 0.753625 0.726316
0.792559 0.772312 0.744443
0.811620 0.791000 0.762570
0.830681 0.809688 0.780697
0.849743 0.828375 0.798824
0.868804 0.847063 0.816951
0.887865 0.865750 0.835078
0.906926 0.884437 0.853204
0.925987 0.903125 0.871331
0.029535 0.024250 0.018822
0.048596 0.042938 0.036949
0.067657 0.061625 0.055076
0.086719 0.080312 0.073203
0.105780 0.099000 0.091330
0.124841 0.117687 0.109457
0.143903 0.136375 0.127584
0.162964 0.155063 0.145711
0.182025 0.173750 0.163837
0.201086 0.192438 0.181964
0.220147 0.211125 0.200091
0.239209 0.229813 0.218218
0.258270 0.248500 0.236345
0.277331 0.267188 0.254472
0.296393 0.285875 0.272599
0.315454 0.304562 0.290726
0.334515 0.323250 0.308852
0.066956 0.060937 0.054409
0.086017 0.079625 0.072536
0.105079 0.098312 0.090663
0.124140 0.117000 0.108790
0.143201 0.135688 0.126917
0.162263 0.154375 0.145044
0.181324 0.173063 0.163171
0.200385 0.191750 0.181298
0.219446 0.210438 0.199424
0.238507 0.229125 0.217551
0.257569 0.247813 0.235678
0.276630 0.266500 0.253805
0.295691 0.285187 0.271932
0.314752 0.303875 0.290059
0.333814 0.322562 0.308186
0.352875 0.341250 0.326312
0.371936 0.359937 0.344439
0.104377 0.097625 0.089996
0.123439 0.116312 0.108123
0.142500 0.135000 0.126250
0.161561 0.153688 0.144377
0.180623 0.172375 0.162504
0.199684 0.191062 0.180631
0.218745 0.209750 0.198758
0.237806 0.228438 0.216884
0.256868 0.247125 0.235011
0.275929 0.265813 0.253138
0.294990 0.284500 0.271265
0.314051 0.303187 0.289392
0.333113 0.321875 0.307519
0.352174 0.340562 0.325646
0.371235 0.359250 0.343772
0.390296 0.377937 0.361899
0.409358 0.396625 0.380026
0.141799 0.134313 0.125583
0.160860 0.153000 0.143710
0.179921 0.171688 0.161837
0.198983 0.190375 0.179964
0.218044 0.209063 0.198091
0.237105 0.227750 0.216218
0.256166 0.246438 0.234344
0.275228 0.265125 0.252471
0.294289 0.283812 0.270598
0.313350 0.302500 0.288725
0.332411 0.321187 0.306852
0.351472 0.339875 0.324979
0.370534 0.358563 0.343106
0.389595 0.377250 0.361232
0.408656 0.395937 0.379359
0.427717 0.414625 0.397486
0.446779 0.433312 0.415613
0.179220 0.171000 0.161170
0.198281 0.189688 0.179297
0.217342 0.208375 0.197424
0.236404 0.227063 0.215551
0.255465 0.245750 0.233677
0.274526 0.264437 0.251804
0.293587 0.283125 0.269931
0.312649 0.301812 0.288058
0.331710 0.320500 0.306185
0.350771 0.339187 0.324312
0.369832 0.357875 0.342439
0.388894 0.376562 0.360566
0.407955 0.395250 0.378692
0.427016 0.413937 0.396819
0.446078 0.432625 0.414946
0.465139 0.451312 0.433073
0.484200 0.470000 0.451200
0.216641 0.207687 0.196757
0.235702 0.226375 0.214884
0.254764 0.245062 0.233011
0.273825 0.263750 0.251137
0.292886 0.282437 0.269264
0.311947 0.301125 0.287391
0.331009 0.319812 0.305518
0.350070 0.338500 0.323645
0.369131 0.357187 0.341772
0.388192 0.375875 0.359899
0.407254 0.394562 0.378026
0.426315 0.413250 0.396152
0.445376 0.431937 0.414279
0.464437 0.450625 0.432406
0.483499 0.469312 0.450533
0.502560 0.488000 0.468660
0.521621 0.506687 0.486787
0.254063 0.244375 0.232344
0.273124 0.263062 0.250471
0.292185 0.281750 0.268597
0.311246 0.300437 0.286724
0.330307 0.319125 0.304851
0.349369 0.337812 0.322978
0.368430 0.356500 0.341105
0.387491 0.375188 0.359232
0.406552 0.393875 0.377359
0.425614 0.412562 0.395486
0.444675 0.431250 0.413612
0.463736 0.449937 0.431739
0.482797 0.468625 0.449866
0.501859 0.487312 0.467993
0.520920 0.506000 0.486120
0.539981 0.524687 0.504247
0.559042 0.543375 0.522374
0.291484 0.281062 0.267931
0.310545 0.299750 0.286058
0.329606 0.318437 0.304184
0.348668 0.337125 0.322311
0.367729 0.355812 0.340438
0.386790 0.374500 0.358565
0.405851 0.393188 0.376692
0.424913 0.411875 0.394819
0.443974 0.430562 0.412946
0.463035 0.449250 0.431072
0.482096 0.467938 0.449199
0.501157 0.486625 0.467326
0.520219 0.505312 0.485453
0.539280 0.524000 0.503580
0.558341 0.542687 0.521707
0.577402 0.561375 0.539834
0.596464 0.580063 0.557961
0.328905 0.317750 0.303517
0.347966 0.336438 0.321644
0.367027 0.355125 0.339771
0.386089 0.373812 0.357898
0.405150 0.392500 0.376025
0.424211 0.411187 0.394152
0.443273 0.429875 0.412279
0.462334 0.448562 0.430406
0.481395 0.467250 0.448532
0.500456 0.485937 0.466659
0.519517 0.504625 0.484786
0.538579 0.523312 0.502913
0.557640 0.542000 0.521040
0.576701 0.560688 0.539167
0.595762 0.579375 0.557294
0.614824 0.598062 0.575421
0.633885 0.616750 0.593548
0.366326 0.354437 0.339104
0.385387 0.373125 0.357231
0.404449 0.391812 0.375358
0.423510 0.410500 0.393485
0.442571 0.429187 0.411612
0.461633 0.447875 0.429739
0.480694 0.466562 0.447866
0.499755 0.485250 0.465992
0.518816 0.503937 0.484119
0.537878 0.522625 0.502246
0.556939 0.541312 0.520373
0.576000 0.560000 0.538500
0.595061 0.578687 0.556627
0.614123 0.597375 0.574754
0.633184 0.616062 0.592881
0.652245 0.634750 0.611007
0.671306 0.653438 0.629134
0.403747 0.391125 0.374691
0.422809 0.409812 0.392818
0.441870 0.428500 0.410945
0.460931 0.447187 0.429072
0.479992 0.465875 0.447199
0.499054 0.484562 0.465326
0.518115 0.503250 0.483452
0.537176 0.521937 0.501579
0.556237 0.540625 0.519706
0.575299 0.559312 0.537833
0.594360 0.578000 0.555960
0.613421 0.596687 0.574087
0.632482 0.615375 0.592214
0.651544 0.634062 0.610341
0.670605 0.652750 0.628467
0.689666 0.671437 0.646594
0.708727 0.690125 0.664721
0.441169 0.427812 0.410278
0.460230 0.446500 0.428405
0.479291 0.465187 0.446532
0.498353 0.483875 0.464659
0.517414 0.502562 0.482786
0.536475 0.521250 0.500912
0.555536 0.539937 0.519039
0.574598 0.558625 0.537166
0.593659 0.577313 0.555293
0.612720 0.596000 0.573420
0.631781 0.614687 0.591547
0.650842 0.633375 0.609674
0.669904 0.652062 0.627801
0.688965 0.670750 0.645927
0.708026 0.689438 0.664054
0.727087 0.708125 0.682181
0.746149 0.726812 0.700308
0.478590 0.464500 0.445865
0.497651 0.483187 0.463992
0.516713 0.501875 0.482119
0.535774 0.520563 0.500246
0.554835 0.539250 0.518373
0.573896 0.557937 0.536499
0.592957 0.576625 0.554626
0.612019 0.595313 0.572753
0.631080 0.614000 0.590880
0.650141 0.632687 0.609007
0.669202 0.651375 0.627134
0.688264 0.670062 0.645261
0.707325 0.688750 0.663387
0.726386 0.707437 0.681514
0.745448 0.726125 0.699641
0.764509 0.744812 0.717768
0.783570 0.763500 0.735895
0.516011 0.501187 0.481452
0.535072 0.519875 0.499579
0.554134 0.538562 0.517706
0.573195 0.557250 0.535832
0.592256 0.575937 0.553959
0.611317 0.594625 0.572086
0.630379 0.613312 0.590213
0.649440 0.632000 0.608340
0.668501 0.650687 0.626467
0.687562 0.669375 0.644594
0.706624 0.688062 0.662721
0.725685 0.706750 0.680847
0.744746 0.725437 0.698974
0.763807 0.744125 0.717101
0.782869 0.762813 0.735228
0.801930 0.781500 0.753355
0.820991 0.800187 0.771482
0.553432 0.537875 0.517039
0.572494 0.556562 0.535166
0.591555 0.575250 0.553292
0.610616 0.593938 0.571419
0.629678 0.612625 0.589546
0.648739 0.631312 0.607673
0.667800 0.650000 0.625800
0.686861 0.668687 0.643927
0.705923 0.687375 0.662054
0.724984 0.706062 0.680181
0.744045 0.724750 0.698307
0.763106 0.743437 0.716434
0.782168 0.762125 0.734561
0.801229 0.780813 0.752688
0.820290 0.799500 0.770815
0.839351 0.818187 0.788942
0.858412 0.836875 0.807069
0.590854 0.574562 0.552626
0.609915 0.593250 0.570752
0.628976 0.611938 0.588879
0.648038 0.630625 0.607006
0.667099 0.649312 0.625133
0.686160 0.668000 0.643260
0.705221 0.686688 0.661387
0.724282 0.705375 0.679514
0.743344 0.724062 0.697641
0.762405 0.742750 0.715767
0.781466 0.761437 0.733894
0.800527 0.780125 0.752021
0.819589 0.798813 0.770148
0.838650 0.817500 0.788275
0.857711 0.836187 0.806402
0.876772 0.854875 0.824529
0.895834 0.873562 0.842656
0.628275 0.611250 0.588212
0.647336 0.629937 0.606339
0.666397 0.648625 0.624466
0.685459 0.667312 0.642593
0.704520 0.686000 0.660720
0.723581 0.704687 0.678847
0.742642 0.723375 0.696974
0.761704 0.742062 0.715101
0.780765 0.760750 0.733227
0.799826 0.779437 0.751354
0.818887 0.798125 0.769481
0.837949 0.816812 0.787608
0.857010 0.835500 0.805735
0.876071 0.854187 0.823862
0.895132 0.872875 0.841989
0.914194 0.891562 0.860116
0.933255 0.910250 0.878242
0.036803 0.031375 0.025734
0.055864 0.050063 0.043861
0.074925 0.068750 0.061987
0.093986 0.087438 0.080114
0.113048 0.106125 0.098241
0.132109 0.124812 0.116368
0.151170 0.143500 0.134495
0.170231 0.162188 0.152622
0.189292 0.180875 0.170749
0.208354 0.199563 0.188876
0.227415 0.218250 0.207002
0.246476 0.236937 0.225129
0.265538 0.255625 0.243256
0.284599 0.274313 0.261383
0.303660 0.293000 0.279510
0.322721 0.311687 0.297637
0.341782 0.330375 0.315764
0.074224 0.068062 0.061321
