shared/src/main/assets/luts/dalur_classic_400.cube
# Resampled 13pt -> 17pt (trilinear) from an MIT-licensed G'MIC film LUT.
# Source: github.com/YahiaAngelo/Film-Luts (MIT). See THIRD_PARTY_NOTICES.
TITLE "DALUR classic 400"
# LUT size
LUT_3D_SIZE 17
# Data domain
DOMAIN_MIN 0.0 0.0 0.0
DOMAIN_MAX 1.0 1.0 1.0
# LUT data points
0.025567792 0.019535214 0.018423611
0.057906460 0.019006385 0.020069137
0.093897201 0.017098633 0.021492109
0.133867914 0.014417697 0.022770448
0.178146496 0.011569318 0.023982074
0.223749056 0.008702944 0.024165942
0.272113405 0.006422394 0.023462437
0.324109867 0.004270823 0.021946200
0.380608767 0.001791382 0.019691871
0.443612136 0.002059690 0.021309257
0.506837755 0.001504412 0.021702553
0.570897624 0.000650024 0.020888830
0.636403739 0.000021003 0.018885160
0.702351168 0.000074992 0.015375806
0.766350180 0.001193110 0.012536681
0.828868672 0.002700316 0.009742221
0.890374541 0.003921569 0.006366864
0.048508438 0.057131201 0.027928962
0.077511593 0.054204715 0.028506089
0.112565323 0.049443579 0.029171667
0.152316428 0.043655604 0.029950707
0.195411708 0.037648598 0.030868221
0.240014123 0.030571925 0.030643400
0.288519086 0.024343848 0.030686521
0.340700202 0.018392277 0.030249086
0.396331072 0.012145121 0.028582597
0.456207823 0.009429314 0.029469177
0.517027289 0.006466362 0.029375178
0.579298459 0.003591215 0.028086933
0.643530324 0.001138822 0.025390778
0.708923843 0.000916781 0.020002810
0.772068851 0.001864525 0.015672754
0.833540734 0.003145104 0.011736892
0.893914878 0.003921569 0.007531503
0.074844884 0.100707628 0.039109809
0.099112451 0.096444773 0.038451937
0.131811416 0.091342165 0.039350290
0.170151846 0.085039464 0.040585736
0.211343810 0.077176331 0.040939145
0.255126424 0.067594287 0.040847648
0.302871369 0.057867379 0.041081482
0.354572713 0.047676376 0.040843403
0.410224527 0.036702048 0.039336171
0.469248559 0.027001256 0.038575133
0.529117025 0.017711901 0.037500830
0.590381019 0.009799512 0.035710776
0.653591633 0.004229617 0.032802485
0.717783846 0.002654595 0.026473122
0.779532745 0.002728907 0.021069799
0.839689501 0.003469852 0.016028387
0.899105281 0.003894731 0.010784755
0.101919884 0.148889497 0.052029586
0.121728267 0.144569503 0.050860187
0.151482914 0.140084705 0.052010919
0.187808069 0.134191983 0.053443786
0.227327980 0.125648217 0.053120789
0.270519692 0.115146957 0.053233222
0.317182429 0.103008134 0.053167727
0.368014034 0.089351214 0.052625869
0.423712350 0.074295659 0.051309214
0.482801247 0.057768265 0.049346953
0.542630833 0.041078689 0.047295753
0.603505556 0.025910134 0.044707331
0.665729865 0.013945807 0.041133403
0.727876145 0.007528791 0.034812093
0.788126074 0.004505124 0.028580301
0.846781734 0.003673021 0.022364787
0.904145211 0.003830700 0.016092311
0.127076194 0.200301811 0.066751726
0.144378275 0.197421845 0.066684341
0.171427250 0.192961514 0.067136496
0.205718998 0.186735868 0.067293109
0.244749397 0.178559959 0.066339098
0.287627660 0.168606862 0.066254659
0.333464444 0.155781262 0.065465666
0.383310795 0.140644882 0.064493202
0.438217759 0.123759449 0.063858345
0.496932790 0.104723096 0.062504464
0.557092577 0.082404386 0.059976188
0.618032321 0.058558299 0.056023569
0.679087222 0.034939814 0.050396655
0.738145709 0.017779724 0.045045072
0.797233045 0.007912041 0.038056744
0.854284197 0.003753071 0.030494174
0.907234132 0.003719120 0.023419863
0.148167755 0.250812713 0.079144917
0.166362199 0.249499216 0.080002526
0.191656755 0.245600760 0.079884052
0.223896717 0.239719158 0.079402186
0.262927376 0.232456222 0.079169618
0.306605540 0.223561098 0.079455252
0.352894768 0.212948373 0.078802085
0.402472764 0.200053364 0.077493426
0.456017233 0.184311390 0.075812588
0.514393484 0.162019338 0.074115645
0.574067250 0.138349866 0.070963803
0.634137221 0.113395004 0.066506122
0.693702087 0.087246788 0.060891661
0.751048554 0.058934631 0.054890070
0.808021806 0.033282504 0.047110647
0.863273609 0.013918810 0.038159235
0.915455729 0.004471951 0.028641678
0.173203371 0.307355329 0.090038188
0.191688117 0.305587374 0.090890717
0.215131529 0.301158465 0.090155844
0.245296789 0.295044549 0.089488087
0.283947080 0.288221568 0.090541966
0.328482322 0.280147018 0.091479189
0.375303239 0.270977117 0.091008484
0.424678449 0.259979708 0.089472263
0.476876572 0.246422634 0.087212935
0.534286182 0.225920286 0.085081085
0.592520460 0.204546105 0.081802497
0.651062235 0.181466652 0.077539952
0.709394336 0.155848488 0.072456233
0.766113155 0.120289805 0.065826220
0.821397245 0.083458980 0.057016619
0.874952950 0.048576894 0.046395229
0.926486611 0.018864426 0.034329852
0.202176612 0.368930258 0.099522589
0.220843465 0.366361886 0.099941622
0.243094584 0.361338861 0.098616633
0.271651325 0.354936469 0.097804230
0.309235044 0.348229997 0.099761024
0.353711439 0.340639032 0.101551964
0.400478914 0.331992276 0.101469060
0.449409641 0.322007149 0.099980765
0.500375792 0.310401075 0.097555529
0.555809319 0.294482913 0.094926786
0.611973435 0.277333520 0.091824243
0.668648358 0.257701613 0.088138023
0.725614309 0.234335907 0.083758250
0.781477202 0.196918728 0.076764570
0.835470229 0.154747084 0.067165849
0.887836546 0.108023494 0.055211907
0.938819304 0.056950479 0.041152562
0.235081047 0.434538096 0.107689172
0.254315682 0.432498321 0.107747952
0.276788935 0.427846178 0.105931181
0.304692432 0.421619348 0.104604032
0.340217799 0.414855510 0.106131673
0.382746324 0.407311551 0.108899076
0.428210855 0.398118630 0.109568007
0.476148136 0.387718923 0.108569982
0.526094913 0.376554608 0.106336512
0.578161329 0.365764193 0.103178753
0.631947398 0.353052527 0.100361016
0.686736584 0.337028258 0.097313296
0.741812348 0.316300035 0.093465589
0.795278385 0.283894882 0.086616166
0.848351628 0.243452430 0.076949529
0.900438726 0.192554783 0.064619021
0.950946331 0.128784046 0.049777985
0.279958069 0.502916656 0.110711155
0.294700105 0.500564002 0.111699739
0.313575823 0.496309128 0.110934015
0.338910317 0.490617258 0.110127476
0.373028681 0.483953618 0.110993613
0.413586402 0.477578348 0.113629893
0.456637744 0.470458657 0.114281747
0.502444200 0.461741667 0.113208615
0.551267266 0.450574502 0.110669939
0.600078955 0.441084288 0.107614133
0.651008159 0.430666793 0.105062825
0.703004852 0.417659227 0.102438658
0.755019009 0.400398798 0.099164277
0.807659127 0.372865543 0.092981966
0.860286362 0.336662278 0.083833799
0.911911238 0.289964386 0.071808361
0.961544275 0.230947252 0.056994236
0.325376049 0.569684058 0.112969439
0.337769073 0.567086585 0.113413644
0.352986060 0.563560784 0.113172688
0.374475665 0.559048660 0.112984849
0.405686542 0.553492218 0.113588408
0.445368920 0.548489988 0.115756610
0.486346222 0.543501489 0.116215760
0.529596176 0.536816549 0.115185104
0.576096505 0.526724994 0.112883892
0.622404464 0.518339794 0.110306359
0.670507729 0.509093575 0.107864616
0.719707318 0.497263093 0.105159664
0.769304246 0.481125101 0.101792499
0.820856415 0.458261438 0.096001792
0.872146294 0.427914776 0.087204533
0.922090657 0.388224103 0.075600725
0.969606280 0.337328404 0.061390372
0.371874921 0.634007379 0.113029059
0.382741354 0.631451424 0.112804140
0.395628784 0.628468111 0.112669012
0.414213821 0.625126090 0.112646030
0.442173079 0.621494010 0.112757552
0.480875153 0.618043169 0.114225872
0.519387320 0.614989407 0.114442197
0.559142031 0.610451106 0.113588252
0.601571739 0.602546647 0.111845763
0.645807277 0.594904095 0.109685292
0.691085733 0.586113483 0.107258365
0.737493664 0.574579645 0.104389786
0.785117626 0.558707416 0.100904355
0.834513221 0.540621795 0.095260838
0.883517958 0.516837794 0.087041491
0.930926859 0.485397959 0.076226526
0.975534946 0.444344833 0.062796155
0.419994622 0.695053697 0.109455049
0.428835720 0.693043873 0.109785704
0.442113131 0.689898074 0.109444801
0.460950129 0.687062085 0.108580895
0.486469984 0.685981691 0.107342541
0.522886381 0.684234589 0.107984321
0.557812065 0.682664692 0.108033206
0.592619732 0.680152878 0.107506860
0.628682077 0.675580025 0.106422946
0.670956820 0.668150574 0.104180792
0.713381797 0.659507126 0.101736046
0.757013574 0.648348674 0.099042499
0.802908719 0.633374214 0.096053943
0.848272517 0.620485842 0.090344297
0.893987894 0.603059202 0.083324432
0.938369721 0.579549983 0.073916174
0.979732871 0.548413873 0.061041348
0.479450457 0.752496779 0.095783835
0.484776653 0.751731467 0.098032932
0.497046515 0.750005774 0.099355604
0.515032856 0.748573463 0.099348438
0.537508488 0.748688295 0.097608017
0.568314474 0.746783815 0.095790706
0.599710651 0.745051555 0.093017468
0.630995683 0.742874470 0.090972166
0.661468238 0.739635512 0.091338661
0.698561188 0.734741017 0.090903490
0.737236761 0.728366248 0.089914029
0.777718484 0.719999842 0.088106415
0.820229888 0.709130436 0.085216790
0.861969519 0.698675532 0.081082481
0.905246109 0.683587611 0.074350750
0.947399847 0.663863178 0.064974471
0.985770926 0.639498740 0.052906518
0.541313410 0.811246336 0.076429157
0.545743458 0.810980305 0.078824404
0.556826741 0.810350001 0.079935394
0.572627217 0.809910938 0.079653909
0.591208845 0.810218632 0.077871732
0.615414128 0.808592364 0.074454220
0.642344117 0.806778684 0.070466191
0.669920929 0.804590061 0.067468010
0.696066678 0.801838964 0.067020044
0.728671364 0.798644744 0.066849025
0.763068870 0.794451848 0.066378110
0.799655676 0.788812973 0.065219088
0.838828266 0.781280816 0.062983748
0.876901329 0.773050368 0.060625026
0.917259336 0.760536104 0.055936096
0.956344128 0.744895771 0.049208783
0.990597546 0.727287114 0.040734908
0.605275393 0.871193320 0.055456867
0.609926812 0.871068060 0.056483514
0.619351059 0.871121354 0.056114731
0.632077806 0.871230830 0.054866909
0.646636724 0.871274114 0.053256439
0.664617740 0.870030575 0.049603401
0.686510414 0.868340999 0.045294644
0.709957227 0.866283350 0.041636617
0.732600659 0.863935590 0.039935770
0.761121348 0.861777183 0.038090312
0.791255526 0.859178297 0.037101882
0.823607817 0.855657399 0.036175799
0.858782843 0.850732952 0.034517378
0.893571407 0.844744451 0.033822719
0.930619761 0.835232206 0.032221597
0.965505764 0.823698349 0.029675566
0.993807271 0.811645016 0.026146182
0.671028316 0.932228684 0.036932822
0.675517395 0.932272404 0.035333656
0.682516724 0.932510436 0.032824175
0.691729218 0.932689458 0.030357035
0.702857792 0.932556152 0.028884888
0.716357708 0.931468785 0.026866789
0.733007491 0.930233419 0.022418100
0.751666337 0.928938031 0.018120212
0.771193445 0.927670598 0.016554514
0.795745134 0.926053762 0.010700267
0.822174132 0.923959970 0.008058937
0.850357577 0.921402454 0.006771828
0.880172610 0.918394446 0.004980244
0.912483215 0.914891884 0.005526352
0.945919573 0.909003437 0.007348378
0.975187957 0.901321501 0.009431278
0.994994640 0.892438471 0.010760005
0.022118509 0.024615068 0.050141327
0.050456929 0.023552994 0.051571711
0.084750051 0.020907754 0.053265719
0.124554939 0.017384202 0.054357206
0.169428658 0.013687193 0.053980025
0.216514077 0.009789942 0.053832299
0.265859796 0.007266806 0.053586327
0.318448612 0.005631879 0.052688799
0.375263326 0.004399255 0.050586408
0.439437814 0.003560448 0.052167168
0.504448254 0.002306676 0.052296354
0.570093017 0.001080981 0.050145962
0.636170477 0.000326403 0.044887987
0.701613918 0.001346291 0.037297916
0.765655018 0.002506000 0.029474436
0.828861877 0.003474702 0.021259958
0.891802594 0.003921569 0.012496892
0.042938918 0.064114986 0.060944212
0.069921106 0.061268720 0.061445178
0.103764233 0.056602521 0.062261028
0.143645640 0.050733028 0.063099561
0.188742667 0.044276876 0.063668574
0.233953373 0.036034761 0.063292368
0.282377145 0.028652356 0.063053340
0.334916211 0.022134593 0.062654498
0.392472798 0.016486404 0.061798853
0.452889687 0.012419950 0.061466034
0.515045374 0.007727240 0.060246384
0.578560446 0.003650376 0.057575130
0.643055495 0.001431457 0.052887499
0.707807379 0.002608362 0.045591160
0.771334680 0.003320331 0.037432705
0.833819125 0.003667865 0.028241774
0.895442441 0.003751464 0.017848006
0.069501916 0.107534288 0.072266284
0.092163551 0.103691539 0.071831768
0.123535336 0.098809960 0.072330624
0.162012830 0.092660627 0.073276501
0.205991596 0.085014618 0.074183047
0.250001427 0.074392240 0.073690970
0.297514215 0.063466883 0.073318790
0.349758777 0.052488578 0.072999899
0.407963928 0.041707357 0.072667689
0.467024438 0.031126224 0.070945180
0.527528157 0.020208963 0.068473489
0.589486212 0.010811045 0.065207312
0.652909726 0.004787942 0.061101341
0.716840692 0.004738675 0.054203062
0.779248722 0.004327347 0.045612720
0.840266321 0.003694420 0.035404104
0.900025994 0.002980359 0.023651005
0.097433909 0.154520099 0.084099831
0.115538956 0.150650999 0.083038790
0.143843909 0.146248183 0.083281430
0.180216724 0.140565904 0.084133752
0.222525356 0.132858411 0.084901754
0.265869556 0.121780068 0.084667869
0.312703735 0.109034410 0.084334441
0.364421687 0.094877019 0.083950367
0.422417207 0.079563477 0.083564541
0.481540570 0.062378700 0.080977711
0.541438096 0.044796851 0.077650223
0.602495958 0.028761894 0.073849366
0.665100329 0.016217791 0.069842431
0.727601524 0.010232385 0.063111696
0.788419295 0.006381247 0.054222972
0.847476287 0.003972227 0.043360973
0.904695142 0.002313177 0.030710411
0.122361301 0.204719543 0.096437141
0.138402010 0.201976647 0.095373555
0.164470505 0.197635308 0.094920371
0.198817537 0.191847762 0.094917038
0.239693858 0.184766244 0.095203003
0.282769078 0.175115936 0.095862826
0.329378434 0.162678964 0.096052055
0.380350318 0.147483104 0.095731265
0.436513126 0.129556127 0.094861032
0.496136587 0.108876808 0.091936732
0.556316681 0.086535913 0.088449138
0.617215332 0.063701826 0.084308154
0.678994462 0.041542932 0.079423686
0.738977540 0.021584643 0.072295135
0.797868550 0.010336231 0.063471956
0.854721844 0.004919146 0.052726406
0.908591777 0.002454840 0.039830748
0.139956397 0.255867386 0.106131477
0.156993368 0.253743298 0.105953578
0.182710042 0.249733083 0.105669277
0.216197295 0.244658196 0.105599755
0.256546004 0.239340092 0.106066194
0.300479037 0.230660293 0.106778369
0.347808545 0.219536993 0.106645722
0.398807005 0.205878681 0.105783518
0.453746889 0.189593847 0.104307020
0.513300881 0.168138250 0.101697654
0.573395139 0.145279680 0.098279110
0.633537750 0.120355037 0.093764381
0.693236802 0.092701220 0.087866460
0.751329627 0.062690894 0.080563074
0.808377758 0.035681845 0.071994875
0.863705708 0.014902599 0.061502797
0.916637991 0.003581682 0.048427770
0.162244508 0.311449498 0.114807016
0.180582985 0.310166477 0.115419745
0.205821584 0.306570102 0.115350871
0.237809055 0.301560872 0.115457560
0.276394147 0.296039291 0.116596978
0.321279703 0.287859183 0.117248870
0.369284289 0.277646134 0.116684387
0.420165942 0.265476895 0.115219344
0.473682698 0.251428222 0.113169557
0.532141128 0.231876286 0.110708227
0.591290656 0.210594534 0.107447350
0.650471440 0.186566495 0.103060286
0.709023632 0.158775697 0.097220393
0.765420049 0.124801080 0.090302018
0.820620935 0.087441467 0.081513977
0.874455338 0.051094773 0.070546368
0.926752307 0.020158909 0.057089288
0.190358737 0.372151881 0.122769061
0.209179644 0.371210299 0.123727093
0.233973440 0.367932698 0.123511953
0.264711817 0.362949777 0.123520782
0.301366465 0.356892236 0.125150720
0.345954361 0.348998135 0.126076185
0.393720086 0.339122959 0.125435412
0.444025833 0.327742884 0.123724503
0.496233797 0.315334087 0.121439561
0.552432050 0.299401622 0.119018717
0.609736383 0.281190855 0.115949459
0.667476325 0.260113628 0.112021202
0.724981409 0.235581779 0.107023361
0.779773236 0.202270031 0.100918803
0.833433751 0.160243296 0.091905497
0.886113682 0.112018775 0.080099718
0.937963758 0.060113668 0.065617739
0.225432191 0.438660540 0.130322915
0.242792130 0.436838878 0.130830658
0.267333919 0.433607206 0.129699322
0.297964580 0.429218896 0.128819750
0.333591133 0.423927322 0.130082782
0.375286296 0.416362677 0.132062169
0.421030357 0.406084042 0.132166160
0.469985381 0.394141786 0.130984754
0.521313429 0.381586276 0.129107947
0.573948372 0.370024960 0.126679392
0.628465466 0.355779026 0.123781039
0.684012331 0.338773867 0.120472464
0.739736587 0.318934880 0.116813241
0.792913616 0.289452581 0.111820267
0.845651872 0.248715533 0.103045674
0.897823684 0.196197715 0.090405444
0.949301377 0.131373104 0.073815556
0.270169278 0.506184330 0.132813364
0.285445224 0.504606276 0.133515972
0.306340423 0.501815613 0.132777294
0.333608503 0.497817894 0.131993114
0.368003093 0.492618673 0.132559216
0.406978261 0.486342309 0.135074523
0.449545483 0.477990146 0.135930592
0.495694766 0.467606886 0.135235000
0.545416117 0.455237232 0.133095323
0.595469912 0.444451679 0.129887129
0.647184547 0.432388151 0.126929655
0.699900907 0.418409531 0.124373388
0.752959877 0.401878702 0.122368816
0.805553065 0.376611393 0.118331416
0.857911859 0.340701292 0.109988805
0.909448260 0.293518260 0.097241714
0.959574271 0.234432160 0.079990870
0.316099685 0.572114743 0.133028650
0.330256286 0.570716117 0.134121104
0.347150445 0.568337999 0.133797961
0.369858011 0.564947838 0.133262738
0.401454832 0.560513079 0.133718951
0.439598812 0.555664673 0.136507423
0.479744535 0.549642250 0.137594867
0.522876301 0.541531115 0.136960467
0.569978409 0.530416574 0.134583407
0.617865635 0.520904025 0.131123228
0.666559786 0.510317339 0.128220254
0.716165058 0.497655120 0.125748443
0.766785651 0.481915973 0.123581754
0.818583461 0.459931982 0.119956027
0.870098058 0.430283362 0.112116632
0.920314688 0.390998960 0.099882243
0.968218595 0.340107620 0.083071535
0.363361964 0.635889698 0.131915306
0.376669652 0.634472081 0.133242132
0.390863577 0.632382164 0.133379359
0.410034956 0.629748793 0.133119689
0.438275008 0.626700815 0.133255826
0.475925690 0.623188543 0.135526749
0.513688299 0.619289687 0.136071521
0.553349630 0.613538264 0.135047388
0.596696477 0.604468293 0.132611592
0.641861703 0.596232638 0.129448202
0.687179688 0.586823609 0.126634152
0.733537428 0.575127573 0.123913105
0.781821918 0.560030896 0.121028722
0.831732916 0.541029032 0.117135098
0.881551133 0.517822623 0.109815391
0.929709871 0.487221029 0.098696939
0.974642430 0.446033608 0.083407076
0.412094668 0.696947113 0.130419865
0.424129656 0.695177849 0.131475131
0.438579410 0.693155907 0.132139522
0.457461195 0.691360828 0.132055038
0.482792273 0.690272152 0.130863681
0.518736634 0.687772691 0.131298382
0.553437561 0.685181789 0.130273092
0.588934399 0.681252126 0.128381993
0.627266496 0.674736381 0.126219269
0.668184277 0.667288154 0.123922562
0.709632762 0.659163982 0.121152664
0.752750661 0.649443831 0.118182848
0.798676684 0.637207672 0.115286388
0.844729543 0.621517230 0.110309626
0.891611747 0.603679955 0.103471323
0.936920714 0.580765683 0.094055710
0.978253856 0.549844250 0.081347017
0.473678801 0.753242344 0.125943796
0.481136872 0.753446440 0.127511840
0.494551932 0.752572855 0.128654222
0.512752069 0.751506325 0.128500851
0.534565367 0.751131587 0.126181638
0.564916694 0.749126096 0.124515556
0.596030688 0.747077188 0.121547410
0.627621260 0.744365470 0.118223928
0.659402322 0.740371555 0.115491834
0.696398512 0.734520224 0.113721273
0.734629173 0.728404833 0.110598249
0.774444158 0.720888075 0.107030261
0.816193320 0.710832644 0.103924804
0.858627945 0.700054609 0.098276415
0.902534502 0.685463050 0.091236477
0.945315626 0.666142156 0.082541053
0.984373953 0.641176116 0.071926208
0.537667550 0.812054262 0.115887333
0.542866403 0.812443344 0.117734871
0.554643624 0.812303375 0.118630042
0.570806069 0.812005045 0.118134614
0.589160599 0.811919041 0.115810352
0.612525327 0.810318388 0.112829875
0.639475998 0.808664244 0.108709672
0.667575091 0.806600695 0.104125086
0.694385089 0.803771831 0.099751462
0.726702226 0.799480403 0.097572542
0.760934882 0.794871222 0.093465808
0.797094289 0.789185448 0.088164833
0.835191682 0.781664237 0.082403190
0.874207424 0.774151800 0.076064717
0.914982319 0.762755297 0.069854376
0.954464709 0.747616291 0.063342354
0.989602938 0.728876345 0.056098838
0.603133705 0.872302044 0.102283956
0.607572023 0.872189358 0.103351891
0.617229588 0.872403171 0.103219403
0.630222586 0.872518156 0.102136938
0.644667201 0.872108985 0.100354940
0.661555350 0.870641079 0.097101265
0.683854261 0.869353365 0.092600696
0.708276879 0.867906768 0.087079027
0.731536146 0.865962211 0.080762053
0.759335505 0.863350821 0.076376933
0.789430814 0.860089634 0.070307009
0.821663881 0.855986045 0.062795797
0.855876513 0.850847449 0.054086812
0.891622474 0.845361250 0.047151323
0.929067047 0.837099079 0.042380317
0.964290762 0.826249035 0.038856403
0.993374150 0.812999219 0.035662192
0.669150054 0.932904869 0.087167147
0.673507504 0.932705279 0.085570570
0.680684932 0.932927944 0.083574723
0.689601008 0.932706825 0.081688430
0.699174404 0.931175888 0.080420516
0.711999577 0.929385681 0.078189651
0.729246251 0.928554960 0.074061305
0.749207612 0.928232655 0.068079313
0.770176843 0.927967697 0.060287506
0.794538431 0.927313607 0.051035010
0.820997894 0.925586551 0.041673522
0.849115759 0.922939964 0.032132385
0.878452554 0.919527277 0.022340942
0.911027592 0.915235408 0.015013027
0.944900535 0.910036780 0.011869597
0.974716581 0.903101336 0.011479992
0.995120928 0.893599018 0.012413552
0.018424824 0.029036869 0.086064463
0.044004226 0.027318657 0.087300019
0.076231855 0.024455878 0.088082585
0.115149974 0.020809667 0.088435360
0.160800844 0.016741158 0.088381540
0.209582169 0.012845875 0.088242786
0.259633839 0.009846441 0.087845683
0.312836293 0.007755743 0.086946430
0.371069968 0.006586673 0.085301224
0.435988769 0.005153099 0.085192265
0.501762033 0.003093454 0.084269199
0.568089917 0.001601457 0.081555857
0.634672582 0.001870825 0.076076074
0.699743062 0.002766443 0.067461035
0.764297277 0.003430363 0.056637772
0.828346431 0.003776345 0.044208152
0.891901731 0.003718148 0.030774037
0.037661343 0.071196218 0.096660194
0.062495634 0.067495112 0.096896545
0.094874250 0.062969388 0.097257041
0.134418458 0.057458868 0.097790749
0.180749523 0.050803370 0.098546738
0.227362943 0.042634110 0.098435533
0.276429304 0.034728302 0.098204955
0.329413882 0.027347833 0.097763587
0.387781952 0.020754588 0.097020008
0.449347388 0.015380691 0.095857089
0.512803910 0.009072386 0.093876270
0.577305714 0.004122572 0.090461996
0.642006993 0.002824146 0.084998714
0.706105156 0.004035499 0.076727845
0.770009186 0.004264028 0.066009062
0.833263429 0.003841455 0.053304921
0.895412229 0.003099499 0.039077977
0.063718620 0.115189549 0.107307656
0.084481078 0.110808705 0.106689985
0.114627741 0.105812056 0.106740730
0.153088424 0.099738501 0.107426814
0.198792942 0.092126939 0.108715162
0.243688715 0.081837041 0.108657299
0.292050509 0.070763578 0.108395222
0.344993003 0.059242549 0.108078708
0.403630875 0.047609953 0.107857535
0.463452328 0.035672350 0.105849534
0.525082361 0.023155925 0.102893649
0.587930556 0.012643799 0.099045024
0.651406497 0.006719092 0.094358804
0.715047672 0.006705855 0.086661731
0.777901970 0.005636440 0.075919006
0.839519516 0.003999150 0.062695170
0.899450436 0.002282292 0.047554763
0.091587625 0.161265897 0.117799838
0.108139624 0.157335259 0.116788507
0.135265687 0.152594734 0.116576896
0.171634967 0.146659141 0.117167103
0.215916617 0.139143300 0.118561228
0.259640414 0.128587815 0.118850764
0.307579974 0.116062884 0.118727368
0.360430275 0.101894066 0.118439511
0.418886296 0.086406924 0.118235662
0.478140490 0.068292224 0.115592822
0.538611267 0.049776865 0.111956424
0.600251840 0.032927452 0.107884948
0.663015425 0.019810592 0.103936873
0.725844350 0.013271507 0.096501844
0.787128013 0.008219207 0.085894092
0.846581390 0.004428379 0.072521634
0.903919458 0.001673708 0.056792482
0.116259333 0.209674299 0.127929728
0.131650337 0.207150597 0.127300281
0.156561445 0.202928275 0.126808781
0.190533180 0.197231362 0.126835161
0.233106062 0.190283887 0.127759352
0.276298970 0.181019582 0.128958610
0.324100219 0.168736838 0.129512282
0.376582317 0.153756561 0.129393713
0.433817774 0.136399657 0.128576245
0.493248776 0.115504460 0.125510176
0.553404510 0.093367998 0.121699685
0.614556961 0.070735844 0.117561777
