shared/src/main/assets/luts/dalur_mono_01.cube
TITLE "DALUR mono"
LUT_3D_SIZE 9
DOMAIN_MIN 0.0 0.0 0.0
DOMAIN_MAX 1.0 1.0 1.0
0.015000 0.010000 0.005000
0.053122 0.047375 0.041254
0.091245 0.084750 0.077507
0.129368 0.122125 0.113761
0.167490 0.159500 0.150015
0.205612 0.196875 0.186269
0.243735 0.234250 0.222523
0.281858 0.271625 0.258776
0.319980 0.309000 0.295030
0.089842 0.083375 0.076174
0.127965 0.120750 0.112427
0.166087 0.158125 0.148681
0.204210 0.195500 0.184935
0.242333 0.232875 0.221189
0.280455 0.270250 0.257442
0.318578 0.307625 0.293696
0.356700 0.345000 0.329950
0.394823 0.382375 0.366204
0.164685 0.156750 0.147347
0.202807 0.194125 0.183601
0.240930 0.231500 0.219855
0.279052 0.268875 0.256109
0.317175 0.306250 0.292363
0.355297 0.343625 0.328616
0.393420 0.381000 0.364870
0.431542 0.418375 0.401124
0.469665 0.455750 0.437377
0.239528 0.230125 0.218521
0.277650 0.267500 0.254775
0.315773 0.304875 0.291029
0.353895 0.342250 0.327282
0.392018 0.379625 0.363536
0.430140 0.417000 0.399790
0.468262 0.454375 0.436044
0.506385 0.491750 0.472297
0.544507 0.529125 0.508551
0.314370 0.303500 0.289695
0.352492 0.340875 0.325949
0.390615 0.378250 0.362202
0.428738 0.415625 0.398456
0.466860 0.453000 0.434710
0.504983 0.490375 0.470964
0.543105 0.527750 0.507217
0.581228 0.565125 0.543471
0.619350 0.602500 0.579725
0.389212 0.376875 0.360869
0.427335 0.414250 0.397122
0.465457 0.451625 0.433376
0.503580 0.489000 0.469630
0.541702 0.526375 0.505884
0.579825 0.563750 0.542137
0.617947 0.601125 0.578391
0.656070 0.638500 0.614645
0.694192 0.675875 0.650899
0.464055 0.450250 0.432042
0.502177 0.487625 0.468296
0.540300 0.525000 0.504550
0.578422 0.562375 0.540804
0.616545 0.599750 0.577058
0.654667 0.637125 0.613311
0.692790 0.674500 0.649565
0.730913 0.711875 0.685819
0.769035 0.749250 0.722072
0.538898 0.523625 0.503216
0.577020 0.561000 0.539470
0.615143 0.598375 0.575724
0.653265 0.635750 0.611978
0.691388 0.673125 0.648231
0.729510 0.710500 0.684485
0.767633 0.747875 0.720739
0.805755 0.785250 0.756992
0.843877 0.822625 0.793246
0.613740 0.597000 0.574390
0.651863 0.634375 0.610644
0.689985 0.671750 0.646897
0.728108 0.709125 0.683151
0.766230 0.746500 0.719405
0.804353 0.783875 0.755659
0.842475 0.821250 0.791913
0.880598 0.858625 0.828166
0.918720 0.896000 0.864420
0.029535 0.024250 0.018822
0.067657 0.061625 0.055076
0.105780 0.099000 0.091330
0.143903 0.136375 0.127584
0.182025 0.173750 0.163837
0.220147 0.211125 0.200091
0.258270 0.248500 0.236345
0.296393 0.285875 0.272599
0.334515 0.323250 0.308852
0.104377 0.097625 0.089996
0.142500 0.135000 0.126250
0.180623 0.172375 0.162504
0.218745 0.209750 0.198758
0.256868 0.247125 0.235011
0.294990 0.284500 0.271265
0.333113 0.321875 0.307519
0.371235 0.359250 0.343772
0.409358 0.396625 0.380026
0.179220 0.171000 0.161170
0.217342 0.208375 0.197424
0.255465 0.245750 0.233677
0.293587 0.283125 0.269931
0.331710 0.320500 0.306185
0.369832 0.357875 0.342439
0.407955 0.395250 0.378692
0.446078 0.432625 0.414946
0.484200 0.470000 0.451200
0.254063 0.244375 0.232344
0.292185 0.281750 0.268597
0.330307 0.319125 0.304851
0.368430 0.356500 0.341105
0.406552 0.393875 0.377359
0.444675 0.431250 0.413612
0.482797 0.468625 0.449866
0.520920 0.506000 0.486120
0.559042 0.543375 0.522374
0.328905 0.317750 0.303517
0.367027 0.355125 0.339771
0.405150 0.392500 0.376025
0.443273 0.429875 0.412279
0.481395 0.467250 0.448532
0.519517 0.504625 0.484786
0.557640 0.542000 0.521040
0.595762 0.579375 0.557294
0.633885 0.616750 0.593548
0.403747 0.391125 0.374691
0.441870 0.428500 0.410945
0.479992 0.465875 0.447199
0.518115 0.503250 0.483452
0.556237 0.540625 0.519706
0.594360 0.578000 0.555960
0.632482 0.615375 0.592214
0.670605 0.652750 0.628467
0.708727 0.690125 0.664721
0.478590 0.464500 0.445865
0.516713 0.501875 0.482119
0.554835 0.539250 0.518373
0.592957 0.576625 0.554626
0.631080 0.614000 0.590880
0.669202 0.651375 0.627134
0.707325 0.688750 0.663387
0.745448 0.726125 0.699641
0.783570 0.763500 0.735895
0.553432 0.537875 0.517039
0.591555 0.575250 0.553292
0.629678 0.612625 0.589546
0.667800 0.650000 0.625800
0.705923 0.687375 0.662054
0.744045 0.724750 0.698307
0.782168 0.762125 0.734561
0.820290 0.799500 0.770815
0.858412 0.836875 0.807069
0.628275 0.611250 0.588212
0.666397 0.648625 0.624466
0.704520 0.686000 0.660720
0.742642 0.723375 0.696974
0.780765 0.760750 0.733227
0.818887 0.798125 0.769481
0.857010 0.835500 0.805735
0.895132 0.872875 0.841989
0.933255 0.910250 0.878242
0.044070 0.038500 0.032645
0.082193 0.075875 0.068899
0.120315 0.113250 0.105152
0.158438 0.150625 0.141406
0.196560 0.188000 0.177660
0.234682 0.225375 0.213914
0.272805 0.262750 0.250167
0.310928 0.300125 0.286421
0.349050 0.337500 0.322675
0.118912 0.111875 0.103819
0.157035 0.149250 0.140072
0.195157 0.186625 0.176326
0.233280 0.224000 0.212580
0.271403 0.261375 0.248834
0.309525 0.298750 0.285087
0.347648 0.336125 0.321341
0.385770 0.373500 0.357595
0.423893 0.410875 0.393849
0.193755 0.185250 0.174992
0.231877 0.222625 0.211246
0.270000 0.260000 0.247500
0.308123 0.297375 0.283754
0.346245 0.334750 0.320008
0.384367 0.372125 0.356261
0.422490 0.409500 0.392515
0.460613 0.446875 0.428769
0.498735 0.484250 0.465023
0.268597 0.258625 0.246166
0.306720 0.296000 0.282420
0.344843 0.333375 0.318674
0.382965 0.370750 0.354928
0.421088 0.408125 0.391181
0.459210 0.445500 0.427435
0.497333 0.482875 0.463689
0.535455 0.520250 0.499942
0.573577 0.557625 0.536196
0.343440 0.332000 0.317340
0.381563 0.369375 0.353594
0.419685 0.406750 0.389847
0.457808 0.444125 0.426101
0.495930 0.481500 0.462355
0.534053 0.518875 0.498609
0.572175 0.556250 0.534862
0.610297 0.593625 0.571116
0.648420 0.631000 0.607370
0.418283 0.405375 0.388514
0.456405 0.442750 0.424767
0.494527 0.480125 0.461021
0.532650 0.517500 0.497275
0.570772 0.554875 0.533529
0.608895 0.592250 0.569782
0.647017 0.629625 0.606036
0.685140 0.667000 0.642290
0.723263 0.704375 0.678544
0.493125 0.478750 0.459687
0.531247 0.516125 0.495941
0.569370 0.553500 0.532195
0.607492 0.590875 0.568449
0.645615 0.628250 0.604702
0.683737 0.665625 0.640956
0.721860 0.703000 0.677210
0.759983 0.740375 0.713464
0.798105 0.777750 0.749717
0.567967 0.552125 0.530861
0.606090 0.589500 0.567115
0.644212 0.626875 0.603369
0.682335 0.664250 0.639622
0.720457 0.701625 0.675876
0.758580 0.739000 0.712130
0.796703 0.776375 0.748384
0.834825 0.813750 0.784637
0.872947 0.851125 0.820891
0.642810 0.625500 0.602035
0.680933 0.662875 0.638289
0.719055 0.700250 0.674542
0.757177 0.737625 0.710796
0.795300 0.775000 0.747050
0.833422 0.812375 0.783304
0.871545 0.849750 0.819557
0.909667 0.887125 0.855811
0.947790 0.924500 0.892065
0.058605 0.052750 0.046468
0.096728 0.090125 0.082721
0.134850 0.127500 0.118975
0.172973 0.164875 0.155229
0.211095 0.202250 0.191482
0.249217 0.239625 0.227736
0.287340 0.277000 0.263990
0.325463 0.314375 0.300244
0.363585 0.351750 0.336498
0.133447 0.126125 0.117641
0.171570 0.163500 0.153895
0.209693 0.200875 0.190149
0.247815 0.238250 0.226403
0.285938 0.275625 0.262656
0.324060 0.313000 0.298910
0.362183 0.350375 0.335164
0.400305 0.387750 0.371417
0.438428 0.425125 0.407671
0.208290 0.199500 0.188815
0.246412 0.236875 0.225069
0.284535 0.274250 0.261322
0.322657 0.311625 0.297576
0.360780 0.349000 0.333830
0.398902 0.386375 0.370084
0.437025 0.423750 0.406338
0.475148 0.461125 0.442591
0.513270 0.498500 0.478845
0.283133 0.272875 0.259989
0.321255 0.310250 0.296243
0.359378 0.347625 0.332496
0.397500 0.385000 0.368750
0.435623 0.422375 0.405004
0.473745 0.459750 0.441257
0.511867 0.497125 0.477511
0.549990 0.534500 0.513765
0.588112 0.571875 0.550019
0.357975 0.346250 0.331162
0.396097 0.383625 0.367416
0.434220 0.421000 0.403670
0.472343 0.458375 0.439924
0.510465 0.495750 0.476177
0.548588 0.533125 0.512431
0.586710 0.570500 0.548685
0.624832 0.607875 0.584939
0.662955 0.645250 0.621192
0.432817 0.419625 0.402336
0.470940 0.457000 0.438590
0.509062 0.494375 0.474844
0.547185 0.531750 0.511097
0.585307 0.569125 0.547351
0.623430 0.606500 0.583605
0.661552 0.643875 0.619859
0.699675 0.681250 0.656112
0.737797 0.718625 0.692366
0.507660 0.493000 0.473510
0.545782 0.530375 0.509764
0.583905 0.567750 0.546017
0.622027 0.605125 0.582271
0.660150 0.642500 0.618525
0.698272 0.679875 0.654779
0.736395 0.717250 0.691032
0.774517 0.754625 0.727286
0.812640 0.792000 0.763540
0.582502 0.566375 0.544684
0.620625 0.603750 0.580937
0.658747 0.641125 0.617191
0.696870 0.678500 0.653445
0.734992 0.715875 0.689699
0.773115 0.753250 0.725953
0.811238 0.790625 0.762206
0.849360 0.828000 0.798460
0.887482 0.865375 0.834714
0.657345 0.639750 0.615857
0.695468 0.677125 0.652111
0.733590 0.714500 0.688365
0.771713 0.751875 0.724619
0.809835 0.789250 0.760872
0.847957 0.826625 0.797126
0.886080 0.864000 0.833380
0.924202 0.901375 0.869634
0.962325 0.938750 0.905887
0.073140 0.067000 0.060290
0.111263 0.104375 0.096544
0.149385 0.141750 0.132798
0.187507 0.179125 0.169051
0.225630 0.216500 0.205305
0.263753 0.253875 0.241559
0.301875 0.291250 0.277813
0.339998 0.328625 0.314066
0.378120 0.366000 0.350320
0.147983 0.140375 0.131464
0.186105 0.177750 0.167717
0.224228 0.215125 0.203971
0.262350 0.252500 0.240225
0.300472 0.289875 0.276479
0.338595 0.327250 0.312732
0.376718 0.364625 0.348986
0.414840 0.402000 0.385240
0.452963 0.439375 0.421494
0.222825 0.213750 0.202637
0.260947 0.251125 0.238891
0.299070 0.288500 0.275145
0.337193 0.325875 0.311399
0.375315 0.363250 0.347653
0.413437 0.400625 0.383906
0.451560 0.438000 0.420160
0.489683 0.475375 0.456414
0.527805 0.512750 0.492668
0.297668 0.287125 0.273811
0.335790 0.324500 0.310065
0.373913 0.361875 0.346319
0.412035 0.399250 0.382572
0.450157 0.436625 0.418826
0.488280 0.474000 0.455080
0.526402 0.511375 0.491334
0.564525 0.548750 0.527588
0.602648 0.586125 0.563841
0.372510 0.360500 0.344985
0.410633 0.397875 0.381239
0.448755 0.435250 0.417492
0.486878 0.472625 0.453746
0.525000 0.510000 0.490000
0.563123 0.547375 0.526254
0.601245 0.584750 0.562507
0.639368 0.622125 0.598761
0.677490 0.659500 0.635015
0.447352 0.433875 0.416159
0.485475 0.471250 0.452412
0.523597 0.508625 0.488666
0.561720 0.546000 0.524920
0.599842 0.583375 0.561174
0.637965 0.620750 0.597428
0.676087 0.658125 0.633681
0.714210 0.695500 0.669935
0.752333 0.732875 0.706189
0.522195 0.507250 0.487332
0.560318 0.544625 0.523586
0.598440 0.582000 0.559840
0.636563 0.619375 0.596094
0.674685 0.656750 0.632348
0.712808 0.694125 0.668601
0.750930 0.731500 0.704855
0.789053 0.768875 0.741109
0.827175 0.806250 0.777362
0.597038 0.580625 0.558506
0.635160 0.618000 0.594760
0.673283 0.655375 0.631014
0.711405 0.692750 0.667268
0.749528 0.730125 0.703521
0.787650 0.767500 0.739775
0.825773 0.804875 0.776029
0.863895 0.842250 0.812283
0.902018 0.879625 0.848536
0.671880 0.654000 0.629680
0.710003 0.691375 0.665934
0.748125 0.728750 0.702187
0.786248 0.766125 0.738441
0.824370 0.803500 0.774695
0.862493 0.840875 0.810949
0.900615 0.878250 0.847203
0.938738 0.915625 0.883456
0.976860 0.953000 0.919710
0.087675 0.081250 0.074113
0.125798 0.118625 0.110366
0.163920 0.156000 0.146620
0.202043 0.193375 0.182874
0.240165 0.230750 0.219128
0.278288 0.268125 0.255381
0.316410 0.305500 0.291635
0.354533 0.342875 0.327889
0.392655 0.380250 0.364142
0.162517 0.154625 0.145286
0.200640 0.192000 0.181540
0.238763 0.229375 0.217794
0.276885 0.266750 0.254048
0.315007 0.304125 0.290301
0.353130 0.341500 0.326555
0.391253 0.378875 0.362809
0.429375 0.416250 0.399062
0.467498 0.453625 0.435316
0.237360 0.228000 0.216460
0.275483 0.265375 0.252714
0.313605 0.302750 0.288967
0.351728 0.340125 0.325221
0.389850 0.377500 0.361475
0.427972 0.414875 0.397729
0.466095 0.452250 0.433983
0.504217 0.489625 0.470236
0.542340 0.527000 0.506490
0.312202 0.301375 0.287634
0.350325 0.338750 0.323887
0.388448 0.376125 0.360141
0.426570 0.413500 0.396395
0.464693 0.450875 0.432649
0.502815 0.488250 0.468902
0.540938 0.525625 0.505156
0.579060 0.563000 0.541410
0.617182 0.600375 0.577664
0.387045 0.374750 0.358808
0.425167 0.412125 0.395061
0.463290 0.449500 0.431315
0.501413 0.486875 0.467569
0.539535 0.524250 0.503822
0.577658 0.561625 0.540076
0.615780 0.599000 0.576330
0.653903 0.636375 0.612584
0.692025 0.673750 0.648838
0.461888 0.448125 0.429981
0.500010 0.485500 0.466235
0.538133 0.522875 0.502489
0.576255 0.560250 0.538743
0.614378 0.597625 0.574996
0.652500 0.635000 0.611250
0.690622 0.672375 0.647504
0.728745 0.709750 0.683758
0.766868 0.747125 0.720011
0.536730 0.521500 0.501155
0.574852 0.558875 0.537409
0.612975 0.596250 0.573663
0.651097 0.633625 0.609916
0.689220 0.671000 0.646170
0.727343 0.708375 0.682424
0.765465 0.745750 0.718677
0.803588 0.783125 0.754931
0.841710 0.820500 0.791185
0.611573 0.594875 0.572329
0.649695 0.632250 0.608583
0.687818 0.669625 0.644836
0.725940 0.707000 0.681090
0.764062 0.744375 0.717344
0.802185 0.781750 0.753598
0.840308 0.819125 0.789851
0.878430 0.856500 0.826105
0.916552 0.893875 0.862359
0.686415 0.668250 0.643502
0.724538 0.705625 0.679756
0.762660 0.743000 0.716010
0.800783 0.780375 0.752264
0.838905 0.817750 0.788517
0.877028 0.855125 0.824771
0.915150 0.892500 0.861025
0.953273 0.929875 0.897279
0.991395 0.967250 0.933532
0.102210 0.095500 0.087935
0.140333 0.132875 0.124189
0.178455 0.170250 0.160443
0.216577 0.207625 0.196696
0.254700 0.245000 0.232950
0.292822 0.282375 0.269204
0.330945 0.319750 0.305458
0.369068 0.357125 0.341711
0.407190 0.394500 0.377965
0.177053 0.168875 0.159109
0.215175 0.206250 0.195362
0.253298 0.243625 0.231616
0.291420 0.281000 0.267870
0.329543 0.318375 0.304124
0.367665 0.355750 0.340377
0.405788 0.393125 0.376631
0.443910 0.430500 0.412885
0.482033 0.467875 0.449139
0.251895 0.242250 0.230283
0.290018 0.279625 0.266536
0.328140 0.317000 0.302790
0.366262 0.354375 0.339044
0.404385 0.391750 0.375298
0.442507 0.429125 0.411551
0.480630 0.466500 0.447805
0.518753 0.503875 0.484059
0.556875 0.541250 0.520312
0.326738 0.315625 0.301456
0.364860 0.353000 0.337710
0.402983 0.390375 0.373964
0.441105 0.427750 0.410218
0.479228 0.465125 0.446471
0.517350 0.502500 0.482725
0.555473 0.539875 0.518979
0.593595 0.577250 0.555233
0.631718 0.614625 0.591486
0.401580 0.389000 0.372630
0.439702 0.426375 0.408884
0.477825 0.463750 0.445137
0.515948 0.501125 0.481391
0.554070 0.538500 0.517645
0.592193 0.575875 0.553899
0.630315 0.613250 0.590152
0.668438 0.650625 0.626406
0.706560 0.688000 0.662660
0.476422 0.462375 0.443804
0.514545 0.499750 0.480057
0.552667 0.537125 0.516311
0.590790 0.574500 0.552565
0.628912 0.611875 0.588819
0.667035 0.649250 0.625072
0.705157 0.686625 0.661326
0.743280 0.724000 0.697580
0.781402 0.761375 0.733834
0.551265 0.535750 0.514977
0.589388 0.573125 0.551231
0.627510 0.610500 0.587485
0.665632 0.647875 0.623739
0.703755 0.685250 0.659992
0.741877 0.722625 0.696246
0.780000 0.760000 0.732500
0.818123 0.797375 0.768754
0.856245 0.834750 0.805007
0.626108 0.609125 0.586151
0.664230 0.646500 0.622405
0.702353 0.683875 0.658659
0.740475 0.721250 0.694913
0.778598 0.758625 0.731166
0.816720 0.796000 0.767420
0.854843 0.833375 0.803674
0.892965 0.870750 0.839928
0.931087 0.908125 0.876181
0.700950 0.682500 0.657325
0.739073 0.719875 0.693579
0.777195 0.757250 0.729832
0.815318 0.794625 0.766086
0.853440 0.832000 0.802340
0.891563 0.869375 0.838594
0.929685 0.906750 0.874848
0.967808 0.944125 0.911101
1.000000 0.981500 0.947355
0.116745 0.109750 0.101758
0.154867 0.147125 0.138011
0.192990 0.184500 0.174265
0.231112 0.221875 0.210519
0.269235 0.259250 0.246773
0.307358 0.296625 0.283026
0.345480 0.334000 0.319280
0.383603 0.371375 0.355534
0.421725 0.408750 0.391788
0.191588 0.183125 0.172931
0.229710 0.220500 0.209185
0.267833 0.257875 0.245439
0.305955 0.295250 0.281693
0.344078 0.332625 0.317946
0.382200 0.370000 0.354200
0.420323 0.407375 0.390454
0.458445 0.444750 0.426707
0.496568 0.482125 0.462961
0.266430 0.256500 0.244105
0.304553 0.293875 0.280359
0.342675 0.331250 0.316612
0.380798 0.368625 0.352866
0.418920 0.406000 0.389120
0.457042 0.443375 0.425374
0.495165 0.480750 0.461627
0.533287 0.518125 0.497881
0.571410 0.555500 0.534135
0.341273 0.329875 0.315279
0.379395 0.367250 0.351533
0.417518 0.404625 0.387786
0.455640 0.442000 0.424040
0.493762 0.479375 0.460294
0.531885 0.516750 0.496548
0.570008 0.554125 0.532801
0.608130 0.591500 0.569055
0.646253 0.628875 0.605309
0.416115 0.403250 0.386452
0.454238 0.440625 0.422706
0.492360 0.478000 0.458960
0.530483 0.515375 0.495214
0.568605 0.552750 0.531467
0.606727 0.590125 0.567721
0.644850 0.627500 0.603975
0.682972 0.664875 0.640229
0.721095 0.702250 0.676482
0.490957 0.476625 0.457626
0.529080 0.514000 0.493880
0.567202 0.551375 0.530134
0.605325 0.588750 0.566387
0.643447 0.626125 0.602641
0.681570 0.663500 0.638895
0.719692 0.700875 0.675149
0.757815 0.738250 0.711402
0.795938 0.775625 0.747656
0.565800 0.550000 0.528800
0.603923 0.587375 0.565054
0.642045 0.624750 0.601307
0.680167 0.662125 0.637561
0.718290 0.699500 0.673815
0.756412 0.736875 0.710069
0.794535 0.774250 0.746322
0.832658 0.811625 0.782576
0.870780 0.849000 0.818830
0.640643 0.623375 0.599974
0.678765 0.660750 0.636228
0.716888 0.698125 0.672481
0.755010 0.735500 0.708735
0.793133 0.772875 0.744989
0.831255 0.810250 0.781242
0.869378 0.847625 0.817496
0.907500 0.885000 0.853750
0.945622 0.922375 0.890004
0.715485 0.696750 0.671148
0.753608 0.734125 0.707401
0.791730 0.771500 0.743655
0.829852 0.808875 0.779909
0.867975 0.846250 0.816162
0.906098 0.883625 0.852416
0.944220 0.921000 0.888670
0.982343 0.958375 0.924924
1.000000 0.995750 0.961177
0.131280 0.124000 0.115580
0.169403 0.161375 0.151834
0.207525 0.198750 0.188087
0.245648 0.236125 0.224341
0.283770 0.273500 0.260595
0.321893 0.310875 0.296849
0.360015 0.348250 0.333102
0.398138 0.385625 0.369356
0.436260 0.423000 0.405610
0.206123 0.197375 0.186754
0.244245 0.234750 0.223007
0.282367 0.272125 0.259261
0.320490 0.309500 0.295515
0.358613 0.346875 0.331769
0.396735 0.384250 0.368022
0.434858 0.421625 0.404276
0.472980 0.459000 0.440530
0.511103 0.496375 0.476784
0.280965 0.270750 0.257927
0.319087 0.308125 0.294181
0.357210 0.345500 0.330435
0.395332 0.382875 0.366689
0.433455 0.420250 0.402942
0.471577 0.457625 0.439196
0.509700 0.495000 0.475450
0.547823 0.532375 0.511704
0.585945 0.569750 0.547957
0.355807 0.344125 0.329101
0.393930 0.381500 0.365355
0.432053 0.418875 0.401609
0.470175 0.456250 0.437862
0.508297 0.493625 0.474116
0.546420 0.531000 0.510370
0.584542 0.568375 0.546624
0.622665 0.605750 0.582877
0.660787 0.643125 0.619131
0.430650 0.417500 0.400275
0.468772 0.454875 0.436529
0.506895 0.492250 0.472782
0.545018 0.529625 0.509036
0.583140 0.567000 0.545290
0.621263 0.604375 0.581544
0.659385 0.641750 0.617797
0.697507 0.679125 0.654051
0.735630 0.716500 0.690305
0.505492 0.490875 0.471449
0.543615 0.528250 0.507702
0.581737 0.565625 0.543956
0.619860 0.603000 0.580210
0.657982 0.640375 0.616464
0.696105 0.677750 0.652717
0.734227 0.715125 0.688971
0.772350 0.752500 0.725225
0.810473 0.789875 0.761479
0.580335 0.564250 0.542623
0.618457 0.601625 0.578876
0.656580 0.639000 0.615130
0.694703 0.676375 0.651384
0.732825 0.713750 0.687638
0.770947 0.751125 0.723891
0.809070 0.788500 0.760145
0.847193 0.825875 0.796399
0.885315 0.863250 0.832652
0.655177 0.637625 0.613796
0.693300 0.675000 0.650050
0.731422 0.712375 0.686304
0.769545 0.749750 0.722557
0.807667 0.787125 0.758811
0.845790 0.824500 0.795065
0.883913 0.861875 0.831319
0.922035 0.899250 0.867572
0.960157 0.936625 0.903826
0.730020 0.711000 0.684970
0.768143 0.748375 0.721224
0.806265 0.785750 0.757477
0.844388 0.823125 0.793731
0.882510 0.860500 0.829985
0.920632 0.897875 0.866239
0.958755 0.935250 0.902493
0.996877 0.972625 0.938746
1.000000 1.000000 0.975000
