shared/src/main/assets/luts/dalur_summer_01.cube
TITLE "DALUR summer"
LUT_3D_SIZE 9
DOMAIN_MIN 0.0 0.0 0.0
DOMAIN_MAX 1.0 1.0 1.0
0.039240 0.000000 0.000000
0.177760 0.000000 0.000000
0.316279 0.000000 0.000000
0.454799 0.000000 0.000000
0.593318 0.000000 0.000000
0.731838 0.000000 0.000000
0.870357 0.000000 0.000000
1.000000 0.000000 0.000000
1.000000 0.000000 0.000000
0.026982 0.123045 0.000000
0.165502 0.117086 0.000000
0.304021 0.111128 0.000000
0.442541 0.105169 0.000000
0.581060 0.099211 0.000000
0.719580 0.093252 0.000000
0.858099 0.087294 0.000000
0.996619 0.081336 0.000000
1.000000 0.075377 0.000000
0.014725 0.262182 0.000000
0.153244 0.256223 0.000000
0.291764 0.250265 0.000000
0.430283 0.244306 0.000000
0.568803 0.238348 0.000000
0.707322 0.232389 0.000000
0.845842 0.226431 0.000000
0.984361 0.220472 0.000000
1.000000 0.214514 0.000000
0.002467 0.401318 0.000000
0.140986 0.395360 0.000000
0.279506 0.389401 0.000000
0.418025 0.383443 0.000000
0.556545 0.377484 0.000000
0.695064 0.371526 0.000000
0.833584 0.365568 0.000000
0.972104 0.359609 0.000000
1.000000 0.353651 0.000000
0.000000 0.540455 0.000000
0.128729 0.534497 0.000000
0.267248 0.528538 0.000000
0.405768 0.522580 0.000000
0.544287 0.516621 0.000000
0.682807 0.510663 0.000000
0.821326 0.504704 0.000000
0.959846 0.498746 0.000000
1.000000 0.492787 0.000000
0.000000 0.679592 0.000000
0.116471 0.673633 0.000000
0.254990 0.667675 0.000000
0.393510 0.661716 0.000000
0.532029 0.655758 0.000000
0.670549 0.649800 0.000000
0.809069 0.643841 0.000000
0.947588 0.637883 0.000000
1.000000 0.631924 0.000000
0.000000 0.818729 0.000000
0.104213 0.812770 0.000000
0.242733 0.806812 0.000000
0.381252 0.800853 0.000000
0.519772 0.794895 0.000000
0.658291 0.788936 0.000000
0.796811 0.782978 0.000000
0.935330 0.777019 0.000000
1.000000 0.771061 0.000000
0.000000 0.957865 0.000000
0.091955 0.951907 0.000000
0.230475 0.945948 0.000000
0.368994 0.939990 0.000000
0.507514 0.934032 0.000000
0.646034 0.928073 0.000000
0.784553 0.922115 0.000000
0.923073 0.916156 0.000000
1.000000 0.910198 0.000000
0.000000 1.000000 0.000000
0.079698 1.000000 0.000000
0.218217 1.000000 0.000000
0.356737 1.000000 0.000000
0.495256 1.000000 0.000000
0.633776 1.000000 0.000000
0.772295 1.000000 0.000000
0.910815 1.000000 0.000000
1.000000 1.000000 0.000000
0.036920 0.000000 0.110696
0.175439 0.000000 0.104737
0.313959 0.000000 0.098779
0.452479 0.000000 0.092821
0.590998 0.000000 0.086862
0.729518 0.000000 0.080904
0.868037 0.000000 0.074945
1.000000 0.000000 0.068987
1.000000 0.000000 0.063028
0.024662 0.120725 0.098438
0.163182 0.114766 0.092480
0.301701 0.108808 0.086521
0.440221 0.102849 0.080563
0.578740 0.096891 0.074604
0.717260 0.090932 0.068646
0.855779 0.084974 0.062687
0.994299 0.079015 0.056729
1.000000 0.073057 0.050770
0.012404 0.259861 0.086180
0.150924 0.253903 0.080222
0.289444 0.247945 0.074264
0.427963 0.241986 0.068305
0.566483 0.236028 0.062347
0.705002 0.230069 0.056388
0.843522 0.224111 0.050430
0.982041 0.218152 0.044471
1.000000 0.212194 0.038513
0.000147 0.398998 0.073923
0.138666 0.393040 0.067964
0.277186 0.387081 0.062006
0.415705 0.381123 0.056047
0.554225 0.375164 0.050089
0.692744 0.369206 0.044130
0.831264 0.363247 0.038172
0.969783 0.357289 0.032213
1.000000 0.351330 0.026255
0.000000 0.538135 0.061665
0.126409 0.532177 0.055707
0.264928 0.526218 0.049748
0.403448 0.520260 0.043790
0.541967 0.514301 0.037831
0.680487 0.508343 0.031873
0.819006 0.502384 0.025914
0.957526 0.496426 0.019956
1.000000 0.490467 0.013997
0.000000 0.677272 0.049407
0.114151 0.671313 0.043449
0.252670 0.665355 0.037490
0.391190 0.659396 0.031532
0.529709 0.653438 0.025573
0.668229 0.647479 0.019615
0.806748 0.641521 0.013656
0.945268 0.635562 0.007698
1.000000 0.629604 0.001739
0.000000 0.816409 0.037150
0.101893 0.810450 0.031191
0.240413 0.804492 0.025233
0.378932 0.798533 0.019274
0.517452 0.792575 0.013316
0.655971 0.786616 0.007357
0.794491 0.780658 0.001399
0.933010 0.774699 0.000000
1.000000 0.768741 0.000000
0.000000 0.955545 0.024892
0.089635 0.949587 0.018933
0.228155 0.943628 0.012975
0.366674 0.937670 0.007016
0.505194 0.931711 0.001058
0.643713 0.925753 0.000000
0.782233 0.919794 0.000000
0.920752 0.913836 0.000000
1.000000 0.907878 0.000000
0.000000 1.000000 0.012634
0.077378 1.000000 0.006676
0.215897 1.000000 0.000717
0.354417 1.000000 0.000000
0.492936 1.000000 0.000000
0.631456 1.000000 0.000000
0.769975 1.000000 0.000000
0.908495 1.000000 0.000000
1.000000 1.000000 0.000000
0.034600 0.000000 0.255928
0.173119 0.000000 0.249969
0.311639 0.000000 0.244011
0.450158 0.000000 0.238052
0.588678 0.000000 0.232094
0.727197 0.000000 0.226135
0.865717 0.000000 0.220177
1.000000 0.000000 0.214218
1.000000 0.000000 0.208260
0.022342 0.118405 0.243670
0.160862 0.112446 0.237712
0.299381 0.106488 0.231753
0.437901 0.100529 0.225795
0.576420 0.094571 0.219836
0.714940 0.088612 0.213878
0.853459 0.082654 0.207919
0.991979 0.076695 0.201961
1.000000 0.070737 0.196002
0.010084 0.257541 0.231412
0.148604 0.251583 0.225454
0.287123 0.245624 0.219495
0.425643 0.239666 0.213537
0.564162 0.233707 0.207578
0.702682 0.227749 0.201620
0.841201 0.221790 0.195661
0.979721 0.215832 0.189703
1.000000 0.209874 0.183745
0.000000 0.396678 0.219155
0.136346 0.390720 0.213196
0.274866 0.384761 0.207238
0.413385 0.378803 0.201279
0.551905 0.372844 0.195321
0.690424 0.366886 0.189362
0.828944 0.360927 0.183404
0.967463 0.354969 0.177445
1.000000 0.349010 0.171487
0.000000 0.535815 0.206897
0.124088 0.529856 0.200938
0.262608 0.523898 0.194980
0.401127 0.517939 0.189021
0.539647 0.511981 0.183063
0.678166 0.506022 0.177104
0.816686 0.500064 0.171146
0.955206 0.494106 0.165188
1.000000 0.488147 0.159229
0.000000 0.674952 0.194639
0.111831 0.668993 0.188681
0.250350 0.663035 0.182722
0.388870 0.657076 0.176764
0.527389 0.651118 0.170805
0.665909 0.645159 0.164847
0.804428 0.639201 0.158888
0.942948 0.633242 0.152930
1.000000 0.627284 0.146971
0.000000 0.814088 0.182381
0.099573 0.808130 0.176423
0.238092 0.802171 0.170464
0.376612 0.796213 0.164506
0.515132 0.790255 0.158548
0.653651 0.784296 0.152589
0.792171 0.778338 0.146631
0.930690 0.772379 0.140672
1.000000 0.766421 0.134714
0.000000 0.953225 0.170124
0.087315 0.947267 0.164165
0.225835 0.941308 0.158207
0.364354 0.935350 0.152248
0.502874 0.929391 0.146290
0.641393 0.923433 0.140331
0.779913 0.917474 0.134373
0.918432 0.911516 0.128414
1.000000 0.905557 0.122456
0.000000 1.000000 0.157866
0.075057 1.000000 0.151907
0.213577 1.000000 0.145949
0.352097 1.000000 0.139991
0.490616 1.000000 0.134032
0.629136 1.000000 0.128074
0.767655 1.000000 0.122115
0.906175 1.000000 0.116157
1.000000 1.000000 0.110198
0.032280 0.000000 0.401160
0.170799 0.000000 0.395201
0.309319 0.000000 0.389243
0.447838 0.000000 0.383284
0.586358 0.000000 0.377326
0.724877 0.000000 0.371367
0.863397 0.000000 0.365409
1.000000 0.000000 0.359450
1.000000 0.000000 0.353492
0.020022 0.116084 0.388902
0.158541 0.110126 0.382943
0.297061 0.104167 0.376985
0.435581 0.098209 0.371027
0.574100 0.092251 0.365068
0.712620 0.086292 0.359110
0.851139 0.080334 0.353151
0.989659 0.074375 0.347193
1.000000 0.068417 0.341234
0.007764 0.255221 0.376644
0.146284 0.249263 0.370686
0.284803 0.243304 0.364727
0.423323 0.237346 0.358769
0.561842 0.231387 0.352810
0.700362 0.225429 0.346852
0.838881 0.219470 0.340893
0.977401 0.213512 0.334935
1.000000 0.207553 0.328976
0.000000 0.394358 0.364386
0.134026 0.388399 0.358428
0.272546 0.382441 0.352470
0.411065 0.376483 0.346511
0.549585 0.370524 0.340553
0.688104 0.364566 0.334594
0.826624 0.358607 0.328636
0.965143 0.352649 0.322677
1.000000 0.346690 0.316719
0.000000 0.533495 0.352129
0.121768 0.527536 0.346170
0.260288 0.521578 0.340212
0.398807 0.515619 0.334253
0.537327 0.509661 0.328295
0.675846 0.503702 0.322336
0.814366 0.497744 0.316378
0.952885 0.491785 0.310419
1.000000 0.485827 0.304461
0.000000 0.672631 0.339871
0.109511 0.666673 0.333913
0.248030 0.660715 0.327954
0.386550 0.654756 0.321996
0.525069 0.648798 0.316037
0.663589 0.642839 0.310079
0.802108 0.636881 0.304120
0.940628 0.630922 0.298162
1.000000 0.624964 0.292203
0.000000 0.811768 0.327613
0.097253 0.805810 0.321655
0.235772 0.799851 0.315696
0.374292 0.793893 0.309738
0.512811 0.787934 0.303779
0.651331 0.781976 0.297821
0.789850 0.776017 0.291862
0.928370 0.770059 0.285904
1.000000 0.764100 0.279945
0.000000 0.950905 0.315356
0.084995 0.944947 0.309397
0.223515 0.938988 0.303439
0.362034 0.933030 0.297480
0.500554 0.927071 0.291522
0.639073 0.921113 0.285563
0.777593 0.915154 0.279605
0.916112 0.909196 0.273646
1.000000 0.903237 0.267688
0.000000 1.000000 0.303098
0.072737 1.000000 0.297139
0.211257 1.000000 0.291181
0.349776 1.000000 0.285222
0.488296 1.000000 0.279264
0.626815 1.000000 0.273305
0.765335 1.000000 0.267347
0.903854 1.000000 0.261388
1.000000 1.000000 0.255430
0.029960 0.000000 0.546392
0.168479 0.000000 0.540433
0.306999 0.000000 0.534475
0.445518 0.000000 0.528516
0.584038 0.000000 0.522558
0.722557 0.000000 0.516599
0.861077 0.000000 0.510641
0.999596 0.000000 0.504682
1.000000 0.000000 0.498724
0.017702 0.113764 0.534134
0.156221 0.107806 0.528175
0.294741 0.101847 0.522217
0.433260 0.095889 0.516258
0.571780 0.089930 0.510300
0.710299 0.083972 0.504341
0.848819 0.078013 0.498383
0.987338 0.072055 0.492424
1.000000 0.066097 0.486466
0.005444 0.252901 0.521876
0.143964 0.246943 0.515918
0.282483 0.240984 0.509959
0.421003 0.235026 0.504001
0.559522 0.229067 0.498042
0.698042 0.223109 0.492084
0.836561 0.217150 0.486125
0.975081 0.211192 0.480167
1.000000 0.205233 0.474208
0.000000 0.392038 0.509618
0.131706 0.386079 0.503660
0.270225 0.380121 0.497701
0.408745 0.374162 0.491743
0.547264 0.368204 0.485784
0.685784 0.362245 0.479826
0.824304 0.356287 0.473868
0.962823 0.350329 0.467909
1.000000 0.344370 0.461951
0.000000 0.531175 0.497361
0.119448 0.525216 0.491402
0.257968 0.519258 0.485444
0.396487 0.513299 0.479485
0.535007 0.507341 0.473527
0.673526 0.501382 0.467568
0.812046 0.495424 0.461610
0.950565 0.489465 0.455651
1.000000 0.483507 0.449693
0.000000 0.670311 0.485103
0.107190 0.664353 0.479144
0.245710 0.658394 0.473186
0.384229 0.652436 0.467227
0.522749 0.646477 0.461269
0.661269 0.640519 0.455311
0.799788 0.634561 0.449352
0.938308 0.628602 0.443394
1.000000 0.622644 0.437435
0.000000 0.809448 0.472845
0.094933 0.803490 0.466887
0.233452 0.797531 0.460928
0.371972 0.791573 0.454970
0.510491 0.785614 0.449011
0.649011 0.779656 0.443053
0.787530 0.773697 0.437094
0.926050 0.767739 0.431136
1.000000 0.761780 0.425177
0.000000 0.948585 0.460587
0.082675 0.942626 0.454629
0.221194 0.936668 0.448670
0.359714 0.930709 0.442712
0.498234 0.924751 0.436754
0.636753 0.918793 0.430795
0.775273 0.912834 0.424837
0.913792 0.906876 0.418878
1.000000 0.900917 0.412920
0.000000 1.000000 0.448330
0.070417 1.000000 0.442371
0.208937 1.000000 0.436413
0.347456 1.000000 0.430454
0.485976 1.000000 0.424496
0.624495 1.000000 0.418537
0.763015 1.000000 0.412579
0.901534 1.000000 0.406620
1.000000 1.000000 0.400662
0.027639 0.000000 0.691623
0.166159 0.000000 0.685665
0.304678 0.000000 0.679706
0.443198 0.000000 0.673748
0.581718 0.000000 0.667790
0.720237 0.000000 0.661831
0.858757 0.000000 0.655873
0.997276 0.000000 0.649914
1.000000 0.000000 0.643956
0.015382 0.111444 0.679366
0.153901 0.105486 0.673407
0.292421 0.099527 0.667449
0.430940 0.093569 0.661490
0.569460 0.087610 0.655532
0.707979 0.081652 0.649573
0.846499 0.075693 0.643615
0.985018 0.069735 0.637656
1.000000 0.063776 0.631698
0.003124 0.250581 0.667108
0.141643 0.244622 0.661149
0.280163 0.238664 0.655191
0.418683 0.232706 0.649233
0.557202 0.226747 0.643274
0.695722 0.220789 0.637316
0.834241 0.214830 0.631357
0.972761 0.208872 0.625399
1.000000 0.202913 0.619440
0.000000 0.389718 0.654850
0.129386 0.383759 0.648892
0.267905 0.377801 0.642933
0.406425 0.371842 0.636975
0.544944 0.365884 0.631016
0.683464 0.359925 0.625058
0.821983 0.353967 0.619099
0.960503 0.348008 0.613141
1.000000 0.342050 0.607182
0.000000 0.528854 0.642592
0.117128 0.522896 0.636634
0.255648 0.516938 0.630676
0.394167 0.510979 0.624717
0.532687 0.505021 0.618759
0.671206 0.499062 0.612800
0.809726 0.493104 0.606842
0.948245 0.487145 0.600883
1.000000 0.481187 0.594925
0.000000 0.667991 0.630335
0.104870 0.662033 0.624376
0.243390 0.656074 0.618418
0.381909 0.650116 0.612459
0.520429 0.644157 0.606501
0.658948 0.638199 0.600542
0.797468 0.632240 0.594584
0.935987 0.626282 0.588625
1.000000 0.620323 0.582667
0.000000 0.807128 0.618077
0.092613 0.801170 0.612119
0.231132 0.795211 0.606160
0.369652 0.789253 0.600202
0.508171 0.783294 0.594243
0.646691 0.777336 0.588285
0.785210 0.771377 0.582326
0.923730 0.765419 0.576368
1.000000 0.759460 0.570409
0.000000 0.946265 0.605819
0.080355 0.940306 0.599861
0.218874 0.934348 0.593902
0.357394 0.928389 0.587944
0.495913 0.922431 0.581985
0.634433 0.916472 0.576027
0.772952 0.910514 0.570068
0.911472 0.904555 0.564110
1.000000 0.898597 0.558151
0.000000 1.000000 0.593562
0.068097 1.000000 0.587603
0.206617 1.000000 0.581645
0.345136 1.000000 0.575686
0.483656 1.000000 0.569728
0.622175 1.000000 0.563769
0.760695 1.000000 0.557811
0.899214 1.000000 0.551852
1.000000 1.000000 0.545894
0.025319 0.000000 0.836855
0.163839 0.000000 0.830897
0.302358 0.000000 0.824938
0.440878 0.000000 0.818980
0.579397 0.000000 0.813021
0.717917 0.000000 0.807063
0.856436 0.000000 0.801104
0.994956 0.000000 0.795146
1.000000 0.000000 0.789188
0.013062 0.109124 0.824598
0.151581 0.103166 0.818639
0.290101 0.097207 0.812681
0.428620 0.091249 0.806722
0.567140 0.085290 0.800764
0.705659 0.079332 0.794805
0.844179 0.073373 0.788847
0.982698 0.067415 0.782888
1.000000 0.061456 0.776930
0.000804 0.248261 0.812340
0.139323 0.242302 0.806381
0.277843 0.236344 0.800423
0.416362 0.230385 0.794464
0.554882 0.224427 0.788506
0.693401 0.218468 0.782547
0.831921 0.212510 0.776589
0.970441 0.206552 0.770631
1.000000 0.200593 0.764672
0.000000 0.387398 0.800082
0.127066 0.381439 0.794124
0.265585 0.375481 0.788165
0.404105 0.369522 0.782207
0.542624 0.363564 0.776248
0.681144 0.357605 0.770290
0.819663 0.351647 0.764331
0.958183 0.345688 0.758373
1.000000 0.339730 0.752414
0.000000 0.526534 0.787824
0.114808 0.520576 0.781866
0.253327 0.514617 0.775907
0.391847 0.508659 0.769949
0.530366 0.502700 0.763990
0.668886 0.496742 0.758032
0.807406 0.490784 0.752074
0.945925 0.484825 0.746115
1.000000 0.478867 0.740157
0.000000 0.665671 0.775567
0.102550 0.659713 0.769608
0.241070 0.653754 0.763650
0.379589 0.647796 0.757691
0.518109 0.641837 0.751733
0.656628 0.635879 0.745774
0.795148 0.629920 0.739816
0.933667 0.623962 0.733857
1.000000 0.618003 0.727899
0.000000 0.804808 0.763309
0.090292 0.798849 0.757350
0.228812 0.792891 0.751392
0.367331 0.786932 0.745433
0.505851 0.780974 0.739475
0.644371 0.775016 0.733517
0.782890 0.769057 0.727558
0.921410 0.763099 0.721600
1.000000 0.757140 0.715641
0.000000 0.943945 0.751051
0.078035 0.937986 0.745093
0.216554 0.932028 0.739134
0.355074 0.926069 0.733176
0.493593 0.920111 0.727217
0.632113 0.914152 0.721259
0.770632 0.908194 0.715300
0.909152 0.902235 0.709342
1.000000 0.896277 0.703383
0.000000 1.000000 0.738793
0.065777 1.000000 0.732835
0.204296 1.000000 0.726876
0.342816 1.000000 0.720918
0.481336 1.000000 0.714960
0.619855 1.000000 0.709001
0.758375 1.000000 0.703043
0.896894 1.000000 0.697084
1.000000 1.000000 0.691126
0.022999 0.000000 0.982087
0.161519 0.000000 0.976129
0.300038 0.000000 0.970170
0.438558 0.000000 0.964212
0.577077 0.000000 0.958253
0.715597 0.000000 0.952295
0.854116 0.000000 0.946336
0.992636 0.000000 0.940378
1.000000 0.000000 0.934419
0.010741 0.106804 0.969829
0.149261 0.100845 0.963871
0.287780 0.094887 0.957912
0.426300 0.088929 0.951954
0.564820 0.082970 0.945996
0.703339 0.077012 0.940037
0.841859 0.071053 0.934079
0.980378 0.065095 0.928120
1.000000 0.059136 0.922162
0.000000 0.245941 0.957572
0.137003 0.239982 0.951613
0.275523 0.234024 0.945655
0.414042 0.228065 0.939696
0.552562 0.222107 0.933738
0.691081 0.216148 0.927779
0.829601 0.210190 0.921821
0.968120 0.204231 0.915862
1.000000 0.198273 0.909904
0.000000 0.385077 0.945314
0.124745 0.379119 0.939355
0.263265 0.373161 0.933397
0.401785 0.367202 0.927439
0.540304 0.361244 0.921480
0.678824 0.355285 0.915522
0.817343 0.349327 0.909563
0.955863 0.343368 0.903605
1.000000 0.337410 0.897646
0.000000 0.524214 0.933056
0.112488 0.518256 0.927098
0.251007 0.512297 0.921139
0.389527 0.506339 0.915181
0.528046 0.500380 0.909222
0.666566 0.494422 0.903264
0.805085 0.488463 0.897305
0.943605 0.482505 0.891347
1.000000 0.476546 0.885388
0.000000 0.663351 0.920798
0.100230 0.657393 0.914840
0.238750 0.651434 0.908882
0.377269 0.645476 0.902923
0.515789 0.639517 0.896965
0.654308 0.633559 0.891006
0.792828 0.627600 0.885048
0.931347 0.621642 0.879089
1.000000 0.615683 0.873131
0.000000 0.802488 0.908541
0.087972 0.796529 0.902582
0.226492 0.790571 0.896624
0.365011 0.784612 0.890665
0.503531 0.778654 0.884707
0.642050 0.772695 0.878748
0.780570 0.766737 0.872790
0.919089 0.760778 0.866831
1.000000 0.754820 0.860873
0.000000 0.941625 0.896283
0.075715 0.935666 0.890325
0.214234 0.929708 0.884366
0.352754 0.923749 0.878408
0.491273 0.917791 0.872449
0.629793 0.911832 0.866491
0.768312 0.905874 0.860532
0.906832 0.899915 0.854574
1.000000 0.893957 0.848615
0.000000 1.000000 0.884025
0.063457 1.000000 0.878067
0.201976 1.000000 0.872108
0.340496 1.000000 0.866150
0.479015 1.000000 0.860191
0.617535 1.000000 0.854233
0.756054 1.000000 0.848274
0.894574 1.000000 0.842316
1.000000 1.000000 0.836358
0.020679 0.000000 1.000000
0.159199 0.000000 1.000000
0.297718 0.000000 1.000000
0.436238 0.000000 1.000000
0.574757 0.000000 1.000000
0.713277 0.000000 1.000000
0.851796 0.000000 1.000000
0.990316 0.000000 1.000000
1.000000 0.000000 1.000000
0.008421 0.104484 1.000000
0.146941 0.098525 1.000000
0.285460 0.092567 1.000000
0.423980 0.086608 1.000000
0.562499 0.080650 1.000000
0.701019 0.074691 1.000000
0.839538 0.068733 1.000000
0.978058 0.062774 1.000000
1.000000 0.056816 1.000000
0.000000 0.243621 1.000000
0.134683 0.237662 1.000000
0.273203 0.231704 1.000000
0.411722 0.225745 1.000000
0.550242 0.219787 1.000000
0.688761 0.213828 1.000000
0.827281 0.207870 1.000000
0.965800 0.201911 1.000000
1.000000 0.195953 1.000000
0.000000 0.382757 1.000000
0.122425 0.376799 1.000000
0.260945 0.370840 1.000000
0.399464 0.364882 1.000000
0.537984 0.358923 1.000000
0.676503 0.352965 1.000000
0.815023 0.347006 1.000000
0.953543 0.341048 1.000000
1.000000 0.335090 1.000000
0.000000 0.521894 1.000000
0.110168 0.515936 1.000000
0.248687 0.509977 1.000000
0.387207 0.504019 1.000000
0.525726 0.498060 1.000000
0.664246 0.492102 1.000000
0.802765 0.486143 1.000000
0.941285 0.480185 1.000000
1.000000 0.474226 1.000000
0.000000 0.661031 1.000000
0.097910 0.655072 1.000000
0.236429 0.649114 1.000000
0.374949 0.643155 1.000000
0.513468 0.637197 1.000000
0.651988 0.631238 1.000000
0.790508 0.625280 1.000000
0.929027 0.619322 1.000000
1.000000 0.613363 1.000000
0.000000 0.800168 1.000000
0.085652 0.794209 1.000000
0.224172 0.788251 1.000000
0.362691 0.782292 1.000000
0.501211 0.776334 1.000000
0.639730 0.770375 1.000000
0.778250 0.764417 1.000000
0.916769 0.758458 1.000000
1.000000 0.752500 1.000000
0.000000 0.939304 1.000000
0.073394 0.933346 1.000000
0.211914 0.927387 1.000000
0.350433 0.921429 1.000000
0.488953 0.915470 1.000000
0.627473 0.909512 1.000000
0.765992 0.903554 1.000000
0.904512 0.897595 0.999806
1.000000 0.891637 0.993847
0.000000 1.000000 1.000000
0.061137 1.000000 1.000000
0.199656 1.000000 1.000000
0.338176 1.000000 1.000000
0.476695 1.000000 1.000000
0.615215 1.000000 0.999465
0.753734 1.000000 0.993506
0.892254 1.000000 0.987548
1.000000 1.000000 0.981589
