shared/src/main/assets/luts/dalur_daylight_200.cube
# Resampled 13pt -> 17pt (trilinear) from an MIT-licensed G'MIC film LUT.
# Source: github.com/YahiaAngelo/Film-Luts (MIT). See THIRD_PARTY_NOTICES.
TITLE "DALUR daylight 200"
# LUT size
LUT_3D_SIZE 17
# Data domain
DOMAIN_MIN 0.0 0.0 0.0
DOMAIN_MAX 1.0 1.0 1.0
# LUT data points
0.017169682 0.016876414 0.013846708
0.037184434 0.014554409 0.010390087
0.069503836 0.013574862 0.008850696
0.114339801 0.013901019 0.007851605
0.171904236 0.015496123 0.006015882
0.241546631 0.014451614 0.002934168
0.316307366 0.012603850 0.001381496
0.397366777 0.011754990 0.001005711
0.485905200 0.013707194 0.001454656
0.572604634 0.018285919 0.001424172
0.648968548 0.016872885 0.001288545
0.715792924 0.013386132 0.000882811
0.773873746 0.011743703 0.000042007
0.824647292 0.010317500 0.000010502
0.874778688 0.007940734 0.000000000
0.923234195 0.005002875 0.000000000
0.968980074 0.001893391 0.000000000
0.029867216 0.048875341 0.023722532
0.047535870 0.044454101 0.019517452
0.079320237 0.043005229 0.017167539
0.123472159 0.042135294 0.015522158
0.178243481 0.039450862 0.013430677
0.248197095 0.035743103 0.008820075
0.324546095 0.032472846 0.004697792
0.406134102 0.029323802 0.001999067
0.491804741 0.025979681 0.001659135
0.574227845 0.023981706 0.001125456
0.649077021 0.019500549 0.000822535
0.715839818 0.014846471 0.000525755
0.774003789 0.012329730 0.000010502
0.825971421 0.010688428 0.000002625
0.876356184 0.008058114 0.000000000
0.924567308 0.004886737 0.000000000
0.970014021 0.001622245 0.000000000
0.046142653 0.095812794 0.035952332
0.063394745 0.091127986 0.031263885
0.093207308 0.088598849 0.028414472
0.135540059 0.086635503 0.026762379
0.190352716 0.083648067 0.025665889
0.261014612 0.077950920 0.019026195
0.337173007 0.071632367 0.011770671
0.417764138 0.064715330 0.006012501
0.501724243 0.057222733 0.003864872
0.580893733 0.048766189 0.002143248
0.653829068 0.040292071 0.001040130
0.719674170 0.032578008 0.000393935
0.777572960 0.026401632 0.000043084
0.830128208 0.020399727 0.000010771
0.880705401 0.014191788 0.000000000
0.928577103 0.008423256 0.000000000
0.973015875 0.003739570 0.000000000
0.062997017 0.157393727 0.051476150
0.080363073 0.153123648 0.046594137
0.108040922 0.148979515 0.042923394
0.148851513 0.145343948 0.040397454
0.205615792 0.142599566 0.038949848
0.277121034 0.136293430 0.031186727
0.352694351 0.127689063 0.022022682
0.432010802 0.117710982 0.013831246
0.514745444 0.107283706 0.008985949
0.591941219 0.095087897 0.005362371
0.663250744 0.082976806 0.002790318
0.727939904 0.071249970 0.001336857
0.785274580 0.060206923 0.001069054
0.837572794 0.048518695 0.000684549
0.887987129 0.036528333 0.000355017
0.934956107 0.024925829 0.000115240
0.976918250 0.014401174 0.000000000
0.077431336 0.233323097 0.071234025
0.094042866 0.228988670 0.066472959
0.120696951 0.222771019 0.061026203
0.161714535 0.216202930 0.055252572
0.221416563 0.210817188 0.049510881
0.293638214 0.205988999 0.042935868
0.369616374 0.198249586 0.034876377
0.448628008 0.188092165 0.026240531
0.529950082 0.176009953 0.017936451
0.606709227 0.165395357 0.011667648
0.677368104 0.151284114 0.006922090
0.741280943 0.135531580 0.004204028
0.797801971 0.119993113 0.004017714
0.848760322 0.104112631 0.002673572
0.898362160 0.085254326 0.001420070
0.943396851 0.063707853 0.000460961
0.980653763 0.039762862 0.000000000
0.050778711 0.317093089 0.089523930
0.066151203 0.314073514 0.086287763
0.101677912 0.308537267 0.081859338
0.157445137 0.301781641 0.075871930
0.233539175 0.295103930 0.067958813
0.310064289 0.291055468 0.061160185
0.388734110 0.284495676 0.053994115
0.468833659 0.276251066 0.045846554
0.549647957 0.267148152 0.036103454
0.624754056 0.257941850 0.027093933
0.694133230 0.243767988 0.019545529
0.757417828 0.227540652 0.013824457
0.814240202 0.212173926 0.010296930
0.864200234 0.189913788 0.007220262
0.913153961 0.165677201 0.004773671
0.956377659 0.139155329 0.002906897
0.989147604 0.110039337 0.001569681
0.028723220 0.403691366 0.105985995
0.047625150 0.401425269 0.103880685
0.093021357 0.396804653 0.100256722
0.160578441 0.390559271 0.094630751
0.245963000 0.383418873 0.086519413
0.327685198 0.379094861 0.079319604
0.409039997 0.373045348 0.072352223
0.489665534 0.366178777 0.064527066
0.569199950 0.359403595 0.054753928
0.642171904 0.351644143 0.045445432
0.710083917 0.338964276 0.036993363
0.772910692 0.324169999 0.029332964
0.830626935 0.310067318 0.022399475
0.880857758 0.287091974 0.017347033
0.928543001 0.262710936 0.013751744
0.967906684 0.236858979 0.010936860
0.993172824 0.209470876 0.008225632
0.015634548 0.489363961 0.119838495
0.039785648 0.487869646 0.118391257
0.094407178 0.484636668 0.115475763
0.170998766 0.479780639 0.110764582
0.261060044 0.473417170 0.103930285
0.347147632 0.468672605 0.096662141
0.430547889 0.462955263 0.089664253
0.511260586 0.457079764 0.082056650
0.589285493 0.451860733 0.072959360
0.660168834 0.445229715 0.064379102
0.726224102 0.434886824 0.056148094
0.787962459 0.422815539 0.047859356
0.845895067 0.410999335 0.039105912
0.897167549 0.391010536 0.032210824
0.943370968 0.370287735 0.027128618
0.978103902 0.348526202 0.022818375
0.994964927 0.325421207 0.018239182
0.015882380 0.570356905 0.130299702
0.043953637 0.570232362 0.128959011
0.105515264 0.569096804 0.126773864
0.188590433 0.566690564 0.123508969
0.281202316 0.562753975 0.118929036
0.369098283 0.558354124 0.112435816
0.453271642 0.553282082 0.105643757
0.533755764 0.548158497 0.098209888
0.610584021 0.543604016 0.089791238
0.679950908 0.537426040 0.081551900
0.743557721 0.529549479 0.073892221
0.802776054 0.520873189 0.066533441
0.858977497 0.512296021 0.059196800
0.911564261 0.497032821 0.050968576
0.956479549 0.482339799 0.043678619
0.987089291 0.465864398 0.036818967
0.996759415 0.445254058 0.029881660
0.058689419 0.638435349 0.139410987
0.100739569 0.636462260 0.138921923
0.163529702 0.635610446 0.136319522
0.239287274 0.635014396 0.132221543
0.320239745 0.633808598 0.127245745
0.400626147 0.631291423 0.122495378
0.480686747 0.627017595 0.116826629
0.558282163 0.621550485 0.110238774
0.631273016 0.615453467 0.102731086
0.696384579 0.609722748 0.096415102
0.757101223 0.605561920 0.090689722
0.814388186 0.600986246 0.084604462
0.869210705 0.594010994 0.077208834
0.920279942 0.579907514 0.069107910
0.961348765 0.566837385 0.061774790
0.988531649 0.554356134 0.054859452
0.997943074 0.542019285 0.048011873
0.135516744 0.699513197 0.154595874
0.178719479 0.696625039 0.154216968
0.232732404 0.695138663 0.151938889
0.295630286 0.694790691 0.147731287
0.365487888 0.695317745 0.141563810
0.439011250 0.694104023 0.136284536
0.513391823 0.691406995 0.129590668
0.585550286 0.687322304 0.122306979
0.652407318 0.681945592 0.115258243
0.713606812 0.677069113 0.109417671
0.771451861 0.674059942 0.104215546
0.826618277 0.670846663 0.098575910
0.879781872 0.665357858 0.091422807
0.929153316 0.654133260 0.084854365
0.966193795 0.643386647 0.078259246
0.989764109 0.633963488 0.071836181
0.998725057 0.626709253 0.065783901
0.228665620 0.754870385 0.175396431
0.263531649 0.752088934 0.174434608
0.305943888 0.749951422 0.172233790
0.356442163 0.749260567 0.168012705
0.415566303 0.750819087 0.160990078
0.482214794 0.749966022 0.155018774
0.549253825 0.748630680 0.147454450
0.613954771 0.746380564 0.139532600
0.673589006 0.742783174 0.132488718
0.731240854 0.738916636 0.125425262
0.786247358 0.735847928 0.118817479
0.839107748 0.732698258 0.112045707
0.890321255 0.728588834 0.104490282
0.938325141 0.720986046 0.098473873
0.971919976 0.712973624 0.091885600
0.991967417 0.705791142 0.085511123
0.999329120 0.700678170 0.080136102
0.320437312 0.805786848 0.201354727
0.340814367 0.804222181 0.199165307
0.375984669 0.802318692 0.195806049
0.420545600 0.801665142 0.191040296
0.469094545 0.803850293 0.184631392
0.528197981 0.802051514 0.179913577
0.586139709 0.800869048 0.173936553
0.641890258 0.799631879 0.167033732
0.694420159 0.797668993 0.159538522
0.748909950 0.794716820 0.149303526
0.801125437 0.791730255 0.138843313
0.851498023 0.788784847 0.128611779
0.900459111 0.785956144 0.119062819
0.947936177 0.781741858 0.110232366
0.979432642 0.776584357 0.101407465
0.996322319 0.770943776 0.093646243
0.999979019 0.765280247 0.088006832
0.404312201 0.852556840 0.228675406
0.417773666 0.853518512 0.225265497
0.445120897 0.851942867 0.221595706
0.481568582 0.849999968 0.217388820
0.522331409 0.849859878 0.212367624
0.569946358 0.849883225 0.208401858
0.618638694 0.848941341 0.203848358
0.667850409 0.847768288 0.198584448
0.717023492 0.847098127 0.192487448
0.767076105 0.845859583 0.183403966
0.816203788 0.842711695 0.174005101
0.864128612 0.838592865 0.164614323
0.910572648 0.834441498 0.155555105
0.956291962 0.832214694 0.144447268
0.984047696 0.828776076 0.132394073
0.997392621 0.824673843 0.119871552
0.999879509 0.820456192 0.107355740
0.478943005 0.894449562 0.254036054
0.487715762 0.895612009 0.249797650
0.508430786 0.894324273 0.246175230
0.537966426 0.892308831 0.242530504
0.573201030 0.891288161 0.238225184
0.611372575 0.891791143 0.234317211
0.652961522 0.891425818 0.230852827
0.697175100 0.890956953 0.227028487
0.743220538 0.891149312 0.222040646
0.788771689 0.890887037 0.214542720
0.833718181 0.888166875 0.207150284
0.878271423 0.884252265 0.199589901
0.922642827 0.880406648 0.191588134
0.965225399 0.879038408 0.180608751
0.988368317 0.876446754 0.168439705
0.997916579 0.873053670 0.154835346
0.999715179 0.869281143 0.139550027
0.545533225 0.931733698 0.276577033
0.552385777 0.932213176 0.271979129
0.568113752 0.931316137 0.268626813
0.591602974 0.929898873 0.265535248
0.621739268 0.928817675 0.261719599
0.653337467 0.929088119 0.257808824
0.689272314 0.928858958 0.255056595
0.728577342 0.928755615 0.252273384
0.770286083 0.929403514 0.248269662
0.812173270 0.929878779 0.242224078
0.853353970 0.927812420 0.236515041
0.894608852 0.924697939 0.230559564
0.936718583 0.922028840 0.223774657
0.973933507 0.920286957 0.214057723
0.991837010 0.917837143 0.203078536
0.997896370 0.915199541 0.190418636
0.999578863 0.912894294 0.175659563
0.605286360 0.964677930 0.295438707
0.613528833 0.965032518 0.291027300
0.626369208 0.964771688 0.288032651
0.644342065 0.964077234 0.285472952
0.667981982 0.963130951 0.282366395
0.696701869 0.963087007 0.279025882
0.727735192 0.961777240 0.276566297
0.760770142 0.960722014 0.274226673
0.795494914 0.961441696 0.271246046
0.835457414 0.962914407 0.265952326
0.874796510 0.961364955 0.260335550
0.913823292 0.958864778 0.254544366
0.952848852 0.957485318 0.248727426
0.981613308 0.954034299 0.240135092
0.993896276 0.951187998 0.229844742
0.997334167 0.950227737 0.218502432
0.999563396 0.952434838 0.206754223
0.014472535 0.017386327 0.030177887
0.033294914 0.014450994 0.025432738
0.064091246 0.012185908 0.022498595
0.107596608 0.011311585 0.020224205
0.164546076 0.012548540 0.017458314
0.233204192 0.011614080 0.012447698
0.308085524 0.010103018 0.007596294
0.389669681 0.009161767 0.004360687
0.478436276 0.009936736 0.004197457
0.564106345 0.011444684 0.003525927
0.639663383 0.011204413 0.003321823
0.706521478 0.010194616 0.003184908
0.766094714 0.009393984 0.002714942
0.819063481 0.007886284 0.002819084
0.870755911 0.005860484 0.002323756
0.920972019 0.003496751 0.001505358
0.969511822 0.000975250 0.000640286
0.023946790 0.045496762 0.041005312
0.043718186 0.042371095 0.037477888
0.074770064 0.039828115 0.034197187
0.117454133 0.037331328 0.030769197
0.172122104 0.034344241 0.026799906
0.241365805 0.031292736 0.020616884
0.317767474 0.028709635 0.014276535
0.399601563 0.025939488 0.009250144
0.485142525 0.022326845 0.007008993
0.567936730 0.019179582 0.004771406
0.642352577 0.016111517 0.003623156
0.708846078 0.013520674 0.002808477
0.767873242 0.011805074 0.001571602
0.820946632 0.010085640 0.002237726
0.872881148 0.007164882 0.002059684
0.922694456 0.003852316 0.001442102
0.969404221 0.000957455 0.000789606
0.039666475 0.089757388 0.054661368
0.058734589 0.086665098 0.051373194
0.088315578 0.083343265 0.047742651
0.129631891 0.079722888 0.043801056
0.183905981 0.075734966 0.039579722
0.254262643 0.071339565 0.032032886
0.330896046 0.066225897 0.023836219
0.412048485 0.060231072 0.016789719
0.495962255 0.053192197 0.012693388
0.576240720 0.044991613 0.008204701
0.648774121 0.037679154 0.005259297
0.713917239 0.031070050 0.003239096
0.772024855 0.024979529 0.001526019
0.825355010 0.019426343 0.001522262
0.877200603 0.013200789 0.001310354
0.926508516 0.007169387 0.000966111
0.972225629 0.002198657 0.000565349
0.057374250 0.149946359 0.071592623
0.075065024 0.146841716 0.068141972
0.102774659 0.142333319 0.064075049
0.142980655 0.137591501 0.059628550
0.198160511 0.133786593 0.055039171
0.270186201 0.129137555 0.046668827
0.346648929 0.121694975 0.037265247
0.426637356 0.112475551 0.028642745
0.509240143 0.102495981 0.022615635
0.587816216 0.091161313 0.015314709
0.658879895 0.079861406 0.009845823
0.722743166 0.068499515 0.006082338
0.779718015 0.056978897 0.003897615
0.832798588 0.046184584 0.002371754
0.884124402 0.034073920 0.001365914
0.932414728 0.021932204 0.000706976
0.976388838 0.011044734 0.000221822
0.072812773 0.225841824 0.092245646
0.089430392 0.222409658 0.088807541
0.116194178 0.216400236 0.084134443
0.156351193 0.210042401 0.078560450
0.213148497 0.205564998 0.072419662
0.287427973 0.202069691 0.064497825
0.364203811 0.194160039 0.055553519
0.442995084 0.183111962 0.046472550
0.523320869 0.170201384 0.038140726
0.601461116 0.159969220 0.027590326
0.672621779 0.146612354 0.018998311
0.736332066 0.131465837 0.012943775
0.792121187 0.115864724 0.010005812
0.843787339 0.100636555 0.006485265
0.894062668 0.079889992 0.003516510
0.940413620 0.056625006 0.001294285
0.980306640 0.033841567 0.000013329
0.048105649 0.311111850 0.111587023
0.063907739 0.308716852 0.108379577
0.097241535 0.304131772 0.104063273
0.150044740 0.298347187 0.098551023
0.224255055 0.292353671 0.091755740
0.303497754 0.288557988 0.084503344
0.383214828 0.281594226 0.077055033
0.463018600 0.272290405 0.068947526
0.542521395 0.261474548 0.059717540
0.619579430 0.252359994 0.047445756
0.689945072 0.239228754 0.036920887
0.753082657 0.223247395 0.028246596
0.808456521 0.205582481 0.021526548
0.859686311 0.185258798 0.015134243
0.909355171 0.161600738 0.009780293
0.953499931 0.134930075 0.005721418
0.988157421 0.105568585 0.003214340
0.023633807 0.399095714 0.128708812
0.043108301 0.397489205 0.125516426
0.086056027 0.393654538 0.121516593
0.150982788 0.388265837 0.116360861
0.236394387 0.381997224 0.109700778
0.321244334 0.378347134 0.102992859
0.403699132 0.372476110 0.096556576
0.484067666 0.364714459 0.089145768
0.562658824 0.355392486 0.079514272
0.637793377 0.347549584 0.067693696
0.706811801 0.335930452 0.057266056
0.769371612 0.321351528 0.047876368
0.825130329 0.304629251 0.039169647
0.876568364 0.284378109 0.030863561
0.925276808 0.260740600 0.023709102
0.965783576 0.233952351 0.017765465
0.992616579 0.204248995 0.013091845
0.008526681 0.486160900 0.143301540
0.032266108 0.485418996 0.140199781
0.084656474 0.482505695 0.136672196
0.159780985 0.478021158 0.132241818
0.251722844 0.472565547 0.126431679
0.340863721 0.469161281 0.119917344
0.425320473 0.464144850 0.113950229
0.506022376 0.457676648 0.106956876
0.583898701 0.449917071 0.097363824
0.656174276 0.443072251 0.087448893
0.722948203 0.433474784 0.078259309
0.784418973 0.421659697 0.069357095
0.840785079 0.408162016 0.060304274
0.892602535 0.390316227 0.051156220
0.940291021 0.369545791 0.043144964
0.976850271 0.345905586 0.035836173
0.995280020 0.319450486 0.028795515
0.011913704 0.568674892 0.155055732
0.036615189 0.569198504 0.152411336
0.095061698 0.568222404 0.149707874
0.177054979 0.565835956 0.146445744
0.272396781 0.562128529 0.142125344
0.362551922 0.558724582 0.135227768
0.447742604 0.553939603 0.129128072
0.528762821 0.548469499 0.122270451
0.606406569 0.543010175 0.113099098
0.674793445 0.536462255 0.105826093
0.738080516 0.528619088 0.098126133
0.797444783 0.520053361 0.090212780
0.854063243 0.511337757 0.082299594
0.905957863 0.495394886 0.073495219
0.952861249 0.480252527 0.065929901
0.986285735 0.463003531 0.058343287
0.997743651 0.440740749 0.049475024
0.045983213 0.638408292 0.168131238
0.087615616 0.636973774 0.166721218
0.149394338 0.635871677 0.164999939
0.225418180 0.634827357 0.162418224
0.309785942 0.633566171 0.158426901
0.394584921 0.630996576 0.151748320
0.476002277 0.627052424 0.144021429
0.553357256 0.622035437 0.135992226
0.625969104 0.616247334 0.128406708
0.690358801 0.610497706 0.122531036
0.751108380 0.605490187 0.115792186
0.808815810 0.600089589 0.108301390
0.864079058 0.593160722 0.100169881
0.914978000 0.580235990 0.091893934
0.958583357 0.567580581 0.084561990
0.988459892 0.554686626 0.077618723
0.998172369 0.541046258 0.070508805
0.116780832 0.700019978 0.187024295
0.160819794 0.697559850 0.186270931
0.216458781 0.696058515 0.184993427
0.282021517 0.695341779 0.182532430
0.355831724 0.695235446 0.178228585
0.434062001 0.693458477 0.171199496
0.509599615 0.690789193 0.162355117
0.580886595 0.687233970 0.153468620
0.646364972 0.682799183 0.146313180
0.707496505 0.678391051 0.139795112
0.765624404 0.674650744 0.132599454
0.821190530 0.670417957 0.124754471
0.874636747 0.664532386 0.116288427
0.924471995 0.655299077 0.108729873
0.964782462 0.645763028 0.101557344
0.990966382 0.635874171 0.094881185
0.998421989 0.625582434 0.088811737
0.208223256 0.755267452 0.210012476
0.244577300 0.752893832 0.209137460
0.289986763 0.751115272 0.207682263
0.344218539 0.750277203 0.204982663
0.407039521 0.750725053 0.200374439
0.477503890 0.749192844 0.193453028
0.545465783 0.747506902 0.184921554
0.609272794 0.745467076 0.176267838
0.667272516 0.742873218 0.168979698
0.725412886 0.739707046 0.161074713
0.780858018 0.736380827 0.152743988
0.833971214 0.732503432 0.144139245
0.885115780 0.727683734 0.135412208
0.933744260 0.721933019 0.127652991
0.970779987 0.715240270 0.119669911
0.993394140 0.707483099 0.112055281
0.998757899 0.698539119 0.105401414
0.304227181 0.805908218 0.235373352
0.327237712 0.804912817 0.233397787
0.363710020 0.803374298 0.231060367
0.409362795 0.802531607 0.227963228
0.459914729 0.803623691 0.223708507
0.521431316 0.801282234 0.218380648
0.580531947 0.799562544 0.212513162
0.636437807 0.798136737 0.205958083
0.688370079 0.796676934 0.198567446
0.743314270 0.794010449 0.189826231
0.796038650 0.790960506 0.180421839
0.846560132 0.787810981 0.171022939
0.894895628 0.784845755 0.162298201
0.942099210 0.781486690 0.152313246
0.975897357 0.776452705 0.141653639
0.995332103 0.770430345 0.131065621
0.999445483 0.764106154 0.121295432
0.389357712 0.853826161 0.260942389
0.405505975 0.854045776 0.258556355
0.435297184 0.852227438 0.256212313
0.473302851 0.850053330 0.253555480
0.514094491 0.849205632 0.250231072
0.561955582 0.849073444 0.246742620
0.611588709 0.848256053 0.241869766
0.661633763 0.847332435 0.235903038
0.710730638 0.846881561 0.229132961
0.760735894 0.845600052 0.221377323
0.809898255 0.842854701 0.213693138
0.857848141 0.839504902 0.206372647
0.904215969 0.836410049 0.199708092
0.950408274 0.833704237 0.188425697
0.980524447 0.829706278 0.176431854
0.996293625 0.825227604 0.164096020
0.999444947 0.821079649 0.151787653
0.465760563 0.896426104 0.284676526
0.476929069 0.896811465 0.282176570
0.500639210 0.894939650 0.280035811
0.531970130 0.892390823 0.277784774
0.566000976 0.890745148 0.274953986
0.603531539 0.891168166 0.271743643
0.645377140 0.891065575 0.267890502
0.690135280 0.890912032 0.263104865
0.736403458 0.891182192 0.257097034
0.782019468 0.890810801 0.250286617
0.827207834 0.888425350 0.244193980
0.871986063 0.885159176 0.238504272
0.916371666 0.882145613 0.232902646
0.959346091 0.879785929 0.221733380
0.984699178 0.876793362 0.210296071
0.996623464 0.873508779 0.198439164
0.999311484 0.870273046 0.186011103
0.534202434 0.934029501 0.305797655
0.542545951 0.934068041 0.303632401
0.561170273 0.932577474 0.301713618
0.586501725 0.930474827 0.299639320
0.614966635 0.928677127 0.297007518
0.645891842 0.928861481 0.293612441
0.681380088 0.928918106 0.290871086
0.720684604 0.929104403 0.287564265
0.763058625 0.929677770 0.282472789
0.805426254 0.929928056 0.276300766
0.847134687 0.927736642 0.271085086
0.888588281 0.924469625 0.266332388
0.930191394 0.921493102 0.261549307
0.967851916 0.918934789 0.251842113
0.988061717 0.916601108 0.241512440
0.996575242 0.914692905 0.230644844
0.999146938 0.913411021 0.219323881
0.595450029 0.966957808 0.323527671
0.603395581 0.966673661 0.322297817
0.618324548 0.966207452 0.320428494
0.638034727 0.965236083 0.318107327
0.660323918 0.963436455 0.315521941
0.688769147 0.963448469 0.312577741
0.719080396 0.962740645 0.311107237
0.752023984 0.962138422 0.309281938
0.788366228 0.962467238 0.305273354
0.829217512 0.963237178 0.299166422
0.868846118 0.960852765 0.293527182
0.907269180 0.957132071 0.288771569
0.944503829 0.953893170 0.285315517
0.974865004 0.950353839 0.278357713
0.990252227 0.948016666 0.268347109
0.996402580 0.948199015 0.257262850
0.999053150 0.952218249 0.247084085
0.010752764 0.015390284 0.051873583
0.028728156 0.012722453 0.047993105
0.058518820 0.010613460 0.044592188
0.100555534 0.009468684 0.040844531
0.155269071 0.009693505 0.035923835
0.223168148 0.008499359 0.029703208
0.298959833 0.007386211 0.022440495
0.381489333 0.006560552 0.015982790
0.469601855 0.006228869 0.012177187
0.554537948 0.006003023 0.008811182
0.630529165 0.006259264 0.006899565
0.698417105 0.006460220 0.005548408
0.759043366 0.006068518 0.003863787
0.813229486 0.004799065 0.004628976
0.866035402 0.003246203 0.004470833
0.917403996 0.001671019 0.003539581
0.967278153 0.000334601 0.001985445
0.018943923 0.041739873 0.065739454
0.038377161 0.039161634 0.062381866
0.068891190 0.036504801 0.058793125
0.110816831 0.033646414 0.054551678
0.164484907 0.030463516 0.049235971
0.233148325 0.027634354 0.042069154
0.309363683 0.025041335 0.033503952
0.391147258 0.022190977 0.025356228
0.476515327 0.018589801 0.019441840
0.559886058 0.014388706 0.013172032
0.634897478 0.011853506 0.009639154
0.702024380 0.010286602 0.007172487
0.761741556 0.008990396 0.004101314
0.815628393 0.007202888 0.004228015
0.868382424 0.004702528 0.004387770
0.918837296 0.002192892 0.004098281
0.965826653 0.000377556 0.002877248
0.033612424 0.085493555 0.081920826
0.052196619 0.082754979 0.078599173
0.081525730 0.078859920 0.074489936
0.122684126 0.074457988 0.069668221
0.176756177 0.070198789 0.064209132
0.247063802 0.066341607 0.056684031
0.323386077 0.061129719 0.046860161
0.404177472 0.054984125 0.037128083
0.487892456 0.048325824 0.029878358
0.569301540 0.040081098 0.021099393
0.642289869 0.033395674 0.015145812
0.707747590 0.027471021 0.010685491
0.766564846 0.021508609 0.006386304
0.820298634 0.016185351 0.004791492
0.872579873 0.010639976 0.004146649
0.922239661 0.005508802 0.003743209
0.968109101 0.001428148 0.002872605
0.050850033 0.145374596 0.100255042
0.067748871 0.142518976 0.096942101
0.095416908 0.137272811 0.092453480
0.135749443 0.131453344 0.087159251
0.190641774 0.126877819 0.081429486
0.263151823 0.122453333 0.073827246
0.339722650 0.114939386 0.063383141
0.419530717 0.105742083 0.052737786
0.501752485 0.096267531 0.044531795
0.581481122 0.085323613 0.033470130
0.652699299 0.074571199 0.024812070
0.716605388 0.063567657 0.017987383
0.774397761 0.051870355 0.012425840
0.827676719 0.041278058 0.008398187
0.879194550 0.029952413 0.005781349
0.927902633 0.018882505 0.004063206
0.972752348 0.009057417 0.002731634
0.066748518 0.220106259 0.120579448
0.082596258 0.217470117 0.117707721
0.109559193 0.211337466 0.113454614
0.149604809 0.204182422 0.107989861
0.204700589 0.198479101 0.101483196
0.279649634 0.193801748 0.093778207
0.357069038 0.185758352 0.083946913
0.436157733 0.175266935 0.073624763
0.516114652 0.163245514 0.064447207
0.595121533 0.152359663 0.051161106
0.666118726 0.139065512 0.040030458
0.729616426 0.124130691 0.030978132
