shared/src/main/assets/luts/dalur_skin_vivid_160.cube
# Resampled 13pt -> 17pt (trilinear) from an MIT-licensed G'MIC film LUT.
# Source: github.com/YahiaAngelo/Film-Luts (MIT). See THIRD_PARTY_NOTICES.
TITLE "DALUR skin vivid 160"
# LUT size
LUT_3D_SIZE 17
# Data domain
DOMAIN_MIN 0.0 0.0 0.0
DOMAIN_MAX 1.0 1.0 1.0
# LUT data points
0.025083624 0.034956090 0.037637301
0.043513943 0.035486737 0.036388333
0.076735590 0.034631317 0.036254799
0.123872485 0.033562301 0.036247891
0.184048548 0.033452157 0.035378803
0.263690744 0.038412699 0.027256124
0.349025130 0.038408533 0.020075877
0.438549548 0.034008415 0.015329690
0.530761838 0.025781101 0.014509194
0.622174785 0.018247151 0.011340594
0.707855374 0.016460403 0.006828540
0.783664435 0.022028372 0.002994889
0.845462799 0.036558576 0.001861497
0.896565631 0.067497410 0.000906847
0.945039839 0.101063147 0.000727418
0.980761394 0.134127839 0.000670119
0.993606269 0.163563535 0.000081859
0.019581709 0.051894838 0.038661893
0.038380350 0.056418666 0.038617990
0.074668227 0.060104912 0.036147905
0.125584158 0.063534328 0.032049387
0.188266959 0.067287668 0.027120186
0.268796303 0.072129427 0.021010649
0.353777055 0.074127994 0.016866718
0.442493714 0.072290704 0.014659005
0.534230784 0.065624898 0.014358120
0.625628240 0.064040468 0.011090605
0.709441029 0.067497619 0.006489789
0.782074623 0.076186237 0.003183279
0.839934498 0.090296209 0.003798679
0.893745188 0.113910496 0.003250353
0.944310948 0.139957754 0.002237651
0.981853388 0.167369456 0.001090661
0.996594116 0.195077077 0.000139472
0.012462833 0.086541642 0.044911277
0.028014052 0.090694447 0.044264219
0.064878906 0.096778544 0.040170382
0.119646934 0.104164559 0.032631342
0.188907675 0.112223122 0.021648676
0.273887103 0.116944780 0.015210864
0.361473151 0.120157713 0.012103750
0.450790431 0.120951702 0.011334195
0.540963560 0.118416525 0.011909058
0.630024299 0.120748572 0.010536945
0.710355580 0.125765758 0.006743932
0.780269779 0.134146672 0.003921905
0.838079274 0.146569904 0.005462751
0.891967624 0.163723980 0.005099844
0.942837313 0.183951050 0.003532683
0.981055766 0.206172183 0.001736779
0.996990412 0.229308449 0.000687648
0.005960412 0.135739723 0.056606518
0.015865467 0.138070775 0.055348615
0.048463205 0.144808955 0.050233060
0.103854470 0.154768423 0.039746652
0.182140108 0.166763343 0.022376195
0.275459499 0.173919281 0.012286018
0.368432168 0.179197500 0.008047467
0.459902056 0.181958971 0.007502164
0.548713103 0.181564666 0.008491733
0.634098791 0.183946121 0.009088015
0.710864134 0.187770050 0.006673278
0.778803047 0.194233413 0.004551864
0.837709442 0.204533171 0.006028115
0.890706763 0.216728359 0.005810636
0.941250622 0.231739102 0.004217155
0.979533311 0.248210691 0.002412296
0.995747119 0.264788419 0.001560679
0.002307862 0.196332306 0.073968686
0.005385010 0.198304344 0.073892774
0.026516700 0.204352885 0.068246767
0.076000423 0.214661349 0.055148214
0.164133668 0.229413152 0.032714665
0.270009845 0.244113456 0.014665357
0.370972857 0.253947161 0.006958359
0.466290943 0.257280074 0.005309815
0.555232346 0.252478004 0.005435869
0.636587545 0.249207776 0.006152213
0.711231798 0.250015728 0.005360136
0.778227568 0.254770197 0.004414252
0.836637318 0.263339520 0.004669175
0.889436424 0.272714131 0.004738041
0.940182567 0.282017976 0.003895711
0.978450805 0.291159652 0.002921033
0.993816197 0.300047755 0.002592857
0.002273990 0.272663124 0.100348854
0.005184147 0.276495618 0.100256694
0.015092418 0.282117244 0.095590499
0.050253220 0.290810785 0.083450974
0.128920969 0.303859025 0.060938824
0.245789149 0.318898269 0.030261525
0.358638585 0.332519026 0.012652025
0.462859923 0.340154180 0.004902641
0.553843811 0.337236613 0.003805691
0.634837884 0.328310068 0.003846885
0.710002318 0.321205920 0.003516268
0.776987974 0.318125896 0.003540838
0.833445713 0.321271725 0.004647588
0.885884833 0.327914037 0.005147846
0.935822435 0.334356759 0.004514752
0.974212110 0.340202598 0.003559852
0.992007449 0.345054261 0.003094692
0.001954262 0.352001488 0.127845965
0.004409356 0.354949437 0.128158549
0.008057527 0.359495103 0.125662113
0.031552761 0.366364487 0.117233799
0.093549047 0.376283586 0.099750750
0.216323809 0.389335182 0.066435581
0.333404005 0.402699858 0.036997676
0.443623371 0.413157079 0.014920669
0.545815647 0.417486310 0.003688191
0.629405595 0.408837751 0.002550952
0.704221904 0.398022354 0.002269640
0.770256139 0.388543181 0.002856615
0.827499866 0.383903295 0.004324236
0.880631812 0.384000614 0.004777501
0.930871457 0.386269554 0.004393297
0.970374487 0.389525451 0.003660759
0.991296589 0.392583638 0.003069021
0.001424756 0.429901272 0.157235049
0.003531355 0.431259699 0.159143334
0.004659337 0.434510719 0.159568911
0.020041606 0.439371293 0.155735394
0.064911069 0.445558384 0.144866396
0.189076153 0.455622010 0.115708593
0.304662073 0.466362294 0.078648809
0.415697748 0.477240587 0.042181702
0.526212096 0.487718239 0.014801934
0.616832003 0.485320423 0.005533014
0.694040693 0.476207569 0.002159560
0.760611098 0.464121474 0.002359340
0.819316149 0.452803932 0.003810120
0.873592056 0.445205184 0.004139224
0.925170451 0.441722099 0.003901889
0.966902420 0.441142369 0.003344926
0.991639048 0.442253686 0.002715144
0.000761548 0.501916349 0.189291134
0.003020859 0.503020301 0.194756046
0.004145155 0.505188346 0.198418200
0.015862311 0.507880047 0.198194467
0.049900204 0.510554969 0.192001715
0.171508510 0.517956570 0.170601632
0.281805746 0.525378972 0.136258919
0.386199512 0.533356518 0.093503546
0.490097404 0.542423546 0.046865486
0.593658432 0.552287683 0.016061670
0.679608822 0.551504105 0.003725336
0.750631884 0.542960197 0.002046765
0.809410930 0.529543340 0.003216239
0.864680260 0.515759066 0.003745236
0.918560237 0.504680127 0.003411073
0.963760391 0.497067511 0.002733522
0.992990255 0.493682206 0.002232361
0.002488192 0.563817486 0.232355632
0.003365200 0.565573417 0.235543122
0.004585943 0.567924991 0.238376241
0.022274005 0.569870636 0.239182755
0.072552968 0.570408776 0.236290429
0.180885923 0.574271772 0.223530680
0.279448945 0.579185493 0.200097720
0.372649545 0.585341506 0.167690405
0.464895234 0.592931375 0.128007589
0.559604067 0.600613132 0.078152079
0.650305755 0.606268778 0.036901232
0.732783705 0.607569136 0.009838918
0.802821323 0.602185026 0.002549003
0.857870847 0.589045722 0.003468598
0.911503635 0.576484516 0.003670887
0.957458396 0.565692812 0.003428462
0.989473835 0.557862014 0.003013914
0.005329768 0.624372780 0.277172737
0.007243607 0.626210719 0.278201951
0.019472612 0.627726242 0.279642314
0.054227057 0.628290020 0.280824568
0.123717219 0.627272725 0.281079456
0.211702084 0.628631800 0.274799505
0.294885244 0.631622568 0.259857569
0.375614416 0.636156783 0.236433268
0.456237316 0.642146200 0.204706222
0.539438926 0.648230344 0.159640525
0.624314845 0.654957265 0.111864042
0.707765512 0.660733946 0.067605707
0.786691368 0.663967371 0.033094458
0.848752253 0.657618470 0.014995543
0.904203847 0.647271216 0.006941455
0.950530432 0.635875970 0.004747365
0.985216290 0.626383096 0.004228442
0.037654149 0.682183489 0.324795060
0.046270125 0.683306541 0.324881393
0.073337037 0.683622666 0.325695943
0.121952464 0.682944573 0.327415178
0.195213985 0.681084976 0.330215566
0.261554108 0.681120392 0.328270176
0.327279381 0.682709381 0.319375552
0.393646741 0.685750239 0.303195477
0.461913124 0.690141261 0.279393733
0.533082489 0.695072278 0.248170422
0.607360251 0.700472645 0.208081851
0.684719462 0.706893217 0.160171645
0.765133172 0.714884847 0.105483431
0.834104992 0.717069875 0.064002531
0.893571407 0.712558754 0.038886499
0.942915916 0.704438169 0.024663553
0.981522024 0.695794806 0.015861908
0.127829209 0.735850871 0.376275212
0.152058799 0.735235214 0.377730310
0.190711096 0.734644830 0.380016655
0.235681221 0.733640671 0.383249857
0.278864294 0.731783688 0.387545526
0.328039110 0.731821284 0.387804762
0.375796095 0.732465118 0.382488757
0.425299138 0.734069765 0.371440373
0.479712129 0.736989796 0.354502469
0.540454239 0.741071895 0.331385180
0.605166137 0.745718002 0.305022746
0.672787711 0.750485539 0.272361245
0.742258847 0.754931927 0.230346754
0.810709581 0.762992501 0.176166020
0.876516849 0.767865658 0.125169743
0.934554264 0.768200591 0.081150350
0.979695439 0.762646496 0.047900271
0.279110927 0.782438248 0.443326727
0.287852529 0.780681714 0.444444370
0.307721134 0.779814236 0.446373042
0.335383613 0.779328693 0.449357698
0.367506832 0.778717965 0.453643292
0.408691598 0.778730012 0.455757158
0.445550360 0.778947912 0.452211183
0.481425451 0.779929616 0.443944892
0.519659206 0.782233074 0.431897812
0.568020675 0.785475139 0.415836258
0.621736467 0.789420061 0.394794639
0.678315397 0.793679789 0.368814233
0.735266283 0.797866270 0.337936316
0.794801489 0.803071331 0.299325084
0.857300922 0.808830053 0.257647798
0.917000558 0.813508477 0.218084747
0.968136370 0.815472648 0.185816220
0.402132928 0.827213615 0.513509020
0.404007301 0.825101912 0.514927350
0.413564004 0.824032873 0.517257355
0.430459358 0.823779702 0.520436063
0.454349682 0.824115604 0.524400502
0.488747034 0.824551083 0.526610184
0.517605223 0.824068680 0.523627810
0.543771531 0.824000284 0.517514154
0.570093244 0.825677782 0.510329992
0.607414730 0.828908794 0.500120979
0.650511429 0.832790047 0.484691314
0.696155488 0.836892888 0.464866757
0.741119057 0.840788662 0.441473067
0.790220469 0.844493061 0.412641499
0.843897417 0.849706173 0.380545646
0.899541497 0.855808802 0.347418291
0.954544306 0.862181753 0.315492220
0.504456431 0.870096162 0.585224554
0.505446518 0.868450962 0.587092455
0.511147518 0.867646933 0.589850754
0.522294298 0.867641315 0.593142554
0.539621726 0.868391350 0.596610963
0.566625882 0.868812602 0.598029684
0.588686265 0.867572941 0.595812276
0.608085256 0.866559990 0.592166055
0.627105236 0.867661372 0.589298338
0.654430218 0.870985981 0.582771160
0.687095858 0.875113666 0.572780713
0.722278498 0.879371397 0.559139472
0.757154480 0.883086145 0.541659907
0.796098936 0.886362161 0.519559706
0.839061454 0.890672542 0.496390361
0.886705376 0.896382470 0.470903469
0.939694047 0.903857127 0.441850625
0.593642652 0.911005080 0.656875789
0.597093582 0.910684019 0.658852890
0.603379488 0.911002606 0.661334395
0.612274274 0.911561146 0.664134771
0.623551846 0.911959946 0.667068481
0.640748605 0.911042675 0.667681500
0.655519068 0.909206212 0.667838216
0.670114502 0.907886952 0.667918488
0.686786175 0.908521295 0.668302178
0.704860955 0.911319822 0.662318617
0.727094591 0.915676624 0.657130778
0.752654940 0.920361876 0.650253028
0.780709863 0.924145758 0.639199734
0.811569303 0.927783102 0.623524144
0.845548153 0.931907684 0.607709020
0.883020490 0.936510384 0.590292767
0.924360394 0.941582084 0.569813788
0.021506841 0.035170161 0.058801305
0.040565110 0.034239256 0.059424475
0.074337582 0.031755093 0.058338827
0.122151894 0.028381951 0.056122369
0.183335684 0.024784111 0.053353107
0.264647555 0.024768156 0.050251733
0.352293201 0.023234380 0.049076775
0.443796234 0.019893131 0.048803689
0.536680266 0.014454759 0.048407929
0.626912303 0.010524042 0.041132549
0.709592707 0.010965343 0.032669042
0.783019051 0.017134619 0.024362765
0.845488906 0.030387822 0.017559077
0.897520889 0.062645789 0.015374162
0.946228839 0.099908291 0.012545507
0.982041053 0.137033619 0.010677327
0.995385826 0.168880064 0.011373834
0.016099987 0.056539103 0.063944764
0.037580861 0.058615107 0.065380941
0.074932996 0.059686330 0.063411871
0.126685048 0.060182461 0.059112526
0.191365673 0.060533190 0.053557876
0.272701434 0.063242613 0.051679237
0.358521983 0.064366557 0.050684019
0.448027082 0.062644188 0.049425067
0.540416494 0.056814673 0.046755230
0.631053578 0.055280762 0.037321050
0.712196780 0.058353009 0.028526241
0.783155609 0.067612522 0.021619401
0.843239572 0.084640411 0.017849126
0.897257051 0.110139882 0.014275929
0.946617894 0.138679527 0.010845029
0.982940281 0.168618427 0.008407375
0.997842394 0.198315665 0.007813920
0.010409667 0.094354531 0.074373440
0.028275063 0.096386204 0.075193664
0.067160410 0.099983075 0.072254834
0.123976012 0.104495771 0.065825942
0.195632169 0.109274916 0.056175978
0.280435279 0.113282115 0.050139774
0.367607262 0.115912335 0.046087312
0.456885763 0.116408685 0.042890676
0.548008427 0.114014274 0.039421950
0.636932943 0.115438791 0.031015773
0.715419445 0.119933308 0.023094841
0.783911023 0.128805552 0.017359211
0.842850767 0.143363250 0.015508941
0.896391788 0.161367076 0.012834593
0.945484161 0.182535657 0.009601353
0.982162887 0.206067620 0.007044468
0.998462968 0.231161593 0.006399186
0.005793645 0.145783418 0.089652941
0.016871627 0.146588501 0.089481808
0.052608882 0.151319386 0.085828810
0.111475473 0.158861649 0.077562898
0.191941462 0.168100863 0.063553027
0.284313754 0.174472297 0.049247639
0.376099581 0.178550122 0.039241405
0.466999326 0.180545614 0.032608427
0.556713372 0.180670049 0.028422805
0.642037478 0.182955517 0.022908003
0.717480602 0.186936035 0.017141082
0.783943794 0.193501424 0.012975206
0.842328105 0.203541502 0.012263538
0.894800208 0.215338064 0.010977235
0.943547482 0.230398335 0.008641382
0.980522367 0.247920071 0.006609369
0.997677304 0.267101025 0.006234586
0.003609683 0.207992740 0.109348878
0.007594466 0.208257955 0.108864541
0.032867470 0.212369321 0.105094893
0.086634120 0.220819863 0.095623677
0.176099841 0.234102603 0.078034637
0.280801521 0.246398794 0.052617127
0.380549483 0.252958326 0.034101047
0.474994823 0.254413966 0.021986230
0.563788638 0.251398481 0.015772509
0.643854264 0.249788323 0.013689022
0.716600150 0.250590984 0.011431204
0.781912420 0.254487855 0.009860394
0.839677200 0.262160331 0.009837932
0.892357416 0.271063544 0.008630934
0.941527694 0.281189218 0.007792020
0.978832215 0.292714652 0.007122847
0.995915160 0.305817142 0.006425068
0.003020672 0.284731422 0.132490497
0.005560065 0.286615856 0.134054431
0.017833397 0.289220970 0.131534530
0.057745441 0.295430675 0.122750236
0.143200974 0.308128887 0.105520992
0.257791181 0.322142894 0.074435044
0.368599781 0.333402360 0.045781385
0.471142713 0.338917682 0.023887865
0.560935918 0.335699255 0.013082331
0.640027668 0.326847933 0.010656622
0.712994719 0.320189443 0.008843782
0.778529556 0.317516694 0.008006543
0.835324667 0.320622591 0.008507638
0.888344452 0.326818764 0.008091605
0.937559014 0.334248476 0.007531390
0.975318940 0.342386202 0.006908042
0.993974816 0.350706419 0.006302611
0.001951754 0.362476096 0.157526307
0.004111368 0.364230009 0.160906910
0.009369157 0.366067627 0.160304785
0.038961460 0.370610197 0.153820117
0.114124613 0.380478963 0.139553089
0.231989453 0.393197236 0.110305683
0.345281826 0.405107297 0.076347355
0.452227370 0.413627042 0.043401836
0.551051721 0.416174363 0.017192859
0.632762447 0.407523599 0.010454006
0.706110615 0.397191478 0.007058468
0.771473678 0.388243288 0.006135229
0.829229087 0.383744318 0.006813270
0.883007629 0.383396416 0.006478769
0.932647794 0.386759561 0.006340321
0.971471958 0.392046995 0.006227539
0.992802493 0.397471964 0.005970031
0.001090162 0.438035289 0.185349070
0.003353947 0.439135700 0.189889820
0.005941141 0.440591502 0.191143886
0.029164476 0.443679265 0.187626650
0.093336683 0.449675558 0.177853493
0.209304290 0.459455385 0.154076074
0.318866014 0.469239066 0.120573356
0.425039992 0.478561432 0.080824478
0.530844361 0.486957313 0.038308581
0.619018244 0.484769535 0.018715390
0.695390660 0.476108325 0.008454875
0.762112465 0.464405021 0.004886959
0.821334511 0.453090962 0.005371565
0.876020503 0.444856329 0.005063663
0.926583864 0.442200566 0.005056661
0.967102116 0.443311276 0.005205760
0.991652783 0.446376063 0.005366157
0.001123125 0.508217528 0.216851547
0.003393375 0.509368218 0.221471001
0.006015736 0.510474801 0.223790059
0.027236788 0.511958715 0.222963166
0.085303111 0.514241397 0.218144771
0.195643645 0.520810910 0.199593244
0.297622738 0.526963599 0.173233788
0.396371778 0.533740241 0.136452126
0.497022152 0.542181611 0.086633984
0.595754702 0.551539950 0.041074991
0.680277675 0.551451221 0.015412615
0.751813598 0.543739278 0.004902242
0.811584994 0.530227974 0.004799260
0.867056631 0.515258331 0.005117526
0.919157051 0.504049584 0.004518255
0.962020263 0.497793289 0.003967125
0.989780277 0.497680999 0.004429817
0.001183266 0.570274368 0.256031812
0.003717268 0.571648679 0.257915363
0.009107359 0.572864586 0.259140145
0.037299763 0.573393625 0.259542010
0.108240705 0.572707329 0.258956813
0.203349662 0.575130741 0.248419813
0.294656904 0.579409402 0.229516808
0.384025817 0.585355344 0.201544575
0.473319789 0.592780601 0.163799888
0.563745140 0.600584525 0.114986394
0.652650805 0.606721357 0.066726104
0.734637371 0.608439881 0.028513140
0.804305423 0.602988884 0.009841624
0.860474668 0.589741001 0.006369940
0.912913159 0.576996176 0.004664768
0.956884090 0.566489136 0.004262317
0.987650659 0.559954612 0.004698793
0.006799043 0.629544303 0.296139916
0.014292551 0.630904423 0.297029173
0.035696819 0.631469321 0.298171936
0.079965173 0.630860515 0.299733449
0.156050935 0.628699526 0.301878959
0.233349235 0.629174596 0.296655585
0.309997195 0.631826539 0.284122880
0.386553814 0.636366459 0.263523640
0.463578086 0.642505459 0.234100662
0.544035436 0.648697697 0.194141877
0.627807058 0.655713849 0.146672060
0.710538799 0.661481729 0.098751662
0.787876502 0.663929150 0.057441130
0.850608928 0.657913061 0.031765169
0.905622367 0.648026336 0.017170016
0.951326819 0.637061339 0.009861575
0.986132286 0.627810434 0.006045753
0.049174119 0.685409270 0.340157714
0.063987745 0.686091443 0.341390985
0.099933924 0.685761806 0.343213607
0.153650619 0.684433409 0.345861022
0.221775794 0.682119302 0.349568676
0.282343628 0.682095727 0.347601297
0.342766912 0.683508104 0.339722879
0.404265463 0.686460504 0.324844684
0.468059098 0.691057000 0.301877970
0.537501083 0.695710485 0.274114288
0.611336185 0.701140158 0.238555960
0.688171909 0.707302282 0.194669283
0.766615763 0.714153118 0.141920555
0.835321232 0.716407314 0.095129197
0.894605286 0.712687852 0.063274422
0.944241791 0.705380538 0.042046777
0.984004609 0.696871176 0.027136812
0.159512155 0.737251207 0.391067058
0.181671373 0.736165728 0.393579349
0.215968480 0.735214844 0.396593332
0.256773705 0.734186333 0.400248272
0.298457272 0.732867971 0.404683433
0.347034106 0.733047388 0.404557688
0.392089352 0.733747192 0.398987684
0.437470460 0.735324401 0.387963066
0.487024881 0.738136038 0.371473476
0.545017576 0.741453908 0.350476474
0.608827934 0.745711744 0.325683277
0.676190730 0.750339001 0.295317481
0.744840741 0.754765138 0.257602680
0.812473401 0.761856563 0.210288008
0.877182528 0.766528510 0.164218412
0.934522346 0.767317373 0.122099801
0.980047077 0.762759551 0.086638083
0.298575975 0.782929718 0.455011720
0.309282896 0.781563723 0.457877685
0.328056108 0.780387804 0.460596793
0.353442086 0.779512684 0.463870607
0.383987308 0.779049084 0.468400689
0.422059408 0.779608805 0.469898309
0.455972153 0.779668733 0.465953846
0.489604159 0.780225681 0.457804054
0.526834043 0.782276459 0.446685685
0.574102331 0.785543971 0.431377471
0.626704482 0.789230390 0.411079867
0.682256619 0.793250412 0.386380342
0.738374863 0.797518734 0.357866366
0.796872749 0.802491541 0.321254929
0.857833447 0.807880886 0.282994069
0.916298423 0.812659122 0.246861951
0.967309143 0.815798603 0.216636740
0.413687337 0.827182055 0.522460658
0.418906282 0.825952748 0.525985729
0.429295568 0.824738260 0.529009694
0.445136713 0.824014496 0.532108959
0.466711234 0.824257359 0.535859928
0.497728836 0.825279387 0.537890681
0.524328230 0.824936397 0.535279661
0.549662456 0.824651457 0.529812954
0.576884553 0.825847633 0.523276646
0.613473712 0.829013115 0.512534460
0.654331107 0.832484163 0.497482842
0.698141111 0.836263591 0.478556048
0.743588097 0.840354212 0.456188336
0.791879114 0.844367467 0.427921063
0.845126752 0.849195492 0.397723395
0.900094021 0.855107745 0.367465830
0.953543931 0.862373687 0.339018865
0.511497375 0.870079320 0.592083890
0.515254961 0.869389707 0.595782382
0.521815085 0.868279576 0.598647488
0.532072285 0.867605837 0.601240210
0.546921100 0.868225399 0.604121551
0.572092487 0.869433436 0.606358010
0.593150103 0.868793681 0.605242208
0.612611643 0.867952769 0.602539959
0.632994797 0.868557330 0.600017082
0.659595524 0.871441244 0.592376988
0.689379977 0.874843601 0.582301913
0.722308620 0.878630470 0.569147886
0.758341916 0.882667921 0.552270938
0.796901333 0.886536296 0.530881053
0.840705022 0.890560152 0.508433726
0.888483396 0.895882341 0.484536485
0.938966867 0.903645713 0.458796861
0.598657221 0.911692619 0.662551433
0.603042364 0.911931504 0.665146548
0.607742883 0.911025114 0.666325629
0.614463504 0.910200775 0.667541243
0.624908954 0.910685807 0.670245960
0.643200457 0.911445253 0.673123501
0.658430293 0.910484083 0.674118564
0.673418012 0.909480654 0.674535263
0.690983161 0.910113320 0.675677717
0.708931576 0.912408262 0.669334605
0.729523264 0.915679239 0.662946790
0.753223557 0.919602979 0.655459139
0.780497789 0.923856214 0.645816520
0.811348245 0.928049982 0.630729541
0.846210837 0.932062693 0.615152396
0.884040803 0.936202008 0.598698966
0.923793375 0.940775588 0.580983132
0.014729459 0.038189068 0.101877306
0.037007110 0.036999389 0.102910521
0.073200494 0.035160966 0.101062888
0.121617903 0.031474267 0.097539642
0.180567630 0.024739755 0.093546016
0.264586749 0.017306549 0.091801404
0.354969457 0.012820835 0.091375507
0.448487759 0.009626334 0.092307456
0.541913658 0.006066767 0.094636381
0.632273324 0.005374271 0.093484961
0.712694570 0.009768643 0.089720219
0.783829071 0.020140171 0.084242767
0.846328497 0.037379142 0.077953217
0.898512818 0.073420390 0.074557551
0.946868867 0.112362534 0.070524364
0.982525915 0.150503848 0.067816315
0.996613234 0.184142604 0.068396064
0.011549875 0.064370105 0.109286394
0.032566927 0.064699195 0.110301931
0.072475761 0.064712381 0.108670832
0.126925843 0.063494685 0.104808672
0.191566637 0.060131125 0.099131028
0.274699851 0.055178734 0.097523646
0.362652449 0.050669327 0.096960167
0.454083688 0.047414478 0.097153829
0.547652826 0.046225756 0.097817873
0.637103558 0.049665793 0.092438652
0.716228884 0.058073573 0.086282294
0.785516337 0.071922986 0.080121525
0.845453449 0.091687921 0.074729070
0.899172898 0.118876066 0.070890835
0.947463010 0.148190484 0.066770952
0.983040715 0.178026731 0.063896446
0.998622946 0.206780359 0.063794339
0.008290964 0.104086921 0.118879531
0.025166315 0.104468518 0.119225794
0.066695552 0.106134879 0.117573970
0.126748232 0.107985517 0.113418652
0.199193913 0.108919941 0.106254434
0.284706020 0.108083020 0.101008581
0.373106036 0.107378806 0.098086801
0.463720331 0.107461934 0.096370497
0.555875272 0.108987036 0.094741074
0.642954528 0.113858547 0.087201345
0.719610251 0.122175356 0.079962849
0.786861289 0.134187186 0.073730015
0.845726490 0.150143757 0.069207271
0.898884721 0.168810443 0.065842761
0.946680374 0.190203954 0.061872686
0.982314333 0.213527926 0.059124347
0.998987481 0.237985998 0.059425044
0.005455948 0.155970447 0.131997803
0.016616342 0.156082296 0.131763699
0.056334082 0.158788123 0.130052919
0.119199110 0.163274714 0.125443972
0.199801365 0.168728855 0.116515365
0.291561522 0.173225574 0.104715161
0.383242363 0.176735274 0.096466834
0.474289364 0.179537060 0.090524075
0.564148001 0.181910034 0.085640571
0.647513807 0.185550668 0.077929324
0.721262783 0.191191912 0.071224950
0.786688812 0.199061051 0.065927199
0.845085777 0.209385369 0.062435825
0.897455506 0.221262619 0.059127754
0.945072666 0.236422802 0.055686764
0.980991909 0.254455160 0.053638062
0.998267889 0.274948936 0.054506854
0.003548050 0.218651615 0.149982300
0.008728072 0.219315467 0.149997239
0.041865569 0.222031776 0.148388296
0.102392517 0.227690229 0.142959018
0.189740896 0.237180516 0.131512951
0.292222627 0.247812558 0.111102338
0.389973573 0.252524734 0.093811692
0.482682463 0.253408216 0.080181176
0.570038021 0.252554178 0.070750951
0.648468964 0.252340289 0.064778873
0.719610587 0.254241157 0.060531660
0.783823788 0.258672860 0.057572039
