shared/src/main/assets/luts/dalur_night_1600.cube
# Resampled 13pt -> 17pt (trilinear) from an MIT-licensed G'MIC film LUT.
# Source: github.com/YahiaAngelo/Film-Luts (MIT). See THIRD_PARTY_NOTICES.
TITLE "DALUR night 1600"
# LUT size
LUT_3D_SIZE 17
# Data domain
DOMAIN_MIN 0.0 0.0 0.0
DOMAIN_MAX 1.0 1.0 1.0
# LUT data points
0.091529623 0.073744379 0.075635262
0.141979191 0.075047312 0.079845520
0.185343541 0.073525619 0.082572736
0.225353729 0.071007054 0.084330391
0.265740812 0.069319375 0.085631967
0.310693026 0.065878564 0.083388645
0.357613042 0.059922880 0.083057508
0.406125776 0.053103143 0.084656302
0.455856144 0.047070179 0.088202775
0.514116272 0.045845684 0.084312275
0.571083486 0.051052274 0.081766322
0.626048982 0.060052911 0.079362184
0.678303957 0.070210554 0.075897127
0.728672042 0.081338011 0.069162436
0.777716547 0.092064425 0.064614950
0.827009410 0.103070732 0.057285315
0.878122568 0.115037866 0.042204179
0.122829325 0.134496430 0.103219524
0.162178447 0.134768234 0.110150837
0.201453827 0.134273554 0.113574630
0.240727539 0.132998719 0.115247948
0.280071653 0.130930057 0.116927836
0.325746940 0.127478555 0.113143615
0.372917112 0.122960040 0.112667852
0.421632806 0.116843135 0.113208353
0.471944660 0.108596464 0.112472922
0.524136391 0.096450981 0.110841513
0.574926846 0.084377029 0.108257207
0.623889167 0.075199272 0.105344765
0.670596495 0.071742374 0.102728946
0.719389386 0.078930257 0.096841384
0.768120207 0.087348417 0.091302163
0.817374010 0.097210840 0.083281866
0.867735848 0.108731512 0.069951078
0.149929032 0.185798176 0.131184693
0.180035431 0.184641205 0.136889501
0.215865001 0.183999404 0.140011396
0.254822340 0.183126673 0.141631062
0.294312045 0.181276910 0.142829180
0.339452360 0.179353470 0.140364383
0.386841543 0.176284716 0.139325032
0.436315108 0.171460290 0.138531638
0.487708569 0.164269835 0.136804715
0.538250372 0.152728097 0.135757206
0.586678088 0.137633780 0.133374145
0.631956004 0.119516206 0.130528141
0.673048407 0.098904695 0.128091801
0.715963930 0.088395541 0.122008174
0.761687934 0.087798119 0.115574269
0.809374020 0.093927776 0.107745332
0.858175784 0.103599858 0.097476609
0.172815192 0.231700316 0.158111084
0.196681122 0.230017040 0.160948311
0.229599115 0.228949737 0.163071018
0.267931471 0.227982091 0.164419247
0.308040492 0.226597786 0.164933041
0.352485461 0.226257506 0.164435681
0.399697617 0.224333782 0.163059745
0.449614815 0.220864186 0.161536626
0.502174914 0.215886291 0.160597716
0.553286418 0.208930295 0.159385818
0.601568677 0.197299879 0.157172034
0.645696346 0.178270979 0.154469816
0.684344083 0.149119530 0.151792619
0.721328795 0.120984739 0.145661232
0.761519551 0.104642713 0.138737725
0.804632984 0.098253934 0.131129295
0.850385725 0.099978881 0.122943137
0.191474259 0.276253551 0.182579011
0.213246498 0.276246555 0.183214068
0.243678220 0.275371119 0.183941476
0.280348271 0.274156146 0.184552014
0.320835501 0.273130536 0.184836462
0.365522422 0.272944860 0.184742238
0.411796615 0.271544114 0.183902688
0.460974060 0.268964402 0.183133781
0.514370739 0.265241832 0.183251485
0.566072732 0.259310842 0.182053812
0.614830077 0.249852680 0.179705769
0.660557047 0.236730859 0.176727295
0.703167915 0.219808891 0.173638329
0.738417104 0.187948730 0.168798987
0.770714879 0.149111386 0.162098989
0.804774448 0.115221713 0.153887335
0.845309019 0.098204561 0.144513026
0.213382352 0.327142432 0.203015622
0.235717453 0.327098807 0.203551681
0.262461221 0.325963583 0.203290965
0.294824410 0.324291388 0.202971308
0.334017776 0.322636850 0.203330539
0.380175453 0.322446011 0.204206856
0.427514773 0.322411872 0.204218091
0.477125473 0.322010009 0.204049605
0.530097291 0.320715994 0.204386756
0.581561405 0.315179858 0.203370668
0.629638352 0.305975875 0.201435104
0.674678709 0.294083992 0.198989635
0.717033058 0.280484159 0.196443833
0.754066620 0.253963294 0.191144953
0.788678236 0.220013411 0.184278706
0.821326047 0.179603770 0.175968758
0.852468193 0.133703636 0.166338775
0.237604387 0.380886182 0.222911984
0.259101683 0.380667370 0.224229798
0.283264533 0.379396573 0.224285927
0.312802374 0.377629671 0.223906590
0.350424647 0.375922546 0.223918006
0.397079024 0.376162581 0.225817440
0.445372261 0.377259761 0.226706952
0.495326549 0.378051732 0.226646842
0.546964079 0.377376139 0.225697413
0.596933968 0.372360084 0.223866951
0.644087180 0.363993935 0.222241312
0.688771695 0.353426546 0.220312338
0.731335491 0.341806769 0.217571869
0.769514613 0.318848681 0.212292321
0.805596054 0.287834976 0.205615021
0.839327224 0.249683687 0.197746787
0.870455533 0.205312848 0.188894436
0.263159208 0.436142176 0.244338054
0.282870125 0.436297784 0.247695222
0.305409975 0.435419492 0.249061413
0.333471026 0.434083208 0.248744254
0.369745545 0.432864837 0.247051369
0.415248076 0.433436930 0.248958739
0.463781331 0.435084585 0.250134513
0.514033696 0.436379984 0.249961799
0.564693555 0.435895309 0.247823704
0.612853367 0.431380134 0.245211551
0.658819355 0.423894845 0.243663911
0.703052975 0.414492946 0.241880674
0.746015683 0.404227942 0.238561731
0.785365991 0.384783391 0.233460538
0.822708808 0.356459793 0.227090731
0.858637847 0.324031757 0.219832835
0.893746823 0.292273894 0.212067373
0.289065659 0.491567791 0.269363791
0.306493714 0.493335590 0.276394755
0.328219369 0.493781745 0.279752478
0.356019229 0.493564211 0.278870694
0.391669899 0.493340939 0.273183137
0.433697544 0.493611418 0.273015499
0.481154233 0.494883150 0.273266017
0.531703323 0.496285178 0.273030780
0.583008170 0.496946543 0.271405876
0.629982546 0.492768623 0.269073360
0.674477667 0.485666588 0.267242417
0.717739522 0.477017619 0.264879912
0.761014104 0.468198895 0.260952711
0.802225664 0.453945927 0.255869053
0.841256976 0.429771572 0.249688633
0.879117787 0.401218273 0.242838312
0.916817844 0.373828471 0.235744953
0.316971809 0.546892151 0.297174476
0.334017549 0.547009755 0.302762663
0.355615821 0.546969213 0.305571321
0.382702135 0.547704907 0.304881930
0.416212000 0.550151221 0.299975969
0.453950658 0.552011294 0.297041113
0.499212418 0.554044902 0.296300627
0.548994295 0.556044957 0.296154819
0.600293308 0.557804368 0.295003995
0.646549623 0.554961467 0.293817453
0.690468840 0.549450021 0.292586621
0.733308114 0.542608140 0.290563181
0.776324600 0.535773933 0.286998816
0.819117490 0.526452290 0.281445134
0.859496132 0.508537881 0.275690464
0.898664542 0.485825265 0.269451193
0.937826738 0.462108999 0.262443706
0.344074696 0.599218071 0.324150562
0.360152494 0.597903363 0.327931002
0.381659620 0.597432047 0.329948083
0.408568583 0.598552443 0.329829842
0.440851897 0.602012873 0.327204317
0.476666551 0.604637727 0.324533071
0.519774459 0.606953382 0.323759936
0.567513846 0.609119587 0.323397789
0.617222935 0.611296088 0.321959510
0.662381411 0.610642478 0.320940606
0.705850899 0.607679665 0.319513276
0.748468034 0.603808850 0.317467276
0.791069448 0.600431234 0.314592361
0.833351366 0.594058082 0.309804585
0.875018612 0.582222864 0.304389402
0.916133352 0.565956682 0.298080772
0.956757754 0.546290636 0.290612653
0.372211687 0.648152322 0.351989903
0.386327103 0.646518175 0.353713881
0.407035582 0.646135196 0.354819417
0.433597168 0.647405114 0.355379928
0.465271905 0.650729656 0.355468832
0.500962730 0.653500568 0.354186730
0.542179294 0.655691653 0.353769556
0.587093215 0.657728646 0.353119869
0.633876115 0.660037279 0.351140231
0.677744560 0.661881197 0.349603012
0.720442034 0.661317550 0.347911745
0.762390088 0.659961630 0.346233731
0.804010272 0.659428731 0.344736271
0.845550872 0.655372705 0.341114780
0.888486423 0.648769103 0.335711319
0.931355167 0.638720781 0.328737980
0.972695351 0.624330595 0.320406854
0.403220147 0.693301678 0.382390350
0.413969927 0.693355948 0.381925412
0.432428524 0.694043607 0.382121980
0.457766481 0.695561215 0.383197688
0.489154339 0.698105335 0.385370165
0.525956705 0.700609669 0.384697445
0.565765858 0.702342778 0.384455100
0.607563645 0.704091713 0.383681238
0.650331914 0.706643522 0.381413966
0.692905724 0.710747167 0.378964864
0.734060436 0.711325705 0.377671391
0.774245083 0.710408360 0.377504081
0.813908696 0.710024357 0.378433466
0.856339589 0.709005564 0.375543095
0.900561571 0.706119180 0.369582087
0.944160938 0.701225817 0.361433744
0.984723985 0.694186091 0.351981372
0.435902551 0.738318935 0.414722435
0.446381930 0.738921113 0.415342048
0.463321783 0.739999481 0.415535867
0.486202434 0.741741724 0.415228410
0.514504209 0.744335532 0.414344192
0.548709963 0.747315355 0.416100262
0.585802183 0.749652006 0.417876564
0.624718819 0.752037551 0.418728149
0.664397821 0.755164057 0.417710066
0.703706209 0.759223279 0.416482491
0.743669987 0.761203639 0.415249418
0.783965889 0.761930835 0.414620187
0.824270651 0.762230560 0.415204138
0.866890103 0.761348560 0.411502147
0.910982020 0.759131789 0.404740874
0.953060720 0.755967647 0.396596147
0.989640519 0.752243534 0.388743795
0.465910941 0.785264492 0.451106161
0.476859294 0.786667265 0.453470394
0.492630668 0.787656099 0.453683898
0.513146561 0.788746387 0.452266719
0.538328469 0.790453523 0.449738905
0.570481807 0.793867104 0.451143578
0.605091900 0.797181994 0.453369655
0.640914410 0.800749667 0.455388863
0.676705003 0.804921597 0.456172928
0.712941244 0.808977947 0.456907440
0.751761332 0.812010765 0.455724873
0.792265601 0.814056277 0.454018965
0.833554387 0.815150708 0.453183457
0.876197152 0.814667307 0.448897332
0.919644788 0.813358903 0.442403160
0.959559865 0.811711729 0.435390871
0.991604954 0.810212016 0.429550394
0.492889442 0.833137095 0.490203857
0.503877228 0.835711233 0.493145375
0.518829115 0.836481139 0.492900565
0.537769374 0.836584643 0.490708785
0.560722277 0.837159574 0.487809390
0.590860527 0.841383372 0.488185693
0.622827724 0.845730878 0.490090050
0.655446075 0.850194138 0.492703266
0.687537789 0.854765192 0.495206147
0.721426472 0.858689800 0.497240441
0.759190552 0.862389952 0.496076658
0.799709208 0.865576942 0.493447434
0.841861621 0.867962062 0.491085403
0.884382322 0.868026290 0.486719023
0.927297294 0.868099786 0.481534034
0.965146042 0.868071333 0.476505645
0.992468074 0.867829710 0.472609065
0.516482174 0.880935490 0.530677855
0.525910944 0.885169849 0.531201914
0.540391058 0.885942280 0.529520363
0.559241384 0.885265931 0.526950777
0.581780791 0.885153949 0.524810731
0.609434411 0.890982613 0.525584906
0.638202369 0.896096796 0.527193427
0.667609468 0.900337040 0.529711246
0.697180510 0.903543890 0.533213317
0.729977533 0.907037467 0.534482226
0.766813725 0.910984069 0.533283681
0.806861699 0.915285081 0.530652612
0.849294066 0.919841886 0.527623951
0.891567200 0.920489997 0.523957595
0.934686959 0.922653705 0.521098584
0.971306920 0.924659729 0.518628195
0.994080663 0.924834788 0.516127706
0.078896245 0.077102862 0.118508948
0.129239234 0.075899032 0.120963277
0.172531852 0.073762740 0.122681025
0.212682655 0.071575814 0.123666948
0.253600195 0.070220083 0.123925798
0.299331205 0.069089698 0.123740384
0.346051447 0.062902434 0.124939319
0.394556928 0.054905904 0.126826953
0.445643656 0.048347721 0.128707640
0.502262490 0.043185254 0.125294875
0.558112882 0.045501064 0.122929648
0.612189103 0.052855408 0.120670846
0.663485423 0.062808545 0.117577359
0.712234158 0.072847662 0.114308769
0.761301115 0.083157625 0.109209814
0.810640760 0.093966664 0.100131835
0.860207558 0.105503010 0.084926175
0.113281171 0.136134176 0.139819976
0.152016338 0.133919789 0.142788324
0.190705415 0.132585924 0.144501655
0.229790775 0.132230429 0.145663153
0.269714789 0.132951149 0.146976003
0.315562534 0.130588611 0.146525599
0.363047337 0.125386971 0.147123433
0.412290686 0.118393614 0.147722217
0.463414067 0.110655924 0.147274665
0.515709277 0.098336429 0.145633271
0.565936958 0.085062623 0.143273544
0.613982797 0.073846520 0.140366685
0.659732476 0.067700139 0.137083893
0.707403827 0.072524430 0.132932600
0.755842049 0.080380754 0.127456893
0.804482148 0.090209478 0.119503454
0.852759130 0.100950971 0.107918963
0.142506728 0.186502730 0.161603757
0.171925011 0.184388224 0.163839835
0.206732602 0.183537374 0.165369797
0.244911780 0.183583773 0.166593482
0.284444824 0.184161011 0.167910734
0.329961914 0.181981357 0.167768523
0.377854215 0.177860427 0.167933729
0.427811796 0.172098203 0.167768073
0.479524724 0.164994668 0.166633276
0.531156309 0.154231787 0.165515779
0.579637580 0.138999179 0.163354890
0.624736385 0.120753189 0.160335986
0.666220576 0.100950159 0.156644444
0.707626032 0.086588426 0.151708448
0.752389777 0.083522432 0.145817593
0.799116772 0.088291766 0.138564167
0.846411973 0.097436021 0.129540456
0.166603831 0.232352543 0.182988620
0.189975589 0.231254791 0.184187839
0.221776523 0.230635279 0.185427634
0.258967682 0.230265343 0.186556826
0.298510112 0.229916318 0.187424238
0.343739824 0.228415677 0.187753816
0.391608982 0.225284033 0.187830825
0.441925154 0.220791519 0.187451489
0.494495906 0.215208271 0.186412027
0.546787364 0.208495054 0.185062195
0.595334820 0.196956669 0.183007212
0.639748332 0.179305815 0.180104085
0.679637957 0.154255189 0.176209821
0.715355543 0.122997127 0.170861631
0.754435128 0.103214737 0.164576999
0.796562273 0.094185585 0.157451331
0.841422543 0.095187237 0.149580029
0.185603395 0.277827628 0.203102894
0.207178408 0.278469944 0.203902363
0.237000290 0.277897827 0.204817349
0.272880493 0.276904633 0.205652075
0.312630467 0.276283719 0.206210762
0.358106745 0.275039308 0.206766136
0.405448541 0.272619020 0.207275340
0.455435656 0.269245414 0.207259432
0.508847892 0.265141048 0.206239469
0.560786221 0.258749958 0.204392316
0.609148756 0.248581028 0.202064037
0.654317100 0.235234798 0.199196316
0.696672857 0.219311811 0.195730835
0.733047131 0.189708007 0.190617464
0.765468925 0.150089747 0.184020197
0.798836295 0.113862991 0.176302304
0.838047296 0.094433699 0.167827055
0.206356370 0.328326331 0.222297634
0.228342861 0.329747318 0.223203054
0.255493797 0.328948806 0.223842354
0.288306096 0.327066840 0.224380587
0.327276675 0.325237464 0.224982808
0.373805083 0.324451816 0.225860133
0.421669798 0.323399900 0.226474245
0.471648404 0.321807519 0.226414443
0.524518486 0.319400471 0.225270027
0.576262162 0.313661464 0.223341045
0.623933511 0.303873094 0.220879634
0.668510872 0.291657207 0.218244031
0.710972585 0.278635647 0.215792473
0.748474854 0.253626740 0.210732216
0.783796007 0.220466446 0.203920355
0.816992642 0.179952450 0.195843139
0.848121360 0.132882433 0.186986814
0.229562750 0.381365627 0.242077071
0.250678213 0.382922311 0.242684536
0.275823828 0.382204080 0.243151708
0.306617650 0.380187021 0.243814884
0.344677735 0.377847221 0.245010361
0.391088450 0.377220844 0.246244905
0.439230617 0.377208821 0.246995561
0.489218491 0.376939305 0.246701504
0.541166328 0.375540446 0.244801911
0.592054773 0.371232721 0.242272926
0.639044102 0.362264441 0.239914882
0.683179121 0.350906764 0.237678405
0.725504637 0.339430846 0.235514121
0.764382977 0.318849438 0.230707149
0.801547572 0.289835912 0.224109132
0.835800543 0.252517539 0.216579264
0.865944013 0.207021588 0.208976738
0.254454914 0.435833074 0.263308723
0.274052881 0.437398748 0.263757859
0.297723052 0.437194634 0.264192604
0.327310012 0.435847374 0.264963872
0.364658345 0.433983609 0.266422576
0.409560726 0.433368879 0.267967621
0.457338746 0.433963916 0.268771177
0.507240915 0.434528702 0.268228622
0.558515746 0.433823219 0.265735331
0.608295805 0.430829334 0.262638876
0.654579414 0.423005679 0.260367046
0.698370260 0.412642616 0.258271935
0.740672030 0.402030509 0.255705637
0.781180046 0.386004697 0.251105617
0.819420559 0.360292217 0.244999360
0.854954054 0.328848419 0.238511075
0.887341015 0.295628656 0.232764971
0.280265242 0.490616232 0.286860108
0.298335284 0.492580453 0.287834074
0.320924141 0.493451454 0.288412236
0.349878037 0.493630098 0.288836459
0.387043200 0.493517250 0.289348610
0.428825792 0.492918408 0.291075449
0.475201931 0.493583318 0.291732982
0.524810672 0.494463639 0.291103801
0.576291069 0.494511031 0.288970500
0.625117008 0.491816908 0.285889816
0.670638330 0.485347416 0.283433393
0.714132700 0.476523908 0.280797118
0.756877780 0.466767736 0.277176879
0.799274608 0.455721114 0.272490976
0.838111907 0.433929432 0.267003873
0.874147229 0.406235250 0.261638968
0.908138126 0.377481125 0.257319659
0.307780392 0.544537093 0.314641004
0.325646277 0.545446783 0.315731441
0.347772206 0.545962870 0.316192671
0.375111033 0.546839418 0.316102864
0.408615610 0.548830491 0.315540191
0.448220461 0.549791583 0.314947230
0.493864065 0.551493677 0.314519043
0.543239689 0.553310985 0.313847536
0.594040599 0.554617720 0.312524615
0.641806067 0.553675734 0.311259572
0.686691932 0.549363975 0.309673002
0.729780979 0.542649626 0.307173172
0.772155989 0.534499867 0.303168351
0.814560680 0.526241200 0.298026456
0.854794744 0.509634175 0.292849043
0.893347912 0.487880102 0.287709169
0.930709910 0.464180291 0.282679889
0.335785206 0.596526921 0.342452839
0.352085183 0.595914433 0.343486822
0.373684065 0.595950428 0.343813835
0.400387502 0.597156359 0.343606369
0.432001144 0.600053675 0.343036916
0.470815958 0.602196403 0.341487412
0.515126219 0.604808521 0.340466633
0.562590025 0.607411388 0.339568570
0.610865474 0.609526366 0.338387214
0.657458009 0.609963259 0.338069280
0.701799680 0.607971545 0.336941147
0.744576775 0.603975035 0.334626135
0.786475584 0.598397538 0.330747563
0.828783369 0.592902390 0.325706896
0.870205197 0.581294708 0.320666231
0.911083428 0.565193188 0.315190050
0.951760419 0.546216529 0.308842834
0.365652055 0.645976178 0.370960915
0.379253923 0.644352417 0.371513653
0.399678512 0.644127859 0.371562822
0.425856466 0.645425440 0.371438952
0.456718436 0.648368094 0.371472573
0.495533276 0.651142837 0.369938943
0.537918583 0.654245546 0.368924034
0.582263716 0.657278426 0.367989570
0.626958039 0.659843680 0.366697278
0.672062923 0.661568784 0.366484098
0.715686344 0.661455689 0.365453186
0.758021189 0.659697446 0.363432887
0.799260348 0.656487107 0.360251548
0.841444243 0.653487084 0.356057385
0.883864803 0.646483459 0.351042630
0.926408347 0.635957440 0.344803340
0.968961190 0.622390240 0.336935570
0.398753308 0.692275330 0.400830537
0.408754416 0.691129748 0.400225369
0.426774338 0.691208892 0.399726726
0.451666947 0.692491181 0.399692591
0.482286118 0.694955036 0.400480948
0.521293411 0.697640855 0.399544768
0.561171345 0.700522453 0.399239525
0.601662796 0.703425676 0.398833204
0.642510638 0.706176370 0.397593789
0.685610898 0.709381610 0.396669187
0.728076696 0.710101970 0.395424474
0.769615322 0.709014170 0.393870305
0.809934065 0.706794932 0.392017335
0.852044869 0.705777682 0.389603006
0.895295098 0.702772856 0.384565432
0.938377235 0.697955791 0.377270769
0.979983762 0.691501826 0.368085176
0.433178997 0.737799458 0.430677505
0.442686499 0.737452084 0.430191784
0.459052505 0.737766720 0.429655527
0.481658276 0.738955242 0.429154901
0.509885071 0.741229523 0.428776074
0.545097470 0.744045077 0.430260575
0.581423638 0.747345228 0.432321950
0.618864951 0.750822449 0.433487850
0.657422781 0.754169215 0.432285927
0.697991120 0.757419121 0.430072934
0.738907289 0.758990856 0.428494941
0.779889761 0.759419739 0.427475752
0.820657011 0.759241093 0.426939176
0.862853227 0.759069594 0.424697682
0.906000767 0.757176107 0.419594970
0.947444865 0.753978736 0.412753197
0.984530754 0.749895584 0.405294523
0.465107307 0.785129264 0.463202979
0.474335668 0.785491943 0.463132706
0.489585634 0.785923693 0.462798810
0.510040834 0.786777573 0.462116643
0.534884892 0.788406640 0.461001556
0.566798609 0.791922731 0.463936027
0.600338187 0.795915734 0.467275931
0.635192599 0.800019849 0.469358176
0.671050817 0.803869277 0.468519673
0.709172584 0.807101434 0.466575655
0.748602092 0.809557572 0.465011491
0.789031986 0.811364954 0.463954239
0.830154911 0.812650844 0.463530961
0.872292532 0.813126702 0.461019210
0.915185314 0.812307399 0.456127476
0.954924377 0.810678592 0.450319356
0.987600841 0.808725938 0.445058446
0.493440188 0.834156882 0.498803802
0.502379622 0.835276844 0.498900576
0.516771754 0.835464191 0.498298656
0.535535390 0.835514673 0.497181942
0.557589334 0.836224042 0.495734334
0.586634232 0.841192689 0.499295253
0.617801599 0.845915219 0.502806542
0.650422054 0.850336915 0.505091493
0.683826216 0.854403060 0.504973395
0.719622494 0.857464491 0.503894721
0.757617028 0.860653898 0.502616775
0.797391548 0.863493988 0.501340012
0.838527780 0.865507472 0.500264883
0.880781753 0.866887265 0.497677621
0.923650423 0.867536008 0.493568907
0.961850516 0.867612052 0.489201057
0.990098756 0.867273744 0.485836385
0.517079592 0.884774446 0.537876815
0.525496062 0.886834305 0.537347838
0.539008893 0.886172593 0.535297148
0.556862712 0.884723041 0.532954924
0.578302145 0.884419382 0.531551346
0.604841743 0.891773820 0.535062380
0.633700483 0.897024930 0.537618861
0.664329629 0.901092686 0.539335113
0.696180448 0.904897064 0.540325463
0.729808051 0.907544237 0.539747503
0.766408019 0.911131613 0.538953446
0.805317998 0.914451014 0.537667315
0.845875636 0.916294262 0.535613135
0.888739862 0.919289540 0.533782952
0.932197779 0.922231212 0.531325221
0.969258025 0.924335808 0.528630108
0.992929235 0.924819857 0.526087776
0.073030420 0.080566049 0.152741872
0.121208286 0.079231940 0.154616568
0.163533684 0.076801475 0.155741557
0.203431923 0.074284771 0.156433143
0.244328313 0.072691943 0.157007627
0.290387848 0.072539569 0.157854619
0.337314703 0.066633674 0.159177981
0.386095919 0.058398600 0.160687108
0.437718540 0.051258685 0.162091389
0.492726043 0.043803276 0.159856221
0.547504857 0.042556445 0.157555535
0.600948028 0.047018973 0.155287731
0.651948601 0.056691637 0.153151207
0.699778490 0.066067035 0.151749361
0.748661920 0.076093910 0.146565920
0.797184855 0.086478808 0.137672619
0.843933254 0.096928272 0.125141196
0.107805843 0.138245495 0.171433102
0.144891390 0.135885173 0.172842159
0.182366437 0.134049094 0.173741817
0.220783854 0.133187618 0.174674934
0.260696510 0.133751105 0.176184366
0.306586300 0.132825556 0.177158540
0.354494240 0.128803114 0.178220190
0.404369283 0.122411407 0.178786591
0.456160381 0.114378063 0.178275017
0.508719966 0.102564695 0.176364890
0.558371056 0.087402008 0.174026576
0.605412224 0.072896899 0.171269657
0.650142044 0.063056265 0.168103717
0.697301481 0.067046231 0.164792135
0.745356210 0.074676799 0.159766466
0.793140961 0.084155113 0.152704723
0.839490466 0.093688320 0.143284921
0.137059761 0.187416118 0.189897999
0.164715243 0.185548395 0.190601934
0.198242897 0.184504805 0.191517426
0.235721559 0.184381481 0.192721675
0.275230065 0.185274556 0.194291882
0.321012462 0.183849560 0.195389688
0.369445704 0.180536799 0.196372392
0.420077341 0.175213411 0.196516678
0.472454920 0.167756531 0.195099231
0.524839994 0.158037131 0.193450404
0.573067069 0.142013611 0.191364452
0.617605798 0.122255107 0.188488591
0.658925831 0.101330751 0.184470035
0.699792717 0.085052387 0.179916304
0.743640579 0.079714094 0.174565906
0.789346762 0.082668699 0.168133765
0.835788608 0.091269029 0.160334807
0.160462715 0.232797522 0.208151503
0.182086703 0.232171246 0.208413353
0.212955290 0.231823654 0.209418023
0.249810839 0.231797596 0.210746202
0.289395712 0.232135922 0.211978581
0.335109727 0.230276037 0.213162727
0.383572824 0.227081869 0.214174053
0.434484298 0.222511151 0.214233228
0.487543441 0.216521621 0.212560924
0.540285600 0.210367161 0.210945331
0.588590261 0.198528419 0.209027358
0.632878095 0.181106613 0.206195691
0.673569776 0.158202959 0.201839015
0.709042672 0.125125453 0.196813873
0.747209582 0.101999983 0.190949946
0.788351880 0.089958903 0.184273272
0.832750939 0.090134566 0.176809890
0.177685246 0.279109314 0.226208553
0.198412631 0.279703368 0.226793878
0.228295844 0.279660687 0.227793250
0.264617493 0.279367197 0.228921352
0.304660186 0.279208824 0.229892865
0.350321487 0.276769444 0.231092321
0.398279332 0.273685463 0.232164640
0.448854364 0.270011172 0.232292103
0.502367228 0.265800864 0.230656989
0.554256260 0.259701364 0.228682240
0.601937994 0.249083597 0.226473488
0.646578461 0.235464437 0.223642116
