shared/src/main/assets/luts/dalur_landscape_100.cube
# Resampled 13pt -> 17pt (trilinear) from an MIT-licensed G'MIC film LUT.
# Source: github.com/YahiaAngelo/Film-Luts (MIT). See THIRD_PARTY_NOTICES.
TITLE "DALUR landscape 100"
# LUT size
LUT_3D_SIZE 17
# Data domain
DOMAIN_MIN 0.0 0.0 0.0
DOMAIN_MAX 1.0 1.0 1.0
# LUT data points
0.047844380 0.037764203 0.035041571
0.105754357 0.040733372 0.035502039
0.162246615 0.043890014 0.035057152
0.217830706 0.047354316 0.033659491
0.273016185 0.051246464 0.031261638
0.329933017 0.052880086 0.030241981
0.391114533 0.056039736 0.028862545
0.459448628 0.060252564 0.027087111
0.537823200 0.065045722 0.024879456
0.619548589 0.070767047 0.021748475
0.692054629 0.075149484 0.018792732
0.757524818 0.078660196 0.016468594
0.818142653 0.081766345 0.015232430
0.876886517 0.086151069 0.013801290
0.933581501 0.090859115 0.011059907
0.977781370 0.095665267 0.008192324
0.999039888 0.100344308 0.006382587
0.057113614 0.085197407 0.048889324
0.102120673 0.088204456 0.048138090
0.152224105 0.091414701 0.047322731
0.205815609 0.095088202 0.046240525
0.261286885 0.099485015 0.044688745
0.319174191 0.102537748 0.044787975
0.380043928 0.105572464 0.042368778
0.447076146 0.108611489 0.038910068
0.523450896 0.111677149 0.035890759
0.605507638 0.115298912 0.032146291
0.678363383 0.117618280 0.029046543
0.744706329 0.118336363 0.026589210
0.807224676 0.117154276 0.024771989
0.869215690 0.115357908 0.021864924
0.929592878 0.112213438 0.018407642
0.976443060 0.108971794 0.014704890
0.997853056 0.106883902 0.011061414
0.069413129 0.131375976 0.067225222
0.106005378 0.134253215 0.065895590
0.149173720 0.136746336 0.064235275
0.197976097 0.139614905 0.062711795
0.251470454 0.143618491 0.061792674
0.309188703 0.147612470 0.062840275
0.370241567 0.150870867 0.060453243
0.437498808 0.153777052 0.056370025
0.513830185 0.156714395 0.052329069
0.594204858 0.160108088 0.047324527
0.666117072 0.161785733 0.043306231
0.732354484 0.161407312 0.039870800
0.795704752 0.158632807 0.036614855
0.858092397 0.154107912 0.032871706
0.919704959 0.147624820 0.028867356
0.969434299 0.139624486 0.024254158
0.996172279 0.130547862 0.018684469
0.082131594 0.176256288 0.087236388
0.113030350 0.178972726 0.085971155
0.149578708 0.180776665 0.083946754
0.192408422 0.182807444 0.082109763
0.242151245 0.186204400 0.081406757
0.299444297 0.190460440 0.082381003
0.361631401 0.193911260 0.080235156
0.430553975 0.197270159 0.076255970
0.508053437 0.201250434 0.071730196
0.585446846 0.205381776 0.065813310
0.655312203 0.207365928 0.060948860
0.720414974 0.207129788 0.056562575
0.783520624 0.204600252 0.052080187
0.845059607 0.199477605 0.047838396
0.906631231 0.192215066 0.043028621
0.959186696 0.182137171 0.037242205
0.993677199 0.168568451 0.030070492
0.092657678 0.219794720 0.106109947
0.118817469 0.222456064 0.105561396
0.149922319 0.224397436 0.104609143
0.187208831 0.226538833 0.103470888
0.231913611 0.229800254 0.102364331
0.289408717 0.233437844 0.101392282
0.354137376 0.236669958 0.098833736
0.426079005 0.240611717 0.095356893
0.505213022 0.246378243 0.091629952
0.579040200 0.251307182 0.086142773
0.645945281 0.254072949 0.081351496
0.708833486 0.254760534 0.076913746
0.770610034 0.253454924 0.072487146
0.831660286 0.248543508 0.067781752
0.893085182 0.241105981 0.061481012
0.948131859 0.231023677 0.054071108
0.990047455 0.218177930 0.046038222
0.090135222 0.267819069 0.123676013
0.107788425 0.270812596 0.123706874
0.133156367 0.273366828 0.123078032
0.168379067 0.276012327 0.121912936
0.215596549 0.279279657 0.120335031
0.276423596 0.282775978 0.118611117
0.346536543 0.286001593 0.115663771
0.422664631 0.289789427 0.112137645
0.501537099 0.294972405 0.108677391
0.571036331 0.299190022 0.104211903
0.635527581 0.301896814 0.099986210
0.697244342 0.302890562 0.095694796
0.758420110 0.301969044 0.091032140
0.818402607 0.298032511 0.086273986
0.877774149 0.292050121 0.079971732
0.932703201 0.283443607 0.072375252
0.979358226 0.271634702 0.063734422
0.059192463 0.322374597 0.138956070
0.069121058 0.325273171 0.138867093
0.093866826 0.328561746 0.138369586
0.134535329 0.331827115 0.137455428
0.192232132 0.334656075 0.136116497
0.260570280 0.336833447 0.133887042
0.335969105 0.339996256 0.130751127
0.414356101 0.344123144 0.127038291
0.491658762 0.349192753 0.123078071
0.557422917 0.353355911 0.119449148
0.619920895 0.355957694 0.115699783
0.681120209 0.356543370 0.111625431
0.742988378 0.354658201 0.107021548
0.802639879 0.351709157 0.102866907
0.860970616 0.346788734 0.097837009
0.916399486 0.339258339 0.091115983
0.967345387 0.328479379 0.081887960
0.022054126 0.380331703 0.152981918
0.026653683 0.383175274 0.152380542
0.052458344 0.387052603 0.151598176
0.098537977 0.390827389 0.150634911
0.163962446 0.393363334 0.149490837
0.241472045 0.394891003 0.146819239
0.321801793 0.398136526 0.143588476
0.401375998 0.402634803 0.139803919
0.476618968 0.407920733 0.135470942
0.539634960 0.412122799 0.132463453
0.600419521 0.414715607 0.129071034
0.660992976 0.415204521 0.125264739
0.723375648 0.413094908 0.121015619
0.783085879 0.410961943 0.117708880
0.841090955 0.406696476 0.114040015
0.897194643 0.399900915 0.108324982
0.951200709 0.390177667 0.098879740
0.000944938 0.438560784 0.166785359
0.004224613 0.441856392 0.165585708
0.029335568 0.445909813 0.163878173
0.073247368 0.449857339 0.161987931
0.132929578 0.452835262 0.160240158
0.218752164 0.456229396 0.157006890
0.303401336 0.459904984 0.153668486
0.383946903 0.464346342 0.150179617
0.457458675 0.470037788 0.146494955
0.519107461 0.473808639 0.143863764
0.578317761 0.476630569 0.140678786
0.637394533 0.478359580 0.137171805
0.698642731 0.478851676 0.133574605
0.758454382 0.477179363 0.130948275
0.816551536 0.473148003 0.127543926
0.873062596 0.466804378 0.122033931
0.928115964 0.458195269 0.113090664
0.001368358 0.493671283 0.179375850
0.002262621 0.496486222 0.177850653
0.016017646 0.498913359 0.174828973
0.051930554 0.501062397 0.171768715
0.119298464 0.503043041 0.170127787
0.214780024 0.506355887 0.167849963
0.300824331 0.510959011 0.165437348
0.377802107 0.516297271 0.162849260
0.446084075 0.521815531 0.160045017
0.505312519 0.525060786 0.157388839
0.563706920 0.527499355 0.153918516
0.622351665 0.529762898 0.149817328
0.682331145 0.532483071 0.145268556
0.738799892 0.533482607 0.142157325
0.794310659 0.531721380 0.137996109
0.848512057 0.528015388 0.132026311
0.901052698 0.523180634 0.123489331
0.001751911 0.546135396 0.191827714
0.005039181 0.547970250 0.189450389
0.022091596 0.549614117 0.186418060
0.061613324 0.551122606 0.183820834
0.132308532 0.552551329 0.182748817
0.221836056 0.555390157 0.181293987
0.301679146 0.559516445 0.179195363
0.372606434 0.564523138 0.176663375
0.435386553 0.570003182 0.173908450
0.493591417 0.573217474 0.171005556
0.551696718 0.575799942 0.166797955
0.609648675 0.578612886 0.161753619
0.667393506 0.582518607 0.156340525
0.721899658 0.584418908 0.152696626
0.775752157 0.584046081 0.147496257
0.828302570 0.582069471 0.140846809
0.878902465 0.579158425 0.132855676
0.002633981 0.596657172 0.204138182
0.010782379 0.597595654 0.201303034
0.037117607 0.598952539 0.198950797
0.084208979 0.600418489 0.197422055
0.154625811 0.601684168 0.197057389
0.231776262 0.603651937 0.196288360
0.302712321 0.606601730 0.194322577
0.367461195 0.610654593 0.191583748
0.426050089 0.615931571 0.188495584
0.483438058 0.619405009 0.185372610
0.541062512 0.622355230 0.180667361
0.597885169 0.625456560 0.174991896
0.652867749 0.629383326 0.168958273
0.706110056 0.631508842 0.164542507
0.758883566 0.632185638 0.158271991
0.810531858 0.631575905 0.150770071
0.860398516 0.629841834 0.142660096
0.004552953 0.645940661 0.216304481
0.017720301 0.646649614 0.214326710
0.050655867 0.647869080 0.212732546
0.101630820 0.649330571 0.211850140
0.168916330 0.650765598 0.212007642
0.236456644 0.651460961 0.211782482
0.300670400 0.653239310 0.210199036
0.361467704 0.656322286 0.207572170
0.418758661 0.660931528 0.204216748
0.474346347 0.664749697 0.201148693
0.530579656 0.667988122 0.196876995
0.585660756 0.670840934 0.191543378
0.637791812 0.673502266 0.185289562
0.689787462 0.676272988 0.179671295
0.741712421 0.678203583 0.172550932
0.793297648 0.679143965 0.164070740
0.844274104 0.678944051 0.154372990
0.013681434 0.689766347 0.232809968
0.031065921 0.691566791 0.232103849
0.066940887 0.692893602 0.231220627
0.117010467 0.694349170 0.230785315
0.176978793 0.696535885 0.231422924
0.240732524 0.697069477 0.230186252
0.301057186 0.699067198 0.227875235
0.359088562 0.701843195 0.225424897
0.415962435 0.704711616 0.223770265
0.470977621 0.708239838 0.220798584
0.523802854 0.712360911 0.216609482
0.574652724 0.715885025 0.211606268
0.623741820 0.717622370 0.206192251
0.675047304 0.720999639 0.199557880
0.726189472 0.723550327 0.191984732
0.777661767 0.725246411 0.183476020
0.829957634 0.726059869 0.174034957
0.051290241 0.733010620 0.252316698
0.069833677 0.734278634 0.252468031
0.102120598 0.735573530 0.251889236
0.144926692 0.737178683 0.251440305
0.195027649 0.739377469 0.251981229
0.252621215 0.740701519 0.250363192
0.308912463 0.742534325 0.248151459
0.364226136 0.744780309 0.246034943
0.418886974 0.747343898 0.244702555
0.471422061 0.750934325 0.242136134
0.521268167 0.755121782 0.238556203
0.568981498 0.758848242 0.234217463
0.615118265 0.761055678 0.229374617
0.664431639 0.764393441 0.222561102
0.714329451 0.767590538 0.214961737
0.766156621 0.770196043 0.205848657
0.821258068 0.771759033 0.194493994
0.088713210 0.776886955 0.272742182
0.107434709 0.777609073 0.273400513
0.135181702 0.779104590 0.272952974
0.170962605 0.780954238 0.272296995
0.213785835 0.782738745 0.272330008
0.265119102 0.785027184 0.270905392
0.317525886 0.786696769 0.269242644
0.370086990 0.788558368 0.267468220
0.421883218 0.791422844 0.265708573
0.470701054 0.795401365 0.263560101
0.517722730 0.799433842 0.260744449
0.563083556 0.803075444 0.257169663
0.606918842 0.805881336 0.252743792
0.653865311 0.808963887 0.246255103
0.702629022 0.812713087 0.238860067
0.755674843 0.816138480 0.229078657
0.815467641 0.818249613 0.215430848
0.097284175 0.822608829 0.292003930
0.117280155 0.824382037 0.292882554
0.145110901 0.826682508 0.292626441
0.180701312 0.828810960 0.291837268
0.223976284 0.830068111 0.291116714
0.271222569 0.832716569 0.290404946
0.320187107 0.834610611 0.289363727
0.369877689 0.836602107 0.287790641
0.419302106 0.839542925 0.285483271
0.463835984 0.844209164 0.283469245
0.507913679 0.848460197 0.281201512
0.551395372 0.851911485 0.278255567
0.594141245 0.854178488 0.274206907
0.639273167 0.857220471 0.268214025
0.687584847 0.861306846 0.261057839
0.743109062 0.865219340 0.251056027
0.809878588 0.867739677 0.236526266
0.050711597 0.041625572 0.079258379
0.110428920 0.045307323 0.079261149
0.167519804 0.048692085 0.078507777
0.223317620 0.051923346 0.076772752
0.279155739 0.055144591 0.073830564
0.336746141 0.055746015 0.070356148
0.397870168 0.058065284 0.067673415
0.465961149 0.062087270 0.065011947
0.544452414 0.067796847 0.061601322
0.624921355 0.073015069 0.056189403
0.696382977 0.077470877 0.052449751
0.761552066 0.080952892 0.049539863
0.823143408 0.083249735 0.046617233
0.882093433 0.087588660 0.042189586
0.938973054 0.092118770 0.036592972
0.981993511 0.096900668 0.030777564
0.999366045 0.101994962 0.025693537
0.062455355 0.089289044 0.092764423
0.107955264 0.092353636 0.092031101
0.158095303 0.095575627 0.090755449
0.211852474 0.099162616 0.088996023
0.268203776 0.103322202 0.086811383
0.325484434 0.105255327 0.084327665
0.386812974 0.107913723 0.081688792
0.454662640 0.110935166 0.078414179
0.531506676 0.113957433 0.074023239
0.610873062 0.117393951 0.069139321
0.682382673 0.120094740 0.065373228
0.748542343 0.121413426 0.062077220
0.811858907 0.120703633 0.058603558
0.873725140 0.118780633 0.053979636
0.933440434 0.115347507 0.048319144
0.978999456 0.111365038 0.042331261
0.998396873 0.107794011 0.036725165
0.075973899 0.134826646 0.108137101
0.112097576 0.137532092 0.106771156
0.154590757 0.140204251 0.104744483
0.203349613 0.143440375 0.102627073
0.258270318 0.147837717 0.100988921
0.314842396 0.151180090 0.100050564
0.376650047 0.154238770 0.097472809
0.445097378 0.156990342 0.093502718
0.521588497 0.159411389 0.088387358
0.598962130 0.162256914 0.083228104
0.669745788 0.164204499 0.079076366
0.736090869 0.164560167 0.075351762
0.800148770 0.162629941 0.071473907
0.862554068 0.158149770 0.066587199
0.923601203 0.151558010 0.060995378
0.972098665 0.143067165 0.054942303
0.996854946 0.132889736 0.048671833
0.088242833 0.179152414 0.123919431
0.118132322 0.181650545 0.122302123
0.153476339 0.183670876 0.119970768
0.196178964 0.186304405 0.117800634
0.248144278 0.190642131 0.116666990
0.304359036 0.195131029 0.116821898
0.367383057 0.198438688 0.114220637
0.437316952 0.201286044 0.109720938
0.514261331 0.204394036 0.104180532
0.589066878 0.207585721 0.098480455
0.658409836 0.209593341 0.093862882
0.724156789 0.209911794 0.089775469
0.788174324 0.208035978 0.085665870
0.849994419 0.203211583 0.080717252
0.911281159 0.196211587 0.075246547
0.962564407 0.186198848 0.069124540
0.994374026 0.172336225 0.062222015
0.096237762 0.223180383 0.138654429
0.121335964 0.225516853 0.137444810
0.151222223 0.227068424 0.135930195
0.188710455 0.229302489 0.134651439
0.236614574 0.233686440 0.134149402
0.293573364 0.238718870 0.133938719
0.359013677 0.241911737 0.131127452
0.431372954 0.244855519 0.126512212
0.509088635 0.249140695 0.120889612
0.581065625 0.253362134 0.114921080
0.648312330 0.256054454 0.110036492
0.712699253 0.256986985 0.105760320
0.776096895 0.255929060 0.101617036
0.837460395 0.251481583 0.097074771
0.898306102 0.244769543 0.091697526
0.951669950 0.234951889 0.085391823
0.990587875 0.221187569 0.078064186
0.089533147 0.271114543 0.152240466
0.106243679 0.273849499 0.151740347
0.130683239 0.276464614 0.150949522
0.167008508 0.279275106 0.149917959
0.219376164 0.282596191 0.148695625
0.280187506 0.287064283 0.147450093
0.350080909 0.290144199 0.144730101
0.425705294 0.293117004 0.140976884
0.503709577 0.297263760 0.136631678
0.572220415 0.301608464 0.131329538
0.637437196 0.304219889 0.126381794
0.700632601 0.305172962 0.121650961
0.763079308 0.304542607 0.116999551
0.823856141 0.301279300 0.112502327
0.883577343 0.295618474 0.107040712
0.937842864 0.286842385 0.100617727
0.982252654 0.274233293 0.093236392
0.057194208 0.325861704 0.164056791
0.066533209 0.328452771 0.163632203
0.091774500 0.331471853 0.163252546
0.134401361 0.334442906 0.162721232
0.195897074 0.336889885 0.161841676
0.264611482 0.339616968 0.159654174
0.339384463 0.342832346 0.157085867
0.416667894 0.346698562 0.153876026
0.492913656 0.351378161 0.149763921
0.558432573 0.356334724 0.144969177
0.621846899 0.358819030 0.140283944
0.684343610 0.358945458 0.135630023
0.747109681 0.356828388 0.130929211
0.807792878 0.354100718 0.126487932
0.866833288 0.349169904 0.121316502
0.921983365 0.341383289 0.115145934
0.970995560 0.330088213 0.107707240
0.020650396 0.383835690 0.175513742
0.025117680 0.386347083 0.174713319
0.052555622 0.389495224 0.174294325
0.100791261 0.392525043 0.174029146
0.167651635 0.394681472 0.173690171
0.246147943 0.396243587 0.170562164
0.326001020 0.399735299 0.167779586
0.404205301 0.404500924 0.164624054
0.477755219 0.409884775 0.160377189
0.541163123 0.415073278 0.156356179
0.602902247 0.417514760 0.152258840
0.664502401 0.417263523 0.148017946
0.727493398 0.414373869 0.143566269
0.788092865 0.412085776 0.139318886
0.846466096 0.407942055 0.134549010
0.902150043 0.401126119 0.128755033
0.954681657 0.390821381 0.121435350
0.001331165 0.441450328 0.188021660
0.004910212 0.444552850 0.186576637
0.031086222 0.447939809 0.185529919
0.076080457 0.451240672 0.184809590
0.136114176 0.454084903 0.184343729
0.224099536 0.456810798 0.180185266
0.309007265 0.460612182 0.176396094
0.388262058 0.465424819 0.172635389
0.459288612 0.471184477 0.168562327
0.521873087 0.475356486 0.166006732
0.581964046 0.477969963 0.162822383
0.641779095 0.479086207 0.159135168
0.703535840 0.478766516 0.155070979
0.763578363 0.477374410 0.151282490
0.820867926 0.474453144 0.146762351
0.876401488 0.468622396 0.141223617
0.931176007 0.458501846 0.134379346
0.002914772 0.495480400 0.201231397
0.004295398 0.497750691 0.199146683
0.018095475 0.500099557 0.196695024
0.054819724 0.502357548 0.194430801
0.124972864 0.504355211 0.192908400
0.220350539 0.507925407 0.190484163
0.304664474 0.512386977 0.188169823
0.379917457 0.517381168 0.185785924
0.448112277 0.522549227 0.183153010
0.508344140 0.526112433 0.180909117
0.567424115 0.528601165 0.178014669
0.626325196 0.530787824 0.173672642
0.686020378 0.533444811 0.167086015
0.742998159 0.534325932 0.162547319
0.798102308 0.533052839 0.158130705
0.851606566 0.529744738 0.152728308
0.903784674 0.524520833 0.145232262
0.004210870 0.547358684 0.214472476
0.006667283 0.548818130 0.211909261
0.023996752 0.550413147 0.209185299
0.064918339 0.552056473 0.207060502
0.138151109 0.553660847 0.206294784
0.226602485 0.556946900 0.205512795
0.304226917 0.560921576 0.203717166
0.373808522 0.565495389 0.201304211
0.438131414 0.570578851 0.198670246
0.496952683 0.573991375 0.196283208
0.555063415 0.576637685 0.193132031
0.612729063 0.579455581 0.188465908
0.670215078 0.583382860 0.181534033
0.724899480 0.585419165 0.176584679
0.778544247 0.585094925 0.171385494
0.831030181 0.583190702 0.164792594
0.882238083 0.580487058 0.155662091
0.006254488 0.597721908 0.227379607
0.012380772 0.598639562 0.224888519
0.039073805 0.599730833 0.222725668
0.087716323 0.601000470 0.221593765
0.159691062 0.602453224 0.222195527
0.235642980 0.604739523 0.222201667
0.304753225 0.607732365 0.220295618
0.368711348 0.611672301 0.217347754
0.429206898 0.616799880 0.214228451
0.486861617 0.620269697 0.211653685
0.543993400 0.623192521 0.208223681
0.600284768 0.626266778 0.203591387
0.655418240 0.630190894 0.197409749
0.708311248 0.632475566 0.192133307
0.760966217 0.632850725 0.185918142
0.813067437 0.632007268 0.178000140
0.864299197 0.630636092 0.167615185
0.010080652 0.647206798 0.239587497
0.021790771 0.648099381 0.238108608
0.053610389 0.648902871 0.237041054
0.104553694 0.649852563 0.236925665
0.173634872 0.651183754 0.238303270
0.240259631 0.652167521 0.237481285
0.303302027 0.654335730 0.235162674
0.363402029 0.657816723 0.232074054
0.421199605 0.662738845 0.228942044
0.477233846 0.666223783 0.226545228
0.533325523 0.669378668 0.223338831
0.588286381 0.672398716 0.219125500
0.640928164 0.675479144 0.213707879
0.692262381 0.677316591 0.207931940
0.744140692 0.678591564 0.201120073
0.796113443 0.679241419 0.192934612
0.847730979 0.679203510 0.183037892
0.022727947 0.691463046 0.256307435
0.039780692 0.692501390 0.255325717
0.074322561 0.693412257 0.255166815
0.123715308 0.694657121 0.255700574
0.185320689 0.696697455 0.256796836
0.247882582 0.697258187 0.255297909
0.306666752 0.699584596 0.252486820
0.363582654 0.702742006 0.249795462
0.420539742 0.705795743 0.248655730
0.475185781 0.709624758 0.246313427
0.527977643 0.713835126 0.242163419
0.579042958 0.717526475 0.237211468
0.628509358 0.719798435 0.232463335
0.679211923 0.721865420 0.226477104
0.730055507 0.724200511 0.219461652
0.781489332 0.725970889 0.211367873
0.833962619 0.726343736 0.202146661
0.059010882 0.733785890 0.276050549
0.078329972 0.735314531 0.275955118
0.110329862 0.736513790 0.276309056
0.153052965 0.737782303 0.276877498
0.204541691 0.739518709 0.277425580
0.261568765 0.740748731 0.275760449
0.316374626 0.742936689 0.273508146
0.370196298 0.745655006 0.271479461
0.424270805 0.748476103 0.270485183
0.476207441 0.752202921 0.268058115
0.525850346 0.756464697 0.264121379
0.573754601 0.760288857 0.259517692
0.620475285 0.762702823 0.255089771
0.669460490 0.765427383 0.249281875
0.719004128 0.768737126 0.242527121
0.770330206 0.771529263 0.234078802
0.824662730 0.772701003 0.223190211
0.095421032 0.777593650 0.297294576
0.115228096 0.779329509 0.297960644
0.143222410 0.780800244 0.298350842
0.179158886 0.782054673 0.298461325
0.222792438 0.783141613 0.298288248
0.274124090 0.785332796 0.296990874
0.325392118 0.787374882 0.295580015
0.376367429 0.789732790 0.294087859
0.426820930 0.792871438 0.292546595
0.475247352 0.796598066 0.290145865
0.522012535 0.800445655 0.287036551
0.567477176 0.804029008 0.283296138
0.612001974 0.806962926 0.279002112
0.659179608 0.810202068 0.273458270
0.707955174 0.814009627 0.266997074
0.760142053 0.817426046 0.258100835
0.817553628 0.819491766 0.245251866
0.108449971 0.826304644 0.318517253
0.128264550 0.827337027 0.319306124
0.154590317 0.828864396 0.319175236
0.188625292 0.830300793 0.318456940
0.231567495 0.831060261 0.317483589
0.278354468 0.833704025 0.317111153
0.326685697 0.835882045 0.316055786
0.375220515 0.838152424 0.314582461
0.422618255 0.841073260 0.312956154
0.467254041 0.845449988 0.310943251
0.511533108 0.848956272 0.308732778
0.555266548 0.852090076 0.305798775
0.598265454 0.855349362 0.301615283
0.644540802 0.858389065 0.296118308
0.693877265 0.861826234 0.289552107
0.748430867 0.865170747 0.280467412
0.810357630 0.867932484 0.267414954
0.053475158 0.044787686 0.121846773
0.113683943 0.048734856 0.121233041
0.170890555 0.052135128 0.120036380
0.227219377 0.055143278 0.118196623
0.284794793 0.057914084 0.115653604
0.343244966 0.059714032 0.112066806
0.403902508 0.062744092 0.108907998
0.471403200 0.066618678 0.105397374
0.550382823 0.070952203 0.100755133
0.629970469 0.075408710 0.095057864
0.700980067 0.079626389 0.090739848
0.766186185 0.083270923 0.086904024
0.828363389 0.086007997 0.082653331
0.888351463 0.089138507 0.078361880
0.944152370 0.092994237 0.072299415
0.984675862 0.097650273 0.065042853
0.998831689 0.103181697 0.057169111
0.066165632 0.093438348 0.134869526
0.111869713 0.096407536 0.133627596
0.162227219 0.099462917 0.132062257
0.216462126 0.102737108 0.130249206
0.273798406 0.106362723 0.128264138
0.331406173 0.108630992 0.125268286
0.393175745 0.111754755 0.122526210
0.461377142 0.114879161 0.119066704
0.538280383 0.117149361 0.113918562
0.615931138 0.119891614 0.108517057
0.686671454 0.122661985 0.104277640
0.752812043 0.124579811 0.100308319
0.816663615 0.124764426 0.095717104
0.879258243 0.122331143 0.090638682
0.937840462 0.118568613 0.084389444
0.981137861 0.114281633 0.077603521
0.997878030 0.110275003 0.070915047
0.081529738 0.138666553 0.147728441
0.116621012 0.141272691 0.146103954
0.158659392 0.144070663 0.144180178
0.207593981 0.147382958 0.142258035
0.263373882 0.151532063 0.140638452
0.319552699 0.154375828 0.138681103
0.382384475 0.157565598 0.135989520
0.451940034 0.160507048 0.132191330
0.528290197 0.162605848 0.126914162
0.603779070 0.164711888 0.121618248
0.673827440 0.166764105 0.117412902
0.740260359 0.167757402 0.113413833
0.804902881 0.166686684 0.108736746
0.868002463 0.162255613 0.103189087
0.928050943 0.155814022 0.097128982
0.974336240 0.147296012 0.090834370
0.996146277 0.136635685 0.084583190
0.094392242 0.182372799 0.160294654
0.122282766 0.184806697 0.158591237
0.156543921 0.187177629 0.156625828
0.199227798 0.190241846 0.154810793
0.252386490 0.194755597 0.153558500
0.307993554 0.198585636 0.152590558
0.372277074 0.201870147 0.149745496
0.443522207 0.204801108 0.145417294
0.520014115 0.207570497 0.139999936
0.593195450 0.209876262 0.134703140
0.662125565 0.211843633 0.130554712
0.728257703 0.212617067 0.126635093
0.793045104 0.211341022 0.122024721
0.855607903 0.206879868 0.116435421
0.916181009 0.200392801 0.110780498
0.965359654 0.190704838 0.104918082
0.993739069 0.176640997 0.098706308
0.099577907 0.226457581 0.172439300
0.123199902 0.228485929 0.171018567
0.152237654 0.230003078 0.169634894
0.189976431 0.232474787 0.168495158
0.239701502 0.237366818 0.167806238
0.297037749 0.242897516 0.167281950
0.363601916 0.246361926 0.164241705
0.436553996 0.249060113 0.159390640
0.513053983 0.252292141 0.153433889
0.583861463 0.255391467 0.148113437
0.651243374 0.257811457 0.144112147
0.716530643 0.258972175 0.140386629
