shared/src/main/assets/luts/dalur_memory_01.cube
TITLE "DALUR memory"
LUT_3D_SIZE 9
DOMAIN_MIN 0.0 0.0 0.0
DOMAIN_MAX 1.0 1.0 1.0
0.062290 0.029876 0.021035
0.183758 0.028122 0.019281
0.305227 0.026368 0.017527
0.426695 0.024613 0.015772
0.548163 0.022859 0.014018
0.669631 0.021104 0.012263
0.791100 0.019350 0.010509
0.912568 0.017595 0.008754
1.000000 0.015841 0.007000
0.058732 0.153593 0.017478
0.180201 0.151839 0.015723
0.301669 0.150084 0.013969
0.423137 0.148330 0.012214
0.544606 0.146575 0.010460
0.666074 0.144821 0.008706
0.787542 0.143067 0.006951
0.909010 0.141312 0.005197
1.000000 0.139558 0.003442
0.055175 0.277310 0.013920
0.176643 0.275556 0.012166
0.298111 0.273801 0.010411
0.419580 0.272047 0.008657
0.541048 0.270292 0.006902
0.662516 0.268538 0.005148
0.783984 0.266783 0.003393
0.905453 0.265029 0.001639
1.000000 0.263274 0.000000
0.051617 0.401027 0.010363
0.173085 0.399272 0.008608
0.294554 0.397518 0.006854
0.416022 0.395764 0.005099
0.537490 0.394009 0.003345
0.658959 0.392255 0.001590
0.780427 0.390500 0.000000
0.901895 0.388746 0.000000
1.000000 0.386991 0.000000
0.048059 0.524744 0.006805
0.169528 0.522989 0.005051
0.290996 0.521235 0.003296
0.412464 0.519480 0.001542
0.533933 0.517726 0.000000
0.655401 0.515971 0.000000
0.776869 0.514217 0.000000
0.898338 0.512463 0.000000
1.000000 0.510708 0.000000
0.044502 0.648461 0.003247
0.165970 0.646706 0.001493
0.287438 0.644952 0.000000
0.408907 0.643197 0.000000
0.530375 0.641443 0.000000
0.651843 0.639688 0.000000
0.773312 0.637934 0.000000
0.894780 0.636179 0.000000
1.000000 0.634425 0.000000
0.040944 0.772177 0.000000
0.162413 0.770423 0.000000
0.283881 0.768668 0.000000
0.405349 0.766914 0.000000
0.526817 0.765160 0.000000
0.648286 0.763405 0.000000
0.769754 0.761651 0.000000
0.891222 0.759896 0.000000
1.000000 0.758142 0.000000
0.037387 0.895894 0.000000
0.158855 0.894140 0.000000
0.280323 0.892385 0.000000
0.401792 0.890631 0.000000
0.523260 0.888876 0.000000
0.644728 0.887122 0.000000
0.766196 0.885367 0.000000
0.887665 0.883613 0.000000
1.000000 0.881859 0.000000
0.033829 1.000000 0.000000
0.155297 1.000000 0.000000
0.276766 1.000000 0.000000
0.398234 1.000000 0.000000
0.519702 1.000000 0.000000
0.641170 1.000000 0.000000
0.762639 1.000000 0.000000
0.884107 1.000000 0.000000
1.000000 1.000000 0.000000
0.061613 0.029200 0.145063
0.183081 0.027445 0.143309
0.304550 0.025691 0.141554
0.426018 0.023936 0.139800
0.547486 0.022182 0.138045
0.668954 0.020427 0.136291
0.790423 0.018673 0.134536
0.911891 0.016918 0.132782
1.000000 0.015164 0.131027
0.058055 0.152916 0.141505
0.179524 0.151162 0.139751
0.300992 0.149407 0.137997
0.422460 0.147653 0.136242
0.543929 0.145899 0.134488
0.665397 0.144144 0.132733
0.786865 0.142390 0.130979
0.908333 0.140635 0.129224
1.000000 0.138881 0.127470
0.054498 0.276633 0.137948
0.175966 0.274879 0.136193
0.297434 0.273124 0.134439
0.418903 0.271370 0.132684
0.540371 0.269615 0.130930
0.661839 0.267861 0.129176
0.783308 0.266106 0.127421
0.904776 0.264352 0.125667
1.000000 0.262597 0.123912
0.050940 0.400350 0.134390
0.172408 0.398596 0.132636
0.293877 0.396841 0.130881
0.415345 0.395087 0.129127
0.536813 0.393332 0.127372
0.658282 0.391578 0.125618
0.779750 0.389823 0.123863
0.901218 0.388069 0.122109
1.000000 0.386314 0.120355
0.047383 0.524067 0.130833
0.168851 0.522312 0.129078
0.290319 0.520558 0.127324
0.411787 0.518803 0.125569
0.533256 0.517049 0.123815
0.654724 0.515294 0.122060
0.776192 0.513540 0.120306
0.897661 0.511786 0.118551
1.000000 0.510031 0.116797
0.043825 0.647784 0.127275
0.165293 0.646029 0.125521
0.286761 0.644275 0.123766
0.408230 0.642520 0.122012
0.529698 0.640766 0.120257
0.651166 0.639011 0.118503
0.772635 0.637257 0.116748
0.894103 0.635502 0.114994
1.000000 0.633748 0.113239
0.040267 0.771500 0.123717
0.161736 0.769746 0.121963
0.283204 0.767991 0.120208
0.404672 0.766237 0.118454
0.526140 0.764483 0.116700
0.647609 0.762728 0.114945
0.769077 0.760974 0.113191
0.890545 0.759219 0.111436
1.000000 0.757465 0.109682
0.036710 0.895217 0.120160
0.158178 0.893463 0.118405
0.279646 0.891708 0.116651
0.401115 0.889954 0.114896
0.522583 0.888199 0.113142
0.644051 0.886445 0.111387
0.765519 0.884690 0.109633
0.886988 0.882936 0.107879
1.000000 0.881182 0.106124
0.033152 1.000000 0.116602
0.154620 1.000000 0.114848
0.276089 1.000000 0.113093
0.397557 1.000000 0.111339
0.519025 1.000000 0.109584
0.640493 1.000000 0.107830
0.761962 1.000000 0.106075
0.883430 1.000000 0.104321
1.000000 1.000000 0.102566
0.060936 0.028523 0.269091
0.182404 0.026768 0.267336
0.303873 0.025014 0.265582
0.425341 0.023259 0.263827
0.546809 0.021505 0.262073
0.668278 0.019750 0.260318
0.789746 0.017996 0.258564
0.911214 0.016241 0.256809
1.000000 0.014487 0.255055
0.057378 0.152239 0.265533
0.178847 0.150485 0.263779
0.300315 0.148730 0.262024
0.421783 0.146976 0.260270
0.543252 0.145222 0.258515
0.664720 0.143467 0.256761
0.786188 0.141713 0.255006
0.907656 0.139958 0.253252
1.000000 0.138204 0.251497
0.053821 0.275956 0.261975
0.175289 0.274202 0.260221
0.296757 0.272447 0.258467
0.418226 0.270693 0.256712
0.539694 0.268938 0.254958
0.661162 0.267184 0.253203
0.782631 0.265429 0.251449
0.904099 0.263675 0.249694
1.000000 0.261921 0.247940
0.050263 0.399673 0.258418
0.171731 0.397919 0.256663
0.293200 0.396164 0.254909
0.414668 0.394410 0.253154
0.536136 0.392655 0.251400
0.657605 0.390901 0.249646
0.779073 0.389146 0.247891
0.900541 0.387392 0.246137
1.000000 0.385637 0.244382
0.046706 0.523390 0.254860
0.168174 0.521635 0.253106
0.289642 0.519881 0.251351
0.411110 0.518126 0.249597
0.532579 0.516372 0.247842
0.654047 0.514618 0.246088
0.775515 0.512863 0.244333
0.896984 0.511109 0.242579
1.000000 0.509354 0.240825
0.043148 0.647107 0.251303
0.164616 0.645352 0.249548
0.286085 0.643598 0.247794
0.407553 0.641843 0.246039
0.529021 0.640089 0.244285
0.650489 0.638334 0.242530
0.771958 0.636580 0.240776
0.893426 0.634825 0.239021
1.000000 0.633071 0.237267
0.039590 0.770823 0.247745
0.161059 0.769069 0.245990
0.282527 0.767315 0.244236
0.403995 0.765560 0.242482
0.525463 0.763806 0.240727
0.646932 0.762051 0.238973
0.768400 0.760297 0.237218
0.889868 0.758542 0.235464
1.000000 0.756788 0.233709
0.036033 0.894540 0.244187
0.157501 0.892786 0.242433
0.278969 0.891031 0.240678
0.400438 0.889277 0.238924
0.521906 0.887522 0.237169
0.643374 0.885768 0.235415
0.764842 0.884014 0.233661
0.886311 0.882259 0.231906
1.000000 0.880505 0.230152
0.032475 1.000000 0.240630
0.153943 1.000000 0.238875
0.275412 1.000000 0.237121
0.396880 1.000000 0.235366
0.518348 1.000000 0.233612
0.639817 1.000000 0.231857
0.761285 1.000000 0.230103
0.882753 1.000000 0.228348
1.000000 1.000000 0.226594
0.060259 0.027846 0.393118
0.181727 0.026091 0.391364
0.303196 0.024337 0.389609
0.424664 0.022582 0.387855
0.546132 0.020828 0.386100
0.667601 0.019073 0.384346
0.789069 0.017319 0.382592
0.910537 0.015564 0.380837
1.000000 0.013810 0.379083
0.056701 0.151562 0.389561
0.178170 0.149808 0.387806
0.299638 0.148053 0.386052
0.421106 0.146299 0.384297
0.542575 0.144545 0.382543
0.664043 0.142790 0.380788
0.785511 0.141036 0.379034
0.906980 0.139281 0.377279
1.000000 0.137527 0.375525
0.053144 0.275279 0.386003
0.174612 0.273525 0.384249
0.296080 0.271770 0.382494
0.417549 0.270016 0.380740
0.539017 0.268261 0.378985
0.660485 0.266507 0.377231
0.781954 0.264752 0.375476
0.903422 0.262998 0.373722
1.000000 0.261244 0.371967
0.049586 0.398996 0.382445
0.171055 0.397242 0.380691
0.292523 0.395487 0.378936
0.413991 0.393733 0.377182
0.535459 0.391978 0.375428
0.656928 0.390224 0.373673
0.778396 0.388469 0.371919
0.899864 0.386715 0.370164
1.000000 0.384960 0.368410
0.046029 0.522713 0.378888
0.167497 0.520958 0.377133
0.288965 0.519204 0.375379
0.410433 0.517449 0.373624
0.531902 0.515695 0.371870
0.653370 0.513941 0.370115
0.774838 0.512186 0.368361
0.896307 0.510432 0.366607
1.000000 0.508677 0.364852
0.042471 0.646430 0.375330
0.163939 0.644675 0.373576
0.285408 0.642921 0.371821
0.406876 0.641166 0.370067
0.528344 0.639412 0.368312
0.649812 0.637657 0.366558
0.771281 0.635903 0.364803
0.892749 0.634148 0.363049
1.000000 0.632394 0.361294
0.038913 0.770146 0.371773
0.160382 0.768392 0.370018
0.281850 0.766638 0.368264
0.403318 0.764883 0.366509
0.524787 0.763129 0.364755
0.646255 0.761374 0.363000
0.767723 0.759620 0.361246
0.889191 0.757865 0.359491
1.000000 0.756111 0.357737
0.035356 0.893863 0.368215
0.156824 0.892109 0.366460
0.278292 0.890354 0.364706
0.399761 0.888600 0.362952
0.521229 0.886845 0.361197
0.642697 0.885091 0.359443
0.764165 0.883337 0.357688
0.885634 0.881582 0.355934
1.000000 0.879828 0.354179
0.031798 1.000000 0.364657
0.153266 1.000000 0.362903
0.274735 1.000000 0.361148
0.396203 1.000000 0.359394
0.517671 1.000000 0.357639
0.639140 1.000000 0.355885
0.760608 1.000000 0.354131
0.882076 1.000000 0.352376
1.000000 1.000000 0.350622
0.059582 0.027169 0.517146
0.181050 0.025414 0.515391
0.302519 0.023660 0.513637
0.423987 0.021905 0.511882
0.545455 0.020151 0.510128
0.666924 0.018396 0.508374
0.788392 0.016642 0.506619
0.909860 0.014887 0.504865
1.000000 0.013133 0.503110
0.056024 0.150885 0.513588
0.177493 0.149131 0.511834
0.298961 0.147377 0.510079
0.420429 0.145622 0.508325
0.541898 0.143868 0.506570
0.663366 0.142113 0.504816
0.784834 0.140359 0.503061
0.906303 0.138604 0.501307
1.000000 0.136850 0.499553
0.052467 0.274602 0.510031
0.173935 0.272848 0.508276
0.295403 0.271093 0.506522
0.416872 0.269339 0.504767
0.538340 0.267584 0.503013
0.659808 0.265830 0.501258
0.781277 0.264076 0.499504
0.902745 0.262321 0.497749
1.000000 0.260567 0.495995
0.048909 0.398319 0.506473
0.170378 0.396565 0.504719
0.291846 0.394810 0.502964
0.413314 0.393056 0.501210
0.534782 0.391301 0.499455
0.656251 0.389547 0.497701
0.777719 0.387792 0.495946
0.899187 0.386038 0.494192
1.000000 0.384283 0.492437
0.045352 0.522036 0.502915
0.166820 0.520281 0.501161
0.288288 0.518527 0.499406
0.409757 0.516773 0.497652
0.531225 0.515018 0.495898
0.652693 0.513264 0.494143
0.774161 0.511509 0.492389
0.895630 0.509755 0.490634
1.000000 0.508000 0.488880
0.041794 0.645753 0.499358
0.163262 0.643998 0.497603
0.284731 0.642244 0.495849
0.406199 0.640489 0.494094
0.527667 0.638735 0.492340
0.649135 0.636980 0.490585
0.770604 0.635226 0.488831
0.892072 0.633471 0.487077
1.000000 0.631717 0.485322
0.038236 0.769470 0.495800
0.159705 0.767715 0.494046
0.281173 0.765961 0.492291
0.402641 0.764206 0.490537
0.524110 0.762452 0.488782
0.645578 0.760697 0.487028
0.767046 0.758943 0.485273
0.888514 0.757188 0.483519
1.000000 0.755434 0.481764
0.034679 0.893186 0.492243
0.156147 0.891432 0.490488
0.277615 0.889677 0.488734
0.399084 0.887923 0.486979
0.520552 0.886168 0.485225
0.642020 0.884414 0.483470
0.763489 0.882660 0.481716
0.884957 0.880905 0.479961
1.000000 0.879151 0.478207
0.031121 1.000000 0.488685
0.152589 1.000000 0.486930
0.274058 1.000000 0.485176
0.395526 1.000000 0.483422
0.516994 1.000000 0.481667
0.638463 1.000000 0.479913
0.759931 1.000000 0.478158
0.881399 1.000000 0.476404
1.000000 1.000000 0.474649
0.058905 0.026492 0.641173
0.180373 0.024737 0.639419
0.301842 0.022983 0.637665
0.423310 0.021228 0.635910
0.544778 0.019474 0.634156
0.666247 0.017719 0.632401
0.787715 0.015965 0.630647
0.909183 0.014210 0.628892
1.000000 0.012456 0.627138
0.055348 0.150208 0.637616
0.176816 0.148454 0.635861
0.298284 0.146700 0.634107
0.419752 0.144945 0.632352
0.541221 0.143191 0.630598
0.662689 0.141436 0.628844
0.784157 0.139682 0.627089
0.905626 0.137927 0.625335
1.000000 0.136173 0.623580
0.051790 0.273925 0.634058
0.173258 0.272171 0.632304
0.294726 0.270416 0.630549
0.416195 0.268662 0.628795
0.537663 0.266907 0.627040
0.659131 0.265153 0.625286
0.780600 0.263399 0.623531
0.902068 0.261644 0.621777
1.000000 0.259890 0.620023
0.048232 0.397642 0.630501
0.169701 0.395888 0.628746
0.291169 0.394133 0.626992
0.412637 0.392379 0.625237
0.534105 0.390624 0.623483
0.655574 0.388870 0.621728
0.777042 0.387115 0.619974
0.898510 0.385361 0.618219
1.000000 0.383606 0.616465
0.044675 0.521359 0.626943
0.166143 0.519604 0.625189
0.287611 0.517850 0.623434
0.409080 0.516096 0.621680
0.530548 0.514341 0.619925
0.652016 0.512587 0.618171
0.773484 0.510832 0.616416
0.894953 0.509078 0.614662
1.000000 0.507323 0.612907
0.041117 0.645076 0.623385
0.162585 0.643321 0.621631
0.284054 0.641567 0.619876
0.405522 0.639812 0.618122
0.526990 0.638058 0.616368
0.648458 0.636303 0.614613
0.769927 0.634549 0.612859
0.891395 0.632795 0.611104
1.000000 0.631040 0.609350
0.037559 0.768793 0.619828
0.159028 0.767038 0.618073
0.280496 0.765284 0.616319
0.401964 0.763529 0.614564
0.523433 0.761775 0.612810
0.644901 0.760020 0.611055
0.766369 0.758266 0.609301
0.887837 0.756511 0.607547
1.000000 0.754757 0.605792
0.034002 0.892509 0.616270
0.155470 0.890755 0.614516
0.276938 0.889000 0.612761
0.398407 0.887246 0.611007
0.519875 0.885492 0.609252
0.641343 0.883737 0.607498
0.762812 0.881983 0.605743
0.884280 0.880228 0.603989
1.000000 0.878474 0.602234
0.030444 1.000000 0.612712
0.151912 1.000000 0.610958
0.273381 1.000000 0.609204
0.394849 1.000000 0.607449
0.516317 1.000000 0.605695
0.637786 1.000000 0.603940
0.759254 1.000000 0.602186
0.880722 1.000000 0.600431
1.000000 1.000000 0.598677
0.058228 0.025815 0.765201
0.179696 0.024060 0.763447
0.301165 0.022306 0.761692
0.422633 0.020551 0.759938
0.544101 0.018797 0.758183
0.665570 0.017042 0.756429
0.787038 0.015288 0.754674
0.908506 0.013533 0.752920
1.000000 0.011779 0.751165
0.054671 0.149531 0.761643
0.176139 0.147777 0.759889
0.297607 0.146023 0.758135
0.419075 0.144268 0.756380
0.540544 0.142514 0.754626
0.662012 0.140759 0.752871
0.783480 0.139005 0.751117
0.904949 0.137250 0.749362
1.000000 0.135496 0.747608
0.051113 0.273248 0.758086
0.172581 0.271494 0.756331
0.294050 0.269739 0.754577
0.415518 0.267985 0.752822
0.536986 0.266230 0.751068
0.658454 0.264476 0.749314
0.779923 0.262722 0.747559
0.901391 0.260967 0.745805
1.000000 0.259213 0.744050
0.047555 0.396965 0.754528
0.169024 0.395211 0.752774
0.290492 0.393456 0.751019
0.411960 0.391702 0.749265
0.533428 0.389947 0.747510
0.654897 0.388193 0.745756
0.776365 0.386438 0.744001
0.897833 0.384684 0.742247
1.000000 0.382929 0.740493
0.043998 0.520682 0.750971
0.165466 0.518927 0.749216
0.286934 0.517173 0.747462
0.408403 0.515419 0.745707
0.529871 0.513664 0.743953
0.651339 0.511910 0.742198
0.772807 0.510155 0.740444
0.894276 0.508401 0.738689
1.000000 0.506646 0.736935
0.040440 0.644399 0.747413
0.161908 0.642644 0.745658
0.283377 0.640890 0.743904
0.404845 0.639135 0.742150
0.526313 0.637381 0.740395
0.647782 0.635626 0.738641
0.769250 0.633872 0.736886
0.890718 0.632118 0.735132
1.000000 0.630363 0.733377
0.036882 0.768116 0.743855
0.158351 0.766361 0.742101
0.279819 0.764607 0.740346
0.401287 0.762852 0.738592
0.522756 0.761098 0.736837
0.644224 0.759343 0.735083
0.765692 0.757589 0.733329
0.887160 0.755834 0.731574
1.000000 0.754080 0.729820
0.033325 0.891832 0.740298
0.154793 0.890078 0.738543
0.276261 0.888323 0.736789
0.397730 0.886569 0.735034
0.519198 0.884815 0.733280
0.640666 0.883060 0.731525
0.762135 0.881306 0.729771
0.883603 0.879551 0.728016
1.000000 0.877797 0.726262
0.029767 1.000000 0.736740
0.151235 1.000000 0.734986
0.272704 1.000000 0.733231
0.394172 1.000000 0.731477
0.515640 1.000000 0.729722
0.637109 1.000000 0.727968
0.758577 1.000000 0.726213
0.880045 1.000000 0.724459
1.000000 1.000000 0.722704
0.057551 0.025138 0.889229
0.179020 0.023383 0.887474
0.300488 0.021629 0.885720
0.421956 0.019874 0.883965
0.543424 0.018120 0.882211
0.664893 0.016365 0.880456
0.786361 0.014611 0.878702
0.907829 0.012857 0.876947
1.000000 0.011102 0.875193
0.053994 0.148855 0.885671
0.175462 0.147100 0.883917
0.296930 0.145346 0.882162
0.418398 0.143591 0.880408
0.539867 0.141837 0.878653
0.661335 0.140082 0.876899
0.782803 0.138328 0.875144
0.904272 0.136573 0.873390
1.000000 0.134819 0.871635
0.050436 0.272571 0.882113
0.171904 0.270817 0.880359
0.293373 0.269062 0.878604
0.414841 0.267308 0.876850
0.536309 0.265554 0.875096
0.657777 0.263799 0.873341
0.779246 0.262045 0.871587
0.900714 0.260290 0.869832
1.000000 0.258536 0.868078
0.046878 0.396288 0.878556
0.168347 0.394534 0.876801
0.289815 0.392779 0.875047
0.411283 0.391025 0.873292
0.532752 0.389270 0.871538
0.654220 0.387516 0.869783
0.775688 0.385761 0.868029
0.897156 0.384007 0.866275
1.000000 0.382252 0.864520
0.043321 0.520005 0.874998
0.164789 0.518251 0.873244
0.286257 0.516496 0.871489
0.407726 0.514742 0.869735
0.529194 0.512987 0.867980
0.650662 0.511233 0.866226
0.772130 0.509478 0.864471
0.893599 0.507724 0.862717
1.000000 0.505969 0.860962
0.039763 0.643722 0.871441
0.161231 0.641967 0.869686
0.282700 0.640213 0.867932
0.404168 0.638458 0.866177
0.525636 0.636704 0.864423
0.647105 0.634949 0.862668
0.768573 0.633195 0.860914
0.890041 0.631441 0.859159
1.000000 0.629686 0.857405
0.036205 0.767439 0.867883
0.157674 0.765684 0.866128
0.279142 0.763930 0.864374
0.400610 0.762175 0.862620
0.522079 0.760421 0.860865
0.643547 0.758666 0.859111
0.765015 0.756912 0.857356
0.886484 0.755157 0.855602
1.000000 0.753403 0.853847
0.032648 0.891155 0.864325
0.154116 0.889401 0.862571
0.275584 0.887646 0.860816
0.397053 0.885892 0.859062
0.518521 0.884138 0.857307
0.639989 0.882383 0.855553
0.761458 0.880629 0.853799
0.882926 0.878874 0.852044
1.000000 0.877120 0.850290
0.029090 1.000000 0.860768
0.150559 1.000000 0.859013
0.272027 1.000000 0.857259
0.393495 1.000000 0.855504
0.514963 1.000000 0.853750
0.636432 1.000000 0.851995
0.757900 1.000000 0.850241
0.879368 1.000000 0.848486
1.000000 1.000000 0.846732
0.056874 0.024461 1.000000
0.178343 0.022706 1.000000
0.299811 0.020952 1.000000
0.421279 0.019197 1.000000
0.542747 0.017443 1.000000
0.664216 0.015688 1.000000
0.785684 0.013934 1.000000
0.907152 0.012180 1.000000
1.000000 0.010425 0.999221
0.053317 0.148178 1.000000
0.174785 0.146423 1.000000
0.296253 0.144669 1.000000
0.417722 0.142914 1.000000
0.539190 0.141160 1.000000
0.660658 0.139405 1.000000
0.782126 0.137651 0.999172
0.903595 0.135896 0.997417
1.000000 0.134142 0.995663
0.049759 0.271894 1.000000
0.171227 0.270140 1.000000
0.292696 0.268385 1.000000
0.414164 0.266631 1.000000
0.535632 0.264877 0.999123
0.657100 0.263122 0.997369
0.778569 0.261368 0.995614
0.900037 0.259613 0.993860
1.000000 0.257859 0.992105
0.046201 0.395611 1.000000
0.167670 0.393857 1.000000
0.289138 0.392102 0.999074
0.410606 0.390348 0.997320
0.532075 0.388593 0.995566
0.653543 0.386839 0.993811
0.775011 0.385084 0.992057
0.896479 0.383330 0.990302
1.000000 0.381576 0.988548
0.042644 0.519328 0.999026
0.164112 0.517574 0.997271
0.285580 0.515819 0.995517
0.407049 0.514065 0.993762
0.528517 0.512310 0.992008
0.649985 0.510556 0.990253
0.771454 0.508801 0.988499
0.892922 0.507047 0.986745
1.000000 0.505292 0.984990
0.039086 0.643045 0.995468
0.160554 0.641290 0.993714
0.282023 0.639536 0.991959
0.403491 0.637781 0.990205
0.524959 0.636027 0.988450
0.646428 0.634273 0.986696
0.767896 0.632518 0.984941
0.889364 0.630764 0.983187
1.000000 0.629009 0.981432
0.035529 0.766762 0.991911
0.156997 0.765007 0.990156
0.278465 0.763253 0.988402
0.399933 0.761498 0.986647
0.521402 0.759744 0.984893
0.642870 0.757989 0.983138
0.764338 0.756235 0.981384
0.885807 0.754480 0.979629
1.000000 0.752726 0.977875
0.031971 0.890478 0.988353
0.153439 0.888724 0.986598
0.274907 0.886970 0.984844
0.396376 0.885215 0.983090
0.517844 0.883461 0.981335
0.639312 0.881706 0.979581
0.760781 0.879952 0.977826
0.882249 0.878197 0.976072
1.000000 0.876443 0.974317
0.028413 1.000000 0.984795
0.149882 1.000000 0.983041
0.271350 1.000000 0.981286
0.392818 1.000000 0.979532
0.514286 1.000000 0.977777
0.635755 1.000000 0.976023
0.757223 1.000000 0.974269
0.878691 1.000000 0.972514
1.000000 1.000000 0.970760
