shared/src/main/assets/luts/dalur_summer_01.cube
TITLE "DALUR summer"
LUT_3D_SIZE 17
DOMAIN_MIN 0.0 0.0 0.0
DOMAIN_MAX 1.0 1.0 1.0
0.039240 0.000000 0.000000
0.108500 0.000000 0.000000
0.177760 0.000000 0.000000
0.247019 0.000000 0.000000
0.316279 0.000000 0.000000
0.385539 0.000000 0.000000
0.454799 0.000000 0.000000
0.524058 0.000000 0.000000
0.593318 0.000000 0.000000
0.662578 0.000000 0.000000
0.731838 0.000000 0.000000
0.801097 0.000000 0.000000
0.870357 0.000000 0.000000
0.939617 0.000000 0.000000
1.000000 0.000000 0.000000
1.000000 0.000000 0.000000
1.000000 0.000000 0.000000
0.033111 0.053476 0.000000
0.102371 0.050497 0.000000
0.171631 0.047518 0.000000
0.240890 0.044539 0.000000
0.310150 0.041559 0.000000
0.379410 0.038580 0.000000
0.448670 0.035601 0.000000
0.517930 0.032622 0.000000
0.587189 0.029643 0.000000
0.656449 0.026663 0.000000
0.725709 0.023684 0.000000
0.794969 0.020705 0.000000
0.864228 0.017726 0.000000
0.933488 0.014746 0.000000
1.000000 0.011767 0.000000
1.000000 0.008788 0.000000
1.000000 0.005809 0.000000
0.026982 0.123045 0.000000
0.096242 0.120066 0.000000
0.165502 0.117086 0.000000
0.234762 0.114107 0.000000
0.304021 0.111128 0.000000
0.373281 0.108149 0.000000
0.442541 0.105169 0.000000
0.511801 0.102190 0.000000
0.581060 0.099211 0.000000
0.650320 0.096232 0.000000
0.719580 0.093252 0.000000
0.788840 0.090273 0.000000
0.858099 0.087294 0.000000
0.927359 0.084315 0.000000
0.996619 0.081336 0.000000
1.000000 0.078356 0.000000
1.000000 0.075377 0.000000
0.020853 0.192613 0.000000
0.090113 0.189634 0.000000
0.159373 0.186655 0.000000
0.228633 0.183675 0.000000
0.297893 0.180696 0.000000
0.367152 0.177717 0.000000
0.436412 0.174738 0.000000
0.505672 0.171759 0.000000
0.574932 0.168779 0.000000
0.644191 0.165800 0.000000
0.713451 0.162821 0.000000
0.782711 0.159842 0.000000
0.851971 0.156862 0.000000
0.921230 0.153883 0.000000
0.990490 0.150904 0.000000
1.000000 0.147925 0.000000
1.000000 0.144945 0.000000
0.014725 0.262182 0.000000
0.083984 0.259202 0.000000
0.153244 0.256223 0.000000
0.222504 0.253244 0.000000
0.291764 0.250265 0.000000
0.361023 0.247285 0.000000
0.430283 0.244306 0.000000
0.499543 0.241327 0.000000
0.568803 0.238348 0.000000
0.638062 0.235368 0.000000
0.707322 0.232389 0.000000
0.776582 0.229410 0.000000
0.845842 0.226431 0.000000
0.915102 0.223452 0.000000
0.984361 0.220472 0.000000
1.000000 0.217493 0.000000
1.000000 0.214514 0.000000
0.008596 0.331750 0.000000
0.077855 0.328771 0.000000
0.147115 0.325791 0.000000
0.216375 0.322812 0.000000
0.285635 0.319833 0.000000
0.354895 0.316854 0.000000
0.424154 0.313875 0.000000
0.493414 0.310895 0.000000
0.562674 0.307916 0.000000
0.631934 0.304937 0.000000
0.701193 0.301958 0.000000
0.770453 0.298978 0.000000
0.839713 0.295999 0.000000
0.908973 0.293020 0.000000
0.978232 0.290041 0.000000
1.000000 0.287061 0.000000
1.000000 0.284082 0.000000
0.002467 0.401318 0.000000
0.071727 0.398339 0.000000
0.140986 0.395360 0.000000
0.210246 0.392381 0.000000
0.279506 0.389401 0.000000
0.348766 0.386422 0.000000
0.418025 0.383443 0.000000
0.487285 0.380464 0.000000
0.556545 0.377484 0.000000
0.625805 0.374505 0.000000
0.695064 0.371526 0.000000
0.764324 0.368547 0.000000
0.833584 0.365568 0.000000
0.902844 0.362588 0.000000
0.972104 0.359609 0.000000
1.000000 0.356630 0.000000
1.000000 0.353651 0.000000
0.000000 0.470887 0.000000
0.065598 0.467907 0.000000
0.134858 0.464928 0.000000
0.204117 0.461949 0.000000
0.273377 0.458970 0.000000
0.342637 0.455991 0.000000
0.411897 0.453011 0.000000
0.481156 0.450032 0.000000
0.550416 0.447053 0.000000
0.619676 0.444074 0.000000
0.688936 0.441094 0.000000
0.758195 0.438115 0.000000
0.827455 0.435136 0.000000
0.896715 0.432157 0.000000
0.965975 0.429177 0.000000
1.000000 0.426198 0.000000
1.000000 0.423219 0.000000
0.000000 0.540455 0.000000
0.059469 0.537476 0.000000
0.128729 0.534497 0.000000
0.197988 0.531517 0.000000
0.267248 0.528538 0.000000
0.336508 0.525559 0.000000
0.405768 0.522580 0.000000
0.475027 0.519600 0.000000
0.544287 0.516621 0.000000
0.613547 0.513642 0.000000
0.682807 0.510663 0.000000
0.752067 0.507684 0.000000
0.821326 0.504704 0.000000
0.890586 0.501725 0.000000
0.959846 0.498746 0.000000
1.000000 0.495767 0.000000
1.000000 0.492787 0.000000
0.000000 0.610023 0.000000
0.053340 0.607044 0.000000
0.122600 0.604065 0.000000
0.191860 0.601086 0.000000
0.261119 0.598107 0.000000
0.330379 0.595127 0.000000
0.399639 0.592148 0.000000
0.468899 0.589169 0.000000
0.538158 0.586190 0.000000
0.607418 0.583210 0.000000
0.676678 0.580231 0.000000
0.745938 0.577252 0.000000
0.815197 0.574273 0.000000
0.884457 0.571293 0.000000
0.953717 0.568314 0.000000
1.000000 0.565335 0.000000
1.000000 0.562356 0.000000
0.000000 0.679592 0.000000
0.047211 0.676613 0.000000
0.116471 0.673633 0.000000
0.185731 0.670654 0.000000
0.254990 0.667675 0.000000
0.324250 0.664696 0.000000
0.393510 0.661716 0.000000
0.462770 0.658737 0.000000
0.532029 0.655758 0.000000
0.601289 0.652779 0.000000
0.670549 0.649800 0.000000
0.739809 0.646820 0.000000
0.809069 0.643841 0.000000
0.878328 0.640862 0.000000
0.947588 0.637883 0.000000
1.000000 0.634903 0.000000
1.000000 0.631924 0.000000
0.000000 0.749160 0.000000
0.041082 0.746181 0.000000
0.110342 0.743202 0.000000
0.179602 0.740223 0.000000
0.248862 0.737243 0.000000
0.318121 0.734264 0.000000
0.387381 0.731285 0.000000
0.456641 0.728306 0.000000
0.525901 0.725326 0.000000
0.595160 0.722347 0.000000
0.664420 0.719368 0.000000
0.733680 0.716389 0.000000
0.802940 0.713409 0.000000
0.872199 0.710430 0.000000
0.941459 0.707451 0.000000
1.000000 0.704472 0.000000
1.000000 0.701492 0.000000
0.000000 0.818729 0.000000
0.034953 0.815749 0.000000
0.104213 0.812770 0.000000
0.173473 0.809791 0.000000
0.242733 0.806812 0.000000
0.311992 0.803832 0.000000
0.381252 0.800853 0.000000
0.450512 0.797874 0.000000
0.519772 0.794895 0.000000
0.589032 0.791916 0.000000
0.658291 0.788936 0.000000
0.727551 0.785957 0.000000
0.796811 0.782978 0.000000
0.866071 0.779999 0.000000
0.935330 0.777019 0.000000
1.000000 0.774040 0.000000
1.000000 0.771061 0.000000
0.000000 0.888297 0.000000
0.028825 0.885318 0.000000
0.098084 0.882339 0.000000
0.167344 0.879359 0.000000
0.236604 0.876380 0.000000
0.305864 0.873401 0.000000
0.375123 0.870422 0.000000
0.444383 0.867442 0.000000
0.513643 0.864463 0.000000
0.582903 0.861484 0.000000
0.652162 0.858505 0.000000
0.721422 0.855525 0.000000
0.790682 0.852546 0.000000
0.859942 0.849567 0.000000
0.929201 0.846588 0.000000
0.998461 0.843608 0.000000
1.000000 0.840629 0.000000
0.000000 0.957865 0.000000
0.022696 0.954886 0.000000
0.091955 0.951907 0.000000
0.161215 0.948928 0.000000
0.230475 0.945948 0.000000
0.299735 0.942969 0.000000
0.368994 0.939990 0.000000
0.438254 0.937011 0.000000
0.507514 0.934032 0.000000
0.576774 0.931052 0.000000
0.646034 0.928073 0.000000
0.715293 0.925094 0.000000
0.784553 0.922115 0.000000
0.853813 0.919135 0.000000
0.923073 0.916156 0.000000
0.992332 0.913177 0.000000
1.000000 0.910198 0.000000
0.000000 1.000000 0.000000
0.016567 1.000000 0.000000
0.085827 1.000000 0.000000
0.155086 1.000000 0.000000
0.224346 1.000000 0.000000
0.293606 1.000000 0.000000
0.362866 1.000000 0.000000
0.432125 1.000000 0.000000
0.501385 1.000000 0.000000
0.570645 1.000000 0.000000
0.639905 0.997641 0.000000
0.709164 0.994662 0.000000
0.778424 0.991683 0.000000
0.847684 0.988704 0.000000
0.916944 0.985724 0.000000
0.986204 0.982745 0.000000
1.000000 0.979766 0.000000
0.000000 1.000000 0.000000
0.010438 1.000000 0.000000
0.079698 1.000000 0.000000
0.148957 1.000000 0.000000
0.218217 1.000000 0.000000
0.287477 1.000000 0.000000
0.356737 1.000000 0.000000
0.425997 1.000000 0.000000
0.495256 1.000000 0.000000
0.564516 1.000000 0.000000
0.633776 1.000000 0.000000
0.703036 1.000000 0.000000
0.772295 1.000000 0.000000
0.841555 1.000000 0.000000
0.910815 1.000000 0.000000
0.980075 1.000000 0.000000
1.000000 1.000000 0.000000
0.038080 0.000000 0.038080
0.107340 0.000000 0.035101
0.176600 0.000000 0.032122
0.245859 0.000000 0.029142
0.315119 0.000000 0.026163
0.384379 0.000000 0.023184
0.453639 0.000000 0.020205
0.522898 0.000000 0.017225
0.592158 0.000000 0.014246
0.661418 0.000000 0.011267
0.730678 0.000000 0.008288
0.799937 0.000000 0.005308
0.869197 0.000000 0.002329
0.938457 0.000000 0.000000
1.000000 0.000000 0.000000
1.000000 0.000000 0.000000
1.000000 0.000000 0.000000
0.031951 0.052316 0.031951
0.101211 0.049337 0.028972
0.170471 0.046358 0.025993
0.239730 0.043379 0.023013
0.308990 0.040399 0.020034
0.378250 0.037420 0.017055
0.447510 0.034441 0.014076
0.516769 0.031462 0.011096
0.586029 0.028482 0.008117
0.655289 0.025503 0.005138
0.724549 0.022524 0.002159
0.793809 0.019545 0.000000
0.863068 0.016566 0.000000
0.932328 0.013586 0.000000
1.000000 0.010607 0.000000
1.000000 0.007628 0.000000
1.000000 0.004649 0.000000
0.025822 0.121885 0.025822
0.095082 0.118906 0.022843
0.164342 0.115926 0.019864
0.233602 0.112947 0.016885
0.302861 0.109968 0.013905
0.372121 0.106989 0.010926
0.441381 0.104009 0.007947
0.510641 0.101030 0.004968
0.579900 0.098051 0.001988
0.649160 0.095072 0.000000
0.718420 0.092092 0.000000
0.787680 0.089113 0.000000
0.856939 0.086134 0.000000
0.926199 0.083155 0.000000
0.995459 0.080175 0.000000
1.000000 0.077196 0.000000
1.000000 0.074217 0.000000
0.019693 0.191453 0.019693
0.088953 0.188474 0.016714
0.158213 0.185495 0.013735
0.227473 0.182515 0.010756
0.296732 0.179536 0.007776
0.365992 0.176557 0.004797
0.435252 0.173578 0.001818
0.504512 0.170598 0.000000
0.573771 0.167619 0.000000
0.643031 0.164640 0.000000
0.712291 0.161661 0.000000
0.781551 0.158682 0.000000
0.850811 0.155702 0.000000
0.920070 0.152723 0.000000
0.989330 0.149744 0.000000
1.000000 0.146765 0.000000
1.000000 0.143785 0.000000
0.013565 0.261022 0.013565
0.082824 0.258042 0.010585
0.152084 0.255063 0.007606
0.221344 0.252084 0.004627
0.290604 0.249105 0.001648
0.359863 0.246125 0.000000
0.429123 0.243146 0.000000
0.498383 0.240167 0.000000
0.567643 0.237188 0.000000
0.636902 0.234208 0.000000
0.706162 0.231229 0.000000
0.775422 0.228250 0.000000
0.844682 0.225271 0.000000
0.913941 0.222291 0.000000
0.983201 0.219312 0.000000
1.000000 0.216333 0.000000
1.000000 0.213354 0.000000
0.007436 0.330590 0.007436
0.076695 0.327611 0.004456
0.145955 0.324631 0.001477
0.215215 0.321652 0.000000
0.284475 0.318673 0.000000
0.353734 0.315694 0.000000
0.422994 0.312714 0.000000
0.492254 0.309735 0.000000
0.561514 0.306756 0.000000
0.630774 0.303777 0.000000
0.700033 0.300798 0.000000
0.769293 0.297818 0.000000
0.838553 0.294839 0.000000
0.907813 0.291860 0.000000
0.977072 0.288881 0.000000
1.000000 0.285901 0.000000
1.000000 0.282922 0.000000
0.001307 0.400158 0.001307
0.070567 0.397179 0.000000
0.139826 0.394200 0.000000
0.209086 0.391221 0.000000
0.278346 0.388241 0.000000
0.347606 0.385262 0.000000
0.416865 0.382283 0.000000
0.486125 0.379304 0.000000
0.555385 0.376324 0.000000
0.624645 0.373345 0.000000
0.693904 0.370366 0.000000
0.763164 0.367387 0.000000
0.832424 0.364407 0.000000
0.901684 0.361428 0.000000
0.970943 0.358449 0.000000
1.000000 0.355470 0.000000
1.000000 0.352491 0.000000
0.000000 0.469727 0.000000
0.064438 0.466747 0.000000
0.133697 0.463768 0.000000
0.202957 0.460789 0.000000
0.272217 0.457810 0.000000
0.341477 0.454830 0.000000
0.410736 0.451851 0.000000
0.479996 0.448872 0.000000
0.549256 0.445893 0.000000
0.618516 0.442914 0.000000
0.687776 0.439934 0.000000
0.757035 0.436955 0.000000
0.826295 0.433976 0.000000
0.895555 0.430997 0.000000
0.964815 0.428017 0.000000
1.000000 0.425038 0.000000
1.000000 0.422059 0.000000
0.000000 0.539295 0.000000
0.058309 0.536316 0.000000
0.127569 0.533337 0.000000
0.196828 0.530357 0.000000
0.266088 0.527378 0.000000
0.335348 0.524399 0.000000
0.404608 0.521420 0.000000
0.473867 0.518440 0.000000
0.543127 0.515461 0.000000
0.612387 0.512482 0.000000
0.681647 0.509503 0.000000
0.750906 0.506523 0.000000
0.820166 0.503544 0.000000
0.889426 0.500565 0.000000
0.958686 0.497586 0.000000
1.000000 0.494607 0.000000
1.000000 0.491627 0.000000
0.000000 0.608863 0.000000
0.052180 0.605884 0.000000
0.121440 0.602905 0.000000
0.190699 0.599926 0.000000
0.259959 0.596946 0.000000
0.329219 0.593967 0.000000
0.398479 0.590988 0.000000
0.467739 0.588009 0.000000
0.536998 0.585030 0.000000
0.606258 0.582050 0.000000
0.675518 0.579071 0.000000
0.744778 0.576092 0.000000
0.814037 0.573113 0.000000
0.883297 0.570133 0.000000
0.952557 0.567154 0.000000
1.000000 0.564175 0.000000
1.000000 0.561196 0.000000
0.000000 0.678432 0.000000
0.046051 0.675453 0.000000
0.115311 0.672473 0.000000
0.184571 0.669494 0.000000
0.253830 0.666515 0.000000
0.323090 0.663536 0.000000
0.392350 0.660556 0.000000
0.461610 0.657577 0.000000
0.530869 0.654598 0.000000
0.600129 0.651619 0.000000
0.669389 0.648639 0.000000
0.738649 0.645660 0.000000
0.807908 0.642681 0.000000
0.877168 0.639702 0.000000
0.946428 0.636723 0.000000
1.000000 0.633743 0.000000
1.000000 0.630764 0.000000
0.000000 0.748000 0.000000
0.039922 0.745021 0.000000
0.109182 0.742042 0.000000
0.178442 0.739062 0.000000
0.247702 0.736083 0.000000
0.316961 0.733104 0.000000
0.386221 0.730125 0.000000
0.455481 0.727146 0.000000
0.524741 0.724166 0.000000
0.594000 0.721187 0.000000
0.663260 0.718208 0.000000
0.732520 0.715229 0.000000
0.801780 0.712249 0.000000
0.871039 0.709270 0.000000
0.940299 0.706291 0.000000
1.000000 0.703312 0.000000
1.000000 0.700332 0.000000
0.000000 0.817569 0.000000
0.033793 0.814589 0.000000
0.103053 0.811610 0.000000
0.172313 0.808631 0.000000
0.241573 0.805652 0.000000
0.310832 0.802672 0.000000
0.380092 0.799693 0.000000
0.449352 0.796714 0.000000
0.518612 0.793735 0.000000
0.587871 0.790755 0.000000
0.657131 0.787776 0.000000
0.726391 0.784797 0.000000
0.795651 0.781818 0.000000
0.864911 0.778839 0.000000
0.934170 0.775859 0.000000
1.000000 0.772880 0.000000
1.000000 0.769901 0.000000
0.000000 0.887137 0.000000
0.027664 0.884158 0.000000
0.096924 0.881178 0.000000
0.166184 0.878199 0.000000
0.235444 0.875220 0.000000
0.304704 0.872241 0.000000
0.373963 0.869262 0.000000
0.443223 0.866282 0.000000
0.512483 0.863303 0.000000
0.581743 0.860324 0.000000
0.651002 0.857345 0.000000
0.720262 0.854365 0.000000
0.789522 0.851386 0.000000
0.858782 0.848407 0.000000
0.928041 0.845428 0.000000
0.997301 0.842448 0.000000
1.000000 0.839469 0.000000
0.000000 0.956705 0.000000
0.021536 0.953726 0.000000
0.090795 0.950747 0.000000
0.160055 0.947768 0.000000
0.229315 0.944788 0.000000
0.298575 0.941809 0.000000
0.367834 0.938830 0.000000
0.437094 0.935851 0.000000
0.506354 0.932871 0.000000
0.575614 0.929892 0.000000
0.644873 0.926913 0.000000
0.714133 0.923934 0.000000
0.783393 0.920955 0.000000
0.852653 0.917975 0.000000
0.921913 0.914996 0.000000
0.991172 0.912017 0.000000
1.000000 0.909038 0.000000
0.000000 1.000000 0.000000
0.015407 1.000000 0.000000
0.084667 1.000000 0.000000
0.153926 1.000000 0.000000
0.223186 1.000000 0.000000
0.292446 1.000000 0.000000
0.361706 1.000000 0.000000
0.430965 1.000000 0.000000
0.500225 1.000000 0.000000
0.569485 0.999461 0.000000
0.638745 0.996481 0.000000
0.708004 0.993502 0.000000
0.777264 0.990523 0.000000
0.846524 0.987544 0.000000
0.915784 0.984564 0.000000
0.985043 0.981585 0.000000
1.000000 0.978606 0.000000
0.000000 1.000000 0.000000
0.009278 1.000000 0.000000
0.078538 1.000000 0.000000
0.147797 1.000000 0.000000
0.217057 1.000000 0.000000
0.286317 1.000000 0.000000
0.355577 1.000000 0.000000
0.424836 1.000000 0.000000
0.494096 1.000000 0.000000
0.563356 1.000000 0.000000
0.632616 1.000000 0.000000
0.701876 1.000000 0.000000
0.771135 1.000000 0.000000
0.840395 1.000000 0.000000
0.909655 1.000000 0.000000
0.978915 1.000000 0.000000
1.000000 1.000000 0.000000
0.036920 0.000000 0.110696
0.106180 0.000000 0.107717
0.175439 0.000000 0.104737
0.244699 0.000000 0.101758
0.313959 0.000000 0.098779
0.383219 0.000000 0.095800
0.452479 0.000000 0.092821
0.521738 0.000000 0.089841
0.590998 0.000000 0.086862
0.660258 0.000000 0.083883
0.729518 0.000000 0.080904
0.798777 0.000000 0.077924
0.868037 0.000000 0.074945
0.937297 0.000000 0.071966
1.000000 0.000000 0.068987
1.000000 0.000000 0.066007
1.000000 0.000000 0.063028
0.030791 0.051156 0.104567
0.100051 0.048177 0.101588
0.169311 0.045198 0.098609
0.238570 0.042219 0.095629
0.307830 0.039239 0.092650
0.377090 0.036260 0.089671
0.446350 0.033281 0.086692
0.515609 0.030302 0.083712
0.584869 0.027322 0.080733
0.654129 0.024343 0.077754
0.723389 0.021364 0.074775
0.792648 0.018385 0.071795
0.861908 0.015405 0.068816
0.931168 0.012426 0.065837
1.000000 0.009447 0.062858
1.000000 0.006468 0.059879
1.000000 0.003489 0.056899
0.024662 0.120725 0.098438
0.093922 0.117745 0.095459
0.163182 0.114766 0.092480
0.232441 0.111787 0.089500
0.301701 0.108808 0.086521
0.370961 0.105829 0.083542
0.440221 0.102849 0.080563
0.509481 0.099870 0.077584
0.578740 0.096891 0.074604
0.648000 0.093912 0.071625
0.717260 0.090932 0.068646
0.786520 0.087953 0.065667
0.855779 0.084974 0.062687
0.925039 0.081995 0.059708
0.994299 0.079015 0.056729
1.000000 0.076036 0.053750
1.000000 0.073057 0.050770
0.018533 0.190293 0.092309
0.087793 0.187314 0.089330
0.157053 0.184335 0.086351
0.226313 0.181355 0.083372
0.295572 0.178376 0.080392
0.364832 0.175397 0.077413
0.434092 0.172418 0.074434
0.503352 0.169438 0.071455
0.572611 0.166459 0.068475
0.641871 0.163480 0.065496
0.711131 0.160501 0.062517
0.780391 0.157521 0.059538
0.849650 0.154542 0.056558
0.918910 0.151563 0.053579
0.988170 0.148584 0.050600
1.000000 0.145605 0.047621
1.000000 0.142625 0.044642
0.012404 0.259861 0.086180
0.081664 0.256882 0.083201
0.150924 0.253903 0.080222
0.220184 0.250924 0.077243
0.289444 0.247945 0.074264
0.358703 0.244965 0.071284
0.427963 0.241986 0.068305
0.497223 0.239007 0.065326
0.566483 0.236028 0.062347
0.635742 0.233048 0.059367
0.705002 0.230069 0.056388
0.774262 0.227090 0.053409
0.843522 0.224111 0.050430
0.912781 0.221131 0.047450
0.982041 0.218152 0.044471
1.000000 0.215173 0.041492
1.000000 0.212194 0.038513
0.006276 0.329430 0.080052
0.075535 0.326451 0.077072
0.144795 0.323471 0.074093
0.214055 0.320492 0.071114
0.283315 0.317513 0.068135
0.352574 0.314534 0.065155
0.421834 0.311554 0.062176
0.491094 0.308575 0.059197
0.560354 0.305596 0.056218
0.629613 0.302617 0.053238
0.698873 0.299637 0.050259
0.768133 0.296658 0.047280
0.837393 0.293679 0.044301
0.906653 0.290700 0.041322
0.975912 0.287721 0.038342
1.000000 0.284741 0.035363
1.000000 0.281762 0.032384
0.000147 0.398998 0.073923
0.069406 0.396019 0.070943
0.138666 0.393040 0.067964
0.207926 0.390061 0.064985
0.277186 0.387081 0.062006
0.346446 0.384102 0.059027
0.415705 0.381123 0.056047
0.484965 0.378144 0.053068
0.554225 0.375164 0.050089
0.623485 0.372185 0.047110
0.692744 0.369206 0.044130
0.762004 0.366227 0.041151
0.831264 0.363247 0.038172
0.900524 0.360268 0.035193
0.969783 0.357289 0.032213
1.000000 0.354310 0.029234
1.000000 0.351330 0.026255
0.000000 0.468567 0.067794
0.063278 0.465587 0.064815
0.132537 0.462608 0.061835
0.201797 0.459629 0.058856
0.271057 0.456650 0.055877
0.340317 0.453670 0.052898
0.409576 0.450691 0.049918
0.478836 0.447712 0.046939
0.548096 0.444733 0.043960
0.617356 0.441753 0.040981
0.686615 0.438774 0.038001
0.755875 0.435795 0.035022
0.825135 0.432816 0.032043
0.894395 0.429837 0.029064
0.963655 0.426857 0.026085
1.000000 0.423878 0.023105
1.000000 0.420899 0.020126
0.000000 0.538135 0.061665
0.057149 0.535156 0.058686
0.126409 0.532177 0.055707
0.195668 0.529197 0.052727
0.264928 0.526218 0.049748
0.334188 0.523239 0.046769
0.403448 0.520260 0.043790
0.472707 0.517280 0.040810
0.541967 0.514301 0.037831
0.611227 0.511322 0.034852
0.680487 0.508343 0.031873
0.749746 0.505363 0.028893
0.819006 0.502384 0.025914
0.888266 0.499405 0.022935
0.957526 0.496426 0.019956
1.000000 0.493446 0.016976
1.000000 0.490467 0.013997
0.000000 0.607703 0.055536
0.051020 0.604724 0.052557
0.120280 0.601745 0.049578
0.189539 0.598766 0.046598
0.258799 0.595786 0.043619
0.328059 0.592807 0.040640
0.397319 0.589828 0.037661
0.466578 0.586849 0.034681
0.535838 0.583869 0.031702
0.605098 0.580890 0.028723
0.674358 0.577911 0.025744
0.743618 0.574932 0.022765
0.812877 0.571953 0.019785
0.882137 0.568973 0.016806
0.951397 0.565994 0.013827
1.000000 0.563015 0.010848
1.000000 0.560036 0.007868
0.000000 0.677272 0.049407
0.044891 0.674293 0.046428
0.114151 0.671313 0.043449
0.183411 0.668334 0.040470
0.252670 0.665355 0.037490
0.321930 0.662376 0.034511
0.391190 0.659396 0.031532
0.460450 0.656417 0.028553
0.529709 0.653438 0.025573
0.598969 0.650459 0.022594
0.668229 0.647479 0.019615
0.737489 0.644500 0.016636
0.806748 0.641521 0.013656
0.876008 0.638542 0.010677
0.945268 0.635562 0.007698
1.000000 0.632583 0.004719
1.000000 0.629604 0.001739
0.000000 0.746840 0.043278
0.038762 0.743861 0.040299
0.108022 0.740882 0.037320
0.177282 0.737902 0.034341
0.246541 0.734923 0.031361
0.315801 0.731944 0.028382
0.385061 0.728965 0.025403
0.454321 0.725985 0.022424
0.523580 0.723006 0.019444
0.592840 0.720027 0.016465
0.662100 0.717048 0.013486
0.731360 0.714069 0.010507
0.800620 0.711089 0.007528
0.869879 0.708110 0.004548
0.939139 0.705131 0.001569
1.000000 0.702152 0.000000
1.000000 0.699172 0.000000
0.000000 0.816409 0.037150
0.032633 0.813429 0.034170
0.101893 0.810450 0.031191
0.171153 0.807471 0.028212
0.240413 0.804492 0.025233
0.309672 0.801512 0.022253
0.378932 0.798533 0.019274
0.448192 0.795554 0.016295
0.517452 0.792575 0.013316
0.586711 0.789595 0.010336
0.655971 0.786616 0.007357
0.725231 0.783637 0.004378
0.794491 0.780658 0.001399
0.863750 0.777678 0.000000
0.933010 0.774699 0.000000
1.000000 0.771720 0.000000
1.000000 0.768741 0.000000
0.000000 0.885977 0.031021
0.026504 0.882998 0.028041
0.095764 0.880018 0.025062
0.165024 0.877039 0.022083
0.234284 0.874060 0.019104
0.303543 0.871081 0.016124
0.372803 0.868101 0.013145
0.442063 0.865122 0.010166
0.511323 0.862143 0.007187
0.580583 0.859164 0.004208
0.649842 0.856185 0.001228
0.719102 0.853205 0.000000
0.788362 0.850226 0.000000
0.857622 0.847247 0.000000
0.926881 0.844268 0.000000
0.996141 0.841288 0.000000
1.000000 0.838309 0.000000
0.000000 0.955545 0.024892
0.020376 0.952566 0.021913
0.089635 0.949587 0.018933
0.158895 0.946608 0.015954
0.228155 0.943628 0.012975
0.297415 0.940649 0.009996
0.366674 0.937670 0.007016
0.435934 0.934691 0.004037
0.505194 0.931711 0.001058
0.574454 0.928732 0.000000
0.643713 0.925753 0.000000
0.712973 0.922774 0.000000
0.782233 0.919794 0.000000
0.851493 0.916815 0.000000
0.920752 0.913836 0.000000
0.990012 0.910857 0.000000
1.000000 0.907878 0.000000
0.000000 1.000000 0.018763
0.014247 1.000000 0.015784
0.083506 1.000000 0.012804
0.152766 1.000000 0.009825
0.222026 1.000000 0.006846
0.291286 1.000000 0.003867
0.360545 1.000000 0.000887
0.429805 1.000000 0.000000
0.499065 1.000000 0.000000
0.568325 0.998301 0.000000
0.637585 0.995321 0.000000
0.706844 0.992342 0.000000
0.776104 0.989363 0.000000
0.845364 0.986384 0.000000
0.914624 0.983404 0.000000
0.983883 0.980425 0.000000
1.000000 0.977446 0.000000
0.000000 1.000000 0.012634
0.008118 1.000000 0.009655
0.077378 1.000000 0.006676
0.146637 1.000000 0.003696
0.215897 1.000000 0.000717
0.285157 1.000000 0.000000
0.354417 1.000000 0.000000
0.423676 1.000000 0.000000
0.492936 1.000000 0.000000
0.562196 1.000000 0.000000
0.631456 1.000000 0.000000
0.700715 1.000000 0.000000
0.769975 1.000000 0.000000
0.839235 1.000000 0.000000
0.908495 1.000000 0.000000
0.977755 1.000000 0.000000
1.000000 1.000000 0.000000
0.035760 0.000000 0.183312
0.105020 0.000000 0.180333
0.174279 0.000000 0.177353
0.243539 0.000000 0.174374
0.312799 0.000000 0.171395
0.382059 0.000000 0.168416
0.451318 0.000000 0.165436
0.520578 0.000000 0.162457
0.589838 0.000000 0.159478
0.659098 0.000000 0.156499
0.728357 0.000000 0.153519
0.797617 0.000000 0.150540
0.866877 0.000000 0.147561
0.936137 0.000000 0.144582
1.000000 0.000000 0.141603
1.000000 0.000000 0.138623
1.000000 0.000000 0.135644
0.029631 0.049996 0.177183
