shared/src/main/assets/luts/dalur_night_01.cube
TITLE "DALUR night"
LUT_3D_SIZE 5
DOMAIN_MIN 0.0 0.0 0.0
DOMAIN_MAX 1.0 1.0 1.0
0.008000 0.008000 0.008000
0.194101 0.008000 0.008000
0.437059 0.008000 0.008000
0.680018 0.008000 0.013286
0.922976 0.008000 0.021098
0.008000 0.211681 0.008000
0.209817 0.219493 0.013377
0.452775 0.227305 0.021190
0.695733 0.235117 0.029002
0.938691 0.242930 0.036814
0.008000 0.468349 0.021281
0.225532 0.476161 0.029093
0.468490 0.483973 0.036905
0.711449 0.491785 0.044717
0.954407 0.499597 0.052529
0.008000 0.725017 0.036996
0.241247 0.732829 0.044808
0.484206 0.740641 0.052620
0.727164 0.748453 0.060433
0.968000 0.756265 0.068245
0.014005 0.968000 0.052712
0.256963 0.968000 0.060524
0.499921 0.968000 0.068336
0.742879 0.968000 0.076148
0.968000 0.968000 0.083960
0.008000 0.008000 0.225035
0.197043 0.008000 0.232847
0.440001 0.008000 0.240659
0.682959 0.008000 0.248471
0.925918 0.008000 0.256283
0.008000 0.214623 0.240750
0.212758 0.222435 0.248562
0.455717 0.230247 0.256375
0.698675 0.238059 0.264187
0.941633 0.245871 0.271999
0.008000 0.471291 0.256466
0.228474 0.479103 0.264278
0.471432 0.486915 0.272090
0.714390 0.494727 0.279902
0.957349 0.502539 0.287714
0.008000 0.727959 0.272181
0.244189 0.735771 0.279993
0.487147 0.743583 0.287805
0.730106 0.751395 0.295617
0.968000 0.759207 0.303430
0.016946 0.968000 0.287897
0.259905 0.968000 0.295709
0.502863 0.968000 0.303521
0.745821 0.968000 0.311333
0.968000 0.968000 0.319145
0.008000 0.008000 0.460220
0.199985 0.008000 0.468032
0.442943 0.008000 0.475844
0.685901 0.008000 0.483656
0.928860 0.008000 0.491468
0.008000 0.217565 0.475935
0.215700 0.225377 0.483747
0.458658 0.233189 0.491559
0.701617 0.241001 0.499372
0.944575 0.248813 0.507184
0.008000 0.474232 0.491651
0.231415 0.482045 0.499463
0.474374 0.489857 0.507275
0.717332 0.497669 0.515087
0.960290 0.505481 0.522899
0.008000 0.730900 0.507366
0.247131 0.738712 0.515178
0.490089 0.746524 0.522990
0.733048 0.754337 0.530802
0.968000 0.762149 0.538615
0.019888 0.968000 0.523082
0.262846 0.968000 0.530894
0.505805 0.968000 0.538706
0.748763 0.968000 0.546518
0.968000 0.968000 0.554330
0.008000 0.008000 0.695405
0.202926 0.008000 0.703217
0.445885 0.008000 0.711029
0.688843 0.008000 0.718841
0.931801 0.008000 0.726653
0.008000 0.220506 0.711120
0.218642 0.228319 0.718932
0.461600 0.236131 0.726744
0.704558 0.243943 0.734556
0.947517 0.251755 0.742369
0.008000 0.477174 0.726836
0.234357 0.484986 0.734648
0.477316 0.492798 0.742460
0.720274 0.500610 0.750272
0.963232 0.508423 0.758084
0.008000 0.733842 0.742551
0.250073 0.741654 0.750363
0.493031 0.749466 0.758175
0.735989 0.757278 0.765987
0.968000 0.765090 0.773799
0.022830 0.968000 0.758267
0.265788 0.968000 0.766079
0.508746 0.968000 0.773891
0.751705 0.968000 0.781703
0.968000 0.968000 0.789515
0.008000 0.008000 0.930590
0.205868 0.008000 0.938402
0.448826 0.008000 0.946214
0.691785 0.008000 0.954026
0.934743 0.008000 0.961838
0.008000 0.223448 0.946305
0.221584 0.231260 0.954117
0.464542 0.239072 0.961929
0.707500 0.246884 0.968000
0.950458 0.254697 0.968000
0.008000 0.480116 0.962021
0.237299 0.487928 0.968000
0.480257 0.495740 0.968000
0.723216 0.503552 0.968000
0.966174 0.511364 0.968000
0.010056 0.736784 0.968000
0.253014 0.744596 0.968000
0.495973 0.752408 0.968000
0.738931 0.760220 0.968000
0.968000 0.768032 0.968000
0.025772 0.968000 0.968000
0.268730 0.968000 0.968000
0.511688 0.968000 0.968000
0.754646 0.968000 0.968000
0.968000 0.968000 0.968000
