shared/src/main/assets/luts/dalur_memory_01.cube
TITLE "DALUR memory"
LUT_3D_SIZE 17
DOMAIN_MIN 0.0 0.0 0.0
DOMAIN_MAX 1.0 1.0 1.0
0.062290 0.029876 0.021035
0.123024 0.028999 0.020158
0.183758 0.028122 0.019281
0.244492 0.027245 0.018404
0.305227 0.026368 0.017527
0.365961 0.025490 0.016649
0.426695 0.024613 0.015772
0.487429 0.023736 0.014895
0.548163 0.022859 0.014018
0.608897 0.021981 0.013140
0.669631 0.021104 0.012263
0.730366 0.020227 0.011386
0.791100 0.019350 0.010509
0.851834 0.018473 0.009632
0.912568 0.017595 0.008754
0.973302 0.016718 0.007877
1.000000 0.015841 0.007000
0.060511 0.091735 0.019257
0.121245 0.090858 0.018379
0.181979 0.089980 0.017502
0.242714 0.089103 0.016625
0.303448 0.088226 0.015748
0.364182 0.087349 0.014871
0.424916 0.086472 0.013993
0.485650 0.085594 0.013116
0.546384 0.084717 0.012239
0.607118 0.083840 0.011362
0.667853 0.082963 0.010484
0.728587 0.082085 0.009607
0.789321 0.081208 0.008730
0.850055 0.080331 0.007853
0.910789 0.079454 0.006975
0.971523 0.078576 0.006098
1.000000 0.077699 0.005221
0.058732 0.153593 0.017478
0.119467 0.152716 0.016601
0.180201 0.151839 0.015723
0.240935 0.150962 0.014846
0.301669 0.150084 0.013969
0.362403 0.149207 0.013092
0.423137 0.148330 0.012214
0.483871 0.147453 0.011337
0.544606 0.146575 0.010460
0.605340 0.145698 0.009583
0.666074 0.144821 0.008706
0.726808 0.143944 0.007828
0.787542 0.143067 0.006951
0.848276 0.142189 0.006074
0.909010 0.141312 0.005197
0.969745 0.140435 0.004319
1.000000 0.139558 0.003442
0.056954 0.215452 0.015699
0.117688 0.214574 0.014822
0.178422 0.213697 0.013945
0.239156 0.212820 0.013067
0.299890 0.211943 0.012190
0.360624 0.211066 0.011313
0.421358 0.210188 0.010436
0.482093 0.209311 0.009558
0.542827 0.208434 0.008681
0.603561 0.207557 0.007804
0.664295 0.206679 0.006927
0.725029 0.205802 0.006050
0.785763 0.204925 0.005172
0.846497 0.204048 0.004295
0.907232 0.203171 0.003418
0.967966 0.202293 0.002541
1.000000 0.201416 0.001663
0.055175 0.277310 0.013920
0.115909 0.276433 0.013043
0.176643 0.275556 0.012166
0.237377 0.274678 0.011289
0.298111 0.273801 0.010411
0.358845 0.272924 0.009534
0.419580 0.272047 0.008657
0.480314 0.271170 0.007780
0.541048 0.270292 0.006902
0.601782 0.269415 0.006025
0.662516 0.268538 0.005148
0.723250 0.267661 0.004271
0.783984 0.266783 0.003393
0.844719 0.265906 0.002516
0.905453 0.265029 0.001639
0.966187 0.264152 0.000762
1.000000 0.263274 0.000000
0.053396 0.339169 0.012141
0.114130 0.338291 0.011264
0.174864 0.337414 0.010387
0.235598 0.336537 0.009510
0.296333 0.335660 0.008633
0.357067 0.334782 0.007755
0.417801 0.333905 0.006878
0.478535 0.333028 0.006001
0.539269 0.332151 0.005124
0.600003 0.331273 0.004246
0.660737 0.330396 0.003369
0.721472 0.329519 0.002492
0.782206 0.328642 0.001615
0.842940 0.327765 0.000737
0.903674 0.326887 0.000000
0.964408 0.326010 0.000000
1.000000 0.325133 0.000000
0.051617 0.401027 0.010363
0.112351 0.400150 0.009485
0.173085 0.399272 0.008608
0.233820 0.398395 0.007731
0.294554 0.397518 0.006854
0.355288 0.396641 0.005976
0.416022 0.395764 0.005099
0.476756 0.394886 0.004222
0.537490 0.394009 0.003345
0.598224 0.393132 0.002468
0.658959 0.392255 0.001590
0.719693 0.391377 0.000713
0.780427 0.390500 0.000000
0.841161 0.389623 0.000000
0.901895 0.388746 0.000000
0.962629 0.387868 0.000000
1.000000 0.386991 0.000000
0.049838 0.462885 0.008584
0.110572 0.462008 0.007707
0.171307 0.461131 0.006829
0.232041 0.460254 0.005952
0.292775 0.459376 0.005075
0.353509 0.458499 0.004198
0.414243 0.457622 0.003320
0.474977 0.456745 0.002443
0.535711 0.455868 0.001566
0.596446 0.454990 0.000689
0.657180 0.454113 0.000000
0.717914 0.453236 0.000000
0.778648 0.452359 0.000000
0.839382 0.451481 0.000000
0.900116 0.450604 0.000000
0.960851 0.449727 0.000000
1.000000 0.448850 0.000000
0.048059 0.524744 0.006805
0.108794 0.523867 0.005928
0.169528 0.522989 0.005051
0.230262 0.522112 0.004173
0.290996 0.521235 0.003296
0.351730 0.520358 0.002419
0.412464 0.519480 0.001542
0.473199 0.518603 0.000664
0.533933 0.517726 0.000000
0.594667 0.516849 0.000000
0.655401 0.515971 0.000000
0.716135 0.515094 0.000000
0.776869 0.514217 0.000000
0.837603 0.513340 0.000000
0.898338 0.512463 0.000000
0.959072 0.511585 0.000000
1.000000 0.510708 0.000000
0.046281 0.586602 0.005026
0.107015 0.585725 0.004149
0.167749 0.584848 0.003272
0.228483 0.583970 0.002394
0.289217 0.583093 0.001517
0.349951 0.582216 0.000640
0.410686 0.581339 0.000000
0.471420 0.580462 0.000000
0.532154 0.579584 0.000000
0.592888 0.578707 0.000000
0.653622 0.577830 0.000000
0.714356 0.576953 0.000000
0.775090 0.576075 0.000000
0.835825 0.575198 0.000000
0.896559 0.574321 0.000000
0.957293 0.573444 0.000000
1.000000 0.572566 0.000000
0.044502 0.648461 0.003247
0.105236 0.647583 0.002370
0.165970 0.646706 0.001493
0.226704 0.645829 0.000616
0.287438 0.644952 0.000000
0.348173 0.644074 0.000000
0.408907 0.643197 0.000000
0.469641 0.642320 0.000000
0.530375 0.641443 0.000000
0.591109 0.640565 0.000000
0.651843 0.639688 0.000000
0.712577 0.638811 0.000000
0.773312 0.637934 0.000000
0.834046 0.637057 0.000000
0.894780 0.636179 0.000000
0.955514 0.635302 0.000000
1.000000 0.634425 0.000000
0.042723 0.710319 0.001469
0.103457 0.709442 0.000591
0.164191 0.708565 0.000000
0.224925 0.707687 0.000000
0.285660 0.706810 0.000000
0.346394 0.705933 0.000000
0.407128 0.705056 0.000000
0.467862 0.704178 0.000000
0.528596 0.703301 0.000000
0.589330 0.702424 0.000000
0.650065 0.701547 0.000000
0.710799 0.700669 0.000000
0.771533 0.699792 0.000000
0.832267 0.698915 0.000000
0.893001 0.698038 0.000000
0.953735 0.697161 0.000000
1.000000 0.696283 0.000000
0.040944 0.772177 0.000000
0.101678 0.771300 0.000000
0.162413 0.770423 0.000000
0.223147 0.769546 0.000000
0.283881 0.768668 0.000000
0.344615 0.767791 0.000000
0.405349 0.766914 0.000000
0.466083 0.766037 0.000000
0.526817 0.765160 0.000000
0.587552 0.764282 0.000000
0.648286 0.763405 0.000000
0.709020 0.762528 0.000000
0.769754 0.761651 0.000000
0.830488 0.760773 0.000000
0.891222 0.759896 0.000000
0.951956 0.759019 0.000000
1.000000 0.758142 0.000000
0.039165 0.834036 0.000000
0.099900 0.833159 0.000000
0.160634 0.832281 0.000000
0.221368 0.831404 0.000000
0.282102 0.830527 0.000000
0.342836 0.829650 0.000000
0.403570 0.828772 0.000000
0.464304 0.827895 0.000000
0.525039 0.827018 0.000000
0.585773 0.826141 0.000000
0.646507 0.825263 0.000000
0.707241 0.824386 0.000000
0.767975 0.823509 0.000000
0.828709 0.822632 0.000000
0.889443 0.821755 0.000000
0.950178 0.820877 0.000000
1.000000 0.820000 0.000000
0.037387 0.895894 0.000000
0.098121 0.895017 0.000000
0.158855 0.894140 0.000000
0.219589 0.893262 0.000000
0.280323 0.892385 0.000000
0.341057 0.891508 0.000000
0.401792 0.890631 0.000000
0.462526 0.889754 0.000000
0.523260 0.888876 0.000000
0.583994 0.887999 0.000000
0.644728 0.887122 0.000000
0.705462 0.886245 0.000000
0.766196 0.885367 0.000000
0.826931 0.884490 0.000000
0.887665 0.883613 0.000000
0.948399 0.882736 0.000000
1.000000 0.881859 0.000000
0.035608 0.957753 0.000000
0.096342 0.956875 0.000000
0.157076 0.955998 0.000000
0.217810 0.955121 0.000000
0.278544 0.954244 0.000000
0.339279 0.953366 0.000000
0.400013 0.952489 0.000000
0.460747 0.951612 0.000000
0.521481 0.950735 0.000000
0.582215 0.949858 0.000000
0.642949 0.948980 0.000000
0.703683 0.948103 0.000000
0.764418 0.947226 0.000000
0.825152 0.946349 0.000000
0.885886 0.945471 0.000000
0.946620 0.944594 0.000000
1.000000 0.943717 0.000000
0.033829 1.000000 0.000000
0.094563 1.000000 0.000000
0.155297 1.000000 0.000000
0.216031 1.000000 0.000000
0.276766 1.000000 0.000000
0.337500 1.000000 0.000000
0.398234 1.000000 0.000000
0.458968 1.000000 0.000000
0.519702 1.000000 0.000000
0.580436 1.000000 0.000000
0.641170 1.000000 0.000000
0.701905 1.000000 0.000000
0.762639 1.000000 0.000000
0.823373 1.000000 0.000000
0.884107 1.000000 0.000000
0.944841 1.000000 0.000000
1.000000 1.000000 0.000000
0.061952 0.029538 0.083049
0.122686 0.028661 0.082172
0.183420 0.027784 0.081295
0.244154 0.026906 0.080418
0.304888 0.026029 0.079540
0.365622 0.025152 0.078663
0.426356 0.024275 0.077786
0.487091 0.023397 0.076909
0.547825 0.022520 0.076031
0.608559 0.021643 0.075154
0.669293 0.020766 0.074277
0.730027 0.019888 0.073400
0.790761 0.019011 0.072523
0.851495 0.018134 0.071645
0.912230 0.017257 0.070768
0.972964 0.016380 0.069891
1.000000 0.015502 0.069014
0.060173 0.091396 0.081270
0.120907 0.090519 0.080393
0.181641 0.089642 0.079516
0.242375 0.088765 0.078639
0.303109 0.087887 0.077762
0.363843 0.087010 0.076884
0.424578 0.086133 0.076007
0.485312 0.085256 0.075130
0.546046 0.084379 0.074253
0.606780 0.083501 0.073375
0.667514 0.082624 0.072498
0.728248 0.081747 0.071621
0.788982 0.080870 0.070744
0.849717 0.079992 0.069867
0.910451 0.079115 0.068989
0.971185 0.078238 0.068112
1.000000 0.077361 0.067235
0.058394 0.153255 0.079492
0.119128 0.152378 0.078614
0.179862 0.151500 0.077737
0.240596 0.150623 0.076860
0.301330 0.149746 0.075983
0.362065 0.148869 0.075106
0.422799 0.147991 0.074228
0.483533 0.147114 0.073351
0.544267 0.146237 0.072474
0.605001 0.145360 0.071597
0.665735 0.144483 0.070719
0.726469 0.143605 0.069842
0.787204 0.142728 0.068965
0.847938 0.141851 0.068088
0.908672 0.140974 0.067210
0.969406 0.140096 0.066333
1.000000 0.139219 0.065456
0.056615 0.215113 0.077713
0.117349 0.214236 0.076836
0.178083 0.213359 0.075958
0.238818 0.212482 0.075081
0.299552 0.211604 0.074204
0.360286 0.210727 0.073327
0.421020 0.209850 0.072449
0.481754 0.208973 0.071572
0.542488 0.208095 0.070695
0.603222 0.207218 0.069818
0.663957 0.206341 0.068941
0.724691 0.205464 0.068063
0.785425 0.204586 0.067186
0.846159 0.203709 0.066309
0.906893 0.202832 0.065432
0.967627 0.201955 0.064554
1.000000 0.201078 0.063677
0.054836 0.276972 0.075934
0.115570 0.276094 0.075057
0.176305 0.275217 0.074180
0.237039 0.274340 0.073302
0.297773 0.273463 0.072425
0.358507 0.272585 0.071548
0.419241 0.271708 0.070671
0.479975 0.270831 0.069793
0.540709 0.269954 0.068916
0.601444 0.269077 0.068039
0.662178 0.268199 0.067162
0.722912 0.267322 0.066285
0.783646 0.266445 0.065407
0.844380 0.265568 0.064530
0.905114 0.264690 0.063653
0.965848 0.263813 0.062776
1.000000 0.262936 0.061898
0.053057 0.338830 0.074155
0.113792 0.337953 0.073278
0.174526 0.337076 0.072401
0.235260 0.336198 0.071524
0.295994 0.335321 0.070646
0.356728 0.334444 0.069769
0.417462 0.333567 0.068892
0.478196 0.332689 0.068015
0.538931 0.331812 0.067137
0.599665 0.330935 0.066260
0.660399 0.330058 0.065383
0.721133 0.329181 0.064506
0.781867 0.328303 0.063628
0.842601 0.327426 0.062751
0.903335 0.326549 0.061874
0.964070 0.325672 0.060997
1.000000 0.324794 0.060120
0.051279 0.400688 0.072376
0.112013 0.399811 0.071499
0.172747 0.398934 0.070622
0.233481 0.398057 0.069745
0.294215 0.397180 0.068867
0.354949 0.396302 0.067990
0.415684 0.395425 0.067113
0.476418 0.394548 0.066236
0.537152 0.393671 0.065359
0.597886 0.392793 0.064481
0.658620 0.391916 0.063604
0.719354 0.391039 0.062727
0.780088 0.390162 0.061850
0.840823 0.389284 0.060972
0.901557 0.388407 0.060095
0.962291 0.387530 0.059218
1.000000 0.386653 0.058341
0.049500 0.462547 0.070598
0.110234 0.461670 0.069720
0.170968 0.460792 0.068843
0.231702 0.459915 0.067966
0.292436 0.459038 0.067089
0.353171 0.458161 0.066211
0.413905 0.457283 0.065334
0.474639 0.456406 0.064457
0.535373 0.455529 0.063580
0.596107 0.454652 0.062703
0.656841 0.453775 0.061825
0.717575 0.452897 0.060948
0.778310 0.452020 0.060071
0.839044 0.451143 0.059194
0.899778 0.450266 0.058316
0.960512 0.449388 0.057439
1.000000 0.448511 0.056562
0.047721 0.524405 0.068819
0.108455 0.523528 0.067942
0.169189 0.522651 0.067064
0.229923 0.521774 0.066187
0.290658 0.520896 0.065310
0.351392 0.520019 0.064433
0.412126 0.519142 0.063555
0.472860 0.518265 0.062678
0.533594 0.517387 0.061801
0.594328 0.516510 0.060924
0.655062 0.515633 0.060047
0.715797 0.514756 0.059169
0.776531 0.513879 0.058292
0.837265 0.513001 0.057415
0.897999 0.512124 0.056538
0.958733 0.511247 0.055660
1.000000 0.510370 0.054783
0.045942 0.586264 0.067040
0.106676 0.585386 0.066163
0.167410 0.584509 0.065286
0.228145 0.583632 0.064408
0.288879 0.582755 0.063531
0.349613 0.581878 0.062654
0.410347 0.581000 0.061777
0.471081 0.580123 0.060899
0.531815 0.579246 0.060022
0.592550 0.578369 0.059145
0.653284 0.577491 0.058268
0.714018 0.576614 0.057390
0.774752 0.575737 0.056513
0.835486 0.574860 0.055636
0.896220 0.573982 0.054759
0.956954 0.573105 0.053882
1.000000 0.572228 0.053004
0.044163 0.648122 0.065261
0.104898 0.647245 0.064384
0.165632 0.646368 0.063507
0.226366 0.645490 0.062629
0.287100 0.644613 0.061752
0.347834 0.643736 0.060875
0.408568 0.642859 0.059998
0.469302 0.641981 0.059121
0.530037 0.641104 0.058243
0.590771 0.640227 0.057366
0.651505 0.639350 0.056489
0.712239 0.638473 0.055612
0.772973 0.637595 0.054734
0.833707 0.636718 0.053857
0.894441 0.635841 0.052980
0.955176 0.634964 0.052103
1.000000 0.634086 0.051226
0.042385 0.709980 0.063482
0.103119 0.709103 0.062605
0.163853 0.708226 0.061728
0.224587 0.707349 0.060851
0.285321 0.706472 0.059973
0.346055 0.705594 0.059096
0.406789 0.704717 0.058219
0.467524 0.703840 0.057342
0.528258 0.702963 0.056465
0.588992 0.702085 0.055587
0.649726 0.701208 0.054710
0.710460 0.700331 0.053833
0.771194 0.699454 0.052956
0.831928 0.698577 0.052078
0.892663 0.697699 0.051201
0.953397 0.696822 0.050324
1.000000 0.695945 0.049447
0.040606 0.771839 0.061704
0.101340 0.770962 0.060826
0.162074 0.770084 0.059949
0.222808 0.769207 0.059072
0.283542 0.768330 0.058195
0.344276 0.767453 0.057317
0.405011 0.766576 0.056440
0.465745 0.765698 0.055563
0.526479 0.764821 0.054686
0.587213 0.763944 0.053808
0.647947 0.763067 0.052931
0.708681 0.762189 0.052054
0.769416 0.761312 0.051177
0.830150 0.760435 0.050300
0.890884 0.759558 0.049422
0.951618 0.758680 0.048545
1.000000 0.757803 0.047668
0.038827 0.833697 0.059925
0.099561 0.832820 0.059048
0.160295 0.831943 0.058170
0.221029 0.831066 0.057293
0.281764 0.830188 0.056416
0.342498 0.829311 0.055539
0.403232 0.828434 0.054661
0.463966 0.827557 0.053784
0.524700 0.826679 0.052907
0.585434 0.825802 0.052030
0.646168 0.824925 0.051152
0.706903 0.824048 0.050275
0.767637 0.823171 0.049398
0.828371 0.822293 0.048521
0.889105 0.821416 0.047644
0.949839 0.820539 0.046766
1.000000 0.819662 0.045889
0.037048 0.895556 0.058146
0.097782 0.894678 0.057269
0.158516 0.893801 0.056391
0.219251 0.892924 0.055514
0.279985 0.892047 0.054637
0.340719 0.891170 0.053760
0.401453 0.890292 0.052883
0.462187 0.889415 0.052005
0.522921 0.888538 0.051128
0.583655 0.887661 0.050251
0.644390 0.886783 0.049374
0.705124 0.885906 0.048496
0.765858 0.885029 0.047619
0.826592 0.884152 0.046742
0.887326 0.883275 0.045865
0.948060 0.882397 0.044987
1.000000 0.881520 0.044110
0.035269 0.957414 0.056367
0.096003 0.956537 0.055490
0.156738 0.955660 0.054613
0.217472 0.954782 0.053735
0.278206 0.953905 0.052858
0.338940 0.953028 0.051981
0.399674 0.952151 0.051104
0.460408 0.951274 0.050227
0.521142 0.950396 0.049349
0.581877 0.949519 0.048472
0.642611 0.948642 0.047595
0.703345 0.947765 0.046718
0.764079 0.946887 0.045840
0.824813 0.946010 0.044963
0.885547 0.945133 0.044086
0.946282 0.944256 0.043209
1.000000 0.943378 0.042331
0.033491 1.000000 0.054588
0.094225 1.000000 0.053711
0.154959 1.000000 0.052834
0.215693 1.000000 0.051957
0.276427 1.000000 0.051079
0.337161 1.000000 0.050202
0.397895 1.000000 0.049325
0.458630 1.000000 0.048448
0.519364 1.000000 0.047570
0.580098 1.000000 0.046693
0.640832 1.000000 0.045816
0.701566 1.000000 0.044939
0.762300 1.000000 0.044062
0.823034 1.000000 0.043184
0.883769 1.000000 0.042307
0.944503 1.000000 0.041430
1.000000 1.000000 0.040553
0.061613 0.029200 0.145063
0.122347 0.028322 0.144186
0.183081 0.027445 0.143309
0.243815 0.026568 0.142431
0.304550 0.025691 0.141554
0.365284 0.024813 0.140677
0.426018 0.023936 0.139800
0.486752 0.023059 0.138922
0.547486 0.022182 0.138045
0.608220 0.021304 0.137168
0.668954 0.020427 0.136291
0.729689 0.019550 0.135414
0.790423 0.018673 0.134536
0.851157 0.017796 0.133659
0.911891 0.016918 0.132782
0.972625 0.016041 0.131905
1.000000 0.015164 0.131027
0.059834 0.091058 0.143284
0.120568 0.090181 0.142407
0.181303 0.089303 0.141530
0.242037 0.088426 0.140653
0.302771 0.087549 0.139775
0.363505 0.086672 0.138898
0.424239 0.085795 0.138021
0.484973 0.084917 0.137144
0.545707 0.084040 0.136266
0.606442 0.083163 0.135389
0.667176 0.082286 0.134512
0.727910 0.081408 0.133635
0.788644 0.080531 0.132758
0.849378 0.079654 0.131880
0.910112 0.078777 0.131003
0.970846 0.077899 0.130126
1.000000 0.077022 0.129249
0.058055 0.152916 0.141505
0.118790 0.152039 0.140628
0.179524 0.151162 0.139751
0.240258 0.150285 0.138874
0.300992 0.149407 0.137997
0.361726 0.148530 0.137119
0.422460 0.147653 0.136242
0.483194 0.146776 0.135365
0.543929 0.145899 0.134488
0.604663 0.145021 0.133610
0.665397 0.144144 0.132733
0.726131 0.143267 0.131856
0.786865 0.142390 0.130979
0.847599 0.141512 0.130101
0.908333 0.140635 0.129224
0.969068 0.139758 0.128347
1.000000 0.138881 0.127470
0.056277 0.214775 0.139727
0.117011 0.213898 0.138849
0.177745 0.213020 0.137972
0.238479 0.212143 0.137095
0.299213 0.211266 0.136218
0.359947 0.210389 0.135341
0.420681 0.209511 0.134463
0.481416 0.208634 0.133586
0.542150 0.207757 0.132709
0.602884 0.206880 0.131832
0.663618 0.206002 0.130954
0.724352 0.205125 0.130077
0.785086 0.204248 0.129200
0.845820 0.203371 0.128323
0.906555 0.202494 0.127445
0.967289 0.201616 0.126568
1.000000 0.200739 0.125691
0.054498 0.276633 0.137948
0.115232 0.275756 0.137071
0.175966 0.274879 0.136193
0.236700 0.274001 0.135316
0.297434 0.273124 0.134439
0.358169 0.272247 0.133562
0.418903 0.271370 0.132684
0.479637 0.270493 0.131807
0.540371 0.269615 0.130930
0.601105 0.268738 0.130053
0.661839 0.267861 0.129176
0.722573 0.266984 0.128298
0.783308 0.266106 0.127421
0.844042 0.265229 0.126544
0.904776 0.264352 0.125667
0.965510 0.263475 0.124789
1.000000 0.262597 0.123912
0.052719 0.338492 0.136169
0.113453 0.337614 0.135292
0.174187 0.336737 0.134415
0.234921 0.335860 0.133537
0.295656 0.334983 0.132660
0.356390 0.334105 0.131783
0.417124 0.333228 0.130906
0.477858 0.332351 0.130028
0.538592 0.331474 0.129151
0.599326 0.330596 0.128274
0.660060 0.329719 0.127397
0.720795 0.328842 0.126520
0.781529 0.327965 0.125642
0.842263 0.327088 0.124765
0.902997 0.326210 0.123888
0.963731 0.325333 0.123011
1.000000 0.324456 0.122133
0.050940 0.400350 0.134390
0.111674 0.399473 0.133513
0.172408 0.398596 0.132636
0.233143 0.397718 0.131759
0.293877 0.396841 0.130881
0.354611 0.395964 0.130004
0.415345 0.395087 0.129127
0.476079 0.394209 0.128250
0.536813 0.393332 0.127372
0.597547 0.392455 0.126495
0.658282 0.391578 0.125618
0.719016 0.390700 0.124741
0.779750 0.389823 0.123863
0.840484 0.388946 0.122986
0.901218 0.388069 0.122109
0.961952 0.387192 0.121232
1.000000 0.386314 0.120355
0.049161 0.462208 0.132611
0.109895 0.461331 0.131734
0.170630 0.460454 0.130857
0.231364 0.459577 0.129980
0.292098 0.458699 0.129102
0.352832 0.457822 0.128225
0.413566 0.456945 0.127348
0.474300 0.456068 0.126471
0.535035 0.455191 0.125594
0.595769 0.454313 0.124716
0.656503 0.453436 0.123839
0.717237 0.452559 0.122962
0.777971 0.451682 0.122085
0.838705 0.450804 0.121207
0.899439 0.449927 0.120330
0.960174 0.449050 0.119453
1.000000 0.448173 0.118576
0.047383 0.524067 0.130833
0.108117 0.523190 0.129955
0.168851 0.522312 0.129078
0.229585 0.521435 0.128201
0.290319 0.520558 0.127324
0.351053 0.519681 0.126446
0.411787 0.518803 0.125569
0.472522 0.517926 0.124692
0.533256 0.517049 0.123815
0.593990 0.516172 0.122938
0.654724 0.515294 0.122060
0.715458 0.514417 0.121183
0.776192 0.513540 0.120306
0.836926 0.512663 0.119429
0.897661 0.511786 0.118551
0.958395 0.510908 0.117674
1.000000 0.510031 0.116797
0.045604 0.585925 0.129054
0.106338 0.585048 0.128177
0.167072 0.584171 0.127299
0.227806 0.583293 0.126422
0.288540 0.582416 0.125545
0.349274 0.581539 0.124668
0.410009 0.580662 0.123790
0.470743 0.579785 0.122913
0.531477 0.578907 0.122036
0.592211 0.578030 0.121159
0.652945 0.577153 0.120281
0.713679 0.576276 0.119404
0.774413 0.575398 0.118527
0.835148 0.574521 0.117650
0.895882 0.573644 0.116773
0.956616 0.572767 0.115895
1.000000 0.571890 0.115018
0.043825 0.647784 0.127275
0.104559 0.646906 0.126398
0.165293 0.646029 0.125521
0.226027 0.645152 0.124643
0.286761 0.644275 0.123766
0.347496 0.643397 0.122889
0.408230 0.642520 0.122012
0.468964 0.641643 0.121134
0.529698 0.640766 0.120257
0.590432 0.639889 0.119380
0.651166 0.639011 0.118503
0.711901 0.638134 0.117625
0.772635 0.637257 0.116748
0.833369 0.636380 0.115871
0.894103 0.635502 0.114994
0.954837 0.634625 0.114117
1.000000 0.633748 0.113239
0.042046 0.709642 0.125496
0.102780 0.708765 0.124619
0.163514 0.707888 0.123742
0.224249 0.707010 0.122864
0.284983 0.706133 0.121987
0.345717 0.705256 0.121110
0.406451 0.704379 0.120233
0.467185 0.703501 0.119356
0.527919 0.702624 0.118478
0.588653 0.701747 0.117601
0.649388 0.700870 0.116724
0.710122 0.699992 0.115847
0.770856 0.699115 0.114969
0.831590 0.698238 0.114092
0.892324 0.697361 0.113215
0.953058 0.696484 0.112338
1.000000 0.695606 0.111460
0.040267 0.771500 0.123717
0.101001 0.770623 0.122840
0.161736 0.769746 0.121963
0.222470 0.768869 0.121086
0.283204 0.767991 0.120208
0.343938 0.767114 0.119331
0.404672 0.766237 0.118454
0.465406 0.765360 0.117577
0.526140 0.764483 0.116700
0.586875 0.763605 0.115822
0.647609 0.762728 0.114945
0.708343 0.761851 0.114068
0.769077 0.760974 0.113191
0.829811 0.760096 0.112313
0.890545 0.759219 0.111436
0.951279 0.758342 0.110559
1.000000 0.757465 0.109682
0.038488 0.833359 0.121939
0.099223 0.832482 0.121061
0.159957 0.831604 0.120184
0.220691 0.830727 0.119307
0.281425 0.829850 0.118430
0.342159 0.828973 0.117552
0.402893 0.828095 0.116675
0.463627 0.827218 0.115798
0.524362 0.826341 0.114921
0.585096 0.825464 0.114043
0.645830 0.824587 0.113166
0.706564 0.823709 0.112289
0.767298 0.822832 0.111412
0.828032 0.821955 0.110535
0.888767 0.821078 0.109657
0.949501 0.820200 0.108780
1.000000 0.819323 0.107903
0.036710 0.895217 0.120160
0.097444 0.894340 0.119282
0.158178 0.893463 0.118405
0.218912 0.892586 0.117528
0.279646 0.891708 0.116651
0.340380 0.890831 0.115774
0.401115 0.889954 0.114896
0.461849 0.889077 0.114019
0.522583 0.888199 0.113142
0.583317 0.887322 0.112265
0.644051 0.886445 0.111387
0.704785 0.885568 0.110510
0.765519 0.884690 0.109633
0.826254 0.883813 0.108756
0.886988 0.882936 0.107879
0.947722 0.882059 0.107001
1.000000 0.881182 0.106124
0.034931 0.957076 0.118381
0.095665 0.956198 0.117504
0.156399 0.955321 0.116626
0.217133 0.954444 0.115749
0.277867 0.953567 0.114872
0.338602 0.952689 0.113995
0.399336 0.951812 0.113118
0.460070 0.950935 0.112240
0.520804 0.950058 0.111363
0.581538 0.949181 0.110486
0.642272 0.948303 0.109609
0.703006 0.947426 0.108731
0.763741 0.946549 0.107854
0.824475 0.945672 0.106977
0.885209 0.944794 0.106100
0.945943 0.943917 0.105222
1.000000 0.943040 0.104345
0.033152 1.000000 0.116602
0.093886 1.000000 0.115725
0.154620 1.000000 0.114848
0.215354 1.000000 0.113970
0.276089 1.000000 0.113093
0.336823 1.000000 0.112216
0.397557 1.000000 0.111339
0.458291 1.000000 0.110461
0.519025 1.000000 0.109584
0.579759 1.000000 0.108707
0.640493 1.000000 0.107830
0.701228 1.000000 0.106953
0.761962 1.000000 0.106075
0.822696 1.000000 0.105198
0.883430 1.000000 0.104321
0.944164 1.000000 0.103444
1.000000 1.000000 0.102566
0.061275 0.028861 0.207077
0.122009 0.027984 0.206200
0.182743 0.027107 0.205322
0.243477 0.026229 0.204445
0.304211 0.025352 0.203568
0.364945 0.024475 0.202691
0.425679 0.023598 0.201814
0.486414 0.022720 0.200936
0.547148 0.021843 0.200059
0.607882 0.020966 0.199182
0.668616 0.020089 0.198305
0.729350 0.019212 0.197427
0.790084 0.018334 0.196550
0.850818 0.017457 0.195673
0.911553 0.016580 0.194796
0.972287 0.015703 0.193918
1.000000 0.014825 0.193041
0.059496 0.090719 0.205298
