shared/src/main/assets/luts/dalur_sunset_01.cube
TITLE "DALUR sunset"
LUT_3D_SIZE 9
DOMAIN_MIN 0.0 0.0 0.0
DOMAIN_MAX 1.0 1.0 1.0
0.047521 0.000000 0.000000
0.182300 0.000000 0.000000
0.317079 0.000000 0.000000
0.451859 0.000000 0.000000
0.586638 0.000000 0.000000
0.721417 0.000000 0.000000
0.856196 0.000000 0.000000
0.990975 0.000000 0.000000
1.000000 0.000000 0.000000
0.039620 0.111463 0.000000
0.174399 0.107697 0.000000
0.309178 0.103931 0.000000
0.443957 0.100166 0.000000
0.578736 0.096400 0.000000
0.713515 0.092634 0.000000
0.848294 0.088868 0.000000
0.983073 0.085102 0.000000
1.000000 0.081336 0.000000
0.031718 0.251635 0.000000
0.166497 0.247869 0.000000
0.301276 0.244103 0.000000
0.436055 0.240338 0.000000
0.570834 0.236572 0.000000
0.705613 0.232806 0.000000
0.840392 0.229040 0.000000
0.975171 0.225274 0.000000
1.000000 0.221508 0.000000
0.023816 0.391807 0.000000
0.158595 0.388041 0.000000
0.293374 0.384275 0.000000
0.428153 0.380510 0.000000
0.562932 0.376744 0.000000
0.697711 0.372978 0.000000
0.832491 0.369212 0.000000
0.967270 0.365446 0.000000
1.000000 0.361680 0.000000
0.015914 0.531979 0.000000
0.150693 0.528213 0.000000
0.285472 0.524447 0.000000
0.420252 0.520682 0.000000
0.555031 0.516916 0.000000
0.689810 0.513150 0.000000
0.824589 0.509384 0.000000
0.959368 0.505618 0.000000
1.000000 0.501852 0.000000
0.008013 0.672151 0.000000
0.142792 0.668385 0.000000
0.277571 0.664619 0.000000
0.412350 0.660854 0.000000
0.547129 0.657088 0.000000
0.681908 0.653322 0.000000
0.816687 0.649556 0.000000
0.951466 0.645790 0.000000
1.000000 0.642024 0.000000
0.000111 0.812323 0.000000
0.134890 0.808557 0.000000
0.269669 0.804791 0.000000
0.404448 0.801026 0.000000
0.539227 0.797260 0.000000
0.674006 0.793494 0.000000
0.808785 0.789728 0.000000
0.943564 0.785962 0.000000
1.000000 0.782196 0.000000
0.000000 0.952495 0.000000
0.126988 0.948729 0.000000
0.261767 0.944963 0.000000
0.396546 0.941198 0.000000
0.531325 0.937432 0.000000
0.666104 0.933666 0.000000
0.800884 0.929900 0.000000
0.935663 0.926134 0.000000
1.000000 0.922368 0.000000
0.000000 1.000000 0.000000
0.119086 1.000000 0.000000
0.253865 1.000000 0.000000
0.388645 1.000000 0.000000
0.523424 1.000000 0.000000
0.658203 1.000000 0.000000
0.792982 1.000000 0.000000
0.927761 1.000000 0.000000
1.000000 1.000000 0.000000
0.046042 0.000000 0.087182
0.180821 0.000000 0.083416
0.315600 0.000000 0.079650
0.450379 0.000000 0.075884
0.585158 0.000000 0.072118
0.719937 0.000000 0.068352
0.854716 0.000000 0.064586
0.989495 0.000000 0.060820
1.000000 0.000000 0.057054
0.038140 0.109984 0.079280
0.172919 0.106218 0.075514
0.307698 0.102452 0.071748
0.442477 0.098686 0.067982
0.577256 0.094920 0.064216
0.712035 0.091154 0.060450
0.846814 0.087388 0.056684
0.981593 0.083622 0.052918
1.000000 0.079856 0.049153
0.030238 0.250156 0.071378
0.165017 0.246390 0.067612
0.299796 0.242624 0.063846
0.434575 0.238858 0.060080
0.569354 0.235092 0.056314
0.704134 0.231326 0.052549
0.838913 0.227560 0.048783
0.973692 0.223794 0.045017
1.000000 0.220028 0.041251
0.022336 0.390328 0.063476
0.157115 0.386562 0.059710
0.291894 0.382796 0.055944
0.426674 0.379030 0.052179
0.561453 0.375264 0.048413
0.696232 0.371498 0.044647
0.831011 0.367732 0.040881
0.965790 0.363966 0.037115
1.000000 0.360200 0.033349
0.014435 0.530500 0.055575
0.149214 0.526734 0.051809
0.283993 0.522968 0.048043
0.418772 0.519202 0.044277
0.553551 0.515436 0.040511
0.688330 0.511670 0.036745
0.823109 0.507904 0.032979
0.957888 0.504138 0.029213
1.000000 0.500372 0.025447
0.006533 0.670672 0.047673
0.141312 0.666906 0.043907
0.276091 0.663140 0.040141
0.410870 0.659374 0.036375
0.545649 0.655608 0.032609
0.680428 0.651842 0.028843
0.815207 0.648076 0.025077
0.949986 0.644310 0.021311
1.000000 0.640544 0.017546
0.000000 0.810844 0.039771
0.133410 0.807078 0.036005
0.268189 0.803312 0.032239
0.402968 0.799546 0.028473
0.537747 0.795780 0.024707
0.672527 0.792014 0.020942
0.807306 0.788248 0.017176
0.942085 0.784482 0.013410
1.000000 0.780716 0.009644
0.000000 0.951016 0.031869
0.125508 0.947250 0.028103
0.260287 0.943484 0.024337
0.395067 0.939718 0.020572
0.529846 0.935952 0.016806
0.664625 0.932186 0.013040
0.799404 0.928420 0.009274
0.934183 0.924654 0.005508
1.000000 0.920888 0.001742
0.000000 1.000000 0.023968
0.117607 1.000000 0.020202
0.252386 1.000000 0.016436
0.387165 1.000000 0.012670
0.521944 1.000000 0.008904
0.656723 1.000000 0.005138
0.791502 1.000000 0.001372
0.926281 1.000000 0.000000
1.000000 1.000000 0.000000
0.044562 0.000000 0.228482
0.179341 0.000000 0.224716
0.314120 0.000000 0.220950
0.448899 0.000000 0.217184
0.583678 0.000000 0.213418
0.718457 0.000000 0.209652
0.853236 0.000000 0.205886
0.988015 0.000000 0.202120
1.000000 0.000000 0.198355
0.036660 0.108504 0.220580
0.171439 0.104738 0.216814
0.306218 0.100972 0.213048
0.440997 0.097206 0.209282
0.575776 0.093440 0.205516
0.710556 0.089674 0.201751
0.845335 0.085908 0.197985
0.980114 0.082142 0.194219
1.000000 0.078377 0.190453
0.028758 0.248676 0.212678
0.163537 0.244910 0.208912
0.298317 0.241144 0.205147
0.433096 0.237378 0.201381
0.567875 0.233612 0.197615
0.702654 0.229846 0.193849
0.837433 0.226080 0.190083
0.972212 0.222314 0.186317
1.000000 0.218549 0.182551
0.020857 0.388848 0.204777
0.155636 0.385082 0.201011
0.290415 0.381316 0.197245
0.425194 0.377550 0.193479
0.559973 0.373784 0.189713
0.694752 0.370018 0.185947
0.829531 0.366252 0.182181
0.964310 0.362486 0.178415
1.000000 0.358721 0.174649
0.012955 0.529020 0.196875
0.147734 0.525254 0.193109
0.282513 0.521488 0.189343
0.417292 0.517722 0.185577
0.552071 0.513956 0.181811
0.686850 0.510190 0.178045
0.821629 0.506424 0.174279
0.956408 0.502658 0.170513
1.000000 0.498893 0.166748
0.005053 0.669192 0.188973
0.139832 0.665426 0.185207
0.274611 0.661660 0.181441
0.409390 0.657894 0.177675
0.544169 0.654128 0.173909
0.678949 0.650362 0.170144
0.813728 0.646596 0.166378
0.948507 0.642830 0.162612
1.000000 0.639065 0.158846
0.000000 0.809364 0.181071
0.131930 0.805598 0.177305
0.266709 0.801832 0.173539
0.401489 0.798066 0.169774
0.536268 0.794300 0.166008
0.671047 0.790534 0.162242
0.805826 0.786768 0.158476
0.940605 0.783002 0.154710
1.000000 0.779237 0.150944
0.000000 0.949536 0.173170
0.124029 0.945770 0.169404
0.258808 0.942004 0.165638
0.393587 0.938238 0.161872
0.528366 0.934472 0.158106
0.663145 0.930706 0.154340
0.797924 0.926940 0.150574
0.932703 0.923174 0.146808
1.000000 0.919409 0.143042
0.000000 1.000000 0.165268
0.116127 1.000000 0.161502
0.250906 1.000000 0.157736
0.385685 1.000000 0.153970
0.520464 1.000000 0.150204
0.655243 1.000000 0.146438
0.790022 1.000000 0.142672
0.924801 1.000000 0.138906
1.000000 1.000000 0.135141
0.043082 0.000000 0.369782
0.177861 0.000000 0.366016
0.312640 0.000000 0.362250
0.447419 0.000000 0.358484
0.582198 0.000000 0.354718
0.716978 0.000000 0.350953
0.851757 0.000000 0.347187
0.986536 0.000000 0.343421
1.000000 0.000000 0.339655
0.035180 0.107024 0.361880
0.169959 0.103258 0.358114
0.304739 0.099492 0.354349
0.439518 0.095726 0.350583
0.574297 0.091960 0.346817
0.709076 0.088195 0.343051
0.843855 0.084429 0.339285
0.978634 0.080663 0.335519
1.000000 0.076897 0.331753
0.027279 0.247196 0.353979
0.162058 0.243430 0.350213
0.296837 0.239664 0.346447
0.431616 0.235898 0.342681
0.566395 0.232132 0.338915
0.701174 0.228367 0.335149
0.835953 0.224601 0.331383
0.970732 0.220835 0.327617
1.000000 0.217069 0.323851
0.019377 0.387368 0.346077
0.154156 0.383602 0.342311
0.288935 0.379836 0.338545
0.423714 0.376070 0.334779
0.558493 0.372304 0.331013
0.693272 0.368539 0.327247
0.828051 0.364773 0.323481
0.962831 0.361007 0.319716
1.000000 0.357241 0.315950
0.011475 0.527540 0.338175
0.146254 0.523774 0.334409
0.281033 0.520008 0.330643
0.415812 0.516242 0.326877
0.550591 0.512476 0.323111
0.685371 0.508711 0.319346
0.820150 0.504945 0.315580
0.954929 0.501179 0.311814
1.000000 0.497413 0.308048
0.003573 0.667712 0.330273
0.138352 0.663946 0.326507
0.273132 0.660180 0.322742
0.407911 0.656414 0.318976
0.542690 0.652648 0.315210
0.677469 0.648883 0.311444
0.812248 0.645117 0.307678
0.947027 0.641351 0.303912
1.000000 0.637585 0.300146
0.000000 0.807884 0.322372
0.130451 0.804118 0.318606
0.265230 0.800352 0.314840
0.400009 0.796586 0.311074
0.534788 0.792820 0.307308
0.669567 0.789055 0.303542
0.804346 0.785289 0.299776
0.939125 0.781523 0.296010
1.000000 0.777757 0.292244
0.000000 0.948056 0.314470
0.122549 0.944290 0.310704
0.257328 0.940524 0.306938
0.392107 0.936758 0.303172
0.526886 0.932992 0.299406
0.661665 0.929227 0.295640
0.796444 0.925461 0.291874
0.931223 0.921695 0.288108
1.000000 0.917929 0.284343
0.000000 1.000000 0.306568
0.114647 1.000000 0.302802
0.249426 1.000000 0.299036
0.384205 1.000000 0.295270
0.518984 1.000000 0.291504
0.653764 1.000000 0.287739
0.788543 1.000000 0.283973
0.923322 1.000000 0.280207
1.000000 1.000000 0.276441
0.041602 0.000000 0.511082
0.176381 0.000000 0.507316
0.311161 0.000000 0.503551
0.445940 0.000000 0.499785
0.580719 0.000000 0.496019
0.715498 0.000000 0.492253
0.850277 0.000000 0.488487
0.985056 0.000000 0.484721
1.000000 0.000000 0.480955
0.033701 0.105544 0.503181
0.168480 0.101778 0.499415
0.303259 0.098013 0.495649
0.438038 0.094247 0.491883
0.572817 0.090481 0.488117
0.707596 0.086715 0.484351
0.842375 0.082949 0.480585
0.977154 0.079183 0.476819
1.000000 0.075417 0.473053
0.025799 0.245716 0.495279
0.160578 0.241950 0.491513
0.295357 0.238185 0.487747
0.430136 0.234419 0.483981
0.564915 0.230653 0.480215
0.699694 0.226887 0.476449
0.834473 0.223121 0.472683
0.969253 0.219355 0.468918
1.000000 0.215589 0.465152
0.017897 0.385888 0.487377
0.152676 0.382122 0.483611
0.287455 0.378357 0.479845
0.422234 0.374591 0.476079
0.557014 0.370825 0.472314
0.691793 0.367059 0.468548
0.826572 0.363293 0.464782
0.961351 0.359527 0.461016
1.000000 0.355761 0.457250
0.009995 0.526060 0.479475
0.144774 0.522294 0.475709
0.279554 0.518529 0.471944
0.414333 0.514763 0.468178
0.549112 0.510997 0.464412
0.683891 0.507231 0.460646
0.818670 0.503465 0.456880
0.953449 0.499699 0.453114
1.000000 0.495933 0.449348
0.002094 0.666232 0.471574
0.136873 0.662466 0.467808
0.271652 0.658701 0.464042
0.406431 0.654935 0.460276
0.541210 0.651169 0.456510
0.675989 0.647403 0.452744
0.810768 0.643637 0.448978
0.945547 0.639871 0.445212
1.000000 0.636105 0.441446
0.000000 0.806404 0.463672
0.128971 0.802638 0.459906
0.263750 0.798873 0.456140
0.398529 0.795107 0.452374
0.533308 0.791341 0.448608
0.668087 0.787575 0.444842
0.802866 0.783809 0.441076
0.937646 0.780043 0.437311
1.000000 0.776277 0.433545
0.000000 0.946576 0.455770
0.121069 0.942810 0.452004
0.255848 0.939045 0.448238
0.390627 0.935279 0.444472
0.525406 0.931513 0.440706
0.660186 0.927747 0.436941
0.794965 0.923981 0.433175
0.929744 0.920215 0.429409
1.000000 0.916449 0.425643
0.000000 1.000000 0.447868
0.113167 1.000000 0.444102
0.247947 1.000000 0.440337
0.382726 1.000000 0.436571
0.517505 1.000000 0.432805
0.652284 1.000000 0.429039
0.787063 1.000000 0.425273
0.921842 1.000000 0.421507
1.000000 1.000000 0.417741
0.040123 0.000000 0.652383
0.174902 0.000000 0.648617
0.309681 0.000000 0.644851
0.444460 0.000000 0.641085
0.579239 0.000000 0.637319
0.714018 0.000000 0.633553
0.848797 0.000000 0.629787
0.983576 0.000000 0.626021
1.000000 0.000000 0.622255
0.032221 0.104065 0.644481
0.167000 0.100299 0.640715
0.301779 0.096533 0.636949
0.436558 0.092767 0.633183
0.571337 0.089001 0.629417
0.706116 0.085235 0.625651
0.840895 0.081469 0.621885
0.975675 0.077703 0.618120
1.000000 0.073937 0.614354
0.024319 0.244237 0.636579
0.159098 0.240471 0.632813
0.293877 0.236705 0.629047
0.428656 0.232939 0.625281
0.563436 0.229173 0.621516
0.698215 0.225407 0.617750
0.832994 0.221641 0.613984
0.967773 0.217875 0.610218
1.000000 0.214109 0.606452
0.016417 0.384409 0.628677
0.151197 0.380643 0.624912
0.285976 0.376877 0.621146
0.420755 0.373111 0.617380
0.555534 0.369345 0.613614
0.690313 0.365579 0.609848
0.825092 0.361813 0.606082
0.959871 0.358047 0.602316
1.000000 0.354281 0.598550
0.008516 0.524581 0.620776
0.143295 0.520815 0.617010
0.278074 0.517049 0.613244
0.412853 0.513283 0.609478
0.547632 0.509517 0.605712
0.682411 0.505751 0.601946
0.817190 0.501985 0.598180
0.951969 0.498219 0.594414
1.000000 0.494453 0.590648
0.000614 0.664753 0.612874
0.135393 0.660987 0.609108
0.270172 0.657221 0.605342
0.404951 0.653455 0.601576
0.539730 0.649689 0.597810
0.674509 0.645923 0.594044
0.809288 0.642157 0.590278
0.944068 0.638391 0.586513
1.000000 0.634625 0.582747
0.000000 0.804925 0.604972
0.127491 0.801159 0.601206
0.262270 0.797393 0.597440
0.397049 0.793627 0.593674
0.531829 0.789861 0.589909
0.666608 0.786095 0.586143
0.801387 0.782329 0.582377
0.936166 0.778563 0.578611
1.000000 0.774797 0.574845
0.000000 0.945097 0.597070
0.119589 0.941331 0.593304
0.254369 0.937565 0.589539
0.389148 0.933799 0.585773
0.523927 0.930033 0.582007
0.658706 0.926267 0.578241
0.793485 0.922501 0.574475
0.928264 0.918735 0.570709
1.000000 0.914969 0.566943
0.000000 1.000000 0.589169
0.111688 1.000000 0.585403
0.246467 1.000000 0.581637
0.381246 1.000000 0.577871
0.516025 1.000000 0.574105
0.650804 1.000000 0.570339
0.785583 1.000000 0.566573
0.920362 1.000000 0.562807
1.000000 1.000000 0.559041
0.038643 0.000000 0.793683
0.173422 0.000000 0.789917
0.308201 0.000000 0.786151
0.442980 0.000000 0.782385
0.577759 0.000000 0.778619
0.712538 0.000000 0.774853
0.847318 0.000000 0.771088
0.982097 0.000000 0.767322
1.000000 0.000000 0.763556
0.030741 0.102585 0.785781
0.165520 0.098819 0.782015
0.300299 0.095053 0.778249
0.435078 0.091287 0.774483
0.569858 0.087521 0.770718
0.704637 0.083755 0.766952
0.839416 0.079990 0.763186
0.974195 0.076224 0.759420
1.000000 0.072458 0.755654
0.022839 0.242757 0.777879
0.157619 0.238991 0.774114
0.292398 0.235225 0.770348
0.427177 0.231459 0.766582
0.561956 0.227693 0.762816
0.696735 0.223927 0.759050
0.831514 0.220162 0.755284
0.966293 0.216396 0.751518
1.000000 0.212630 0.747752
0.014938 0.382929 0.769978
0.149717 0.379163 0.766212
0.284496 0.375397 0.762446
0.419275 0.371631 0.758680
0.554054 0.367865 0.754914
0.688833 0.364099 0.751148
0.823612 0.360334 0.747382
0.958391 0.356568 0.743616
1.000000 0.352802 0.739850
0.007036 0.523101 0.762076
0.141815 0.519335 0.758310
0.276594 0.515569 0.754544
0.411373 0.511803 0.750778
0.546152 0.508037 0.747012
0.680931 0.504271 0.743246
0.815711 0.500506 0.739481
0.950490 0.496740 0.735715
1.000000 0.492974 0.731949
0.000000 0.663273 0.754174
0.133913 0.659507 0.750408
0.268692 0.655741 0.746642
0.403471 0.651975 0.742876
0.538251 0.648209 0.739111
0.673030 0.644443 0.735345
0.807809 0.640678 0.731579
0.942588 0.636912 0.727813
1.000000 0.633146 0.724047
0.000000 0.803445 0.746272
0.126012 0.799679 0.742507
0.260791 0.795913 0.738741
0.395570 0.792147 0.734975
0.530349 0.788381 0.731209
0.665128 0.784615 0.727443
0.799907 0.780849 0.723677
0.934686 0.777084 0.719911
1.000000 0.773318 0.716145
0.000000 0.943617 0.738371
0.118110 0.939851 0.734605
0.252889 0.936085 0.730839
0.387668 0.932319 0.727073
0.522447 0.928553 0.723307
0.657226 0.924787 0.719541
0.792005 0.921021 0.715775
0.926784 0.917256 0.712009
1.000000 0.913490 0.708243
0.000000 1.000000 0.730469
0.110208 1.000000 0.726703
0.244987 1.000000 0.722937
0.379766 1.000000 0.719171
0.514545 1.000000 0.715405
0.649324 1.000000 0.711639
0.784103 1.000000 0.707873
0.918883 1.000000 0.704108
1.000000 1.000000 0.700342
0.037163 0.000000 0.934983
0.171942 0.000000 0.931217
0.306721 0.000000 0.927451
0.441501 0.000000 0.923686
0.576280 0.000000 0.919920
0.711059 0.000000 0.916154
0.845838 0.000000 0.912388
0.980617 0.000000 0.908622
1.000000 0.000000 0.904856
0.029261 0.101105 0.927081
0.164041 0.097339 0.923316
0.298820 0.093573 0.919550
0.433599 0.089808 0.915784
0.568378 0.086042 0.912018
0.703157 0.082276 0.908252
0.837936 0.078510 0.904486
0.972715 0.074744 0.900720
1.000000 0.070978 0.896954
0.021360 0.241277 0.919180
0.156139 0.237511 0.915414
0.290918 0.233745 0.911648
0.425697 0.229980 0.907882
0.560476 0.226214 0.904116
0.695255 0.222448 0.900350
0.830034 0.218682 0.896584
0.964813 0.214916 0.892818
1.000000 0.211150 0.889052
0.013458 0.381449 0.911278
0.148237 0.377683 0.907512
0.283016 0.373917 0.903746
0.417795 0.370152 0.899980
0.552574 0.366386 0.896214
0.687353 0.362620 0.892448
0.822133 0.358854 0.888683
0.956912 0.355088 0.884917
1.000000 0.351322 0.881151
0.005556 0.521621 0.903376
0.140335 0.517855 0.899610
0.275114 0.514089 0.895844
0.409893 0.510323 0.892079
0.544673 0.506558 0.888313
0.679452 0.502792 0.884547
0.814231 0.499026 0.880781
0.949010 0.495260 0.877015
1.000000 0.491494 0.873249
0.000000 0.661793 0.895474
0.132434 0.658027 0.891709
0.267213 0.654261 0.887943
0.401992 0.650495 0.884177
0.536771 0.646730 0.880411
0.671550 0.642964 0.876645
0.806329 0.639198 0.872879
0.941108 0.635432 0.869113
1.000000 0.631666 0.865347
0.000000 0.801965 0.887573
0.124532 0.798199 0.883807
0.259311 0.794433 0.880041
0.394090 0.790667 0.876275
0.528869 0.786902 0.872509
0.663648 0.783136 0.868743
0.798427 0.779370 0.864977
0.933206 0.775604 0.861211
1.000000 0.771838 0.857445
0.000000 0.942137 0.879671
0.116630 0.938371 0.875905
0.251409 0.934605 0.872139
0.386188 0.930839 0.868373
0.520967 0.927074 0.864607
0.655746 0.923308 0.860841
0.790526 0.919542 0.857076
0.925305 0.915776 0.853310
1.000000 0.912010 0.849544
0.000000 1.000000 0.871769
0.108728 1.000000 0.868003
0.243507 1.000000 0.864237
0.378286 1.000000 0.860471
0.513066 1.000000 0.856706
0.647845 1.000000 0.852940
0.782624 1.000000 0.849174
0.917403 1.000000 0.845408
1.000000 1.000000 0.841642
0.035684 0.000000 1.000000
0.170463 0.000000 1.000000
0.305242 0.000000 1.000000
0.440021 0.000000 1.000000
0.574800 0.000000 1.000000
0.709579 0.000000 1.000000
0.844358 0.000000 1.000000
0.979137 0.000000 1.000000
1.000000 0.000000 1.000000
0.027782 0.099626 1.000000
0.162561 0.095860 1.000000
0.297340 0.092094 1.000000
0.432119 0.088328 1.000000
0.566898 0.084562 1.000000
0.701677 0.080796 1.000000
0.836456 0.077030 1.000000
0.971235 0.073264 1.000000
1.000000 0.069498 1.000000
0.019880 0.239798 1.000000
0.154659 0.236032 1.000000
0.289438 0.232266 1.000000
0.424217 0.228500 1.000000
0.558996 0.224734 1.000000
0.693775 0.220968 1.000000
0.828555 0.217202 1.000000
0.963334 0.213436 1.000000
1.000000 0.209670 1.000000
0.011978 0.379969 1.000000
0.146757 0.376204 1.000000
0.281536 0.372438 1.000000
0.416316 0.368672 1.000000
0.551095 0.364906 1.000000
0.685874 0.361140 1.000000
0.820653 0.357374 1.000000
0.955432 0.353608 1.000000
1.000000 0.349842 1.000000
0.004076 0.520141 1.000000
0.138856 0.516376 1.000000
0.273635 0.512610 1.000000
0.408414 0.508844 1.000000
0.543193 0.505078 1.000000
0.677972 0.501312 1.000000
0.812751 0.497546 1.000000
0.947530 0.493780 1.000000
1.000000 0.490014 1.000000
0.000000 0.660313 1.000000
0.130954 0.656548 1.000000
0.265733 0.652782 1.000000
0.400512 0.649016 1.000000
0.535291 0.645250 1.000000
0.670070 0.641484 1.000000
0.804849 0.637718 1.000000
0.939628 0.633952 1.000000
1.000000 0.630186 1.000000
0.000000 0.800485 1.000000
0.123052 0.796720 1.000000
0.257831 0.792954 1.000000
0.392610 0.789188 1.000000
0.527389 0.785422 1.000000
0.662168 0.781656 1.000000
0.796948 0.777890 1.000000
0.931727 0.774124 1.000000
1.000000 0.770358 0.998746
0.000000 0.940657 1.000000
0.115150 0.936892 1.000000
0.249929 0.933126 1.000000
0.384709 0.929360 1.000000
0.519488 0.925594 1.000000
0.654267 0.921828 1.000000
0.789046 0.918062 0.998376
0.923825 0.914296 0.994610
1.000000 0.910530 0.990844
0.000000 1.000000 1.000000
0.107249 1.000000 1.000000
0.242028 1.000000 1.000000
0.376807 1.000000 1.000000
0.511586 1.000000 0.998006
0.646365 1.000000 0.994240
0.781144 1.000000 0.990474
0.915923 1.000000 0.986708
1.000000 1.000000 0.982942
