shared/src/main/assets/luts/dalur_soft_01.cube
TITLE "DALUR soft"
LUT_3D_SIZE 9
DOMAIN_MIN 0.0 0.0 0.0
DOMAIN_MAX 1.0 1.0 1.0
0.107585 0.089235 0.086241
0.208357 0.091123 0.088128
0.309129 0.093010 0.090015
0.409901 0.094897 0.091902
0.510673 0.096784 0.093789
0.611445 0.098672 0.095677
0.712217 0.100559 0.097564
0.812989 0.102446 0.099451
0.913761 0.104333 0.101338
0.111376 0.194205 0.090032
0.212148 0.196092 0.091919
0.312920 0.197979 0.093806
0.413692 0.199866 0.095693
0.514464 0.201754 0.097580
0.615236 0.203641 0.099468
0.716008 0.205528 0.101355
0.816780 0.207415 0.103242
0.917552 0.209303 0.105129
0.115167 0.299174 0.093822
0.215939 0.301061 0.095710
0.316711 0.302949 0.097597
0.417483 0.304836 0.099484
0.518255 0.306723 0.101371
0.619027 0.308610 0.103259
0.719799 0.310498 0.105146
0.820571 0.312385 0.107033
0.921343 0.314272 0.108920
0.118958 0.404144 0.097613
0.219730 0.406031 0.099501
0.320502 0.407918 0.101388
0.421274 0.409805 0.103275
0.522046 0.411692 0.105162
0.622818 0.413580 0.107050
0.723590 0.415467 0.108937
0.824362 0.417354 0.110824
0.925134 0.419241 0.112711
0.122749 0.509113 0.101404
0.223521 0.511000 0.103292
0.324293 0.512887 0.105179
0.425065 0.514775 0.107066
0.525837 0.516662 0.108953
0.626609 0.518549 0.110841
0.727381 0.520436 0.112728
0.828153 0.522324 0.114615
0.928924 0.524211 0.116502
0.126540 0.614082 0.105195
0.227312 0.615970 0.107083
0.328084 0.617857 0.108970
0.428856 0.619744 0.110857
0.529628 0.621631 0.112744
0.630400 0.623518 0.114632
0.731172 0.625406 0.116519
0.831944 0.627293 0.118406
0.932715 0.629180 0.120293
0.130331 0.719052 0.108986
0.231103 0.720939 0.110874
0.331875 0.722826 0.112761
0.432647 0.724713 0.114648
0.533419 0.726601 0.116535
0.634191 0.728488 0.118422
0.734963 0.730375 0.120310
0.835734 0.732262 0.122197
0.936506 0.734150 0.124084
0.134122 0.824021 0.112777
0.234894 0.825908 0.114665
0.335666 0.827796 0.116552
0.436438 0.829683 0.118439
0.537210 0.831570 0.120326
0.637982 0.833457 0.122213
0.738753 0.835344 0.124101
0.839525 0.837232 0.125988
0.940297 0.839119 0.127875
0.137913 0.928991 0.116568
0.238685 0.930878 0.118455
0.339457 0.932765 0.120343
0.440229 0.934652 0.122230
0.541001 0.936539 0.124117
0.641773 0.938427 0.126004
0.742544 0.940314 0.127892
0.843316 0.942201 0.129779
0.944088 0.944088 0.131666
0.108309 0.089959 0.186402
0.209081 0.091846 0.188289
0.309853 0.093733 0.190176
0.410625 0.095621 0.192064
0.511396 0.097508 0.193951
0.612168 0.099395 0.195838
0.712940 0.101282 0.197725
0.813712 0.103170 0.199613
0.914484 0.105057 0.201500
0.112100 0.194928 0.190193
0.212872 0.196816 0.192080
0.313644 0.198703 0.193967
0.414415 0.200590 0.195855
0.515187 0.202477 0.197742
0.615959 0.204364 0.199629
0.716731 0.206252 0.201516
0.817503 0.208139 0.203403
0.918275 0.210026 0.205291
0.115891 0.299898 0.193984
0.216663 0.301785 0.195871
0.317435 0.303672 0.197758
0.418206 0.305559 0.199646
0.518978 0.307447 0.201533
0.619750 0.309334 0.203420
0.720522 0.311221 0.205307
0.821294 0.313108 0.207194
0.922066 0.314996 0.209082
0.119682 0.404867 0.197775
0.220454 0.406754 0.199662
0.321225 0.408642 0.201549
0.421997 0.410529 0.203436
0.522769 0.412416 0.205324
0.623541 0.414303 0.207211
0.724313 0.416191 0.209098
0.825085 0.418078 0.210985
0.925857 0.419965 0.212873
0.123473 0.509837 0.201566
0.224245 0.511724 0.203453
0.325016 0.513611 0.205340
0.425788 0.515498 0.207227
0.526560 0.517385 0.209115
0.627332 0.519273 0.211002
0.728104 0.521160 0.212889
0.828876 0.523047 0.214776
0.929648 0.524934 0.216664
0.127264 0.614806 0.205357
0.228035 0.616693 0.207244
0.328807 0.618580 0.209131
0.429579 0.620468 0.211018
0.530351 0.622355 0.212906
0.631123 0.624242 0.214793
0.731895 0.626129 0.216680
0.832667 0.628017 0.218567
0.933439 0.629904 0.220455
0.131054 0.719775 0.209148
0.231826 0.721663 0.211035
0.332598 0.723550 0.212922
0.433370 0.725437 0.214809
0.534142 0.727324 0.216697
0.634914 0.729211 0.218584
0.735686 0.731099 0.220471
0.836458 0.732986 0.222358
0.937230 0.734873 0.224245
0.134845 0.824745 0.212939
0.235617 0.826632 0.214826
0.336389 0.828519 0.216713
0.437161 0.830406 0.218600
0.537933 0.832294 0.220488
0.638705 0.834181 0.222375
0.739477 0.836068 0.224262
0.840249 0.837955 0.226149
0.941021 0.839843 0.228036
0.138636 0.929714 0.216730
0.239408 0.931601 0.218617
0.340180 0.933489 0.220504
0.440952 0.935376 0.222391
0.541724 0.937263 0.224279
0.642496 0.939150 0.226166
0.743268 0.941037 0.228053
0.844040 0.942925 0.229940
0.944812 0.944812 0.231827
0.109032 0.090683 0.286563
0.209804 0.092570 0.288451
0.310576 0.094457 0.290338
0.411348 0.096344 0.292225
0.512120 0.098231 0.294112
0.612892 0.100119 0.295999
0.713664 0.102006 0.297887
0.814436 0.103893 0.299774
0.915208 0.105780 0.301661
0.112823 0.195652 0.290354
0.213595 0.197539 0.292241
0.314367 0.199426 0.294129
0.415139 0.201314 0.296016
0.515911 0.203201 0.297903
0.616683 0.205088 0.299790
0.717455 0.206975 0.301678
0.818227 0.208863 0.303565
0.918999 0.210750 0.305452
0.116614 0.300621 0.294145
0.217386 0.302509 0.296032
0.318158 0.304396 0.297920
0.418930 0.306283 0.299807
0.519702 0.308170 0.301694
0.620474 0.310057 0.303581
0.721246 0.311945 0.305469
0.822018 0.313832 0.307356
0.922790 0.315719 0.309243
0.120405 0.405591 0.297936
0.221177 0.407478 0.299823
0.321949 0.409365 0.301711
0.422721 0.411252 0.303598
0.523493 0.413140 0.305485
0.624265 0.415027 0.307372
0.725037 0.416914 0.309260
0.825809 0.418801 0.311147
0.926581 0.420689 0.313034
0.124196 0.510560 0.301727
0.224968 0.512447 0.303614
0.325740 0.514335 0.305502
0.426512 0.516222 0.307389
0.527284 0.518109 0.309276
0.628056 0.519996 0.311163
0.728828 0.521883 0.313050
0.829600 0.523771 0.314938
0.930372 0.525658 0.316825
0.127987 0.615529 0.305518
0.228759 0.617417 0.307405
0.329531 0.619304 0.309293
0.430303 0.621191 0.311180
0.531075 0.623078 0.313067
0.631847 0.624966 0.314954
0.732619 0.626853 0.316841
0.833391 0.628740 0.318729
0.934163 0.630627 0.320616
0.131778 0.720499 0.309309
0.232550 0.722386 0.311196
0.333322 0.724273 0.313083
0.434094 0.726161 0.314971
0.534866 0.728048 0.316858
0.635638 0.729935 0.318745
0.736410 0.731822 0.320632
0.837182 0.733709 0.322520
0.937954 0.735597 0.324407
0.135569 0.825468 0.313100
0.236341 0.827356 0.314987
0.337113 0.829243 0.316874
0.437885 0.831130 0.318762
0.538657 0.833017 0.320649
0.639429 0.834904 0.322536
0.740201 0.836792 0.324423
0.840973 0.838679 0.326311
0.941745 0.840566 0.328198
0.139360 0.930438 0.316891
0.240132 0.932325 0.318778
0.340904 0.934212 0.320665
0.441676 0.936099 0.322553
0.542448 0.937987 0.324440
0.643220 0.939874 0.326327
0.743992 0.941761 0.328214
0.844764 0.943648 0.330102
0.945535 0.945535 0.331989
0.109756 0.091406 0.386725
0.210528 0.093293 0.388612
0.311300 0.095181 0.390499
0.412072 0.097068 0.392386
0.512844 0.098955 0.394274
0.613616 0.100842 0.396161
0.714387 0.102729 0.398048
0.815159 0.104617 0.399935
0.915931 0.106504 0.401822
0.113547 0.196376 0.390516
0.214319 0.198263 0.392403
0.315091 0.200150 0.394290
0.415863 0.202037 0.396177
0.516635 0.203924 0.398064
0.617406 0.205812 0.399952
0.718178 0.207699 0.401839
0.818950 0.209586 0.403726
0.919722 0.211473 0.405613
0.117338 0.301345 0.394307
0.218110 0.303232 0.396194
0.318882 0.305119 0.398081
0.419654 0.307007 0.399968
0.520426 0.308894 0.401855
0.621197 0.310781 0.403743
0.721969 0.312668 0.405630
0.822741 0.314555 0.407517
0.923513 0.316443 0.409404
0.121129 0.406314 0.398098
0.221901 0.408202 0.399985
0.322673 0.410089 0.401872
0.423445 0.411976 0.403759
0.524216 0.413863 0.405646
0.624988 0.415750 0.407534
0.725760 0.417638 0.409421
0.826532 0.419525 0.411308
0.927304 0.421412 0.413195
0.124920 0.511284 0.401888
0.225692 0.513171 0.403776
0.326464 0.515058 0.405663
0.427236 0.516945 0.407550
0.528007 0.518833 0.409437
0.628779 0.520720 0.411325
0.729551 0.522607 0.413212
0.830323 0.524494 0.415099
0.931095 0.526381 0.416986
0.128711 0.616253 0.405679
0.229483 0.618140 0.407567
0.330255 0.620028 0.409454
0.431026 0.621915 0.411341
0.531798 0.623802 0.413228
0.632570 0.625689 0.415116
0.733342 0.627576 0.417003
0.834114 0.629464 0.418890
0.934886 0.631351 0.420777
0.132502 0.721222 0.409470
0.233274 0.723110 0.411358
0.334046 0.724997 0.413245
0.434817 0.726884 0.415132
0.535589 0.728771 0.417019
0.636361 0.730659 0.418907
0.737133 0.732546 0.420794
0.837905 0.734433 0.422681
0.938677 0.736320 0.424568
0.136293 0.826192 0.413261
0.237065 0.828079 0.415149
0.337836 0.829966 0.417036
0.438608 0.831854 0.418923
0.539380 0.833741 0.420810
0.640152 0.835628 0.422697
0.740924 0.837515 0.424585
0.841696 0.839402 0.426472
0.942468 0.841290 0.428359
0.140084 0.931161 0.417052
0.240855 0.933048 0.418940
0.341627 0.934936 0.420827
0.442399 0.936823 0.422714
0.543171 0.938710 0.424601
0.643943 0.940597 0.426488
0.744715 0.942485 0.428376
0.845487 0.944372 0.430263
0.946259 0.946259 0.432150
0.110479 0.092130 0.486886
0.211251 0.094017 0.488773
0.312023 0.095904 0.490660
0.412795 0.097791 0.492548
0.513567 0.099679 0.494435
0.614339 0.101566 0.496322
0.715111 0.103453 0.498209
0.815883 0.105340 0.500097
0.916655 0.107227 0.501984
0.114270 0.197099 0.490677
0.215042 0.198986 0.492564
0.315814 0.200874 0.494451
0.416586 0.202761 0.496339
0.517358 0.204648 0.498226
0.618130 0.206535 0.500113
0.718902 0.208422 0.502000
0.819674 0.210310 0.503888
0.920446 0.212197 0.505775
0.118061 0.302068 0.494468
0.218833 0.303956 0.496355
0.319605 0.305843 0.498242
0.420377 0.307730 0.500130
0.521149 0.309617 0.502017
0.621921 0.311505 0.503904
0.722693 0.313392 0.505791
0.823465 0.315279 0.507678
0.924237 0.317166 0.509566
0.121852 0.407038 0.498259
0.222624 0.408925 0.500146
0.323396 0.410812 0.502033
0.424168 0.412700 0.503921
0.524940 0.414587 0.505808
0.625712 0.416474 0.507695
0.726484 0.418361 0.509582
0.827256 0.420248 0.511469
0.928028 0.422136 0.513357
0.125643 0.512007 0.502050
0.226415 0.513894 0.503937
0.327187 0.515782 0.505824
0.427959 0.517669 0.507712
0.528731 0.519556 0.509599
0.629503 0.521443 0.511486
0.730275 0.523331 0.513373
0.831047 0.525218 0.515260
0.931819 0.527105 0.517148
0.129434 0.616977 0.505841
0.230206 0.618864 0.507728
0.330978 0.620751 0.509615
0.431750 0.622638 0.511502
0.532522 0.624526 0.513390
0.633294 0.626413 0.515277
0.734066 0.628300 0.517164
0.834838 0.630187 0.519051
0.935610 0.632074 0.520939
0.133225 0.721946 0.509632
0.233997 0.723833 0.511519
0.334769 0.725720 0.513406
0.435541 0.727608 0.515293
0.536313 0.729495 0.517181
0.637085 0.731382 0.519068
0.737857 0.733269 0.520955
0.838629 0.735157 0.522842
0.939401 0.737044 0.524730
0.137016 0.826915 0.513423
0.237788 0.828803 0.515310
0.338560 0.830690 0.517197
0.439332 0.832577 0.519084
0.540104 0.834464 0.520972
0.640876 0.836352 0.522859
0.741648 0.838239 0.524746
0.842420 0.840126 0.526633
0.943192 0.842013 0.528521
0.140807 0.931885 0.517214
0.241579 0.933772 0.519101
0.342351 0.935659 0.520988
0.443123 0.937546 0.522875
0.543895 0.939434 0.524763
0.644667 0.941321 0.526650
0.745439 0.943208 0.528537
0.846211 0.945095 0.530424
0.946983 0.946983 0.532311
0.111203 0.092853 0.587047
0.211975 0.094740 0.588935
0.312747 0.096628 0.590822
0.413519 0.098515 0.592709
0.514291 0.100402 0.594596
0.615063 0.102289 0.596483
0.715835 0.104177 0.598371
0.816607 0.106064 0.600258
0.917378 0.107951 0.602145
0.114994 0.197823 0.590838
0.215766 0.199710 0.592726
0.316538 0.201597 0.594613
0.417310 0.203484 0.596500
0.518082 0.205372 0.598387
0.618854 0.207259 0.600274
0.719626 0.209146 0.602162
0.820398 0.211033 0.604049
0.921169 0.212920 0.605936
0.118785 0.302792 0.594629
0.219557 0.304679 0.596516
0.320329 0.306566 0.598404
0.421101 0.308454 0.600291
0.521873 0.310341 0.602178
0.622645 0.312228 0.604065
0.723417 0.314115 0.605953
0.824188 0.316003 0.607840
0.924960 0.317890 0.609727
0.122576 0.407761 0.598420
0.223348 0.409649 0.600307
0.324120 0.411536 0.602195
0.424892 0.413423 0.604082
0.525664 0.415310 0.605969
0.626436 0.417198 0.607856
0.727207 0.419085 0.609744
0.827979 0.420972 0.611631
0.928751 0.422859 0.613518
0.126367 0.512731 0.602211
0.227139 0.514618 0.604098
0.327911 0.516505 0.605986
0.428683 0.518392 0.607873
0.529455 0.520280 0.609760
0.630227 0.522167 0.611647
0.730998 0.524054 0.613535
0.831770 0.525941 0.615422
0.932542 0.527829 0.617309
0.130158 0.617700 0.606002
0.230930 0.619587 0.607889
0.331702 0.621475 0.609777
0.432474 0.623362 0.611664
0.533246 0.625249 0.613551
0.634017 0.627136 0.615438
0.734789 0.629024 0.617325
0.835561 0.630911 0.619213
0.936333 0.632798 0.621100
0.133949 0.722670 0.609793
0.234721 0.724557 0.611680
0.335493 0.726444 0.613568
0.436265 0.728331 0.615455
0.537037 0.730218 0.617342
0.637808 0.732106 0.619229
0.738580 0.733993 0.621116
0.839352 0.735880 0.623004
0.940124 0.737767 0.624891
0.137740 0.827639 0.613584
0.238512 0.829526 0.615471
0.339284 0.831413 0.617359
0.440056 0.833301 0.619246
0.540827 0.835188 0.621133
0.641599 0.837075 0.623020
0.742371 0.838962 0.624907
0.843143 0.840850 0.626795
0.943915 0.842737 0.628682
0.141531 0.932608 0.617375
0.242303 0.934496 0.619262
0.343075 0.936383 0.621149
0.443846 0.938270 0.623037
0.544618 0.940157 0.624924
0.645390 0.942044 0.626811
0.746162 0.943932 0.628698
0.846934 0.945819 0.630586
0.947706 0.947706 0.632473
0.111927 0.093577 0.687209
0.212699 0.095464 0.689096
0.313470 0.097351 0.690983
0.414242 0.099239 0.692870
0.515014 0.101126 0.694758
0.615786 0.103013 0.696645
0.716558 0.104900 0.698532
0.817330 0.106787 0.700419
0.918102 0.108675 0.702306
0.115718 0.198546 0.691000
0.216489 0.200433 0.692887
0.317261 0.202321 0.694774
0.418033 0.204208 0.696661
0.518805 0.206095 0.698549
0.619577 0.207982 0.700436
0.720349 0.209870 0.702323
0.821121 0.211757 0.704210
0.921893 0.213644 0.706097
0.119508 0.303516 0.694791
0.220280 0.305403 0.696678
0.321052 0.307290 0.698565
0.421824 0.309177 0.700452
0.522596 0.311065 0.702340
0.623368 0.312952 0.704227
0.724140 0.314839 0.706114
0.824912 0.316726 0.708001
0.925684 0.318613 0.709888
0.123299 0.408485 0.698582
0.224071 0.410372 0.700469
0.324843 0.412259 0.702356
0.425615 0.414147 0.704243
0.526387 0.416034 0.706130
0.627159 0.417921 0.708018
0.727931 0.419808 0.709905
0.828703 0.421696 0.711792
0.929475 0.423583 0.713679
0.127090 0.513454 0.702373
0.227862 0.515342 0.704260
0.328634 0.517229 0.706147
0.429406 0.519116 0.708034
0.530178 0.521003 0.709921
0.630950 0.522891 0.711809
0.731722 0.524778 0.713696
0.832494 0.526665 0.715583
0.933266 0.528552 0.717470
0.130881 0.618424 0.706163
0.231653 0.620311 0.708051
0.332425 0.622198 0.709938
0.433197 0.624085 0.711825
0.533969 0.625973 0.713712
0.634741 0.627860 0.715600
0.735513 0.629747 0.717487
0.836285 0.631634 0.719374
0.937057 0.633522 0.721261
0.134672 0.723393 0.709954
0.235444 0.725280 0.711842
0.336216 0.727168 0.713729
0.436988 0.729055 0.715616
0.537760 0.730942 0.717503
0.638532 0.732829 0.719391
0.739304 0.734717 0.721278
0.840076 0.736604 0.723165
0.940848 0.738491 0.725052
0.138463 0.828363 0.713745
0.239235 0.830250 0.715633
0.340007 0.832137 0.717520
0.440779 0.834024 0.719407
0.541551 0.835911 0.721294
0.642323 0.837799 0.723182
0.743095 0.839686 0.725069
0.843867 0.841573 0.726956
0.944639 0.843460 0.728843
0.142254 0.933332 0.717536
0.243026 0.935219 0.719424
0.343798 0.937106 0.721311
0.444570 0.938994 0.723198
0.545342 0.940881 0.725085
0.646114 0.942768 0.726973
0.746886 0.944655 0.728860
0.847658 0.946543 0.730747
0.948430 0.948430 0.732634
0.112650 0.094300 0.787370
0.213422 0.096188 0.789257
0.314194 0.098075 0.791144
0.414966 0.099962 0.793032
0.515738 0.101849 0.794919
0.616510 0.103737 0.796806
0.717282 0.105624 0.798693
0.818054 0.107511 0.800581
0.918826 0.109398 0.802468
0.116441 0.199270 0.791161
0.217213 0.201157 0.793048
0.317985 0.203044 0.794935
0.418757 0.204931 0.796823
0.519529 0.206819 0.798710
0.620301 0.208706 0.800597
0.721073 0.210593 0.802484
0.821845 0.212480 0.804372
0.922617 0.214368 0.806259
0.120232 0.304239 0.794952
0.221004 0.306126 0.796839
0.321776 0.308014 0.798726
0.422548 0.309901 0.800614
0.523320 0.311788 0.802501
0.624092 0.313675 0.804388
0.724864 0.315563 0.806275
0.825636 0.317450 0.808163
0.926408 0.319337 0.810050
0.124023 0.409209 0.798743
0.224795 0.411096 0.800630
0.325567 0.412983 0.802517
0.426339 0.414870 0.804405
0.527111 0.416757 0.806292
0.627883 0.418645 0.808179
0.728655 0.420532 0.810066
0.829427 0.422419 0.811953
0.930199 0.424306 0.813841
0.127814 0.514178 0.802534
0.228586 0.516065 0.804421
0.329358 0.517952 0.806308
0.430130 0.519840 0.808196
0.530902 0.521727 0.810083
0.631674 0.523614 0.811970
0.732446 0.525501 0.813857
0.833218 0.527389 0.815744
0.933989 0.529276 0.817632
0.131605 0.619147 0.806325
0.232377 0.621035 0.808212
0.333149 0.622922 0.810099
0.433921 0.624809 0.811987
0.534693 0.626696 0.813874
0.635465 0.628583 0.815761
0.736237 0.630471 0.817648
0.837008 0.632358 0.819535
0.937780 0.634245 0.821423
0.135396 0.724117 0.810116
0.236168 0.726004 0.812003
0.336940 0.727891 0.813890
0.437712 0.729778 0.815777
0.538484 0.731666 0.817665
0.639256 0.733553 0.819552
0.740028 0.735440 0.821439
0.840799 0.737327 0.823326
0.941571 0.739215 0.825214
0.139187 0.829086 0.813907
0.239959 0.830973 0.815794
0.340731 0.832861 0.817681
0.441503 0.834748 0.819568
0.542275 0.836635 0.821456
0.643047 0.838522 0.823343
0.743818 0.840409 0.825230
0.844590 0.842297 0.827117
0.945362 0.844184 0.829005
0.142978 0.934056 0.817698
0.243750 0.935943 0.819585
0.344522 0.937830 0.821472
0.445294 0.939717 0.823359
0.546066 0.941604 0.825247
0.646838 0.943492 0.827134
0.747609 0.945379 0.829021
0.848381 0.947266 0.830908
0.949153 0.949153 0.832796
0.113374 0.095024 0.887531
0.214146 0.096911 0.889419
0.314918 0.098798 0.891306
0.415690 0.100686 0.893193
0.516461 0.102573 0.895080
0.617233 0.104460 0.896968
0.718005 0.106347 0.898855
0.818777 0.108235 0.900742
0.919549 0.110122 0.902629
0.117165 0.199993 0.891322
0.217937 0.201881 0.893210
0.318709 0.203768 0.895097
0.419480 0.205655 0.896984
0.520252 0.207542 0.898871
0.621024 0.209429 0.900758
0.721796 0.211317 0.902646
0.822568 0.213204 0.904533
0.923340 0.215091 0.906420
0.120956 0.304963 0.895113
0.221728 0.306850 0.897001
0.322499 0.308737 0.898888
0.423271 0.310624 0.900775
0.524043 0.312512 0.902662
0.624815 0.314399 0.904549
0.725587 0.316286 0.906437
0.826359 0.318173 0.908324
0.927131 0.320061 0.910211
0.124747 0.409932 0.898904
0.225519 0.411819 0.900791
0.326290 0.413707 0.902679
0.427062 0.415594 0.904566
0.527834 0.417481 0.906453
0.628606 0.419368 0.908340
0.729378 0.421255 0.910228
0.830150 0.423143 0.912115
0.930922 0.425030 0.914002
0.128538 0.514902 0.902695
0.229309 0.516789 0.904582
0.330081 0.518676 0.906470
0.430853 0.520563 0.908357
0.531625 0.522450 0.910244
0.632397 0.524338 0.912131
0.733169 0.526225 0.914019
0.833941 0.528112 0.915906
0.934713 0.529999 0.917793
0.132329 0.619871 0.906486
0.233100 0.621758 0.908373
0.333872 0.623645 0.910261
0.434644 0.625533 0.912148
0.535416 0.627420 0.914035
0.636188 0.629307 0.915922
0.736960 0.631194 0.917810
0.837732 0.633081 0.919697
0.938504 0.634969 0.921584
0.136119 0.724840 0.910277
0.236891 0.726728 0.912164
0.337663 0.728615 0.914052
0.438435 0.730502 0.915939
0.539207 0.732389 0.917826
0.639979 0.734276 0.919713
0.740751 0.736164 0.921601
0.841523 0.738051 0.923488
0.942295 0.739938 0.925375
0.139910 0.829810 0.914068
0.240682 0.831697 0.915955
0.341454 0.833584 0.917843
0.442226 0.835471 0.919730
0.542998 0.837359 0.921617
0.643770 0.839246 0.923504
0.744542 0.841133 0.925391
0.845314 0.843020 0.927279
0.946086 0.844907 0.929166
0.143701 0.934779 0.917859
0.244473 0.936666 0.919746
0.345245 0.938554 0.921634
0.446017 0.940441 0.923521
0.546789 0.942328 0.925408
0.647561 0.944215 0.927295
0.748333 0.946102 0.929182
0.849105 0.947990 0.931070
0.949877 0.949877 0.932957
