shared/src/main/assets/luts/dalur_soft_01.cube
TITLE "DALUR soft"
LUT_3D_SIZE 5
DOMAIN_MIN 0.0 0.0 0.0
DOMAIN_MAX 1.0 1.0 1.0
0.107585 0.089235 0.086241
0.309129 0.093010 0.090015
0.510673 0.096784 0.093789
0.712217 0.100559 0.097564
0.913761 0.104333 0.101338
0.115167 0.299174 0.093822
0.316711 0.302949 0.097597
0.518255 0.306723 0.101371
0.719799 0.310498 0.105146
0.921343 0.314272 0.108920
0.122749 0.509113 0.101404
0.324293 0.512887 0.105179
0.525837 0.516662 0.108953
0.727381 0.520436 0.112728
0.928924 0.524211 0.116502
0.130331 0.719052 0.108986
0.331875 0.722826 0.112761
0.533419 0.726601 0.116535
0.734963 0.730375 0.120310
0.936506 0.734150 0.124084
0.137913 0.928991 0.116568
0.339457 0.932765 0.120343
0.541001 0.936539 0.124117
0.742544 0.940314 0.127892
0.944088 0.944088 0.131666
0.109032 0.090683 0.286563
0.310576 0.094457 0.290338
0.512120 0.098231 0.294112
0.713664 0.102006 0.297887
0.915208 0.105780 0.301661
0.116614 0.300621 0.294145
0.318158 0.304396 0.297920
0.519702 0.308170 0.301694
0.721246 0.311945 0.305469
0.922790 0.315719 0.309243
0.124196 0.510560 0.301727
0.325740 0.514335 0.305502
0.527284 0.518109 0.309276
0.728828 0.521883 0.313050
0.930372 0.525658 0.316825
0.131778 0.720499 0.309309
0.333322 0.724273 0.313083
0.534866 0.728048 0.316858
0.736410 0.731822 0.320632
0.937954 0.735597 0.324407
0.139360 0.930438 0.316891
0.340904 0.934212 0.320665
0.542448 0.937987 0.324440
0.743992 0.941761 0.328214
0.945535 0.945535 0.331989
0.110479 0.092130 0.486886
0.312023 0.095904 0.490660
0.513567 0.099679 0.494435
0.715111 0.103453 0.498209
0.916655 0.107227 0.501984
0.118061 0.302068 0.494468
0.319605 0.305843 0.498242
0.521149 0.309617 0.502017
0.722693 0.313392 0.505791
0.924237 0.317166 0.509566
0.125643 0.512007 0.502050
0.327187 0.515782 0.505824
0.528731 0.519556 0.509599
0.730275 0.523331 0.513373
0.931819 0.527105 0.517148
0.133225 0.721946 0.509632
0.334769 0.725720 0.513406
0.536313 0.729495 0.517181
0.737857 0.733269 0.520955
0.939401 0.737044 0.524730
0.140807 0.931885 0.517214
0.342351 0.935659 0.520988
0.543895 0.939434 0.524763
0.745439 0.943208 0.528537
0.946983 0.946983 0.532311
0.111927 0.093577 0.687209
0.313470 0.097351 0.690983
0.515014 0.101126 0.694758
0.716558 0.104900 0.698532
0.918102 0.108675 0.702306
0.119508 0.303516 0.694791
0.321052 0.307290 0.698565
0.522596 0.311065 0.702340
0.724140 0.314839 0.706114
0.925684 0.318613 0.709888
0.127090 0.513454 0.702373
0.328634 0.517229 0.706147
0.530178 0.521003 0.709921
0.731722 0.524778 0.713696
0.933266 0.528552 0.717470
0.134672 0.723393 0.709954
0.336216 0.727168 0.713729
0.537760 0.730942 0.717503
0.739304 0.734717 0.721278
0.940848 0.738491 0.725052
0.142254 0.933332 0.717536
0.343798 0.937106 0.721311
0.545342 0.940881 0.725085
0.746886 0.944655 0.728860
0.948430 0.948430 0.732634
0.113374 0.095024 0.887531
0.314918 0.098798 0.891306
0.516461 0.102573 0.895080
0.718005 0.106347 0.898855
0.919549 0.110122 0.902629
0.120956 0.304963 0.895113
0.322499 0.308737 0.898888
0.524043 0.312512 0.902662
0.725587 0.316286 0.906437
0.927131 0.320061 0.910211
0.128538 0.514902 0.902695
0.330081 0.518676 0.906470
0.531625 0.522450 0.910244
0.733169 0.526225 0.914019
0.934713 0.529999 0.917793
0.136119 0.724840 0.910277
0.337663 0.728615 0.914052
0.539207 0.732389 0.917826
0.740751 0.736164 0.921601
0.942295 0.739938 0.925375
0.143701 0.934779 0.917859
0.345245 0.938554 0.921634
0.546789 0.942328 0.925408
0.748333 0.946102 0.929182
0.949877 0.949877 0.932957
