shared/src/main/assets/luts/dalur_rain_01.cube
TITLE "DALUR rain"
LUT_3D_SIZE 9
DOMAIN_MIN 0.0 0.0 0.0
DOMAIN_MAX 1.0 1.0 1.0
0.013075 0.016899 0.052751
0.120946 0.021905 0.057750
0.228817 0.026912 0.062749
0.336689 0.031919 0.067749
0.444560 0.036926 0.072748
0.552431 0.041933 0.077747
0.660302 0.046940 0.082746
0.768174 0.051947 0.087746
0.876045 0.056953 0.092745
0.023179 0.132734 0.062839
0.131050 0.137741 0.067838
0.238921 0.142748 0.072838
0.346792 0.147755 0.077837
0.454664 0.152762 0.082836
0.562535 0.157768 0.087835
0.670406 0.162775 0.092835
0.778277 0.167782 0.097834
0.886149 0.172789 0.102833
0.033282 0.248570 0.072927
0.141153 0.253577 0.077927
0.249025 0.258583 0.082926
0.356896 0.263590 0.087925
0.464767 0.268597 0.092924
0.572638 0.273604 0.097924
0.680510 0.278611 0.102923
0.788381 0.283618 0.107922
0.896252 0.288625 0.112921
0.043386 0.364405 0.083016
0.151257 0.369412 0.088015
0.259128 0.374419 0.093014
0.366999 0.379426 0.098013
0.474871 0.384433 0.103013
0.582742 0.389440 0.108012
0.690613 0.394447 0.113011
0.798484 0.399453 0.118010
0.906356 0.404460 0.123010
0.053489 0.480241 0.093104
0.161360 0.485248 0.098103
0.269232 0.490255 0.103102
0.377103 0.495262 0.108102
0.484974 0.500268 0.113101
0.592845 0.505275 0.118100
0.700717 0.510282 0.123099
0.808588 0.515289 0.128099
0.916459 0.520296 0.133098
0.063593 0.596077 0.103192
0.171464 0.601083 0.108191
0.279335 0.606090 0.113190
0.387206 0.611097 0.118190
0.495078 0.616104 0.123189
0.602949 0.621111 0.128188
0.710820 0.626118 0.133188
0.818691 0.631125 0.138187
0.926563 0.636131 0.143186
0.073696 0.711912 0.113280
0.181568 0.716919 0.118279
0.289439 0.721926 0.123279
0.397310 0.726933 0.128278
0.505181 0.731940 0.133277
0.613053 0.736947 0.138276
0.720924 0.741953 0.143276
0.828795 0.746960 0.148275
0.936666 0.751967 0.153274
0.083800 0.827748 0.123368
0.191671 0.832755 0.128368
0.299542 0.837762 0.133367
0.407414 0.842768 0.138366
0.515285 0.847775 0.143365
0.623156 0.852782 0.148365
0.731027 0.857789 0.153364
0.838899 0.862796 0.158363
0.946770 0.867803 0.163363
0.093903 0.943583 0.133457
0.201775 0.948590 0.138456
0.309646 0.953597 0.143455
0.417517 0.958604 0.148454
0.525388 0.963611 0.153454
0.633260 0.968618 0.158453
0.741131 0.973625 0.163452
0.849002 0.978631 0.168451
0.956873 0.983638 0.173451
0.014957 0.018781 0.155907
0.122829 0.023788 0.160906
0.230700 0.028795 0.165905
0.338571 0.033801 0.170905
0.446442 0.038808 0.175904
0.554314 0.043815 0.180903
0.662185 0.048822 0.185903
0.770056 0.053829 0.190902
0.877927 0.058836 0.195901
0.025061 0.134616 0.165995
0.132932 0.139623 0.170994
0.240803 0.144630 0.175994
0.348675 0.149637 0.180993
0.456546 0.154644 0.185992
0.564417 0.159651 0.190991
0.672288 0.164658 0.195991
0.780160 0.169665 0.200990
0.888031 0.174671 0.205989
0.035164 0.250452 0.176083
0.143036 0.255459 0.181083
0.250907 0.260466 0.186082
0.358778 0.265473 0.191081
0.466649 0.270480 0.196080
0.574521 0.275486 0.201080
0.682392 0.280493 0.206079
0.790263 0.285500 0.211078
0.898134 0.290507 0.216077
0.045268 0.366288 0.186172
0.153139 0.371295 0.191171
0.261010 0.376301 0.196170
0.368882 0.381308 0.201169
0.476753 0.386315 0.206169
0.584624 0.391322 0.211168
0.692495 0.396329 0.216167
0.800367 0.401336 0.221166
0.908238 0.406343 0.226166
0.055372 0.482123 0.196260
0.163243 0.487130 0.201259
0.271114 0.492137 0.206258
0.378985 0.497144 0.211258
0.486857 0.502151 0.216257
0.594728 0.507158 0.221256
0.702599 0.512165 0.226255
0.810470 0.517171 0.231255
0.918342 0.522178 0.236254
0.065475 0.597959 0.206348
0.173346 0.602966 0.211347
0.281218 0.607973 0.216347
0.389089 0.612980 0.221346
0.496960 0.617986 0.226345
0.604831 0.622993 0.231344
0.712703 0.628000 0.236344
0.820574 0.633007 0.241343
0.928445 0.638014 0.246342
0.075579 0.713795 0.216436
0.183450 0.718801 0.221436
0.291321 0.723808 0.226435
0.399192 0.728815 0.231434
0.507064 0.733822 0.236433
0.614935 0.738829 0.241433
0.722806 0.743836 0.246432
0.830677 0.748843 0.251431
0.938549 0.753849 0.256430
0.085682 0.829630 0.226524
0.193553 0.834637 0.231524
0.301425 0.839644 0.236523
0.409296 0.844651 0.241522
0.517167 0.849658 0.246522
0.625038 0.854664 0.251521
0.732910 0.859671 0.256520
0.840781 0.864678 0.261519
0.948652 0.869685 0.266519
0.095786 0.945466 0.236613
0.203657 0.950473 0.241612
0.311528 0.955480 0.246611
0.419400 0.960486 0.251610
0.527271 0.965493 0.256610
0.635142 0.970500 0.261609
0.743013 0.975507 0.266608
0.850885 0.980514 0.271608
0.958756 0.985521 0.276607
0.016840 0.020663 0.259063
0.124711 0.025670 0.264062
0.232582 0.030677 0.269062
0.340453 0.035684 0.274061
0.448325 0.040691 0.279060
0.556196 0.045698 0.284059
0.664067 0.050704 0.289059
0.771938 0.055711 0.294058
0.879810 0.060718 0.299057
0.026943 0.136499 0.269151
0.134814 0.141506 0.274150
0.242686 0.146513 0.279150
0.350557 0.151519 0.284149
0.458428 0.156526 0.289148
0.566299 0.161533 0.294148
0.674171 0.166540 0.299147
0.782042 0.171547 0.304146
0.889913 0.176554 0.309145
0.037047 0.252334 0.279239
0.144918 0.257341 0.284239
0.252789 0.262348 0.289238
0.360661 0.267355 0.294237
0.468532 0.272362 0.299236
0.576403 0.277369 0.304236
0.684274 0.282376 0.309235
0.792146 0.287383 0.314234
0.900017 0.292389 0.319234
0.047150 0.368170 0.289328
0.155022 0.373177 0.294327
0.262893 0.378184 0.299326
0.370764 0.383191 0.304325
0.478635 0.388198 0.309325
0.586507 0.393204 0.314324
0.694378 0.398211 0.319323
0.802249 0.403218 0.324322
0.910120 0.408225 0.329322
0.057254 0.484006 0.299416
0.165125 0.489013 0.304415
0.272996 0.494019 0.309414
0.380868 0.499026 0.314414
0.488739 0.504033 0.319413
0.596610 0.509040 0.324412
0.704481 0.514047 0.329411
0.812353 0.519054 0.334411
0.920224 0.524061 0.339410
0.067357 0.599841 0.309504
0.175229 0.604848 0.314503
0.283100 0.609855 0.319503
0.390971 0.614862 0.324502
0.498842 0.619869 0.329501
0.606714 0.624876 0.334500
0.714585 0.629882 0.339500
0.822456 0.634889 0.344499
0.930327 0.639896 0.349498
0.077461 0.715677 0.319592
0.185332 0.720684 0.324592
0.293204 0.725691 0.329591
0.401075 0.730698 0.334590
0.508946 0.735704 0.339589
0.616817 0.740711 0.344589
0.724689 0.745718 0.349588
0.832560 0.750725 0.354587
0.940431 0.755732 0.359586
0.087565 0.831513 0.329681
0.195436 0.836519 0.334680
0.303307 0.841526 0.339679
0.411178 0.846533 0.344678
0.519050 0.851540 0.349678
0.626921 0.856547 0.354677
0.734792 0.861554 0.359676
0.842663 0.866561 0.364675
0.950535 0.871567 0.369675
0.097668 0.947348 0.339769
0.205539 0.952355 0.344768
0.313411 0.957362 0.349767
0.421282 0.962369 0.354767
0.529153 0.967376 0.359766
0.637024 0.972382 0.364765
0.744896 0.977389 0.369764
0.852767 0.982396 0.374764
0.960638 0.987403 0.379763
0.018722 0.022546 0.362219
0.126593 0.027552 0.367218
0.234465 0.032559 0.372218
0.342336 0.037566 0.377217
0.450207 0.042573 0.382216
0.558078 0.047580 0.387215
0.665950 0.052587 0.392215
0.773821 0.057594 0.397214
0.881692 0.062601 0.402213
0.028826 0.138381 0.372307
0.136697 0.143388 0.377307
0.244568 0.148395 0.382306
0.352439 0.153402 0.387305
0.460311 0.158409 0.392304
0.568182 0.163416 0.397304
0.676053 0.168422 0.402303
0.783924 0.173429 0.407302
0.891796 0.178436 0.412301
0.038929 0.254217 0.382395
0.146800 0.259224 0.387395
0.254672 0.264231 0.392394
0.362543 0.269237 0.397393
0.470414 0.274244 0.402393
0.578285 0.279251 0.407392
0.686157 0.284258 0.412391
0.794028 0.289265 0.417390
0.901899 0.294272 0.422390
0.049033 0.370052 0.392484
0.156904 0.375059 0.397483
0.264775 0.380066 0.402482
0.372646 0.385073 0.407481
0.480518 0.390080 0.412481
0.588389 0.395087 0.417480
0.696260 0.400094 0.422479
0.804131 0.405100 0.427479
0.912003 0.410107 0.432478
0.059136 0.485888 0.402572
0.167008 0.490895 0.407571
0.274879 0.495902 0.412570
0.382750 0.500909 0.417570
0.490621 0.505916 0.422569
0.598493 0.510922 0.427568
0.706364 0.515929 0.432568
0.814235 0.520936 0.437567
0.922106 0.525943 0.442566
0.069240 0.601724 0.412660
0.177111 0.606731 0.417659
0.284982 0.611737 0.422659
0.392854 0.616744 0.427658
0.500725 0.621751 0.432657
0.608596 0.626758 0.437656
0.716467 0.631765 0.442656
0.824339 0.636772 0.447655
0.932210 0.641779 0.452654
0.079343 0.717559 0.422748
0.187215 0.722566 0.427748
0.295086 0.727573 0.432747
0.402957 0.732580 0.437746
0.510828 0.737587 0.442745
0.618700 0.742594 0.447745
0.726571 0.747600 0.452744
0.834442 0.752607 0.457743
0.942313 0.757614 0.462742
0.089447 0.833395 0.432837
0.197318 0.838402 0.437836
0.305189 0.843409 0.442835
0.413061 0.848415 0.447834
0.520932 0.853422 0.452834
0.628803 0.858429 0.457833
0.736674 0.863436 0.462832
0.844546 0.868443 0.467831
0.952417 0.873450 0.472831
0.099551 0.949231 0.442925
0.207422 0.954237 0.447924
0.315293 0.959244 0.452923
0.423164 0.964251 0.457923
0.531036 0.969258 0.462922
0.638907 0.974265 0.467921
0.746778 0.979272 0.472920
0.854649 0.984279 0.477920
0.962521 0.989285 0.482919
0.020604 0.024428 0.465375
0.128476 0.029435 0.470374
0.236347 0.034442 0.475374
0.344218 0.039449 0.480373
0.452089 0.044455 0.485372
0.559961 0.049462 0.490371
0.667832 0.054469 0.495371
0.775703 0.059476 0.500370
0.883574 0.064483 0.505369
0.030708 0.140264 0.475463
0.138579 0.145270 0.480463
0.246450 0.150277 0.485462
0.354322 0.155284 0.490461
0.462193 0.160291 0.495460
0.570064 0.165298 0.500460
0.677935 0.170305 0.505459
0.785807 0.175312 0.510458
0.893678 0.180318 0.515457
0.040812 0.256099 0.485552
0.148683 0.261106 0.490551
0.256554 0.266113 0.495550
0.364425 0.271120 0.500549
0.472297 0.276127 0.505549
0.580168 0.281134 0.510548
0.688039 0.286140 0.515547
0.795910 0.291147 0.520546
0.903782 0.296154 0.525546
0.050915 0.371935 0.495640
0.158786 0.376942 0.500639
0.266658 0.381949 0.505638
0.374529 0.386955 0.510638
0.482400 0.391962 0.515637
0.590271 0.396969 0.520636
0.698143 0.401976 0.525635
0.806014 0.406983 0.530635
0.913885 0.411990 0.535634
0.061019 0.487770 0.505728
0.168890 0.492777 0.510727
0.276761 0.497784 0.515727
0.384632 0.502791 0.520726
0.492504 0.507798 0.525725
0.600375 0.512805 0.530724
0.708246 0.517812 0.535724
0.816117 0.522818 0.540723
0.923989 0.527825 0.545722
0.071122 0.603606 0.515816
0.178993 0.608613 0.520815
0.286865 0.613620 0.525815
0.394736 0.618627 0.530814
0.502607 0.623633 0.535813
0.610478 0.628640 0.540813
0.718350 0.633647 0.545812
0.826221 0.638654 0.550811
0.934092 0.643661 0.555810
0.081226 0.719442 0.525904
0.189097 0.724449 0.530904
0.296968 0.729455 0.535903
0.404840 0.734462 0.540902
0.512711 0.739469 0.545901
0.620582 0.744476 0.550901
0.728453 0.749483 0.555900
0.836324 0.754490 0.560899
0.944196 0.759497 0.565899
0.091329 0.835277 0.535993
0.199201 0.840284 0.540992
0.307072 0.845291 0.545991
0.414943 0.850298 0.550990
0.522814 0.855305 0.555990
0.630686 0.860312 0.560989
0.738557 0.865318 0.565988
0.846428 0.870325 0.570987
0.954299 0.875332 0.575987
0.101433 0.951113 0.546081
0.209304 0.956120 0.551080
0.317175 0.961127 0.556079
0.425047 0.966133 0.561079
0.532918 0.971140 0.566078
0.640789 0.976147 0.571077
0.748660 0.981154 0.576076
0.856532 0.986161 0.581076
0.964403 0.991168 0.586075
0.022487 0.026310 0.568531
0.130358 0.031317 0.573530
0.238229 0.036324 0.578530
0.346101 0.041331 0.583529
0.453972 0.046338 0.588528
0.561843 0.051345 0.593527
0.669714 0.056352 0.598527
0.777586 0.061358 0.603526
0.885457 0.066365 0.608525
0.032590 0.142146 0.578619
0.140462 0.147153 0.583619
0.248333 0.152160 0.588618
0.356204 0.157167 0.593617
0.464075 0.162173 0.598616
0.571947 0.167180 0.603616
0.679818 0.172187 0.608615
0.787689 0.177194 0.613614
0.895560 0.182201 0.618613
0.042694 0.257982 0.588708
0.150565 0.262988 0.593707
0.258436 0.267995 0.598706
0.366308 0.273002 0.603705
0.474179 0.278009 0.608705
0.582050 0.283016 0.613704
0.689921 0.288023 0.618703
0.797793 0.293030 0.623702
0.905664 0.298036 0.628702
0.052797 0.373817 0.598796
0.160669 0.378824 0.603795
0.268540 0.383831 0.608794
0.376411 0.388838 0.613794
0.484282 0.393845 0.618793
0.592154 0.398851 0.623792
0.700025 0.403858 0.628791
0.807896 0.408865 0.633791
0.915767 0.413872 0.638790
0.062901 0.489653 0.608884
0.170772 0.494660 0.613883
0.278643 0.499667 0.618883
0.386515 0.504673 0.623882
0.494386 0.509680 0.628881
0.602257 0.514687 0.633880
0.710128 0.519694 0.638880
0.818000 0.524701 0.643879
0.925871 0.529708 0.648878
0.073005 0.605488 0.618972
0.180876 0.610495 0.623972
0.288747 0.615502 0.628971
0.396618 0.620509 0.633970
0.504490 0.625516 0.638969
0.612361 0.630523 0.643969
0.720232 0.635530 0.648968
0.828103 0.640536 0.653967
0.935975 0.645543 0.658966
0.083108 0.721324 0.629060
0.190979 0.726331 0.634060
0.298851 0.731338 0.639059
0.406722 0.736345 0.644058
0.514593 0.741351 0.649058
0.622464 0.746358 0.654057
0.730336 0.751365 0.659056
0.838207 0.756372 0.664055
0.946078 0.761379 0.669055
0.093212 0.837160 0.639149
0.201083 0.842166 0.644148
0.308954 0.847173 0.649147
0.416825 0.852180 0.654146
0.524697 0.857187 0.659146
0.632568 0.862194 0.664145
0.740439 0.867201 0.669144
0.848310 0.872208 0.674144
0.956182 0.877215 0.679143
0.103315 0.952995 0.649237
0.211186 0.958002 0.654236
0.319058 0.963009 0.659235
0.426929 0.968016 0.664235
0.534800 0.973023 0.669234
0.642671 0.978030 0.674233
0.750543 0.983036 0.679233
0.858414 0.988043 0.684232
0.966285 0.993050 0.689231
0.024369 0.028193 0.671687
0.132240 0.033200 0.676686
0.240112 0.038206 0.681686
0.347983 0.043213 0.686685
0.455854 0.048220 0.691684
0.563725 0.053227 0.696684
0.671597 0.058234 0.701683
0.779468 0.063241 0.706682
0.887339 0.068248 0.711681
0.034473 0.144028 0.681775
0.142344 0.149035 0.686775
0.250215 0.154042 0.691774
0.358086 0.159049 0.696773
0.465958 0.164056 0.701773
0.573829 0.169063 0.706772
0.681700 0.174069 0.711771
0.789571 0.179076 0.716770
0.897443 0.184083 0.721770
0.044576 0.259864 0.691864
0.152447 0.264871 0.696863
0.260319 0.269878 0.701862
0.368190 0.274885 0.706861
0.476061 0.279891 0.711861
0.583932 0.284898 0.716860
0.691804 0.289905 0.721859
0.799675 0.294912 0.726859
0.907546 0.299919 0.731858
0.054680 0.375700 0.701952
0.162551 0.380706 0.706951
0.270422 0.385713 0.711950
0.378294 0.390720 0.716950
0.486165 0.395727 0.721949
0.594036 0.400734 0.726948
0.701907 0.405741 0.731947
0.809779 0.410748 0.736947
0.917650 0.415754 0.741946
0.064783 0.491535 0.712040
0.172655 0.496542 0.717039
0.280526 0.501549 0.722039
0.388397 0.506556 0.727038
0.496268 0.511563 0.732037
0.604140 0.516569 0.737036
0.712011 0.521576 0.742036
0.819882 0.526583 0.747035
0.927753 0.531590 0.752034
0.074887 0.607371 0.722128
0.182758 0.612378 0.727128
0.290629 0.617384 0.732127
0.398501 0.622391 0.737126
0.506372 0.627398 0.742125
0.614243 0.632405 0.747125
0.722114 0.637412 0.752124
0.829986 0.642419 0.757123
0.937857 0.647426 0.762122
0.084990 0.723206 0.732217
0.192862 0.728213 0.737216
0.300733 0.733220 0.742215
0.408604 0.738227 0.747214
0.516475 0.743234 0.752214
0.624347 0.748241 0.757213
0.732218 0.753248 0.762212
0.840089 0.758254 0.767211
0.947960 0.763261 0.772211
0.095094 0.839042 0.742305
0.202965 0.844049 0.747304
0.310837 0.849056 0.752303
0.418708 0.854063 0.757303
0.526579 0.859069 0.762302
0.634450 0.864076 0.767301
0.742322 0.869083 0.772300
0.850193 0.874090 0.777300
0.958064 0.879097 0.782299
0.105198 0.954878 0.752393
0.213069 0.959884 0.757392
0.320940 0.964891 0.762392
0.428811 0.969898 0.767391
0.536683 0.974905 0.772390
0.644554 0.979912 0.777389
0.752425 0.984919 0.782389
0.860296 0.989926 0.787388
0.968168 0.994933 0.792387
0.026251 0.030075 0.774843
0.134123 0.035082 0.779843
0.241994 0.040089 0.784842
0.349865 0.045096 0.789841
0.457736 0.050103 0.794840
0.565608 0.055109 0.799840
0.673479 0.060116 0.804839
0.781350 0.065123 0.809838
0.889221 0.070130 0.814837
0.036355 0.145911 0.784932
0.144226 0.150918 0.789931
0.252098 0.155924 0.794930
0.359969 0.160931 0.799929
0.467840 0.165938 0.804929
0.575711 0.170945 0.809928
0.683583 0.175952 0.814927
0.791454 0.180959 0.819926
0.899325 0.185966 0.824926
0.046459 0.261746 0.795020
0.154330 0.266753 0.800019
0.262201 0.271760 0.805018
0.370072 0.276767 0.810018
0.477944 0.281774 0.815017
0.585815 0.286781 0.820016
0.693686 0.291787 0.825015
0.801557 0.296794 0.830015
0.909429 0.301801 0.835014
0.056562 0.377582 0.805108
0.164433 0.382589 0.810107
0.272305 0.387596 0.815106
0.380176 0.392602 0.820106
0.488047 0.397609 0.825105
0.595918 0.402616 0.830104
0.703790 0.407623 0.835104
0.811661 0.412630 0.840103
0.919532 0.417637 0.845102
0.066666 0.493418 0.815196
0.174537 0.498424 0.820195
0.282408 0.503431 0.825195
0.390279 0.508438 0.830194
0.498151 0.513445 0.835193
0.606022 0.518452 0.840192
0.713893 0.523459 0.845192
0.821764 0.528466 0.850191
0.929636 0.533472 0.855190
0.076769 0.609253 0.825284
0.184641 0.614260 0.830284
0.292512 0.619267 0.835283
0.400383 0.624274 0.840282
0.508254 0.629281 0.845281
0.616126 0.634287 0.850281
0.723997 0.639294 0.855280
0.831868 0.644301 0.860279
0.939739 0.649308 0.865278
0.086873 0.725089 0.835373
0.194744 0.730096 0.840372
0.302615 0.735102 0.845371
0.410487 0.740109 0.850370
0.518358 0.745116 0.855370
0.626229 0.750123 0.860369
0.734100 0.755130 0.865368
0.841972 0.760137 0.870367
0.949843 0.765144 0.875367
0.096976 0.840924 0.845461
0.204848 0.845931 0.850460
0.312719 0.850938 0.855459
0.420590 0.855945 0.860459
0.528461 0.860952 0.865458
0.636333 0.865959 0.870457
0.744204 0.870966 0.875456
0.852075 0.875972 0.880456
0.959946 0.880979 0.885455
0.107080 0.956760 0.855549
0.214951 0.961767 0.860548
0.322822 0.966774 0.865548
0.430694 0.971781 0.870547
0.538565 0.976787 0.875546
0.646436 0.981794 0.880545
0.754307 0.986801 0.885545
0.862179 0.991808 0.890544
0.970050 0.996815 0.895543
0.028134 0.031957 0.877999
0.136005 0.036964 0.882999
0.243876 0.041971 0.887998
0.351748 0.046978 0.892997
0.459619 0.051985 0.897996
0.567490 0.056992 0.902996
0.675361 0.061999 0.907995
0.783233 0.067005 0.912994
0.891104 0.072012 0.917993
0.038237 0.147793 0.888088
0.146109 0.152800 0.893087
0.253980 0.157807 0.898086
0.361851 0.162814 0.903085
0.469722 0.167820 0.908085
0.577594 0.172827 0.913084
0.685465 0.177834 0.918083
0.793336 0.182841 0.923082
0.901207 0.187848 0.928082
0.048341 0.263629 0.898176
0.156212 0.268636 0.903175
0.264083 0.273642 0.908174
0.371955 0.278649 0.913174
0.479826 0.283656 0.918173
0.587697 0.288663 0.923172
0.695568 0.293670 0.928171
0.803440 0.298677 0.933171
0.911311 0.303684 0.938170
0.058445 0.379464 0.908264
0.166316 0.384471 0.913263
0.274187 0.389478 0.918263
0.382058 0.394485 0.923262
0.489930 0.399492 0.928261
0.597801 0.404499 0.933260
0.705672 0.409505 0.938260
0.813543 0.414512 0.943259
0.921415 0.419519 0.948258
0.068548 0.495300 0.918352
0.176419 0.500307 0.923351
0.284291 0.505314 0.928351
0.392162 0.510320 0.933350
0.500033 0.515327 0.938349
0.607904 0.520334 0.943349
0.715776 0.525341 0.948348
0.823647 0.530348 0.953347
0.931518 0.535355 0.958346
0.078652 0.611135 0.928440
0.186523 0.616142 0.933440
0.294394 0.621149 0.938439
0.402265 0.626156 0.943438
0.510137 0.631163 0.948438
0.618008 0.636170 0.953437
0.725879 0.641177 0.958436
0.833750 0.646184 0.963435
0.941622 0.651190 0.968435
0.088755 0.726971 0.938529
0.196626 0.731978 0.943528
0.304498 0.736985 0.948527
0.412369 0.741992 0.953526
0.520240 0.746999 0.958526
0.628111 0.752005 0.963525
0.735983 0.757012 0.968524
0.843854 0.762019 0.973524
0.951725 0.767026 0.978523
0.098859 0.842807 0.948617
0.206730 0.847814 0.953616
0.314601 0.852820 0.958615
0.422473 0.857827 0.963615
0.530344 0.862834 0.968614
0.638215 0.867841 0.973613
0.746086 0.872848 0.978612
0.853958 0.877855 0.983612
0.961829 0.882862 0.988611
0.108962 0.958642 0.958705
0.216834 0.963649 0.963704
0.324705 0.968656 0.968704
0.432576 0.973663 0.973703
0.540447 0.978670 0.978702
0.648319 0.983677 0.983701
0.756190 0.988684 0.988701
0.864061 0.993690 0.993700
0.971932 0.998697 0.998699
