shared/src/main/assets/luts/dalur_indoor_800.cube
# Resampled 13pt -> 17pt (trilinear) from an MIT-licensed G'MIC film LUT.
# Source: github.com/YahiaAngelo/Film-Luts (MIT). See THIRD_PARTY_NOTICES.
TITLE "DALUR indoor 800"
# LUT size
LUT_3D_SIZE 17
# Data domain
DOMAIN_MIN 0.0 0.0 0.0
DOMAIN_MAX 1.0 1.0 1.0
# LUT data points
0.055197429 0.044232596 0.037496019
0.107870485 0.043230006 0.035648215
0.160593212 0.042125216 0.033887586
0.213639006 0.039356967 0.032290656
0.267281264 0.033364002 0.030933948
0.321544789 0.026858944 0.030518427
0.374892712 0.020315799 0.030291014
0.427249640 0.014902923 0.030227855
0.478540182 0.011788671 0.030305091
0.529954419 0.006550957 0.029373880
0.581765532 0.004534568 0.034132618
0.633519173 0.004178455 0.041573753
0.684760988 0.003921569 0.048689734
0.730695605 0.002740841 0.062281110
0.773598224 0.001173633 0.082394928
0.814558223 0.000000000 0.104889566
0.854664981 0.000000000 0.125623405
0.079230874 0.105431148 0.055630149
0.123650150 0.103153295 0.053440713
0.171069216 0.099883378 0.050075884
0.221584000 0.095014996 0.046961526
0.275290430 0.087941750 0.045523504
0.329470035 0.078853970 0.043190997
0.382296000 0.069790190 0.044826684
0.434188364 0.061642270 0.047337076
0.485567167 0.055302072 0.047628686
0.536181536 0.044612030 0.045903852
0.586699858 0.033378308 0.046992388
0.637125101 0.022141946 0.049136087
0.687460229 0.011443984 0.050576741
0.732913256 0.004512482 0.060962525
0.775290363 0.001603078 0.080388088
0.815544952 0.000753131 0.103320762
0.854630426 0.000000000 0.124227880
0.101124123 0.162629031 0.079029562
0.137758873 0.160756513 0.077312336
0.181586418 0.156949239 0.073627925
0.230979400 0.151364669 0.069416969
0.284310460 0.144160267 0.066120110
0.337950405 0.135767213 0.062011559
0.390472576 0.126269078 0.063183000
0.442429412 0.116764676 0.066322081
0.494373351 0.108352821 0.068116447
0.544477016 0.095215832 0.067073234
0.593951300 0.079132208 0.066470187
0.643113688 0.061350046 0.066031918
0.692281663 0.043117447 0.065483039
0.736068793 0.024984111 0.072105250
0.777428091 0.011749107 0.085725037
0.817403197 0.003509604 0.103711429
0.857037753 0.000362770 0.123433452
0.120388657 0.217587978 0.103705348
0.151287445 0.216864494 0.102633842
0.192911968 0.213491753 0.099695245
0.241752646 0.208171470 0.095379161
0.294299901 0.201605361 0.090175197
0.347243465 0.195061151 0.084922804
0.399688132 0.186227491 0.084436135
0.451946292 0.176278741 0.086688184
0.504330337 0.166389260 0.089651944
0.553825207 0.152193259 0.089809852
0.602434091 0.134314585 0.089504348
0.650485378 0.113773718 0.089459400
0.698307455 0.091591137 0.090398977
0.740301359 0.063020357 0.094266577
0.780926764 0.037451471 0.100719343
0.820915081 0.017270270 0.110784446
0.860997722 0.004862550 0.125489056
0.136535957 0.272069722 0.125668600
0.165326655 0.272302069 0.124775989
0.205813013 0.269679874 0.123429380
0.253831178 0.265200883 0.120570280
0.305217296 0.259862840 0.115140192
0.357606784 0.254198261 0.109867427
0.410208359 0.246140458 0.107662261
0.462712511 0.236193068 0.107940698
0.514809728 0.224859729 0.110118747
0.563210458 0.209375203 0.111041533
0.611062467 0.191443756 0.113033205
0.658240616 0.171383921 0.116616687
0.704619765 0.149514228 0.122314900
0.745750099 0.117485853 0.126003798
0.786701739 0.084549922 0.127684571
0.826862723 0.051035982 0.129262690
0.865621090 0.017273577 0.132643625
0.157674279 0.327634633 0.135429259
0.191647784 0.328447660 0.132642627
0.231268797 0.326669842 0.132004481
0.275340153 0.322942434 0.132408480
0.322664686 0.317906693 0.132748285
0.372273913 0.312140055 0.130492779
0.422936581 0.305043103 0.128716215
0.474124450 0.295946309 0.128193353
0.525309280 0.284180146 0.129698951
0.573036104 0.268404566 0.134247870
0.620345190 0.251387194 0.140463939
0.666967105 0.232973956 0.147705910
0.712632418 0.213010777 0.155332536
0.755346160 0.186576773 0.160353670
0.797432564 0.156676772 0.163336091
0.838131309 0.121007340 0.164630566
0.876682073 0.077265041 0.164587863
0.188360915 0.382957101 0.138809249
0.221416799 0.384526640 0.135581546
0.259328660 0.383819617 0.134805083
0.301283613 0.381043393 0.136152349
0.346468776 0.376405329 0.139295831
0.393673420 0.370309159 0.140678873
0.441119984 0.363607846 0.141385913
0.488940299 0.355579570 0.143260706
0.537266195 0.345502511 0.148147009
0.584860831 0.331426412 0.157487076
0.632073581 0.316110827 0.166768979
0.678517789 0.299321057 0.175910218
0.723806798 0.280822404 0.184828289
0.767420925 0.258943357 0.192510370
0.810440198 0.233135674 0.198370263
0.851824328 0.200057319 0.202267576
0.890533030 0.156366255 0.204061918
0.224265799 0.438490845 0.137920801
0.253552515 0.440636624 0.134432965
0.289029226 0.440832939 0.133023985
0.329639263 0.438910967 0.133990041
0.374325961 0.434701882 0.137627315
0.420042420 0.428332128 0.141073196
0.464907002 0.421754073 0.143702637
0.509595104 0.414871057 0.148202534
0.554782122 0.407586418 0.157259781
0.601129510 0.396982618 0.172929310
0.647425689 0.384568829 0.186556434
0.693320151 0.370099952 0.198504533
0.738462389 0.353330888 0.209136985
0.782234855 0.334124885 0.219458232
0.825267687 0.311894562 0.229320763
0.866641361 0.283409705 0.238035494
0.905436352 0.245440103 0.244913340
0.261058867 0.494689584 0.134876147
0.286973745 0.496875226 0.130037107
0.319407120 0.497413546 0.127853982
0.358384810 0.495952360 0.128109708
0.403932631 0.492139488 0.130587220
0.449618027 0.485835515 0.132323235
0.494446069 0.479401171 0.133697674
0.538523912 0.473598979 0.138078611
0.581958711 0.469191462 0.148834124
0.624287009 0.463615060 0.172744732
0.667579561 0.455715373 0.194434412
0.711801678 0.444985367 0.212763779
0.756918669 0.430918008 0.226593450
0.800048411 0.411660641 0.238181587
0.841458082 0.390921369 0.252721265
0.881281987 0.366288282 0.267796092
0.919654429 0.335349470 0.280989677
0.296473213 0.550726339 0.125214886
0.320856297 0.551458962 0.119893995
0.350923814 0.551162690 0.116084189
0.388076574 0.549576184 0.114235854
0.433715388 0.546438105 0.114799375
0.479686406 0.541725235 0.115355096
0.524981230 0.536713921 0.115957901
0.569724362 0.531748148 0.119124112
0.614040300 0.527171902 0.127370054
0.655623581 0.522255659 0.151178918
0.696322203 0.516593304 0.177684737
0.736873057 0.509550435 0.204478525
0.778013036 0.500492655 0.229151294
0.818894517 0.486250181 0.248186082
0.858539641 0.467722848 0.269068871
0.897108573 0.445939032 0.290367071
0.934761479 0.421927109 0.310648091
0.323896036 0.602029443 0.121259119
0.346122384 0.602242880 0.116251594
0.375872791 0.601866230 0.111415429
0.413456481 0.600769468 0.107480710
0.459182680 0.598822564 0.105177525
0.506926045 0.596238323 0.101810565
0.554188922 0.593007237 0.099158332
0.600965366 0.589135438 0.099158183
0.647249430 0.584629059 0.103747476
0.689249180 0.579657450 0.125694419
0.728977695 0.574762389 0.153193325
0.766866446 0.569440827 0.184533488
0.803346902 0.563189715 0.218004204
0.840978429 0.552462958 0.245576771
0.877721652 0.537471123 0.275604516
0.913930900 0.519745067 0.305510875
0.949960500 0.500815645 0.332719281
0.346750379 0.650656030 0.121277161
0.365489632 0.650896333 0.116745562
0.395600047 0.650847524 0.111126523
0.434535237 0.650528278 0.105267416
0.479748815 0.649957269 0.100015614
0.528851658 0.649240740 0.092517574
0.578778349 0.647679038 0.085577870
0.629233535 0.645032994 0.080633752
0.679921865 0.641063437 0.079122471
0.725157063 0.636371147 0.095389228
0.766370595 0.631713927 0.119651469
0.803140726 0.626901370 0.151712762
0.835045725 0.621743068 0.191376675
0.867370099 0.613114681 0.228498791
0.900179781 0.601291716 0.268133145
0.933169026 0.587412298 0.307525201
0.966032088 0.572614551 0.343920425
0.368459284 0.698663235 0.123537324
0.381675668 0.699088678 0.119011555
0.411451578 0.699429929 0.112496290
0.451323546 0.699848682 0.105019107
0.494828105 0.700506628 0.097607583
0.542977959 0.700598449 0.088304056
0.595458716 0.700127244 0.077495418
0.651515484 0.698712960 0.066003747
0.710393369 0.695975542 0.054651119
0.763340488 0.692947462 0.059361338
0.809325457 0.688939214 0.075750465
0.847054780 0.684176892 0.104800439
0.875234962 0.678886592 0.147493199
0.899139479 0.671021059 0.195097279
0.927089691 0.660310149 0.242459700
0.956243008 0.648646638 0.290707745
0.983756840 0.637923300 0.340968698
0.374790907 0.747942075 0.135590540
0.387643063 0.749111932 0.130057015
0.418131296 0.750149317 0.120216272
0.459158570 0.750907704 0.107965972
0.503627852 0.751240566 0.095203776
0.551029906 0.751232542 0.084013219
0.603083007 0.750772513 0.070850654
0.659122318 0.749668527 0.057039306
0.718483001 0.747728631 0.043902401
0.777493253 0.746618766 0.041012557
0.834666878 0.744401149 0.044498337
0.884973560 0.740529958 0.057952721
0.923382983 0.734459370 0.084968688
0.940586504 0.727927297 0.127906144
0.961092435 0.719664775 0.185470461
0.980029095 0.709898613 0.251157162
0.992524803 0.698855624 0.318461768
0.371049032 0.799128205 0.154140308
0.385685254 0.800717480 0.148315288
0.416650444 0.802137673 0.137373392
0.457649041 0.803063378 0.122474836
0.502385482 0.803169191 0.104779840
0.552817348 0.802997731 0.086229263
0.607465550 0.802637592 0.066224292
0.664785907 0.802033432 0.047804341
0.723234236 0.801129907 0.034008826
0.783697978 0.802148208 0.028856943
0.846397430 0.800551876 0.026829316
0.906013913 0.796886094 0.029540911
0.957228750 0.791696042 0.038606696
0.972074129 0.786596268 0.065141769
0.984684244 0.780412659 0.110140179
0.993680976 0.772364117 0.177347636
0.997686207 0.761669546 0.270509847
0.347295351 0.853181109 0.179668806
0.364960603 0.854744859 0.174132252
0.397162527 0.856161915 0.163707269
0.439007048 0.857075669 0.148512295
0.485600092 0.857129514 0.128665768
0.541391419 0.857146267 0.103692127
0.601505287 0.856840365 0.075701375
0.663089447 0.856559772 0.049498625
0.723291650 0.856652454 0.029888995
0.784397177 0.858904023 0.021575075
0.849755257 0.857181691 0.016756251
0.914811783 0.853684530 0.013767033
0.975012645 0.850611612 0.010941932
0.989969570 0.846301738 0.019974234
0.997189067 0.841863073 0.041843267
0.999553122 0.835892785 0.091291491
0.999943718 0.826988041 0.183061365
0.293591559 0.911060274 0.212658212
0.314627476 0.912033603 0.207853783
0.349821046 0.912988961 0.198957525
0.395444676 0.913704544 0.186044946
0.447770774 0.913958549 0.169191554
0.509803250 0.914930403 0.145141751
0.578101158 0.914498717 0.111366943
0.648616135 0.913999647 0.073321928
0.717299819 0.914769351 0.036461506
0.782033369 0.916254446 0.017847533
0.849978507 0.914080888 0.008291993
0.916003108 0.911364496 0.004833109
0.974975049 0.911221087 0.004509107
0.990640044 0.906317472 0.005573621
0.997930855 0.903325289 0.005954137
1.000000000 0.900334254 0.015001050
1.000000000 0.895434082 0.042064756
0.051371107 0.046215656 0.082300748
0.102745756 0.046155257 0.078626022
0.154462657 0.044405927 0.074825375
0.206386559 0.041147276 0.071740616
0.258382209 0.036558909 0.070213551
0.311463969 0.030851809 0.068922345
0.363517240 0.024088287 0.067177624
0.415166562 0.017559247 0.065519531
0.467036478 0.012555593 0.064488211
0.520906528 0.008953038 0.063831929
0.574216634 0.006439055 0.065192417
0.626737364 0.004828168 0.068439112
0.678239286 0.003934898 0.073441452
0.724561784 0.002552190 0.086205570
0.767923899 0.001045644 0.104002454
0.808878891 0.000000000 0.123022766
0.847980022 0.000000000 0.139457166
0.074503673 0.108055103 0.102550378
0.117884753 0.105948394 0.098408491
0.164686582 0.102174180 0.093491312
0.214341862 0.096728345 0.089066750
0.266283298 0.089606768 0.086402715
0.319092382 0.080994728 0.083728918
0.371330822 0.071378249 0.082551566
0.423267953 0.061663907 0.082006309
0.475173110 0.052758276 0.081228798
0.527159198 0.042557699 0.078577660
0.578827737 0.032250397 0.077285126
0.630113871 0.022051892 0.077094081
0.680952743 0.012177710 0.077747413
0.726721206 0.005834079 0.087125000
0.769439112 0.002553476 0.103172530
0.810080037 0.001040562 0.121811233
0.849617556 0.000000000 0.138962339
0.096465366 0.165653104 0.124124468
0.132459261 0.163221262 0.120406444
0.175564066 0.159118618 0.115548419
0.223898749 0.153415945 0.110561999
0.275582284 0.146184019 0.106458788
0.328025552 0.137724266 0.102403599
0.380467478 0.127648664 0.100862867
0.432762636 0.116616683 0.100629260
0.484765600 0.105287794 0.100495450
0.535614257 0.091488135 0.097635399
0.586150352 0.076099433 0.095292530
0.636315830 0.059464536 0.093616396
0.686052635 0.041926292 0.092756549
0.730258457 0.025596119 0.098189897
0.772000674 0.012884223 0.108346337
0.812539643 0.004273748 0.122101188
0.853135720 0.000247836 0.138329768
0.116002299 0.220459931 0.144569181
0.147040119 0.218747250 0.141764006
0.187675485 0.215401483 0.138013533
0.234994083 0.210657405 0.133548356
0.286081595 0.204749793 0.128599073
0.338213997 0.197835981 0.123444662
0.390835219 0.188538355 0.120981975
0.443418186 0.177315833 0.120301585
0.495435825 0.164627329 0.120494065
0.545455364 0.149057379 0.118431103
0.595070450 0.130955044 0.116688870
0.644154808 0.110656796 0.115782505
0.692582168 0.088499108 0.116227146
0.735083915 0.062955443 0.118676800
0.776096050 0.039017041 0.122235644
0.816625209 0.018943154 0.128710122
0.857678030 0.004993032 0.139906678
0.131860588 0.273925856 0.161430683
0.162198165 0.273299744 0.159625303
0.201601218 0.271185018 0.157903489
0.247564725 0.267900052 0.155347819
0.297583662 0.263763219 0.151040873
0.349608235 0.258125428 0.145350379
0.402342055 0.249686148 0.141779339
0.455002178 0.238659614 0.139936483
0.506805658 0.225260060 0.139430542
0.555866178 0.208578464 0.138390726
0.604474001 0.189786106 0.138948385
0.652442373 0.169219367 0.141368859
0.699584544 0.147214625 0.145917490
0.741107956 0.119029185 0.147862248
0.782212704 0.087931084 0.147552218
0.822704237 0.054292377 0.146455526
0.862388000 0.018485114 0.146040298
0.152499096 0.328126628 0.169434889
0.185772134 0.328680471 0.166792259
0.224192298 0.327883623 0.165932969
0.267299525 0.325600652 0.165947499
0.314633749 0.321696129 0.165926327
0.364459418 0.316494033 0.163351801
0.415556637 0.309043596 0.160441949
0.467122043 0.298898207 0.158121172
0.518352278 0.285611258 0.157313871
0.566659055 0.269190003 0.159770220
0.614410143 0.251373990 0.164145597
0.661511062 0.232242527 0.169814949
0.707867328 0.211874926 0.176153222
0.751019235 0.187317230 0.179884323
0.793203318 0.157638898 0.181292790
0.834247121 0.120723939 0.180575341
0.873978183 0.074456362 0.177928695
0.181183374 0.383151058 0.171814797
0.213769599 0.384555516 0.169652484
0.250383761 0.384887483 0.169307355
0.291220088 0.383478571 0.170373974
0.336472809 0.379660390 0.172446907
0.384214683 0.374251386 0.172965049
0.432312179 0.367198737 0.172458338
0.480892967 0.358201589 0.172572765
0.530084714 0.346959084 0.174954325
0.578377262 0.332734458 0.181766229
0.625878070 0.316701874 0.189093592
0.672582893 0.299027269 0.196669758
0.718487486 0.279876579 0.204228075
0.762701539 0.258427661 0.210571344
0.805882867 0.232597925 0.215194514
0.847564438 0.198984318 0.217543040
0.887279220 0.154183792 0.217062378
0.215493394 0.438945038 0.169613332
0.245217350 0.440814469 0.168142158
0.279229919 0.441822660 0.168141223
0.317998200 0.440965266 0.169398430
0.361989291 0.437237944 0.171701682
0.408417726 0.431383916 0.173588609
0.454017420 0.424579409 0.174945665
0.499664476 0.417027956 0.177995502
0.546234995 0.408933088 0.184960772
0.593543409 0.398271968 0.197877743
0.640221326 0.385074208 0.209437050
0.686343463 0.369507570 0.219711045
0.731984541 0.351739818 0.228772080
0.776636722 0.332201473 0.237364408
0.820096098 0.310308287 0.245778297
0.861845404 0.282436204 0.252825179
0.901367374 0.244961170 0.257316486
0.253009133 0.495454460 0.163873419
0.279142175 0.497346921 0.162197458
0.309785087 0.498315215 0.162549149
0.346305650 0.497492200 0.163792051
0.390071645 0.494010732 0.164789721
0.436612247 0.487878051 0.164620966
0.482081097 0.481613446 0.165021092
0.526786096 0.475835506 0.169093623
0.571035147 0.471162818 0.179942083
0.614680108 0.464862673 0.201603751
0.658783458 0.455795437 0.220820654
0.703478370 0.443617407 0.236716568
0.748898014 0.427984878 0.248415265
0.793306634 0.408479659 0.257704607
0.835687757 0.388270106 0.269565046
0.876279231 0.364442285 0.281888317
0.915318906 0.334082261 0.292566158
0.294894224 0.552320052 0.144324454
0.318556117 0.553067490 0.142837404
0.346034781 0.552330418 0.141828077
0.380050541 0.550126711 0.141042543
0.423323723 0.546474248 0.140226874
0.468364537 0.541997898 0.142386132
0.513523197 0.537726636 0.143797460
0.558460006 0.533478541 0.147929024
0.602835272 0.529071694 0.158248989
0.644614773 0.523378486 0.182327712
0.685659869 0.516850829 0.208066419
0.726804410 0.508708364 0.232963639
0.768882249 0.498170733 0.254517900
0.810667860 0.482637652 0.269851126
0.851154877 0.464404226 0.286642313
0.890511597 0.443351589 0.304199721
0.928906318 0.419360872 0.321831612
0.327391569 0.604965903 0.132878860
0.350021522 0.604703231 0.129284058
0.377221763 0.603404298 0.125268340
0.411114924 0.601272125 0.121564497
0.453823637 0.598509729 0.118905320
0.499618528 0.595834812 0.119454033
0.545877947 0.593225524 0.119557371
0.591765925 0.590090740 0.122768664
0.636446498 0.585839339 0.132641243
0.677874820 0.580355009 0.156242598
0.718016591 0.575086690 0.183026178
0.756700778 0.569081981 0.212593230
0.793756351 0.561388478 0.244545003
0.832310054 0.549465153 0.267751399
0.869791802 0.534907747 0.293204641
0.906708539 0.517939884 0.319252516
0.943567209 0.498785190 0.344242811
0.353716763 0.654771823 0.127782261
0.374785967 0.653860998 0.121690014
0.402465454 0.652700216 0.114727886
0.437206843 0.651382439 0.108192440
0.479461752 0.650000632 0.103380240
0.527184657 0.648910269 0.099957878
0.575986482 0.647585334 0.096293244
0.624607837 0.645282946 0.095991507
0.671789329 0.641260222 0.102657836
0.715144257 0.636338879 0.122139948
0.756295044 0.631839717 0.146077045
0.793595294 0.626899017 0.177024015
0.825398613 0.620653063 0.217535743
0.858943635 0.611305618 0.251134897
0.892506311 0.600073216 0.286017944
0.925953755 0.586829356 0.321470981
0.959153082 0.571447533 0.356780102
0.377085403 0.703117624 0.127280286
0.394097028 0.702147648 0.120207868
0.420885276 0.701381527 0.112064661
0.456034344 0.700911652 0.103760900
0.498128429 0.700830415 0.096206816
0.547873359 0.700745746 0.088030877
0.600689940 0.700281292 0.077997500
0.654889725 0.698665999 0.069976518
0.708784267 0.695128813 0.067837764
0.757107090 0.691876736 0.078811303
0.800936647 0.688446604 0.097596136
0.837915778 0.684320234 0.127674663
0.865687326 0.678979442 0.172529284
0.891279019 0.670502499 0.219731092
0.920206182 0.660193183 0.261848137
0.949330945 0.648642190 0.305279393
0.975515440 0.636440217 0.356423832
0.383366130 0.752646212 0.138167533
0.400844670 0.752461636 0.129718653
0.428791123 0.752058133 0.118289946
0.465488939 0.751617654 0.105666373
0.509221565 0.751322150 0.093632894
0.558267654 0.751284462 0.083299300
0.610914314 0.750911407 0.070601280
0.666805025 0.749711915 0.058357619
0.725583266 0.747194916 0.049387106
0.783005718 0.746012305 0.048538436
0.837202353 0.744336167 0.054214618
0.883550628 0.741254585 0.070882534
0.917427998 0.735855639 0.103009065
0.935750352 0.728307487 0.152192799
0.956533294 0.719656521 0.208614454
0.975726536 0.709773407 0.269909483
0.989279788 0.698528808 0.333713340
0.379903931 0.803303868 0.155003622
0.397317338 0.803919267 0.147353338
0.427087093 0.803843368 0.135086522
0.465870498 0.803429477 0.119589434
0.510324854 0.803030901 0.102248332
0.561458060 0.802932145 0.084351277
0.616170693 0.802597348 0.065056566
0.673558446 0.801935235 0.047805783
0.732717007 0.800854534 0.036040512
0.792878347 0.801877880 0.031166354
0.853773125 0.800722320 0.029667285
0.909905782 0.797656285 0.034181869
0.955780759 0.792948209 0.047348669
0.969904976 0.787430480 0.080308902
0.982375197 0.780773338 0.130433274
0.991778580 0.772409502 0.199245156
0.996702284 0.761771694 0.288267920
0.357327120 0.856095362 0.178802336
0.376080708 0.857160306 0.172678750
0.408089617 0.857371563 0.161382497
0.449149927 0.857111759 0.145420760
0.495057717 0.856763516 0.125300727
0.550780782 0.856879024 0.100581356
0.610279765 0.856702214 0.073411980
0.671288527 0.856539080 0.048469398
0.731540930 0.856695615 0.030430407
0.792506822 0.858917487 0.022251566
0.857491123 0.857476298 0.016739107
0.920719541 0.854146998 0.013541208
0.976417787 0.850704540 0.012306045
0.989517895 0.847056333 0.024590020
0.996516263 0.842764921 0.054233187
0.999274071 0.836732068 0.110224083
0.999652497 0.827859536 0.201551245
0.306264013 0.912025467 0.210577454
0.329700457 0.912824519 0.205261721
0.364115130 0.913277052 0.196105979
0.407298135 0.913429137 0.183051031
0.457039572 0.913326845 0.166037679
0.519572029 0.914315328 0.141384085
0.587062217 0.914589107 0.107716140
0.656133808 0.914726570 0.070496849
0.723410472 0.915306106 0.035189214
0.787672993 0.916575149 0.017350579
0.855198510 0.914469339 0.008215054
0.919730205 0.911348391 0.004929091
0.975011259 0.909572020 0.004639143
0.990364112 0.906369898 0.005546772
0.997740865 0.904852562 0.006942783
1.000000000 0.902922697 0.019783935
1.000000000 0.898482993 0.055026987
0.046484346 0.048618542 0.127450500
0.097721960 0.047858355 0.121864034
0.148400085 0.044441563 0.115859063
0.199320849 0.040386140 0.110758302
0.251286380 0.037710061 0.107884463
0.303716609 0.032812586 0.105417593
0.355298348 0.026285568 0.102656282
0.406861953 0.019695998 0.100082946
0.459237784 0.014610866 0.098180000
0.513436355 0.011527957 0.097352016
0.566985264 0.008607820 0.096952377
0.619893163 0.006043769 0.097503911
0.672168702 0.004029121 0.099529445
0.719302624 0.002178033 0.109767839
0.763185143 0.000780502 0.124308540
0.804328956 0.000000000 0.140064611
0.843246758 0.000000000 0.153949119
0.068356309 0.111489403 0.149584041
0.112274679 0.107981329 0.143250481
0.158900591 0.102807737 0.136574681
0.207863819 0.096758557 0.130690007
0.258794134 0.090623721 0.126729826
0.310747521 0.082517925 0.123386433
0.362485126 0.072727092 0.120249841
0.414289873 0.062097789 0.117289306
0.466444690 0.051476579 0.114474084
0.518892574 0.041473708 0.111299964
0.571120661 0.031822411 0.108658261
0.623051532 0.022196383 0.106435092
0.674607769 0.012269316 0.104516574
0.721102873 0.005808577 0.111526326
0.764422771 0.002708503 0.124278214
0.805487586 0.001327952 0.139410238
0.845217444 0.000025783 0.153560400
0.089938633 0.169067748 0.169363856
0.127042673 0.165298725 0.164074983
0.169989163 0.160354742 0.158112032
0.217385858 0.154399179 0.152366335
0.267840512 0.147595417 0.147729220
0.319481635 0.139059850 0.143416904
0.371576436 0.128690389 0.139716957
0.423776023 0.116741543 0.136486459
0.475731507 0.103467820 0.133582491
0.526913207 0.088859480 0.129750655
0.578160577 0.073704685 0.126211277
0.629225396 0.057507141 0.122857013
0.679859444 0.039770552 0.119580518
0.724928357 0.024290076 0.122650615
0.767284200 0.012984455 0.129909495
0.808131725 0.005277992 0.140351302
0.848675683 0.000594988 0.152970184
0.109605646 0.223282827 0.186485229
0.142304865 0.220573450 0.182848265
0.182477894 0.217029914 0.178554100
0.228392367 0.212505220 0.173938243
0.278315917 0.206852365 0.169336205
0.329789444 0.199359061 0.164163652
0.382192722 0.189748998 0.159811191
0.434698618 0.177936488 0.156271962
0.486480001 0.163835846 0.153539103
0.536723076 0.146731192 0.150165865
0.587121785 0.128058120 0.147056959
0.637271838 0.107541363 0.144384300
0.686768949 0.084905651 0.142319805
0.730371520 0.061216471 0.142620664
0.771876413 0.039388618 0.143776034
0.812420418 0.020580497 0.147302533
0.853140324 0.005950514 0.154716777
0.125731673 0.276063889 0.200643443
0.158340179 0.274568412 0.198081056
0.197178878 0.272780590 0.195983868
0.241388744 0.270273890 0.193556692
0.290110752 0.266621783 0.190004341
0.341541439 0.260336261 0.184281323
0.393954426 0.251476459 0.179286107
0.446435872 0.239991851 0.175243374
0.498071939 0.225831911 0.172377802
0.547547005 0.208134763 0.170007367
0.597021058 0.188686196 0.168640837
0.646047942 0.167864367 0.168631580
