shared/src/main/assets/luts/dalur_cinema_01.cube
TITLE "DALUR cinema"
LUT_3D_SIZE 17
DOMAIN_MIN 0.0 0.0 0.0
DOMAIN_MAX 1.0 1.0 1.0
0.000000 0.000000 0.000000
0.021690 0.000000 0.000000
0.091868 0.000000 0.000000
0.162047 0.000000 0.000000
0.232226 0.000000 0.000000
0.302404 0.000000 0.000000
0.372583 0.000000 0.000000
0.442762 0.000000 0.000000
0.512940 0.000000 0.000000
0.583119 0.000000 0.000000
0.653298 0.000000 0.000000
0.723476 0.000000 0.000000
0.793655 0.000000 0.000000
0.863834 0.000000 0.000000
0.934012 0.000000 0.000000
1.000000 0.000000 0.000000
1.000000 0.000000 0.000000
0.000000 0.028338 0.000000
0.020372 0.027340 0.000000
0.090550 0.026343 0.000000
0.160729 0.025345 0.000000
0.230908 0.024348 0.000000
0.301086 0.023350 0.000000
0.371265 0.022352 0.000000
0.441444 0.021355 0.000000
0.511622 0.020357 0.000000
0.581801 0.019360 0.000000
0.651980 0.018362 0.000000
0.722158 0.017365 0.000000
0.792337 0.016367 0.000000
0.862516 0.015369 0.000000
0.932694 0.014372 0.000000
1.000000 0.013374 0.000000
1.000000 0.012377 0.000000
0.000000 0.097229 0.000000
0.019054 0.096232 0.000000
0.089232 0.095234 0.000000
0.159411 0.094237 0.000000
0.229590 0.093239 0.000000
0.299768 0.092242 0.000000
0.369947 0.091244 0.000000
0.440126 0.090246 0.000000
0.510304 0.089249 0.000000
0.580483 0.088251 0.000000
0.650662 0.087254 0.000000
0.720840 0.086256 0.000000
0.791019 0.085259 0.000000
0.861198 0.084261 0.000000
0.931376 0.083263 0.000000
1.000000 0.082266 0.000000
1.000000 0.081268 0.000000
0.000000 0.166121 0.000000
0.017736 0.165123 0.000000
0.087914 0.164126 0.000000
0.158093 0.163128 0.000000
0.228272 0.162131 0.000000
0.298450 0.161133 0.000000
0.368629 0.160136 0.000000
0.438808 0.159138 0.000000
0.508986 0.158140 0.000000
0.579165 0.157143 0.000000
0.649344 0.156145 0.000000
0.719522 0.155148 0.000000
0.789701 0.154150 0.000000
0.859880 0.153152 0.000000
0.930058 0.152155 0.000000
1.000000 0.151157 0.000000
1.000000 0.150160 0.000000
0.000000 0.235013 0.000000
0.016418 0.234015 0.000000
0.086597 0.233017 0.000000
0.156775 0.232020 0.000000
0.226954 0.231022 0.000000
0.297132 0.230025 0.000000
0.367311 0.229027 0.000000
0.437490 0.228029 0.000000
0.507668 0.227032 0.000000
0.577847 0.226034 0.000000
0.648026 0.225037 0.000000
0.718204 0.224039 0.000000
0.788383 0.223042 0.000000
0.858562 0.222044 0.000000
0.928740 0.221046 0.000000
0.998919 0.220049 0.000000
1.000000 0.219051 0.000000
0.000000 0.303904 0.000000
0.015100 0.302906 0.000000
0.085279 0.301909 0.000000
0.155457 0.300911 0.000000
0.225636 0.299914 0.000000
0.295815 0.298916 0.000000
0.365993 0.297919 0.000000
0.436172 0.296921 0.000000
0.506351 0.295923 0.000000
0.576529 0.294926 0.000000
0.646708 0.293928 0.000000
0.716886 0.292931 0.000000
0.787065 0.291933 0.000000
0.857244 0.290936 0.000000
0.927422 0.289938 0.000000
0.997531 0.289030 0.000000
1.000000 0.288216 0.000000
0.000000 0.372796 0.000000
0.013782 0.371798 0.000000
0.083961 0.370800 0.000000
0.154139 0.369803 0.000000
0.224318 0.368805 0.000000
0.294497 0.367808 0.000000
0.364675 0.366810 0.000000
0.434854 0.365813 0.000000
0.505033 0.364815 0.000000
0.575211 0.363817 0.000000
0.645390 0.362820 0.000000
0.715569 0.361822 0.000000
0.785747 0.360825 0.000000
0.855860 0.359910 0.000000
0.925896 0.359096 0.000000
0.995931 0.358281 0.000000
1.000000 0.357466 0.000000
0.000000 0.441687 0.000000
0.012464 0.440690 0.000000
0.082643 0.439692 0.000000
0.152821 0.438694 0.000000
0.223000 0.437697 0.000000
0.293179 0.436699 0.000000
0.363357 0.435702 0.000000
0.433536 0.434704 0.000000
0.503715 0.433707 0.000000
0.573893 0.432709 0.000000
0.644072 0.431711 0.000000
0.714190 0.430790 0.000000
0.784226 0.429976 0.000000
0.854261 0.429161 0.000000
0.924296 0.428346 0.000000
0.994331 0.427531 0.000000
1.000000 0.426904 0.000000
0.000000 0.510579 0.000000
0.011146 0.509581 0.000000
0.081325 0.508584 0.000000
0.151503 0.507586 0.000000
0.221682 0.506588 0.000000
0.291861 0.505591 0.000000
0.362039 0.504593 0.000000
0.432218 0.503596 0.000000
0.502397 0.502598 0.000000
0.572520 0.501670 0.000000
0.642556 0.500856 0.000000
0.712591 0.500041 0.000000
0.782626 0.499226 0.000000
0.852661 0.498411 0.000000
0.923268 0.497762 0.000000
0.995389 0.497549 0.000000
1.000000 0.497337 0.000000
0.000000 0.579470 0.000000
0.009828 0.578473 0.000000
0.080007 0.577475 0.000000
0.150185 0.576478 0.000000
0.220364 0.575480 0.000000
0.290543 0.574482 0.000000
0.360721 0.573485 0.000000
0.430850 0.572550 0.000000
0.500886 0.571736 0.000000
0.570921 0.570921 0.000000
0.640956 0.570106 0.000000
0.710991 0.569291 0.000000
0.781522 0.568620 0.000000
0.853642 0.568407 0.000000
0.925763 0.568195 0.000000
0.997883 0.567982 0.000000
1.000000 0.567770 0.000000
0.000000 0.648362 0.000000
0.008510 0.647364 0.000000
0.078689 0.646367 0.000000
0.148867 0.645369 0.000000
0.219046 0.644372 0.000000
0.289180 0.643430 0.000000
0.359216 0.642616 0.000000
0.429251 0.641801 0.000000
0.499286 0.640986 0.000000
0.569321 0.640171 0.000000
0.639775 0.639477 0.000000
0.711895 0.639265 0.000000
0.784016 0.639053 0.000000
0.856136 0.638840 0.000000
0.928257 0.638628 0.000000
1.000000 0.638415 0.000000
1.000000 0.638203 0.000000
0.000000 0.717253 0.000000
0.007192 0.716256 0.000000
0.077371 0.715258 0.000000
0.147510 0.714310 0.000000
0.217546 0.713496 0.000000
0.287581 0.712681 0.000000
0.357616 0.711866 0.000000
0.427651 0.711051 0.000000
0.498028 0.710335 0.000000
0.570149 0.710123 0.000000
0.642269 0.709910 0.000000
0.714390 0.709698 0.000000
0.786510 0.709486 0.000000
0.858631 0.709273 0.000000
0.930751 0.709061 0.000000
1.000000 0.708848 0.000000
1.000000 0.708636 0.000000
0.000000 0.786145 0.000000
0.005840 0.785190 0.000000
0.075876 0.784376 0.000000
0.145911 0.783561 0.000000
0.215946 0.782746 0.000000
0.285981 0.781931 0.000000
0.356281 0.781193 0.000000
0.428402 0.780981 0.000000
0.500522 0.780768 0.000000
0.572643 0.780556 0.000000
0.644763 0.780343 0.000000
0.716884 0.780131 0.000000
0.789004 0.779919 0.000000
0.861125 0.779706 0.000000
0.933245 0.779494 0.000000
1.000000 0.779282 0.000000
1.000000 0.779069 0.000000
0.000000 0.855256 0.000000
0.004241 0.854441 0.000000
0.074276 0.853626 0.000000
0.144311 0.852811 0.000000
0.214535 0.852051 0.000000
0.286655 0.851838 0.000000
0.358776 0.851626 0.000000
0.430896 0.851414 0.000000
0.503017 0.851201 0.000000
0.575137 0.850989 0.000000
0.647258 0.850776 0.000000
0.719378 0.850564 0.000000
0.791499 0.850352 0.000000
0.863619 0.850139 0.000000
0.935740 0.849927 0.000000
1.000000 0.849715 0.000000
1.000000 0.849502 0.000000
0.000000 0.924506 0.000000
0.002641 0.923691 0.000000
0.072788 0.922909 0.000000
0.144908 0.922696 0.000000
0.217029 0.922484 0.000000
0.289149 0.922271 0.000000
0.361270 0.922059 0.000000
0.433391 0.921847 0.000000
0.505511 0.921634 0.000000
0.577632 0.921422 0.000000
0.649752 0.921210 0.000000
0.721873 0.920997 0.000000
0.793993 0.920785 0.000000
0.866114 0.920572 0.000000
0.938234 0.920360 0.000000
1.000000 0.920148 0.000000
1.000000 0.919935 0.000000
0.000000 0.993766 0.000000
0.003162 0.993554 0.000000
0.075282 0.993342 0.000000
0.147403 0.993129 0.000000
0.219523 0.992917 0.000000
0.291644 0.992705 0.000000
0.363764 0.992492 0.000000
0.435885 0.992280 0.000000
0.508005 0.992067 0.000000
0.580126 0.991855 0.000000
0.652246 0.991643 0.000000
0.724367 0.991430 0.000000
0.796487 0.991218 0.000000
0.868608 0.991005 0.000000
0.940728 0.990793 0.000000
1.000000 0.990581 0.000000
1.000000 0.990368 0.000000
0.000000 1.000000 0.000000
0.005656 1.000000 0.000000
0.077777 1.000000 0.000000
0.149897 1.000000 0.000000
0.222018 1.000000 0.000000
0.294138 1.000000 0.000000
0.366259 1.000000 0.000000
0.438379 1.000000 0.000000
0.510500 1.000000 0.000000
0.582620 1.000000 0.000000
0.654741 1.000000 0.000000
0.726861 1.000000 0.000000
0.798982 1.000000 0.000000
0.871102 1.000000 0.000000
0.943223 1.000000 0.000000
1.000000 1.000000 0.000000
1.000000 1.000000 0.000000
0.000000 0.000000 0.031032
0.021434 0.000000 0.029988
0.091612 0.000000 0.028943
0.161791 0.000000 0.027899
0.231970 0.000000 0.026855
0.302148 0.000000 0.025811
0.372327 0.000000 0.024767
0.442506 0.000000 0.023723
0.512684 0.000000 0.022678
0.582863 0.000000 0.021634
0.653042 0.000000 0.020590
0.723220 0.000000 0.019546
0.793399 0.000000 0.018502
0.863578 0.000000 0.017457
0.933756 0.000000 0.016413
1.000000 0.000000 0.015369
1.000000 0.000000 0.014325
0.000000 0.027957 0.028982
0.020116 0.026960 0.027938
0.090294 0.025962 0.026893
0.160473 0.024965 0.025849
0.230652 0.023967 0.024805
0.300830 0.022970 0.023761
0.371009 0.021972 0.022717
0.441188 0.020974 0.021673
0.511366 0.019977 0.020628
0.581545 0.018979 0.019584
0.651724 0.017982 0.018540
0.721902 0.016984 0.017496
0.792081 0.015987 0.016452
0.862260 0.014989 0.015408
0.932438 0.013991 0.014363
1.000000 0.012994 0.013319
1.000000 0.011996 0.012275
0.000000 0.096849 0.026932
0.018798 0.095851 0.025888
0.088976 0.094854 0.024844
0.159155 0.093856 0.023799
0.229334 0.092859 0.022755
0.299512 0.091861 0.021711
0.369691 0.090864 0.020667
0.439870 0.089866 0.019623
0.510048 0.088868 0.018578
0.580227 0.087871 0.017534
0.650406 0.086873 0.016490
0.720584 0.085876 0.015446
0.790763 0.084878 0.014402
0.860942 0.083881 0.013358
0.931120 0.082883 0.012313
1.000000 0.081885 0.011269
1.000000 0.080888 0.010225
0.000000 0.165741 0.024882
0.017480 0.164743 0.023838
0.087659 0.163745 0.022794
0.157837 0.162748 0.021749
0.228016 0.161750 0.020705
0.298195 0.160753 0.019661
0.368373 0.159755 0.018617
0.438552 0.158758 0.017573
0.508730 0.157760 0.016529
0.578909 0.156762 0.015484
0.649088 0.155765 0.014440
0.719266 0.154767 0.013396
0.789445 0.153770 0.012352
0.859624 0.152772 0.011308
0.929802 0.151775 0.010263
0.999981 0.150777 0.009219
1.000000 0.149779 0.008175
0.000000 0.234632 0.022832
0.016162 0.233635 0.021788
0.086341 0.232637 0.020744
0.156519 0.231639 0.019699
0.226698 0.230642 0.018655
0.296877 0.229644 0.017611
0.367055 0.228647 0.016567
0.437234 0.227649 0.015523
0.507413 0.226652 0.014479
0.577591 0.225654 0.013434
0.647770 0.224656 0.012390
0.717949 0.223659 0.011346
0.788127 0.222661 0.010302
0.858306 0.221664 0.009258
0.928485 0.220666 0.008214
0.998663 0.219669 0.007169
1.000000 0.218671 0.006125
0.000000 0.303524 0.020782
0.014844 0.302526 0.019738
0.085023 0.301529 0.018694
0.155201 0.300531 0.017650
0.225380 0.299533 0.016605
0.295559 0.298536 0.015561
0.365737 0.297538 0.014517
0.435916 0.296541 0.013473
0.506095 0.295543 0.012429
0.576273 0.294546 0.011384
0.646452 0.293548 0.010340
0.716631 0.292550 0.009296
0.786809 0.291553 0.008252
0.856988 0.290555 0.007208
0.927167 0.289558 0.006164
0.997220 0.288720 0.005320
1.000000 0.287905 0.004505
0.000000 0.372415 0.018732
0.013526 0.371418 0.017688
0.083705 0.370420 0.016644
0.153883 0.369423 0.015600
0.224062 0.368425 0.014555
0.294241 0.367427 0.013511
0.364419 0.366430 0.012467
0.434598 0.365432 0.011423
0.504777 0.364435 0.010379
0.574955 0.363437 0.009335
0.645134 0.362440 0.008290
0.715313 0.361442 0.007246
0.785491 0.360444 0.006202
0.855550 0.359600 0.005350
0.925585 0.358785 0.004535
0.995620 0.357970 0.003720
1.000000 0.357155 0.002905
0.000000 0.441307 0.016682
0.012208 0.440309 0.015638
0.082387 0.439312 0.014594
0.152565 0.438314 0.013550
0.222744 0.437317 0.012505
0.292923 0.436319 0.011461
0.363101 0.435321 0.010417
0.433280 0.434324 0.009373
0.503459 0.433326 0.008329
0.573637 0.432329 0.007285
0.643816 0.431331 0.006240
0.713880 0.430480 0.005380
0.783915 0.429665 0.004565
0.853950 0.428850 0.003750
0.923985 0.428035 0.002935
0.994021 0.427221 0.002121
1.000000 0.426823 0.000403
0.000000 0.510198 0.014632
0.010890 0.509201 0.013588
0.081069 0.508203 0.012544
0.151247 0.507206 0.011500
0.221426 0.506208 0.010456
0.291605 0.505211 0.009411
0.361783 0.504213 0.008367
0.431962 0.503215 0.007323
0.502141 0.502218 0.006279
0.572210 0.501360 0.005410
0.642245 0.500545 0.004595
0.712280 0.499730 0.003780
0.782315 0.498915 0.002965
0.852351 0.498101 0.002151
0.923753 0.497681 0.000481
0.995873 0.497468 0.000000
1.000000 0.497256 0.000000
0.000000 0.579090 0.012582
0.009572 0.578092 0.011538
0.079751 0.577095 0.010494
0.149929 0.576097 0.009450
0.220108 0.575100 0.008406
0.290287 0.574102 0.007361
0.360465 0.573104 0.006317
0.430540 0.572240 0.005440
0.500575 0.571425 0.004625
0.570610 0.570610 0.003810
0.640645 0.569795 0.002995
0.710681 0.568981 0.002181
0.782006 0.568539 0.000559
0.854127 0.568326 0.000000
0.926247 0.568114 0.000000
0.998368 0.567901 0.000000
1.000000 0.567689 0.000000
0.000000 0.647981 0.010532
0.008254 0.646984 0.009488
0.078433 0.645986 0.008444
0.148611 0.644989 0.007400
0.218790 0.643991 0.006356
0.288870 0.643120 0.005470
0.358905 0.642305 0.004655
0.428940 0.641490 0.003840
0.498975 0.640675 0.003025
0.569011 0.639861 0.002211
0.640259 0.639396 0.000637
0.712380 0.639184 0.000000
0.784500 0.638972 0.000000
0.856621 0.638759 0.000000
0.928741 0.638547 0.000000
1.000000 0.638334 0.000000
1.000000 0.638122 0.000000
0.000000 0.716873 0.008482
0.006936 0.715875 0.007438
0.077115 0.714878 0.006394
0.147200 0.714000 0.005500
0.217235 0.713185 0.004685
0.287270 0.712370 0.003870
0.357305 0.711555 0.003055
0.427341 0.710741 0.002241
0.498513 0.710254 0.000715
0.570633 0.710042 0.000000
0.642754 0.709829 0.000000
0.714874 0.709617 0.000000
0.786995 0.709405 0.000000
0.859115 0.709192 0.000000
0.931236 0.708980 0.000000
1.000000 0.708768 0.000000
1.000000 0.708555 0.000000
0.000000 0.785765 0.006432
0.005530 0.784880 0.005530
0.075565 0.784065 0.004715
0.145600 0.783250 0.003900
0.215635 0.782435 0.003085
0.285671 0.781621 0.002271
0.356766 0.781112 0.000793
0.428886 0.780900 0.000000
0.501007 0.780687 0.000000
0.573127 0.780475 0.000000
0.645248 0.780262 0.000000
0.717368 0.780050 0.000000
0.789489 0.779838 0.000000
0.861609 0.779625 0.000000
0.933730 0.779413 0.000000
1.000000 0.779201 0.000000
1.000000 0.778988 0.000000
0.000000 0.854945 0.004745
0.003930 0.854130 0.003930
0.073965 0.853315 0.003115
0.144001 0.852501 0.002301
0.215019 0.851970 0.000871
0.287140 0.851757 0.000000
0.359260 0.851545 0.000000
0.431381 0.851333 0.000000
0.503501 0.851120 0.000000
0.575622 0.850908 0.000000
0.647742 0.850696 0.000000
0.719863 0.850483 0.000000
0.791983 0.850271 0.000000
0.864104 0.850058 0.000000
0.936224 0.849846 0.000000
1.000000 0.849634 0.000000
1.000000 0.849421 0.000000
0.000000 0.924195 0.003145
0.002331 0.923381 0.002331
0.073272 0.922828 0.000949
0.145393 0.922615 0.000000
0.217513 0.922403 0.000000
0.289634 0.922190 0.000000
0.361754 0.921978 0.000000
0.433875 0.921766 0.000000
0.505995 0.921553 0.000000
0.578116 0.921341 0.000000
0.650236 0.921129 0.000000
0.722357 0.920916 0.000000
0.794477 0.920704 0.000000
0.866598 0.920491 0.000000
0.938718 0.920279 0.000000
1.000000 0.920067 0.000000
1.000000 0.919854 0.000000
0.000000 0.993685 0.001027
0.003646 0.993473 0.000000
0.075767 0.993261 0.000000
0.147887 0.993048 0.000000
0.220008 0.992836 0.000000
0.292128 0.992624 0.000000
0.364249 0.992411 0.000000
0.436369 0.992199 0.000000
0.508490 0.991986 0.000000
0.580610 0.991774 0.000000
0.652731 0.991562 0.000000
0.724851 0.991349 0.000000
0.796972 0.991137 0.000000
0.869092 0.990924 0.000000
0.941213 0.990712 0.000000
1.000000 0.990500 0.000000
1.000000 0.990287 0.000000
0.000000 1.000000 0.000000
0.006140 1.000000 0.000000
0.078261 1.000000 0.000000
0.150381 1.000000 0.000000
0.222502 1.000000 0.000000
0.294622 1.000000 0.000000
0.366743 1.000000 0.000000
0.438863 1.000000 0.000000
0.510984 1.000000 0.000000
0.583104 1.000000 0.000000
0.655225 1.000000 0.000000
0.727345 1.000000 0.000000
0.799466 1.000000 0.000000
0.871586 1.000000 0.000000
0.943707 1.000000 0.000000
1.000000 1.000000 0.000000
1.000000 1.000000 0.000000
0.000000 0.000000 0.101484
0.021178 0.000000 0.100439
0.091356 0.000000 0.099395
0.161535 0.000000 0.098351
0.231714 0.000000 0.097307
0.301892 0.000000 0.096263
0.372071 0.000000 0.095219
0.442250 0.000000 0.094174
0.512428 0.000000 0.093130
0.582607 0.000000 0.092086
0.652786 0.000000 0.091042
0.722964 0.000000 0.089998
0.793143 0.000000 0.088954
0.863322 0.000000 0.087909
0.933500 0.000000 0.086865
1.000000 0.000000 0.085821
1.000000 0.000000 0.084777
0.000000 0.027577 0.099434
0.019860 0.026580 0.098390
0.090039 0.025582 0.097345
0.160217 0.024584 0.096301
0.230396 0.023587 0.095257
0.300575 0.022589 0.094213
0.370753 0.021592 0.093169
0.440932 0.020594 0.092124
0.511110 0.019597 0.091080
0.581289 0.018599 0.090036
0.651468 0.017601 0.088992
0.721646 0.016604 0.087948
0.791825 0.015606 0.086904
0.862004 0.014609 0.085859
0.932182 0.013611 0.084815
1.000000 0.012614 0.083771
1.000000 0.011616 0.082727
0.000000 0.096469 0.097384
0.018542 0.095471 0.096340
0.088721 0.094474 0.095295
0.158899 0.093476 0.094251
0.229078 0.092478 0.093207
0.299257 0.091481 0.092163
0.369435 0.090483 0.091119
0.439614 0.089486 0.090075
0.509793 0.088488 0.089030
0.579971 0.087491 0.087986
0.650150 0.086493 0.086942
0.720329 0.085495 0.085898
0.790507 0.084498 0.084854
0.860686 0.083500 0.083809
0.930864 0.082503 0.082765
1.000000 0.081505 0.081721
1.000000 0.080508 0.080677
0.000000 0.165360 0.095334
0.017224 0.164363 0.094290
0.087403 0.163365 0.093245
0.157581 0.162368 0.092201
0.227760 0.161370 0.091157
0.297939 0.160372 0.090113
0.368117 0.159375 0.089069
0.438296 0.158377 0.088025
0.508475 0.157380 0.086980
0.578653 0.156382 0.085936
0.648832 0.155385 0.084892
0.719011 0.154387 0.083848
0.789189 0.153389 0.082804
0.859368 0.152392 0.081760
0.929547 0.151394 0.080715
0.999725 0.150397 0.079671
1.000000 0.149399 0.078627
0.000000 0.234252 0.093284
0.015906 0.233254 0.092240
0.086085 0.232257 0.091196
0.156263 0.231259 0.090151
0.226442 0.230262 0.089107
0.296621 0.229264 0.088063
0.366799 0.228266 0.087019
0.436978 0.227269 0.085975
0.507157 0.226271 0.084930
0.577335 0.225274 0.083886
0.647514 0.224276 0.082842
0.717693 0.223279 0.081798
0.787871 0.222281 0.080754
0.858050 0.221283 0.079710
0.928229 0.220286 0.078665
0.998407 0.219288 0.077621
1.000000 0.218344 0.076644
0.000000 0.303143 0.091234
0.014588 0.302146 0.090190
0.084767 0.301148 0.089146
0.154945 0.300151 0.088101
0.225124 0.299153 0.087057
0.295303 0.298156 0.086013
0.365481 0.297158 0.084969
0.435660 0.296160 0.083925
0.505839 0.295163 0.082881
0.576017 0.294165 0.081836
0.646196 0.293168 0.080792
0.716375 0.292170 0.079748
0.786553 0.291172 0.078704
0.856732 0.290175 0.077660
0.926874 0.289224 0.076674
0.996909 0.288409 0.075859
1.000000 0.287594 0.075044
0.000000 0.372035 0.089184
0.013270 0.371037 0.088140
0.083449 0.370040 0.087096
0.153627 0.369042 0.086051
0.223806 0.368045 0.085007
0.293985 0.367047 0.083963
0.364163 0.366049 0.082919
0.434342 0.365052 0.081875
0.504521 0.364054 0.080831
0.574699 0.363057 0.079786
0.644878 0.362059 0.078742
0.715057 0.361062 0.077698
0.785204 0.360104 0.076704
0.855239 0.359289 0.075889
0.925274 0.358474 0.075074
0.995310 0.357660 0.074260
1.000000 0.356845 0.073445
0.000000 0.440926 0.087134
0.011952 0.439929 0.086090
0.082131 0.438931 0.085046
0.152309 0.437934 0.084002
0.222488 0.436936 0.082957
0.292667 0.435939 0.081913
0.362845 0.434941 0.080869
0.433024 0.433943 0.079825
0.503203 0.432946 0.078781
0.573381 0.431948 0.077736
0.643534 0.430984 0.076734
0.713569 0.430169 0.075919
0.783604 0.429354 0.075104
0.853640 0.428540 0.074290
0.923675 0.427725 0.073475
0.993863 0.426954 0.072564
1.000000 0.426742 0.070445
0.000000 0.509818 0.085084
0.010634 0.508820 0.084040
0.080813 0.507823 0.082996
0.150991 0.506825 0.081952
0.221170 0.505828 0.080907
0.291349 0.504830 0.079863
0.361527 0.503833 0.078819
0.431706 0.502835 0.077775
0.501864 0.501864 0.076764
0.571899 0.501049 0.075949
0.641934 0.500234 0.075134
0.711970 0.499420 0.074320
0.782005 0.498605 0.073505
0.852117 0.497812 0.072642
0.924237 0.497600 0.070523
0.996358 0.497387 0.068404
1.000000 0.497175 0.066285
0.000000 0.578710 0.083034
0.009316 0.577712 0.081990
0.079495 0.576714 0.080946
0.149673 0.575717 0.079902
0.219852 0.574719 0.078857
0.290031 0.573722 0.077813
0.360194 0.572744 0.076794
0.430229 0.571929 0.075979
0.500264 0.571114 0.075164
0.570300 0.570300 0.074350
0.640335 0.569485 0.073535
0.710370 0.568670 0.072720
0.782491 0.568458 0.070601
0.854611 0.568245 0.068482
0.926732 0.568033 0.066363
0.998852 0.567820 0.064244
1.000000 0.567608 0.062125
0.000000 0.647601 0.080984
0.007998 0.646604 0.079940
0.078177 0.645606 0.078896
0.148355 0.644608 0.077852
0.218524 0.643624 0.076824
0.288559 0.642809 0.076009
0.358594 0.641994 0.075194
0.428630 0.641180 0.074380
0.498665 0.640365 0.073565
0.568700 0.639550 0.072750
0.640744 0.639315 0.070679
0.712864 0.639103 0.068560
0.784985 0.638891 0.066441
0.857105 0.638678 0.064322
0.929226 0.638466 0.062203
1.000000 0.638253 0.060084
1.000000 0.638041 0.057965
0.000000 0.716493 0.078934
0.006680 0.715495 0.077890
0.076854 0.714504 0.076854
0.146889 0.713689 0.076039
0.216924 0.712874 0.075224
0.286959 0.712060 0.074409
0.356995 0.711245 0.073595
0.427030 0.710430 0.072780
0.498997 0.710173 0.070757
0.571118 0.709961 0.068638
0.643238 0.709748 0.066519
0.715359 0.709536 0.064400
0.787479 0.709324 0.062281
0.859600 0.709111 0.060162
0.931720 0.708899 0.058043
1.000000 0.708687 0.055924
1.000000 0.708474 0.053805
0.000000 0.785384 0.076884
0.005219 0.784569 0.076069
0.075254 0.783754 0.075254
0.145289 0.782939 0.074439
0.215325 0.782125 0.073625
0.285360 0.781310 0.072810
0.357250 0.781031 0.070835
0.429371 0.780819 0.068716
0.501491 0.780606 0.066597
0.573612 0.780394 0.064478
0.645732 0.780182 0.062359
0.717853 0.779969 0.060240
0.789973 0.779757 0.058121
0.862094 0.779544 0.056002
0.934214 0.779332 0.053883
1.000000 0.779120 0.051764
1.000000 0.778907 0.049645
0.000000 0.854634 0.075284
0.003619 0.853819 0.074469
0.073655 0.853005 0.073655
0.143690 0.852190 0.072840
0.215504 0.851889 0.070913
0.287624 0.851676 0.068794
0.359745 0.851464 0.066675
0.431865 0.851252 0.064556
0.503986 0.851039 0.062437
0.576106 0.850827 0.060318
0.648227 0.850615 0.058199
0.720347 0.850402 0.056080
0.792468 0.850190 0.053961
0.864588 0.849977 0.051842
0.936709 0.849765 0.049723
1.000000 0.849553 0.047604
1.000000 0.849340 0.045485
0.000000 0.923885 0.073685
0.002020 0.923070 0.072870
0.073757 0.922747 0.070991
0.145877 0.922534 0.068872
0.217998 0.922322 0.066753
0.290118 0.922110 0.064634
0.362239 0.921897 0.062515
0.434359 0.921685 0.060396
0.506480 0.921472 0.058277
0.578600 0.921260 0.056158
0.650721 0.921048 0.054039
0.722841 0.920835 0.051920
0.794962 0.920623 0.049801
0.867082 0.920410 0.047682
0.939203 0.920198 0.045563
1.000000 0.919986 0.043444
1.000000 0.919773 0.041325
0.000000 0.993604 0.071069
0.004131 0.993392 0.068950
0.076251 0.993180 0.066831
0.148372 0.992967 0.064712
0.220492 0.992755 0.062593
0.292613 0.992543 0.060474
0.364733 0.992330 0.058355
0.436854 0.992118 0.056236
0.508974 0.991905 0.054117
0.581095 0.991693 0.051998
0.653215 0.991481 0.049879
0.725336 0.991268 0.047760
0.797456 0.991056 0.045641
0.869577 0.990843 0.043522
0.941697 0.990631 0.041403
1.000000 0.990419 0.039284
1.000000 0.990206 0.037165
0.000000 1.000000 0.066909
0.006625 1.000000 0.064790
0.078745 1.000000 0.062671
0.150866 1.000000 0.060552
0.222986 1.000000 0.058433
0.295107 1.000000 0.056314
0.367227 1.000000 0.054195
0.439348 1.000000 0.052076
0.511468 1.000000 0.049957
0.583589 1.000000 0.047838
0.655709 1.000000 0.045719
0.727830 1.000000 0.043600
0.799950 1.000000 0.041481
0.872071 1.000000 0.039362
0.944191 1.000000 0.037243
1.000000 1.000000 0.035124
1.000000 1.000000 0.033005
0.000000 0.000000 0.171936
0.020922 0.000000 0.170891
0.091101 0.000000 0.169847
0.161279 0.000000 0.168803
0.231458 0.000000 0.167759
0.301637 0.000000 0.166715
0.371815 0.000000 0.165670
0.441994 0.000000 0.164626
0.512173 0.000000 0.163582
0.582351 0.000000 0.162538
0.652530 0.000000 0.161494
0.722708 0.000000 0.160450
0.792887 0.000000 0.159405
0.863066 0.000000 0.158361
0.933244 0.000000 0.157317
1.000000 0.000000 0.156273
1.000000 0.000000 0.155229
0.000000 0.027197 0.169886
