shared/src/main/assets/luts/dalur_natural_100.cube
# Resampled 13pt -> 17pt (trilinear) from an MIT-licensed G'MIC film LUT.
# Source: github.com/YahiaAngelo/Film-Luts (MIT). See THIRD_PARTY_NOTICES.
TITLE "DALUR natural 100"
# LUT size
LUT_3D_SIZE 17
# Data domain
DOMAIN_MIN 0.0 0.0 0.0
DOMAIN_MAX 1.0 1.0 1.0
# LUT data points
0.056049421 0.048758399 0.041386846
0.116906375 0.045288651 0.039248933
0.177663371 0.042285763 0.037721066
0.237974498 0.040022746 0.036126631
0.297493845 0.038772613 0.033789016
0.359105818 0.034311010 0.031578007
0.422348797 0.029117457 0.030201294
0.486133099 0.022555782 0.028371164
0.549369037 0.013989812 0.024799900
0.611812830 0.009702238 0.027247444
0.671853125 0.006653012 0.030225229
0.728553250 0.004773110 0.034909172
0.780976534 0.003993509 0.042475186
0.832826629 0.002699889 0.050420607
0.881666094 0.001282613 0.066616269
0.927190274 0.000222408 0.089585837
0.969094515 0.000000000 0.117852978
0.080595216 0.115259505 0.059919332
0.126868693 0.110595879 0.054465779
0.181538895 0.106286815 0.051478110
0.241064705 0.101997287 0.048834412
0.301905006 0.097392268 0.044412768
0.365169303 0.089882331 0.044385553
0.429816805 0.080356207 0.042390447
0.494561700 0.068748747 0.038863937
0.558118179 0.054994799 0.034242509
0.618473403 0.042040581 0.037202967
0.677475907 0.030203920 0.038071591
0.733353388 0.020520671 0.040464383
0.784333542 0.014026691 0.047997343
0.834937382 0.007743228 0.057056290
0.881879710 0.003688638 0.073150736
0.925736137 0.001311347 0.095084762
0.967082277 0.000059779 0.121662447
0.100340459 0.179228298 0.081017889
0.138608337 0.174145451 0.075879497
0.188076407 0.169683246 0.072051064
0.245131750 0.165045108 0.068196756
0.306161448 0.159434460 0.062980739
0.370449238 0.150111068 0.062205489
0.436087616 0.138696058 0.059688650
0.501606300 0.125446025 0.056253163
0.565535009 0.110617567 0.052721966
0.624356367 0.094342411 0.055522885
0.682223961 0.078000392 0.055503891
0.737520203 0.062299776 0.056457424
0.788627505 0.047948832 0.062175924
0.837678000 0.031236928 0.071477730
0.883449465 0.017124625 0.084259641
0.926539809 0.006952869 0.101421556
0.967546940 0.002062607 0.123863369
0.109457156 0.242177457 0.103288017
0.147550909 0.237366127 0.100045662
0.195170663 0.233234942 0.095843095
0.250281659 0.228804288 0.091012156
0.310849138 0.223094549 0.085884683
0.375432115 0.213355884 0.083332508
0.441507690 0.201979501 0.080453448
0.507442908 0.189176476 0.077855280
0.571604818 0.175157882 0.076145779
0.629642837 0.159290372 0.078564042
0.686573111 0.142278281 0.078676324
0.741313230 0.123637755 0.079365386
0.792780787 0.102884943 0.083513986
0.840800308 0.075989282 0.092707360
0.886556275 0.049573896 0.101724983
0.929657854 0.027088956 0.113292973
0.969714209 0.011984634 0.130137447
0.102117307 0.305619657 0.125335217
0.149122009 0.301686667 0.123519847
0.200716421 0.297701791 0.119257372
0.256620459 0.292912908 0.114079103
0.316554040 0.286567897 0.109516352
0.380604431 0.277975440 0.106061304
0.446423486 0.268049031 0.103042386
0.512247533 0.256468959 0.100986728
0.576312900 0.242915511 0.100421458
0.634513929 0.229567107 0.102683282
0.690999180 0.215273440 0.103743088
0.744992003 0.198061939 0.105665362
0.795715749 0.175960034 0.110514589
0.844056129 0.144808579 0.119767612
0.891381055 0.109019771 0.127328761
0.935146838 0.071661589 0.135395773
0.972809792 0.035802010 0.146166384
0.108639384 0.367116205 0.137906294
0.155363438 0.365290577 0.138170538
0.206418004 0.362039737 0.135276583
0.262458469 0.357360255 0.131268475
0.324140221 0.351248696 0.128190260
0.388064565 0.344035499 0.125209531
0.452515353 0.336662877 0.122323273
0.516646478 0.327813931 0.120412184
0.579611838 0.316171758 0.120356966
0.639808029 0.304524335 0.123190967
0.697162382 0.291628465 0.125414853
0.751161899 0.275731294 0.128629724
0.801293582 0.255079970 0.134436680
0.850166582 0.227273967 0.143298306
0.897799380 0.195445508 0.153293930
0.941166822 0.158383969 0.163884666
0.977243751 0.114878726 0.174531627
0.124226309 0.427630365 0.144257933
0.168102438 0.426103495 0.144419413
0.216720093 0.423933096 0.142343126
0.271597562 0.420882221 0.139642259
0.334253132 0.416713923 0.137929998
0.397914045 0.411041822 0.135254288
0.461193606 0.405000858 0.132568948
0.523974493 0.397583984 0.131076392
0.586139381 0.387784153 0.131979033
0.647142157 0.377355702 0.135274289
0.704662010 0.366163030 0.139409747
0.758565582 0.352711294 0.145376636
0.808719516 0.335505649 0.154166184
0.858320557 0.311925305 0.164175328
0.905526429 0.283516653 0.176415000
0.947485350 0.248938750 0.189548755
0.981345534 0.206850655 0.202240147
0.145441681 0.486929037 0.143195670
0.185822371 0.485297047 0.142154833
0.232336033 0.483901843 0.140366744
0.285923682 0.482340630 0.138590654
0.347526334 0.480210610 0.137585815
0.410214728 0.476352839 0.135746454
0.472150974 0.471340321 0.133946555
0.533822116 0.464822544 0.133515577
0.595715195 0.456448995 0.135782979
0.656758986 0.447614312 0.139092585
0.713802040 0.438061863 0.144933866
0.767321717 0.426868729 0.153858766
0.817795381 0.413111992 0.166419227
0.867550883 0.394066006 0.179991257
0.914104603 0.370075971 0.195535421
0.954511281 0.340882512 0.211922975
0.985825658 0.306226254 0.228025176
0.168849096 0.544779122 0.133525044
0.207006603 0.544042856 0.131265160
0.253979169 0.542465955 0.129257180
0.307322770 0.540597305 0.127503861
0.364593387 0.538985789 0.126007959
0.425028473 0.537326977 0.126236908
0.485080183 0.533958614 0.126623236
0.545779884 0.528573036 0.128265966
0.608158946 0.520862579 0.132264122
0.668901190 0.514853269 0.134805191
0.724886447 0.506509691 0.141193308
0.777548969 0.496070392 0.152028784
0.828323007 0.483773917 0.167911932
0.876890391 0.468999483 0.188338675
0.923076302 0.451966226 0.209498644
0.962653473 0.431771830 0.230542261
0.991394639 0.407513976 0.250619948
0.207685225 0.599030867 0.116881194
0.240732110 0.599592522 0.113240253
0.284069089 0.598432705 0.111123502
0.333640035 0.596853890 0.109504044
0.385388821 0.596158549 0.107354978
0.444813453 0.593053121 0.108122540
0.504566565 0.589987747 0.109046893
0.564777244 0.585735537 0.111345548
0.625574574 0.579069600 0.116236012
0.686317656 0.574327230 0.119467993
0.741920285 0.568562955 0.127629589
0.793546457 0.561172517 0.141297584
0.842360169 0.551551662 0.161048763
0.888164777 0.537122043 0.184463738
0.933299899 0.522671089 0.207586095
0.970913213 0.507002104 0.231737169
0.994152397 0.488918394 0.258238293
0.249654345 0.652548015 0.096098948
0.280430520 0.653424136 0.091291315
0.320140511 0.652553350 0.088702029
0.366035216 0.650785625 0.087290099
0.415365532 0.648970932 0.086014535
0.472364742 0.645804115 0.086330586
0.530543908 0.643022358 0.086967519
0.589678869 0.639310591 0.088951786
0.649545461 0.633353740 0.093309842
0.708627552 0.629032902 0.096398037
0.762657791 0.624643296 0.105145324
0.812720872 0.619300179 0.119854238
0.859901488 0.612118810 0.140827313
0.903890789 0.601520441 0.167894088
0.946494654 0.591356575 0.195320904
0.979817085 0.579888240 0.225341197
0.995962083 0.565376461 0.260188401
0.289952919 0.703755811 0.074169135
0.318933723 0.704477426 0.069582193
0.355404943 0.703600764 0.066774998
0.398540143 0.701608993 0.065287986
0.447512887 0.698985279 0.064661592
0.502659423 0.696215842 0.063562280
0.559825800 0.693828851 0.062561421
0.618223973 0.690749772 0.062779785
0.677065894 0.685904071 0.065338147
0.734031398 0.681748401 0.068050624
0.786371335 0.677993730 0.076391613
0.835127879 0.673873074 0.090330046
0.881343201 0.668619454 0.109834855
0.924202062 0.661975555 0.137773541
0.961627878 0.655778103 0.169051911
0.987869509 0.647835154 0.206251423
0.997175813 0.635954767 0.251953535
0.323777407 0.751079500 0.054082580
0.349073611 0.751692116 0.052276735
0.383073896 0.750347823 0.050124651
0.425186649 0.748540476 0.047923664
0.474820256 0.747763932 0.045971110
0.530674577 0.744924188 0.042518856
0.589225829 0.743173629 0.038004909
0.648151770 0.741504654 0.034524650
0.705130160 0.738909662 0.034173463
0.760729715 0.735251844 0.036881058
0.812333286 0.731857270 0.044019558
0.860823140 0.728310898 0.055356310
0.907081544 0.724197686 0.070658661
0.949232236 0.718268260 0.093245912
0.977666885 0.713691086 0.125127953
0.993574902 0.708247766 0.169364922
0.998145700 0.699719906 0.229016960
0.346490599 0.793419868 0.039439764
0.368965907 0.794980545 0.038562219
0.400799207 0.794632435 0.037048547
0.440956278 0.793211471 0.035208248
0.488402896 0.791553587 0.033350825
0.542827113 0.789576609 0.030369788
0.600898288 0.788044326 0.025671246
0.659771737 0.786852147 0.021422067
0.716602772 0.785895482 0.019789116
0.774679750 0.784394898 0.019239359
0.831047393 0.782051995 0.021445104
0.885450803 0.778866671 0.026361135
0.937635079 0.774838820 0.033942236
0.971849985 0.770206444 0.048291060
0.989425220 0.766270921 0.071285014
0.996554445 0.761810239 0.109023761
0.999431327 0.755602390 0.167606968
0.363877103 0.837040633 0.024530127
0.383278091 0.838511802 0.024499861
0.414258443 0.838668957 0.023158043
0.453846931 0.837806858 0.021607573
0.499072328 0.836220264 0.020951350
0.552716006 0.835090429 0.018696768
0.609525084 0.833732545 0.015150451
0.666803978 0.832684487 0.012067701
0.721857101 0.832484126 0.011203818
0.779595226 0.832642689 0.010544521
0.838930443 0.831009522 0.010673620
0.898152113 0.828087352 0.011423530
0.955549598 0.824378908 0.012626663
0.982957527 0.819890276 0.020509824
0.995130077 0.816377863 0.032855861
0.998607472 0.812860340 0.055548391
0.999929935 0.808356375 0.094471030
0.366401330 0.882420436 0.011221698
0.385663055 0.883309353 0.011481031
0.417178664 0.883470163 0.010383668
0.456936628 0.883049499 0.009448675
0.500925414 0.882193998 0.010195119
0.554582285 0.881671760 0.008732003
0.610878713 0.880592532 0.006867089
0.667460337 0.879663546 0.005656165
0.721972793 0.879592031 0.006155018
0.779518872 0.880065352 0.006486366
0.840829305 0.878837340 0.006221313
0.903057471 0.876457494 0.005091677
0.963356748 0.873475313 0.002829279
0.986959707 0.869011726 0.006334043
0.997247338 0.865877219 0.010175885
0.999750488 0.862996332 0.017998024
1.000000000 0.859293610 0.033443680
0.344527692 0.930037916 0.001382506
0.369773693 0.930396661 0.000897097
0.403286934 0.930048823 0.000655948
0.443303384 0.929662257 0.001058593
0.488059014 0.929904819 0.002504566
0.542666979 0.929526716 0.001707698
0.600731671 0.928978533 0.001245723
0.659952655 0.928451195 0.001382069
0.718029499 0.928135633 0.002380162
0.778493419 0.926733017 0.002754720
0.841590852 0.925642937 0.002604391
0.904297277 0.924461648 0.001913763
0.963588178 0.922785401 0.000667422
0.988261372 0.919262767 0.002195556
0.998242885 0.916634291 0.003580475
1.000000000 0.913816482 0.005431875
1.000000000 0.909725845 0.008359453
0.053774796 0.048411114 0.095306956
0.113688383 0.045756700 0.091189156
0.173879635 0.042784517 0.087730731
0.233877307 0.040443019 0.084717795
0.293210156 0.039680658 0.081936456
0.353164742 0.036129170 0.078487103
0.415450256 0.031115926 0.074886681
0.478871426 0.024640239 0.071314363
0.542232975 0.016701422 0.067949322
0.603080988 0.011374716 0.068608565
0.661869407 0.007569897 0.070496563
0.717822671 0.005297261 0.074906704
0.770165220 0.004567105 0.083132379
0.822752990 0.004704157 0.094353651
0.872140653 0.003677946 0.110300959
0.918474704 0.002022429 0.130312457
0.961901635 0.000271562 0.153726300
0.077815812 0.115971571 0.113169881
0.125342667 0.110735870 0.106550515
0.179558625 0.106304850 0.102100248
0.237844357 0.102148009 0.098329074
0.297580531 0.097734841 0.093746992
0.358735422 0.090325610 0.090653909
0.422322654 0.081155769 0.087099308
0.486760434 0.070220079 0.083462549
0.550466966 0.057513300 0.080122995
0.610595291 0.043904509 0.080010071
0.668302434 0.031860678 0.080225273
0.722974219 0.021880775 0.082958868
0.773996476 0.014463765 0.090401121
0.825407393 0.010526749 0.101107409
0.873309387 0.006746706 0.115333873
0.917994217 0.003410320 0.132566249
0.959753644 0.000804276 0.152290269
0.095965791 0.179727854 0.129958274
0.136147355 0.174339080 0.123824146
0.185683222 0.169972834 0.119300694
0.241965670 0.165496563 0.115070231
0.302386977 0.159777716 0.109815069
0.364711707 0.150244831 0.106661810
0.429122243 0.139194693 0.103340223
0.494087745 0.126483376 0.100051185
0.558077373 0.111966953 0.096995573
0.617500685 0.095175332 0.097125384
0.674408741 0.079060647 0.097075161
0.728431063 0.063179299 0.098789473
0.779197171 0.047087685 0.104212891
0.829058716 0.031249088 0.111885123
0.875399765 0.018284845 0.122094780
0.918770611 0.008647055 0.135190807
0.959721550 0.002787815 0.151522147
0.103926446 0.242028834 0.146491758
0.143054717 0.237547012 0.142397586
0.191196188 0.233783714 0.138475869
0.246635384 0.229532285 0.134161484
0.307656828 0.223586072 0.128889308
0.370958024 0.213650925 0.125416459
0.435661650 0.202538042 0.122283971
0.500611523 0.189831739 0.119437363
0.564651459 0.175116330 0.116822152
0.623552521 0.158669436 0.117684888
0.679938281 0.141840700 0.118138285
0.733679996 0.123033018 0.119507270
0.784648921 0.100649285 0.123116769
0.833394667 0.074079449 0.128033610
0.878955577 0.049568676 0.134489720
0.921630279 0.028708287 0.143481058
0.961717404 0.013089604 0.156003581
0.097399492 0.305223383 0.163589954
0.143017022 0.301340349 0.161658374
0.195040286 0.297732737 0.158769571
0.252247634 0.293298777 0.154823054
0.313417420 0.286936700 0.149718329
0.377338797 0.278307984 0.145823512
0.441753503 0.268491160 0.142605098
0.506089935 0.256666778 0.139978176
0.569776490 0.242015384 0.137857832
0.628506150 0.227869073 0.139418966
0.684641004 0.212871734 0.140506704
0.738207813 0.195282120 0.142221008
0.789233342 0.173358984 0.145661836
0.838102955 0.146226107 0.150899689
0.884520613 0.111874508 0.156424733
0.927399613 0.074569668 0.162731925
0.965653256 0.038577069 0.170316223
0.101480326 0.366896052 0.175348633
0.148195053 0.364843248 0.175942458
0.200241041 0.361944879 0.174639855
0.257449076 0.357717295 0.171697371
0.319649940 0.351676844 0.167371556
0.383894348 0.344313765 0.162970774
0.448181685 0.336473363 0.159501823
0.511938787 0.326795535 0.157128797
0.574592486 0.313920183 0.156015789
0.633671168 0.302273142 0.158714474
0.690109380 0.289300336 0.161217805
0.743902003 0.273919099 0.163864384
0.795043923 0.255046766 0.166992809
0.844196736 0.229384666 0.172680631
0.890623560 0.196390499 0.180246817
0.933133421 0.157843255 0.188718434
0.970535345 0.115521923 0.197122550
0.113865752 0.427507184 0.179911621
0.158946494 0.426383358 0.181409956
0.209498337 0.424399342 0.181291176
0.265839914 0.421063139 0.179243026
0.328289855 0.415882751 0.174953250
0.391946711 0.410147971 0.170341509
0.455762966 0.403758571 0.166671000
0.519023985 0.395710813 0.164762227
0.581015132 0.385000959 0.165435690
0.640640996 0.374709737 0.168426599
0.697088312 0.363780346 0.173122656
0.750803208 0.351315299 0.178963929
0.802231811 0.336417109 0.185390489
0.851798737 0.313757361 0.193091487
0.897916902 0.283656530 0.202853769
0.939385895 0.247597741 0.213529312
0.975005306 0.207064120 0.223970091
0.133171160 0.487103162 0.175864562
0.175249736 0.486408139 0.176824991
0.224084404 0.484962959 0.177228561
0.279317340 0.482439215 0.175892683
0.340590717 0.478508502 0.171634768
0.402656482 0.474472163 0.168148434
0.465219302 0.469534594 0.165121695
0.527592255 0.462987531 0.164177769
0.589088418 0.454122715 0.166939871
0.649561142 0.445244874 0.169797389
0.705961009 0.436020769 0.176510067
0.759403286 0.425895618 0.186106907
0.811003234 0.414314639 0.197616908
0.860606421 0.395734753 0.209537915
0.906333657 0.370462338 0.222638442
0.946681757 0.340098385 0.236229715
0.980147533 0.306243889 0.249622960
0.158011943 0.545730367 0.161793102
0.197083171 0.545365050 0.160951687
0.245271472 0.543502562 0.160957035
0.299778543 0.540948428 0.160079007
0.357806079 0.538508177 0.156587467
0.417184258 0.535947908 0.156604270
0.477272652 0.532989241 0.155862974
0.537890323 0.528200611 0.156674725
0.598856330 0.520150453 0.161350667
0.660577111 0.513944570 0.164068888
0.717110679 0.505730610 0.171668852
0.770194095 0.496084955 0.183880581
0.821564421 0.485583983 0.200434096
0.870317247 0.471707402 0.219425572
0.915806845 0.453597657 0.237993689
0.955545731 0.431610445 0.255884803
0.987046421 0.406101458 0.272845268
0.198454782 0.601744559 0.139778325
0.231471726 0.601589812 0.140086527
0.275389887 0.600045718 0.140500795
0.326053710 0.598173902 0.139493483
0.379307639 0.597035989 0.135536947
0.437819284 0.592715613 0.136778394
0.497109105 0.589042732 0.137233014
0.556755793 0.584770763 0.138958928
0.616338041 0.578653120 0.144014260
0.676954003 0.574540818 0.148501188
0.732965635 0.568944206 0.158662831
0.785499665 0.561906506 0.174110140
0.835682821 0.553470945 0.194454061
0.881505802 0.539748938 0.217111075
0.925605714 0.524967406 0.239064381
0.963803987 0.509006255 0.260719338
0.991922051 0.491745392 0.282481305
0.245600231 0.655229174 0.114011629
0.274576920 0.655220451 0.115498918
0.313876491 0.653799180 0.115603163
0.360229015 0.651809793 0.113957882
0.410364565 0.650096722 0.110196594
0.466358516 0.645969406 0.111381260
0.523533860 0.642696526 0.112652359
0.581489570 0.639108453 0.115056337
0.639824621 0.634035558 0.119639638
0.697983596 0.630439520 0.124554660
0.752722442 0.626364380 0.134829799
0.804297674 0.621156827 0.151125541
0.852965809 0.614163548 0.174102373
0.896770088 0.603399184 0.201980248
0.938795373 0.592790160 0.228861545
0.973380985 0.581616744 0.256045714
0.994866244 0.569159202 0.284832202
0.293403441 0.705501381 0.086217477
0.319462834 0.705587086 0.088002485
0.354636060 0.704237454 0.087432912
0.397151987 0.702075290 0.085149605
0.445239481 0.699723400 0.081793412
0.498795609 0.696774457 0.082018166
0.554264022 0.694321232 0.083015046
0.610826851 0.691466746 0.085184047
0.667666227 0.687314019 0.088925167
0.723165853 0.683747916 0.094129258
0.776242364 0.680475047 0.103369321
0.826481904 0.676456039 0.118495284
0.873470616 0.670651518 0.141357077
0.916296469 0.663415655 0.171740799
0.954570008 0.656572897 0.203577099
0.983077399 0.648792499 0.238379387
0.996604804 0.638743717 0.277661072
0.335819565 0.751878351 0.058120335
0.359193547 0.752019837 0.058410855
0.391573370 0.750835046 0.057158812
0.431670152 0.749189582 0.054746048
0.478195012 0.747949049 0.051554402
0.531124216 0.746195935 0.050294414
0.587016694 0.744287461 0.049215109
0.643502831 0.742098708 0.049559154
0.698213011 0.739504755 0.052569214
0.752000734 0.736573245 0.059124935
0.803386666 0.733760118 0.067480963
0.851946134 0.730424266 0.079787866
0.897254467 0.725924581 0.098196214
0.940271311 0.720555872 0.124100436
0.972123809 0.715822592 0.159402960
0.991693903 0.709884103 0.204235815
0.997863531 0.700899765 0.258731030
0.357245732 0.795002494 0.041595252
0.379868222 0.795413861 0.041206439
0.411248982 0.794970628 0.040207798
0.450125082 0.793721161 0.038734057
0.495233594 0.791713826 0.036919940
0.547697095 0.790843042 0.034638252
0.604135212 0.789801368 0.030925205
0.661924318 0.788427688 0.027751232
0.718440790 0.786560882 0.027086764
0.774635351 0.784494217 0.029103322
0.828851826 0.781897791 0.033729687
0.880630228 0.778750478 0.041530433
0.929510567 0.775031157 0.053070136
0.965116769 0.771369145 0.069480026
0.985748995 0.767755948 0.095602515
0.995717110 0.763005848 0.137083033
0.999330979 0.755933128 0.199567012
0.373128891 0.838475659 0.025751054
0.395034567 0.838938570 0.024890869
0.426217597 0.838953920 0.023854728
0.464452414 0.838335225 0.023084844
0.507513452 0.836896002 0.023023431
0.558444888 0.835945221 0.021585744
0.614130002 0.834865142 0.018346310
0.671995249 0.833690472 0.014978913
0.729467086 0.832455918 0.013157336
0.786130602 0.831518363 0.013495534
0.842807967 0.829436161 0.015111378
0.898525912 0.826630555 0.017826203
0.952311166 0.823522791 0.021461344
0.980708076 0.820461145 0.030029465
0.994019408 0.817427244 0.045031298
0.998376343 0.813625351 0.072845917
0.999910064 0.808259726 0.119852397
0.376094587 0.883296568 0.011862080
0.397861433 0.883758402 0.010942340
0.429655840 0.883854328 0.010034766
0.468019395 0.883677457 0.009861818
0.509493686 0.883320905 0.011145957
0.559618557 0.881884010 0.011087023
0.615177579 0.880459215 0.009690720
0.673487744 0.879390628 0.007835173
0.731866043 0.879022352 0.006398507
0.789033805 0.878254053 0.006535370
0.848005606 0.876386762 0.006395819
0.906894321 0.874036169 0.005620842
0.963812824 0.871817965 0.003851427
0.988122151 0.869040574 0.007073135
0.997959884 0.866468109 0.012738213
0.999770881 0.863255213 0.024790947
1.000000000 0.858556528 0.047175623
0.358768366 0.930463940 0.001202666
0.381517667 0.931037799 0.000839044
0.414740335 0.930741258 0.000683078
0.454193275 0.930393539 0.001128388
0.495633394 0.930813864 0.002568597
0.547469061 0.929040946 0.003092225
0.605454460 0.927564025 0.003170731
0.666173927 0.927031726 0.002912985
0.726211801 0.928092673 0.002427856
0.785892282 0.925309658 0.002456627
0.847195260 0.922761127 0.002352789
0.906996585 0.920938991 0.001860015
0.962172106 0.920335159 0.000721973
0.988435917 0.918316137 0.001935419
0.998595260 0.916510172 0.003772164
1.000000000 0.913408037 0.006184601
1.000000000 0.907500505 0.009125130
0.051732568 0.048249727 0.147161759
0.110198350 0.045594620 0.141766004
0.169683732 0.042439992 0.137044117
0.229580728 0.039948284 0.133038971
0.289281353 0.039281936 0.129793439
0.348386209 0.036365189 0.125318045
0.409522064 0.030740524 0.120256865
0.471763153 0.023858373 0.115666281
0.534183711 0.017169167 0.112602673
0.594755746 0.011912436 0.111210115
0.653199285 0.007364239 0.111337831
0.708816871 0.004726116 0.115108570
0.760911047 0.005199604 0.124645080
0.813619427 0.006147186 0.136159935
0.863287568 0.005045666 0.150134426
0.910149083 0.002797059 0.166449340
0.954437584 0.000303381 0.184985466
0.074886708 0.116357252 0.164444109
0.123739416 0.111161719 0.157859574
0.177204113 0.106687638 0.152635358
0.234194453 0.102281303 0.147982706
0.293624096 0.097289008 0.143112864
0.353466291 0.090097661 0.138097845
0.415459888 0.080779170 0.133176552
0.478573368 0.069869862 0.128852775
0.541775212 0.057906063 0.125630302
0.602283645 0.044170613 0.123313419
0.659615610 0.031533985 0.122233573
0.713877954 0.021163895 0.124234714
0.765177526 0.014228062 0.131160792
0.816662299 0.010919754 0.140433944
0.865162365 0.006967169 0.151383882
0.910829872 0.003247110 0.164590265
0.953816965 0.000636381 0.180632750
0.093064658 0.180113085 0.178968985
0.134550603 0.175226474 0.173346882
0.183434937 0.170992706 0.168635034
0.238549730 0.166194761 0.164019137
0.298727050 0.159615621 0.158684885
0.359544218 0.150201876 0.153878027
0.422097724 0.139566508 0.149453941
0.485621242 0.127244445 0.145494350
0.549348444 0.112770617 0.142080978
0.609743085 0.095669674 0.139992506
0.666396208 0.078894387 0.138974085
0.719886299 0.062154876 0.139916257
0.770791844 0.045161266 0.143709568
0.820893977 0.030048636 0.148644454
0.867952548 0.017350835 0.155448060
0.912353616 0.007798673 0.165070143
0.954483241 0.002122961 0.178460456
0.100546942 0.242352841 0.192443134
0.139352555 0.238830745 0.188881423
0.187323757 0.235231458 0.185273468
0.242793401 0.230548632 0.181149428
0.304094337 0.223775916 0.176039465
0.366057500 0.213950754 0.171643784
0.429032484 0.203583431 0.167651492
0.492658465 0.191432951 0.163966533
0.556574620 0.176258313 0.160492849
0.616601564 0.159376450 0.159352876
0.672759552 0.141610615 0.159043239
0.725837650 0.121483113 0.159604768
0.776624925 0.097516245 0.161078289
0.825817589 0.071642437 0.162477334
0.871999666 0.048024883 0.165965784
0.915534604 0.027752212 0.172270251
0.956785850 0.011913051 0.182117343
0.091614082 0.305912137 0.206573308
0.134865915 0.303016391 0.205116695
0.187818125 0.299280159 0.202780981
0.247072311 0.294202890 0.199374745
0.309230074 0.287284032 0.194706567
0.372443650 0.278617211 0.190380309
0.435861081 0.269310832 0.186331667
0.499436729 0.257886203 0.182644850
0.563124955 0.242864631 0.179404065
0.622326583 0.228257768 0.179500027
0.677924111 0.211847842 0.179924913
0.730727747 0.192932660 0.180751817
