shared/src/main/assets/luts/dalur_skin_160.cube
# Resampled 13pt -> 17pt (trilinear) from an MIT-licensed G'MIC film LUT.
# Source: github.com/YahiaAngelo/Film-Luts (MIT). See THIRD_PARTY_NOTICES.
TITLE "DALUR skin 160"
# LUT size
LUT_3D_SIZE 17
# Data domain
DOMAIN_MIN 0.0 0.0 0.0
DOMAIN_MAX 1.0 1.0 1.0
# LUT data points
0.022678360 0.040231187 0.036168028
0.045365004 0.041548392 0.034583761
0.083319120 0.043375000 0.034373945
0.132890837 0.046847601 0.034461611
0.190430284 0.053102784 0.033769794
0.257840477 0.059483617 0.029585038
0.334149987 0.062271403 0.024966640
0.415445991 0.063878184 0.019736907
0.497815669 0.066716000 0.013718145
0.577033371 0.070139198 0.011151650
0.649780035 0.077731509 0.009327481
0.716359019 0.089877697 0.007525152
0.777073681 0.106962524 0.005024181
0.832004517 0.126772588 0.003914844
0.883583903 0.149969026 0.003936940
0.931022853 0.176082890 0.004887921
0.973532379 0.204645231 0.006565243
0.018782758 0.064384683 0.040965066
0.039608205 0.067528594 0.038263578
0.080075326 0.074081862 0.034726126
0.134857172 0.081842234 0.031313022
0.198626790 0.088607453 0.028984582
0.270368877 0.092436832 0.025404772
0.347855527 0.095688879 0.021690393
0.428192228 0.098658576 0.017157819
0.508484468 0.101640904 0.011123421
0.586644541 0.106339173 0.008495954
0.657096252 0.114254872 0.007239316
0.721513420 0.124965873 0.006235431
0.781569868 0.138050048 0.004366224
0.833824195 0.156433491 0.004211695
0.883365124 0.178259470 0.004767528
0.930091847 0.202616096 0.005920961
0.973903552 0.228591479 0.007559230
0.014175183 0.106109496 0.050289948
0.027748201 0.106487531 0.045222632
0.067897340 0.115033600 0.038155989
0.128561980 0.126979394 0.030121524
0.203681499 0.137556601 0.022150743
0.283673342 0.141036024 0.019435632
0.365109988 0.144173427 0.016556512
0.445935167 0.146822956 0.012953979
0.524092615 0.148838762 0.008068631
0.598063782 0.153239924 0.006322419
0.665171638 0.160033800 0.005645146
0.726936683 0.168763641 0.005581441
0.784879416 0.178972699 0.005675933
0.837476842 0.194289649 0.005879161
0.886595324 0.213635407 0.006373383
0.932300799 0.235175608 0.006838615
0.974659204 0.257075883 0.006954874
0.008932327 0.159054421 0.062874965
0.014218232 0.156519742 0.056812875
0.047142751 0.164978072 0.047670042
0.107679287 0.179839982 0.035177731
0.195801243 0.196516041 0.019067211
0.291850835 0.205021515 0.013933554
0.382173002 0.208641203 0.010666707
0.466124874 0.208758460 0.008048462
0.543063581 0.206756644 0.004860609
0.612110827 0.209411478 0.004469672
0.675784864 0.214409092 0.004424858
0.734780472 0.221052643 0.005096808
0.789792433 0.228645284 0.006856163
0.842815358 0.240338315 0.007233246
0.891773716 0.255932238 0.007345575
0.936315324 0.273306374 0.006924085
0.976088002 0.290340044 0.005699708
0.003130879 0.216868252 0.077452414
0.003451538 0.215719763 0.074386263
0.018169148 0.222663134 0.066274792
0.065883119 0.238004897 0.050772258
0.165192857 0.262051582 0.025532920
0.288998317 0.284133628 0.011154474
0.395304203 0.290008366 0.005122690
0.486211412 0.284852222 0.003364339
0.563820839 0.273841619 0.001806192
0.629605412 0.273423865 0.002776337
0.690714598 0.276721552 0.003458337
0.747196451 0.281614520 0.004315159
0.799099028 0.285982609 0.005809769
0.849692643 0.294576742 0.006589953
0.897399515 0.304985359 0.006275177
0.940801039 0.316553339 0.005460571
0.978478611 0.328625560 0.004741265
0.000949624 0.286431901 0.095755445
0.001772561 0.289178676 0.096193793
0.006921968 0.295918532 0.090382439
0.034428605 0.308100822 0.076338349
0.102323230 0.327174902 0.052078491
0.244180770 0.350311425 0.022353155
0.374912977 0.366949622 0.007117199
0.486726614 0.373112584 0.001505423
0.571828440 0.364823401 0.000652627
0.638984628 0.357413413 0.002342235
0.700550750 0.353439692 0.003363598
0.757275958 0.350877237 0.003855659
0.809909403 0.347701043 0.003957363
0.858967856 0.351544749 0.004143111
0.903861158 0.357822809 0.004382470
0.944473732 0.365777653 0.004676698
0.980690002 0.374651708 0.005027053
0.000111269 0.356937855 0.124433249
0.000606451 0.359865677 0.126251158
0.002018719 0.365800925 0.122603619
0.015620400 0.375706099 0.111685189
0.052683821 0.390543699 0.091690423
0.189500879 0.410722226 0.055805532
0.328462858 0.430465519 0.027206694
0.457551442 0.445384607 0.008246351
0.564748317 0.451090515 0.001276944
0.641321763 0.444732863 0.001818204
0.705961898 0.435786106 0.002393551
0.763311259 0.424999569 0.002604715
0.818012387 0.413122579 0.002053429
0.866510637 0.410148211 0.002104782
0.909496337 0.411829315 0.002824716
0.947727658 0.416440494 0.003734104
0.981962770 0.422256351 0.004353819
0.000000000 0.426952630 0.161514096
0.000000000 0.428117095 0.162554704
0.000818314 0.432541225 0.160213094
0.006129443 0.440156341 0.152917931
0.019607885 0.450893760 0.139097879
0.135877418 0.466453578 0.106388869
0.270763327 0.484610718 0.068605161
0.409063589 0.503828669 0.034233639
0.535576180 0.522570923 0.011761191
0.629569322 0.524470285 0.005354679
0.703689121 0.516705107 0.002330703
0.765187316 0.502430402 0.001241855
0.821315646 0.484801181 0.000640723
0.869707748 0.474688867 0.000899368
0.912695430 0.469983902 0.001939568
0.950322777 0.469468135 0.002953413
0.982633874 0.471923418 0.003132996
0.000000000 0.495042741 0.205026254
0.000000000 0.494269259 0.203100774
0.000679667 0.496370345 0.200485624
0.002626670 0.500787161 0.196141731
0.006428678 0.506960869 0.189030021
0.094229161 0.518593028 0.168980431
0.216623869 0.533439875 0.134526584
0.351640746 0.550605148 0.090113806
0.477307737 0.569192588 0.040187418
0.596679807 0.585713744 0.017102093
0.690473497 0.589141011 0.004957566
0.762789086 0.581618622 0.000446611
0.817726851 0.565290809 0.000262002
0.865945950 0.549468458 0.000951273
0.911848813 0.535265595 0.002064679
0.952019051 0.525786847 0.002655250
0.983040273 0.524136841 0.001776018
0.000000000 0.552493334 0.241619173
0.000006017 0.552605400 0.242264231
0.000947094 0.553498290 0.242444253
0.003098012 0.555298818 0.241435532
0.006733550 0.558133796 0.238514364
0.080126124 0.567191403 0.225988403
0.192388607 0.579518057 0.202834393
0.318147689 0.593978770 0.170394047
0.432030059 0.609438553 0.130009077
0.543162199 0.624805018 0.080272455
0.648354143 0.637166008 0.039525191
0.740092278 0.643071663 0.011907006
0.810862988 0.639072120 0.001557619
0.859487135 0.624003235 0.001493777
0.906625792 0.608165756 0.002641938
0.949309461 0.594476867 0.004027074
0.984568641 0.585853755 0.004674156
0.000027645 0.607990742 0.283372313
0.000247450 0.608209766 0.285444934
0.001103304 0.608640969 0.286530152
0.004839411 0.609432116 0.286850888
0.013699976 0.610730976 0.286630064
0.090872186 0.615899123 0.278767610
0.193051780 0.625482887 0.263683829
0.303225864 0.637597784 0.241297334
0.404381543 0.650359333 0.211526737
0.503357850 0.663951740 0.166697103
0.604481116 0.677407593 0.120656869
0.701309897 0.688561521 0.076129446
0.787402749 0.695248157 0.035838243
0.849230550 0.689754501 0.015186964
0.901356727 0.678071886 0.011042034
0.945396096 0.664305553 0.017095680
0.982963473 0.652560741 0.027040130
0.002532491 0.662128717 0.330146946
0.004299967 0.662044238 0.331990490
0.008214753 0.662288956 0.332789522
0.020019483 0.662727397 0.333416885
0.045456792 0.663224086 0.334745422
0.127340169 0.664409231 0.330320755
0.215842320 0.670864269 0.320760772
0.305988504 0.680485427 0.305959007
0.392803982 0.691168934 0.285808995
0.479294343 0.702562779 0.257617017
0.568485152 0.713793732 0.220522692
0.659545776 0.725346468 0.172913330
0.751645580 0.737705663 0.113176238
0.828714307 0.743321884 0.069380669
0.889872283 0.740120322 0.052361610
0.938582197 0.731280062 0.056263359
0.978306741 0.719980195 0.075230214
0.009964094 0.715501010 0.381804347
0.015739232 0.715070695 0.381248504
0.029347896 0.714932829 0.381268561
0.060806843 0.714725003 0.382162608
0.120132834 0.714084804 0.384228736
0.190402899 0.712414771 0.383650541
0.257989161 0.715192109 0.377751097
0.325548843 0.721664935 0.367514402
0.395739168 0.731081367 0.353924453
0.472999260 0.740047008 0.334273182
0.549996987 0.750252396 0.311292753
0.627903745 0.760684773 0.282058053
0.707890928 0.770331383 0.243643969
0.791476518 0.781305015 0.191424724
0.866003126 0.789447397 0.151697308
0.927171007 0.791407555 0.135932401
0.970680416 0.783834517 0.155600682
0.132246349 0.762858361 0.442957595
0.148853047 0.762703341 0.442779038
0.169976618 0.762685582 0.443740752
0.198604620 0.762350574 0.445197554
0.237724610 0.761243805 0.446504265
0.281094759 0.759177174 0.444670847
0.326609204 0.760035716 0.440950312
0.375186054 0.763769068 0.434771318
0.427743420 0.770326868 0.425562523
0.487264605 0.778709900 0.410555379
0.550073240 0.787797108 0.393133521
0.616358768 0.796876222 0.371853979
0.686310634 0.805234969 0.345273785
0.758245379 0.813479621 0.310013636
0.829987496 0.822187044 0.274870057
0.898169801 0.830274373 0.248212408
0.959425107 0.836658746 0.238410052
0.276094109 0.808699638 0.513889551
0.291239314 0.808670335 0.514662541
0.308326535 0.808697715 0.515425511
0.327847987 0.808410659 0.516032711
0.350295886 0.807438046 0.516338393
0.378513105 0.805622034 0.515266415
0.409183688 0.805593073 0.513356142
0.442599993 0.807554320 0.510106839
0.479054376 0.811708927 0.505017772
0.523205895 0.818979144 0.494362205
0.571891129 0.826931834 0.481918491
0.625398248 0.834978819 0.467023261
0.684015423 0.842531919 0.449013144
0.744693942 0.849281386 0.424107011
0.806906894 0.856852353 0.396270879
0.870061964 0.865412481 0.368614715
0.933566839 0.875129431 0.344248489
0.419770814 0.853927016 0.591123983
0.428326687 0.853785329 0.592619114
0.437616445 0.853745334 0.592896819
0.447691021 0.853572197 0.592614796
0.458601348 0.853031084 0.592430741
0.478452785 0.851931535 0.593111888
0.499588653 0.851721674 0.592739858
0.522146545 0.852658767 0.591595329
0.546264052 0.855000079 0.589958981
0.577292908 0.860840935 0.583159793
0.612466663 0.867612205 0.574761122
0.652595881 0.874810021 0.564764034
0.698491126 0.881930515 0.553169593
0.747548092 0.887685597 0.534774864
0.797669068 0.893619306 0.514570877
0.850130640 0.900188614 0.491749415
0.906209394 0.907850489 0.465502262
0.541539907 0.899442673 0.671184659
0.545543820 0.898861974 0.672368854
0.551065147 0.898604542 0.672728658
0.557287797 0.898502126 0.672890529
0.563395679 0.898386478 0.673480928
0.576708645 0.898287863 0.675881907
0.591700137 0.898279011 0.676872730
0.608181596 0.898720488 0.677311152
0.625964463 0.899972856 0.678054929
0.645995423 0.904281467 0.674414277
0.668815851 0.909793854 0.668774873
0.695525363 0.916187286 0.662274435
0.727223575 0.923139036 0.656050682
0.763533711 0.927667543 0.643087208
0.803181767 0.932663888 0.628441155
0.845658973 0.937969506 0.612226605
0.890456557 0.943425834 0.594557643
0.024708362 0.038287094 0.059351335
0.047101507 0.040701905 0.059038388
0.082947127 0.042436585 0.058235853
0.130677653 0.043461727 0.057338434
0.188725516 0.043747923 0.056740835
0.260201419 0.044429414 0.056161665
0.338261366 0.047880956 0.056385910
0.419411374 0.054287844 0.056153127
0.500157461 0.063835369 0.054202876
0.578532346 0.069553427 0.048667094
0.649776280 0.079688007 0.044946606
0.715016864 0.093847896 0.041562825
0.775381699 0.111641878 0.037037166
0.829260841 0.132221589 0.035012260
0.880531281 0.155971933 0.034458821
0.928724121 0.182750429 0.035752747
0.973370463 0.212414596 0.039269935
0.019184089 0.065395060 0.065176337
0.042275281 0.069342906 0.066125315
0.081649109 0.075352558 0.064492318
0.134736854 0.081109225 0.061547179
0.198969797 0.084298115 0.058559729
0.273418411 0.085514549 0.058299753
0.351454219 0.089350509 0.057800942
0.431146150 0.094793737 0.055937843
0.510563135 0.100831978 0.051585005
0.587280566 0.107100609 0.045831457
0.656837687 0.116244957 0.042005418
0.720733850 0.127893274 0.038678937
0.780468408 0.141673814 0.034424061
0.832503011 0.161494627 0.033955680
0.882272074 0.183529681 0.035296402
0.929569978 0.207788611 0.038078549
0.974191107 0.234281051 0.041934446
0.014590935 0.109515385 0.076746235
0.033763378 0.111158276 0.076174188
0.073936177 0.118433436 0.072413097
0.132763272 0.127927569 0.066478942
0.207898607 0.136227380 0.059387700
0.287753185 0.137470683 0.057055236
0.368309572 0.141308398 0.054354027
0.447920505 0.145786144 0.050799697
0.524938717 0.148949535 0.045907870
0.598233884 0.154783073 0.040918702
0.665286113 0.162436109 0.037614402
0.727285376 0.171671460 0.035043351
0.785421647 0.182251945 0.032253928
0.837797958 0.198348396 0.031225477
0.886817187 0.217628261 0.032958280
0.932726292 0.239184175 0.036626953
0.975772232 0.262108769 0.041406112
0.010422642 0.165344749 0.092796579
0.022149640 0.163879816 0.089837593
0.056916440 0.170253321 0.084028822
0.117185153 0.182196334 0.075022435
0.205417890 0.197439930 0.062470601
0.298310166 0.202711698 0.052821001
0.385889918 0.206426340 0.046353379
0.467567487 0.208071666 0.041678808
0.542753216 0.207135489 0.037408363
0.612072086 0.211119368 0.033911727
0.676294221 0.216566878 0.031541898
0.736011525 0.223256775 0.029993645
0.791815903 0.230967817 0.028961734
0.844289252 0.242796876 0.027546562
0.892663164 0.258283736 0.029002808
0.937057869 0.276043036 0.032922638
0.977593593 0.294689413 0.038898219
0.006172954 0.227579832 0.112062918
0.008017908 0.225239328 0.107768115
0.027698010 0.229386315 0.101370125
0.080430743 0.242195097 0.090066374
0.181433588 0.265839979 0.071054284
0.300193779 0.283651479 0.045989935
0.401257746 0.287376046 0.034107207
0.487920146 0.282456908 0.029515290
0.563475639 0.274337292 0.026323373
0.629474957 0.274628043 0.024793430
0.691034675 0.276942678 0.023556249
0.748252381 0.280723540 0.022867398
0.801225662 0.285412975 0.022982447
0.851120461 0.294854049 0.023643849
0.898306549 0.305512168 0.024988337
0.941429514 0.317471107 0.028490282
0.979134947 0.330814645 0.035624056
0.003923018 0.297938790 0.133650838
0.004721131 0.298541401 0.133368775
0.011582542 0.302246648 0.128393086
0.044007685 0.312038285 0.117081953
0.121496990 0.330900066 0.097793557
0.259328303 0.353340517 0.062908558
0.384188285 0.368035740 0.036213024
0.490606836 0.372211768 0.020117371
0.573113855 0.363094633 0.017032017
0.640929917 0.354009841 0.016218899
0.702375345 0.349125504 0.016049415
0.758656829 0.346829813 0.016345556
0.810981058 0.345510952 0.016929311
0.859634597 0.349582751 0.017728765
0.904582264 0.356819191 0.020454258
0.945474188 0.366221923 0.025919978
0.981960498 0.376792597 0.034940117
0.001935396 0.368116833 0.161211213
0.002351336 0.369482142 0.162221926
0.004372609 0.372507693 0.159028352
0.022768451 0.379601795 0.150125548
0.072308097 0.393172756 0.134008572
0.208476756 0.414153724 0.099916970
0.341861394 0.432776494 0.063794561
0.464560702 0.445666258 0.032714837
0.568673372 0.449448209 0.013751290
0.644245986 0.440112451 0.011689343
0.708269056 0.429462429 0.011403534
0.764801288 0.418880019 0.011758444
0.817901388 0.409747098 0.011618653
0.865861839 0.408184728 0.013223415
0.909420565 0.410972785 0.016604488
0.948653104 0.416678177 0.022539699
0.983634993 0.423867811 0.031806877
0.000605465 0.436062105 0.192708709
0.000877399 0.437156233 0.193911656
0.002291731 0.439266713 0.192467179
0.012131243 0.443798178 0.186918466
0.037678718 0.452155259 0.175808705
0.159270138 0.468807030 0.149119741
0.289115444 0.486711619 0.111558976
0.419310486 0.504761505 0.069959794
0.541951120 0.521849163 0.031155580
0.633635291 0.521327152 0.017377829
0.706368502 0.511256004 0.010963784
0.766525565 0.496224209 0.009030395
0.820481289 0.480820257 0.008694615
0.868501738 0.473092759 0.010363913
0.912135564 0.469556713 0.014012917
0.950902240 0.469739284 0.020285284
0.984321240 0.473167639 0.029824671
0.000328603 0.499722749 0.226107992
0.000268201 0.500658354 0.228022053
0.001563431 0.501620971 0.227900824
0.007514262 0.503539985 0.225182014
0.021420663 0.507344782 0.219303332
0.123339451 0.520016365 0.202621439
0.240788803 0.534954429 0.174213423
0.364384927 0.551438633 0.134504348
0.484744027 0.568748638 0.083919277
0.603309959 0.586045220 0.039457422
0.694326378 0.587808780 0.016075344
0.763669465 0.578212429 0.008085747
0.817215398 0.561429277 0.009801337
0.866253845 0.546739623 0.009386371
0.912041374 0.534154736 0.013253433
0.952157576 0.526304659 0.021092571
0.984182045 0.525819436 0.032593836
0.000323663 0.556067199 0.262828249
0.000665166 0.556994409 0.266265849
0.001621991 0.557511630 0.266925656
0.007179746 0.558217625 0.265430768
0.021324041 0.559711158 0.262404285
0.113017193 0.568196123 0.252100139
0.219544414 0.580223657 0.232832127
0.331781747 0.594501136 0.204771628
0.440605232 0.609735932 0.168090021
0.550569953 0.625066598 0.118229374
0.653478961 0.637013530 0.069666348
0.742886874 0.642301721 0.031695039
0.812348306 0.637656160 0.013609547
0.861245661 0.622757268 0.015614438
0.907468989 0.608158944 0.021913800
0.949206109 0.595556250 0.031712826
0.984644838 0.586644247 0.044216706
0.000552290 0.610832341 0.302621566
0.001490342 0.611643715 0.305708732
0.003440072 0.612136234 0.306607995
0.013349702 0.612445002 0.306200040
0.038167450 0.612705126 0.305365551
0.124628495 0.616528330 0.299809759
0.219494079 0.625365015 0.287190346
0.317508677 0.637368400 0.267793691
0.413416766 0.650691703 0.241906174
0.511626497 0.664020550 0.201086507
0.611076958 0.677460566 0.153296067
0.705711279 0.688551290 0.105328573
0.789472587 0.694832258 0.063977746
0.850603031 0.689075880 0.048073758
0.901386298 0.677849744 0.049173238
0.944176741 0.664544001 0.061212911
0.981328711 0.652548805 0.078129503
0.006714076 0.664381649 0.345978232
0.010704450 0.664942745 0.347823440
0.019069725 0.665376978 0.348713210
0.040040749 0.665436677 0.349221533
0.081848376 0.664874170 0.349922400
0.159745242 0.665070402 0.347351667
0.239642080 0.670740535 0.339458512
0.320756221 0.680048018 0.326448038
0.402304998 0.691156294 0.308525350
0.487620073 0.702459740 0.281189411
0.575122186 0.713610593 0.246669882
0.664074775 0.725058215 0.203877705
0.753741279 0.737251967 0.151723825
0.829449314 0.742849422 0.115255882
0.889194852 0.739532476 0.103625975
0.936768384 0.730651738 0.110470086
0.975960400 0.719557814 0.129424195
0.024508615 0.717078596 0.393388540
0.036268213 0.717227973 0.394082706
0.060562996 0.717116058 0.395006668
0.101269511 0.716407206 0.396226956
0.162264302 0.714765772 0.397810102
0.219939318 0.713879749 0.396327231
0.278992701 0.716712251 0.391807057
0.340714885 0.722547583 0.383612171
0.406396300 0.730670050 0.371105164
0.479691165 0.739936836 0.351698678
0.553616460 0.749924317 0.329493172
0.629909456 0.759919573 0.302233791
0.710307419 0.769209683 0.267665677
0.792907868 0.781231858 0.225652362
0.866296202 0.789512485 0.193866244
0.926679950 0.791263286 0.180361609
0.970266640 0.783695981 0.193192746
0.160982717 0.763670076 0.454244817
0.176324650 0.763698728 0.454635726
0.196760282 0.763198247 0.454897056
0.224195845 0.762256535 0.455276822
0.260537568 0.760961492 0.456023039
0.302151877 0.759748625 0.455147865
0.345247924 0.760524599 0.453394046
0.390843544 0.763760510 0.449075959
0.439956568 0.769927453 0.440507982
0.494846102 0.778093101 0.425053462
0.554831403 0.786779970 0.407497661
0.619750486 0.795645499 0.386881389
0.689441364 0.804347124 0.362245457
0.759755284 0.813569886 0.332613997
0.831395349 0.823414451 0.302077651
0.899378569 0.831741349 0.277332445
0.958721954 0.836411111 0.265074403
0.301829172 0.809564024 0.523607183
0.312613436 0.809468688 0.523556584
0.325348118 0.808595210 0.523156520
0.341407808 0.807495199 0.523001716
0.362167098 0.806720264 0.523686897
0.391612567 0.805559549 0.524395822
0.422370479 0.805351127 0.524353120
0.455187472 0.806988524 0.522345739
0.490810186 0.811365269 0.517160624
0.530943906 0.818253187 0.505640414
0.576836407 0.825836163 0.492757455
0.628510091 0.833798412 0.477945076
0.685987361 0.841824152 0.460636608
0.745712036 0.849296423 0.438547608
0.808248892 0.857852694 0.413344162
0.871406293 0.866747539 0.387351294
0.932992600 0.875235535 0.362894032
0.435113257 0.855079014 0.598587643
0.439039527 0.854571079 0.598160812
0.444633512 0.853562592 0.597417386
0.453011752 0.852650051 0.597214650
0.465290789 0.852429956 0.598409887
0.485491449 0.851561496 0.600529084
0.506885544 0.851127531 0.601484468
0.529981846 0.851918106 0.601023814
0.555289127 0.854723264 0.598894894
0.583715335 0.860259832 0.591212019
0.616725435 0.866767410 0.582292726
0.654991186 0.873867186 0.572029778
0.699184343 0.881180346 0.560315937
0.748517627 0.887471937 0.543414817
0.798824720 0.893847942 0.524879484
0.851015490 0.900641164 0.503463802
0.905999802 0.908184402 0.477921639
0.548900247 0.900533617 0.676298201
0.549507879 0.899039123 0.675763939
0.552923471 0.898356035 0.675311983
0.559114024 0.898247942 0.675728641
0.568046540 0.898478433 0.677800223
0.580958582 0.898003437 0.680005636
0.595318303 0.897789508 0.681588277
0.611461848 0.898235735 0.682712484
0.629725367 0.899741203 0.683542594
0.648891147 0.903955769 0.679520767
0.671592452 0.909248225 0.673123650
0.697996683 0.915340692 0.665740419
0.728271246 0.921955287 0.658760250
0.765911557 0.927156895 0.647177242
0.805090718 0.932420924 0.633897327
0.846458528 0.937781528 0.618715618
0.890664786 0.943272859 0.601427227
0.023819194 0.040513789 0.098707814
0.051243298 0.042519361 0.098864675
0.087211703 0.044819296 0.098500689
0.132972640 0.046003244 0.097564623
0.189774342 0.044660851 0.096005242
0.262926312 0.040073275 0.095691270
0.342426538 0.037142918 0.096548311
0.424497433 0.038553736 0.097744648
0.505361408 0.046989681 0.098448563
0.581323445 0.061039986 0.097482796
0.650508285 0.079515354 0.096936934
0.713937812 0.100218235 0.096003831
0.772633910 0.120951079 0.093876343
0.825569272 0.143115127 0.092123969
0.876259208 0.168125276 0.092459260
0.924689032 0.195541155 0.094818012
0.970844060 0.224922396 0.099136027
0.016430299 0.070470104 0.104815519
0.045168144 0.073787797 0.107080530
0.085888867 0.079029134 0.107267955
0.137865598 0.083611143 0.105485235
0.200371470 0.084950855 0.101839812
0.276056728 0.082297423 0.101145338
0.354940798 0.082100828 0.101124726
0.434935780 0.085144011 0.101011232
0.513953775 0.092209911 0.100038110
0.588067669 0.105211025 0.098194029
0.656390961 0.118790426 0.096332457
0.719559001 0.133269751 0.094043772
0.778207138 0.148970641 0.090918351
0.829371085 0.171100571 0.091457217
0.878868226 0.193847923 0.094119145
0.926518109 0.217820570 0.097881530
0.972140282 0.243626390 0.101721770
0.012304815 0.115504116 0.115233717
0.038561151 0.117943536 0.117212753
0.081062908 0.123874357 0.116896609
0.138853162 0.130898732 0.114055741
0.210974988 0.136618815 0.108460607
0.291143301 0.135780508 0.105364743
0.371212393 0.138239667 0.103545374
0.449836712 0.142632010 0.101931362
0.525670707 0.147593254 0.099451568
0.597424682 0.157781071 0.096554666
0.664003409 0.167742081 0.094285910
0.725941222 0.178173896 0.091910960
0.783772454 0.189774126 0.088695475
0.834989872 0.207378408 0.088591366
0.883890033 0.226376649 0.091506349
0.930382013 0.247084257 0.096351593
0.974374890 0.269816641 0.102038266
0.009834632 0.171701245 0.130278257
0.031153799 0.172533839 0.130738125
0.070974309 0.177643506 0.129399444
0.131213143 0.186329018 0.125112811
0.213787282 0.197889147 0.116728825
0.304228873 0.201672934 0.107417007
0.389175501 0.205583618 0.102302384
0.468345354 0.208715770 0.099110594
0.541456625 0.210163960 0.095567274
0.610298174 0.216572076 0.092118865
0.674386494 0.223375116 0.089856868
0.734300669 0.230658927 0.087985391
0.790619783 0.238509359 0.085708544
0.841803858 0.250924097 0.084740361
0.890017968 0.265664942 0.087094233
0.934963562 0.282633357 0.092539680
0.976342089 0.301730808 0.100846223
0.007411643 0.235146910 0.150264986
0.022677567 0.235105967 0.149133426
0.053863551 0.238625120 0.146789251
0.110223356 0.248365007 0.140493114
0.201010741 0.266986266 0.127505668
0.311356289 0.281125106 0.106369651
0.406764299 0.284156866 0.095887882
0.489606831 0.281093329 0.091154480
0.562255949 0.276946276 0.087263567
0.627591833 0.279405996 0.084440783
0.688581079 0.282694325 0.082104901
0.745853536 0.286453102 0.080647058
0.800039053 0.290324166 0.080458390
