shared/src/main/assets/luts/dalur_cinema_01.cube
TITLE "DALUR cinema"
LUT_3D_SIZE 5
DOMAIN_MIN 0.0 0.0 0.0
DOMAIN_MAX 1.0 1.0 1.0
0.000000 0.000000 0.000000
0.232226 0.000000 0.000000
0.512940 0.000000 0.000000
0.793655 0.000000 0.000000
1.000000 0.000000 0.000000
0.000000 0.235013 0.000000
0.226954 0.231022 0.000000
0.507668 0.227032 0.000000
0.788383 0.223042 0.000000
1.000000 0.219051 0.000000
0.000000 0.510579 0.000000
0.221682 0.506588 0.000000
0.502397 0.502598 0.000000
0.782626 0.499226 0.000000
1.000000 0.497337 0.000000
0.000000 0.786145 0.000000
0.215946 0.782746 0.000000
0.500522 0.780768 0.000000
0.789004 0.779919 0.000000
1.000000 0.779069 0.000000
0.000000 1.000000 0.000000
0.222018 1.000000 0.000000
0.510500 1.000000 0.000000
0.798982 1.000000 0.000000
1.000000 1.000000 0.000000
0.000000 0.000000 0.242387
0.231202 0.000000 0.238211
0.511917 0.000000 0.234034
0.792631 0.000000 0.229857
1.000000 0.000000 0.225681
0.000000 0.233491 0.234188
0.225930 0.229501 0.230011
0.506645 0.225511 0.225834
0.787359 0.221520 0.221658
1.000000 0.217723 0.217723
0.000000 0.509057 0.225988
0.220658 0.505067 0.221811
0.501243 0.501243 0.217843
0.781384 0.497983 0.214583
1.000000 0.497013 0.206369
0.000000 0.784763 0.217962
0.214703 0.781503 0.214703
0.502460 0.780444 0.206681
0.790942 0.779595 0.198205
1.000000 0.778745 0.189729
0.000000 1.000000 0.206993
0.223955 1.000000 0.198517
0.512437 1.000000 0.190041
0.800919 1.000000 0.181565
1.000000 1.000000 0.173090
0.000000 0.000000 0.524195
0.230178 0.000000 0.520018
0.510893 0.000000 0.515842
0.791607 0.000000 0.511665
1.000000 0.000000 0.507488
0.000000 0.231970 0.515995
0.224906 0.227979 0.511818
0.505621 0.223989 0.507642
0.786335 0.219999 0.503465
1.000000 0.216480 0.499880
0.000000 0.507536 0.507795
0.219634 0.503546 0.503619
0.500000 0.500000 0.500000
0.782903 0.497539 0.495014
1.000000 0.496689 0.486538
0.000000 0.783520 0.500120
0.215916 0.780970 0.495325
0.504398 0.780120 0.486850
0.792880 0.779271 0.478374
1.000000 0.778421 0.469898
0.000000 1.000000 0.487161
0.225893 1.000000 0.478686
0.514375 1.000000 0.470210
0.802857 1.000000 0.461734
1.000000 1.000000 0.453258
0.000000 0.000000 0.806003
0.229154 0.000000 0.801826
0.509869 0.000000 0.797649
0.790584 0.000000 0.793472
1.000000 0.000000 0.789296
0.000000 0.230448 0.797803
0.223882 0.226458 0.793626
0.504597 0.222468 0.789449
0.785297 0.218497 0.785297
1.000000 0.215238 0.782038
0.000000 0.506015 0.789603
0.218610 0.502024 0.785426
0.498757 0.498757 0.782157
0.784840 0.497215 0.775182
1.000000 0.496365 0.766706
0.000000 0.782277 0.782277
0.217853 0.780646 0.775494
0.506335 0.779797 0.767018
0.794817 0.778947 0.758542
1.000000 0.778097 0.750066
0.000000 1.000000 0.767330
0.227830 1.000000 0.758854
0.516312 1.000000 0.750378
0.804794 1.000000 0.741902
1.000000 1.000000 0.733426
0.000000 0.000000 1.000000
0.228130 0.000000 1.000000
0.508845 0.000000 1.000000
0.789560 0.000000 1.000000
1.000000 0.000000 1.000000
0.000000 0.228927 1.000000
0.222858 0.224937 1.000000
0.503573 0.220946 1.000000
0.784054 0.217254 1.000000
1.000000 0.214309 1.000000
0.000000 0.504493 1.000000
0.217374 0.500774 1.000000
0.498296 0.497740 1.000000
0.786778 0.496891 1.000000
1.000000 0.496041 1.000000
0.000000 0.781172 1.000000
0.219791 0.780322 1.000000
0.508273 0.779473 1.000000
0.796755 0.778623 1.000000
1.000000 0.777773 1.000000
0.000000 1.000000 1.000000
0.229768 1.000000 1.000000
0.518250 1.000000 1.000000
0.806732 1.000000 1.000000
1.000000 1.000000 1.000000
