shared/src/main/assets/luts/dalur_mono_01.cube
TITLE "DALUR mono"
LUT_3D_SIZE 5
DOMAIN_MIN 0.0 0.0 0.0
DOMAIN_MAX 1.0 1.0 1.0
0.015000 0.010000 0.005000
0.091245 0.084750 0.077507
0.167490 0.159500 0.150015
0.243735 0.234250 0.222523
0.319980 0.309000 0.295030
0.164685 0.156750 0.147347
0.240930 0.231500 0.219855
0.317175 0.306250 0.292363
0.393420 0.381000 0.364870
0.469665 0.455750 0.437377
0.314370 0.303500 0.289695
0.390615 0.378250 0.362202
0.466860 0.453000 0.434710
0.543105 0.527750 0.507217
0.619350 0.602500 0.579725
0.464055 0.450250 0.432042
0.540300 0.525000 0.504550
0.616545 0.599750 0.577058
0.692790 0.674500 0.649565
0.769035 0.749250 0.722072
0.613740 0.597000 0.574390
0.689985 0.671750 0.646897
0.766230 0.746500 0.719405
0.842475 0.821250 0.791913
0.918720 0.896000 0.864420
0.044070 0.038500 0.032645
0.120315 0.113250 0.105152
0.196560 0.188000 0.177660
0.272805 0.262750 0.250167
0.349050 0.337500 0.322675
0.193755 0.185250 0.174992
0.270000 0.260000 0.247500
0.346245 0.334750 0.320008
0.422490 0.409500 0.392515
0.498735 0.484250 0.465023
0.343440 0.332000 0.317340
0.419685 0.406750 0.389847
0.495930 0.481500 0.462355
0.572175 0.556250 0.534862
0.648420 0.631000 0.607370
0.493125 0.478750 0.459687
0.569370 0.553500 0.532195
0.645615 0.628250 0.604702
0.721860 0.703000 0.677210
0.798105 0.777750 0.749717
0.642810 0.625500 0.602035
0.719055 0.700250 0.674542
0.795300 0.775000 0.747050
0.871545 0.849750 0.819557
0.947790 0.924500 0.892065
0.073140 0.067000 0.060290
0.149385 0.141750 0.132798
0.225630 0.216500 0.205305
0.301875 0.291250 0.277813
0.378120 0.366000 0.350320
0.222825 0.213750 0.202637
0.299070 0.288500 0.275145
0.375315 0.363250 0.347653
0.451560 0.438000 0.420160
0.527805 0.512750 0.492668
0.372510 0.360500 0.344985
0.448755 0.435250 0.417492
0.525000 0.510000 0.490000
0.601245 0.584750 0.562507
0.677490 0.659500 0.635015
0.522195 0.507250 0.487332
0.598440 0.582000 0.559840
0.674685 0.656750 0.632348
0.750930 0.731500 0.704855
0.827175 0.806250 0.777362
0.671880 0.654000 0.629680
0.748125 0.728750 0.702187
0.824370 0.803500 0.774695
0.900615 0.878250 0.847203
0.976860 0.953000 0.919710
0.102210 0.095500 0.087935
0.178455 0.170250 0.160443
0.254700 0.245000 0.232950
0.330945 0.319750 0.305458
0.407190 0.394500 0.377965
0.251895 0.242250 0.230283
0.328140 0.317000 0.302790
0.404385 0.391750 0.375298
0.480630 0.466500 0.447805
0.556875 0.541250 0.520312
0.401580 0.389000 0.372630
0.477825 0.463750 0.445137
0.554070 0.538500 0.517645
0.630315 0.613250 0.590152
0.706560 0.688000 0.662660
0.551265 0.535750 0.514977
0.627510 0.610500 0.587485
0.703755 0.685250 0.659992
0.780000 0.760000 0.732500
0.856245 0.834750 0.805007
0.700950 0.682500 0.657325
0.777195 0.757250 0.729832
0.853440 0.832000 0.802340
0.929685 0.906750 0.874848
1.000000 0.981500 0.947355
0.131280 0.124000 0.115580
0.207525 0.198750 0.188087
0.283770 0.273500 0.260595
0.360015 0.348250 0.333102
0.436260 0.423000 0.405610
0.280965 0.270750 0.257927
0.357210 0.345500 0.330435
0.433455 0.420250 0.402942
0.509700 0.495000 0.475450
0.585945 0.569750 0.547957
0.430650 0.417500 0.400275
0.506895 0.492250 0.472782
0.583140 0.567000 0.545290
0.659385 0.641750 0.617797
0.735630 0.716500 0.690305
0.580335 0.564250 0.542623
0.656580 0.639000 0.615130
0.732825 0.713750 0.687638
0.809070 0.788500 0.760145
0.885315 0.863250 0.832652
0.730020 0.711000 0.684970
0.806265 0.785750 0.757477
0.882510 0.860500 0.829985
0.958755 0.935250 0.902493
1.000000 1.000000 0.975000
