shared/src/main/assets/luts/drama_80s_night.cube
TITLE "DALUR 80s Night"
LUT_3D_SIZE 5
DOMAIN_MIN 0.0 0.0 0.0
DOMAIN_MAX 1.0 1.0 1.0
0.424000 0.428500 0.436000
0.438848 0.436587 0.444087
0.453697 0.444674 0.452174
0.468545 0.452760 0.460260
0.483393 0.460847 0.468347
0.439876 0.451138 0.451876
0.454725 0.459225 0.459963
0.469573 0.467311 0.468050
0.484421 0.475398 0.476137
0.499270 0.483485 0.484223
0.455752 0.473775 0.467752
0.470601 0.481862 0.475839
0.485449 0.489949 0.483926
0.500297 0.498036 0.492013
0.515146 0.506123 0.500100
0.471628 0.496413 0.483628
0.486477 0.504500 0.491715
0.501325 0.512587 0.499802
0.516174 0.520674 0.507889
0.531022 0.528760 0.515976
0.487505 0.519051 0.499505
0.502353 0.527138 0.507591
0.517201 0.535224 0.515678
0.532050 0.543311 0.523765
0.546898 0.551398 0.531852
0.427083 0.431583 0.445845
0.441932 0.439670 0.453932
0.456780 0.447757 0.462018
0.471628 0.455844 0.470105
0.486477 0.463931 0.478192
0.442959 0.454221 0.461721
0.457808 0.462308 0.469808
0.472656 0.470395 0.477895
0.487505 0.478481 0.485981
0.502353 0.486568 0.494068
0.458836 0.476859 0.477597
0.473684 0.484945 0.485684
0.488532 0.493032 0.493771
0.503381 0.501119 0.501858
0.518229 0.509206 0.509944
0.474712 0.499496 0.493473
0.489560 0.507583 0.501560
0.504408 0.515670 0.509647
0.519257 0.523757 0.517734
0.534105 0.531844 0.525820
0.490588 0.522134 0.509349
0.505436 0.530221 0.517436
0.520285 0.538308 0.525523
0.535133 0.546394 0.533610
0.549981 0.554481 0.541697
0.430167 0.434667 0.455690
0.445015 0.442753 0.463776
0.459863 0.450840 0.471863
0.474712 0.458927 0.479950
0.489560 0.467014 0.488037
0.446043 0.457304 0.471566
0.460891 0.465391 0.479653
0.475739 0.473478 0.487739
0.490588 0.481565 0.495826
0.505436 0.489651 0.503913
0.461919 0.479942 0.487442
0.476767 0.488029 0.495529
0.491616 0.496116 0.503616
0.506464 0.504202 0.511702
0.521312 0.512289 0.519789
0.477795 0.502580 0.503318
0.492643 0.510666 0.511405
0.507492 0.518753 0.519492
0.522340 0.526840 0.527578
0.537188 0.534927 0.535665
0.493671 0.525217 0.519194
0.508519 0.533304 0.527281
0.523368 0.541391 0.535368
0.538216 0.549478 0.543455
0.553065 0.557565 0.551541
0.433250 0.437750 0.465534
0.448098 0.445837 0.473621
0.462947 0.453923 0.481708
0.477795 0.462010 0.489795
0.492643 0.470097 0.497882
0.449126 0.460387 0.481411
0.463974 0.468474 0.489497
0.478823 0.476561 0.497584
0.493671 0.484648 0.505671
0.508519 0.492735 0.513758
0.465002 0.483025 0.497287
0.479850 0.491112 0.505374
0.494699 0.499199 0.513460
0.509547 0.507286 0.521547
0.524396 0.515372 0.529634
0.480878 0.505663 0.513163
0.495727 0.513750 0.521250
0.510575 0.521836 0.529336
0.525423 0.529923 0.537423
0.540272 0.538010 0.545510
0.496754 0.528301 0.529039
0.511603 0.536387 0.537126
0.526451 0.544474 0.545213
0.541299 0.552561 0.553299
0.556148 0.560648 0.561386
0.436333 0.440833 0.475379
0.451181 0.448920 0.483466
0.466030 0.457007 0.491553
0.480878 0.465094 0.499640
0.495727 0.473180 0.507727
0.452209 0.463471 0.491255
0.467058 0.471558 0.499342
0.481906 0.479644 0.507429
0.496754 0.487731 0.515516
0.511603 0.495818 0.523603
0.468085 0.486108 0.507132
0.482934 0.494195 0.515218
0.497782 0.502282 0.523305
0.512630 0.510369 0.531392
0.527479 0.518456 0.539479
0.483961 0.508746 0.523008
0.498810 0.516833 0.531094
0.513658 0.524920 0.539181
0.528507 0.533007 0.547268
0.543355 0.541093 0.555355
0.499838 0.531384 0.538884
0.514686 0.539471 0.546971
0.529534 0.547557 0.555057
0.544383 0.555644 0.563144
0.559231 0.563731 0.571231
