shared/src/main/assets/luts/drama_southern_dust.cube
TITLE "DALUR Southern Dust"
LUT_3D_SIZE 9
DOMAIN_MIN 0.0 0.0 0.0
DOMAIN_MAX 1.0 1.0 1.0
0.446000 0.443000 0.434000
0.448301 0.448199 0.439199
0.450602 0.453397 0.444397
0.452903 0.458596 0.449596
0.455203 0.463795 0.454795
0.457504 0.468993 0.459993
0.459805 0.474192 0.465192
0.462106 0.479391 0.470391
0.464407 0.484589 0.475589
0.456206 0.450308 0.444206
0.458507 0.455507 0.449405
0.460808 0.460706 0.454603
0.463109 0.465904 0.459802
0.465410 0.471103 0.465001
0.467710 0.476302 0.470199
0.470011 0.481500 0.475398
0.472312 0.486699 0.480597
0.474613 0.491898 0.485795
0.466412 0.457617 0.454412
0.468713 0.462815 0.459611
0.471014 0.468014 0.464810
0.473315 0.473213 0.470008
0.475616 0.478411 0.475207
0.477916 0.483610 0.480406
0.480217 0.488809 0.485604
0.482518 0.494007 0.490803
0.484819 0.499206 0.496002
0.476618 0.464925 0.464618
0.478919 0.470123 0.469817
0.481220 0.475322 0.475016
0.483521 0.480521 0.480214
0.485822 0.485720 0.485413
0.488123 0.490918 0.490612
0.490423 0.496117 0.495810
0.492724 0.501316 0.501009
0.495025 0.506514 0.506208
0.486824 0.472233 0.474824
0.489125 0.477432 0.480023
0.491426 0.482630 0.485222
0.493727 0.487829 0.490420
0.496028 0.493028 0.495619
0.498329 0.498226 0.500818
0.500629 0.503425 0.506016
0.502930 0.508624 0.511215
0.505231 0.513822 0.516414
0.497030 0.479541 0.485030
0.499331 0.484740 0.490229
0.501632 0.489939 0.495428
0.503933 0.495137 0.500626
0.506234 0.500336 0.505825
0.508535 0.505535 0.511024
0.510836 0.510733 0.516222
0.513136 0.515932 0.521421
0.515437 0.521131 0.526620
0.507236 0.486850 0.495236
0.509537 0.492048 0.500435
0.511838 0.497247 0.505634
0.514139 0.502446 0.510833
0.516440 0.507644 0.516031
0.518741 0.512843 0.521230
0.521042 0.518042 0.526429
0.523343 0.523240 0.531627
0.525643 0.528439 0.536826
0.517443 0.494158 0.505443
0.519743 0.499357 0.510641
0.522044 0.504555 0.515840
0.524345 0.509754 0.521039
0.526646 0.514953 0.526237
0.528947 0.520151 0.531436
0.531248 0.525350 0.536635
0.533549 0.530549 0.541833
0.535849 0.535747 0.547032
0.527649 0.501466 0.515649
0.529950 0.506665 0.520847
0.532250 0.511864 0.526046
0.534551 0.517062 0.531245
0.536852 0.522261 0.536443
0.539153 0.527460 0.541642
0.541454 0.532658 0.546841
0.543755 0.537857 0.552039
0.546056 0.543056 0.557238
0.447982 0.444982 0.433084
0.450283 0.450181 0.438283
0.452584 0.455379 0.443482
0.454885 0.460578 0.448680
0.457186 0.465777 0.453879
0.459486 0.470975 0.459078
0.461787 0.476174 0.464276
0.464088 0.481373 0.469475
0.466389 0.486571 0.474674
0.458188 0.452290 0.443290
0.460489 0.457489 0.448489
0.462790 0.462688 0.453688
0.465091 0.467886 0.458886
0.467392 0.473085 0.464085
0.469692 0.478284 0.469284
0.471993 0.483482 0.474482
0.474294 0.488681 0.479681
0.476595 0.493880 0.484880
0.468394 0.459599 0.453496
0.470695 0.464797 0.458695
0.472996 0.469996 0.463894
0.475297 0.475195 0.469092
0.477598 0.480393 0.474291
0.479899 0.485592 0.479490
0.482199 0.490791 0.484688
0.484500 0.495989 0.489887
0.486801 0.501188 0.495086
0.478600 0.466907 0.463703
0.480901 0.472106 0.468901
0.483202 0.477304 0.474100
0.485503 0.482503 0.479299
0.487804 0.487702 0.484497
0.490105 0.492900 0.489696
0.492406 0.498099 0.494895
0.494706 0.503298 0.500093
0.497007 0.508496 0.505292
0.488806 0.474215 0.473909
0.491107 0.479414 0.479107
0.493408 0.484613 0.484306
0.495709 0.489811 0.489505
0.498010 0.495010 0.494703
0.500311 0.500209 0.499902
0.502612 0.505407 0.505101
0.504912 0.510606 0.510299
0.507213 0.515805 0.515498
0.499013 0.481523 0.484115
0.501313 0.486722 0.489313
0.503614 0.491921 0.494512
0.505915 0.497119 0.499711
0.508216 0.502318 0.504909
0.510517 0.507517 0.510108
0.512818 0.512715 0.515307
0.515119 0.517914 0.520505
0.517419 0.523113 0.525704
0.509219 0.488832 0.494321
0.511519 0.494030 0.499519
0.513820 0.499229 0.504718
0.516121 0.504428 0.509917
0.518422 0.509626 0.515115
0.520723 0.514825 0.520314
0.523024 0.520024 0.525513
0.525325 0.525222 0.530711
0.527625 0.530421 0.535910
0.519425 0.496140 0.504527
0.521726 0.501339 0.509726
0.524026 0.506537 0.514924
0.526327 0.511736 0.520123
0.528628 0.516935 0.525322
0.530929 0.522133 0.530520
0.533230 0.527332 0.535719
0.535531 0.532531 0.540918
0.537832 0.537729 0.546116
0.529631 0.503448 0.514733
0.531932 0.508647 0.519932
0.534232 0.513846 0.525130
0.536533 0.519044 0.530329
0.538834 0.524243 0.535528
0.541135 0.529442 0.540726
0.543436 0.534640 0.545925
0.545737 0.539839 0.551124
0.548038 0.545038 0.556322
0.449964 0.446964 0.432169
0.452265 0.452163 0.437367
0.454566 0.457362 0.442566
0.456867 0.462560 0.447765
0.459168 0.467759 0.452963
0.461469 0.472958 0.458162
0.463769 0.478156 0.463361
0.466070 0.483355 0.468559
0.468371 0.488554 0.473758
0.460170 0.454272 0.442375
0.462471 0.459471 0.447573
0.464772 0.464670 0.452772
0.467073 0.469868 0.457971
0.469374 0.475067 0.463169
0.471675 0.480266 0.468368
0.473975 0.485464 0.473567
0.476276 0.490663 0.478765
0.478577 0.495862 0.483964
0.470376 0.461581 0.452581
0.472677 0.466779 0.457779
0.474978 0.471978 0.462978
0.477279 0.477177 0.468177
0.479580 0.482375 0.473375
0.481881 0.487574 0.478574
0.484182 0.492773 0.483773
0.486482 0.497971 0.488971
0.488783 0.503170 0.494170
0.480582 0.468889 0.462787
0.482883 0.474088 0.467986
0.485184 0.479286 0.473184
0.487485 0.484485 0.478383
0.489786 0.489684 0.483582
0.492087 0.494882 0.488780
0.494388 0.500081 0.493979
0.496688 0.505280 0.499178
0.498989 0.510478 0.504376
0.490789 0.476197 0.472993
0.493089 0.481396 0.478192
0.495390 0.486595 0.483390
0.497691 0.491793 0.488589
0.499992 0.496992 0.493788
0.502293 0.502191 0.498986
0.504594 0.507389 0.504185
0.506895 0.512588 0.509384
0.509195 0.517787 0.514582
0.500995 0.483506 0.483199
0.503295 0.488704 0.488398
0.505596 0.493903 0.493596
0.507897 0.499102 0.498795
0.510198 0.504300 0.503994
0.512499 0.509499 0.509192
0.514800 0.514698 0.514391
0.517101 0.519896 0.519590
0.519402 0.525095 0.524788
0.511201 0.490814 0.493405
0.513502 0.496013 0.498604
0.515802 0.501211 0.503802
0.518103 0.506410 0.509001
0.520404 0.511609 0.514200
0.522705 0.516807 0.519398
0.525006 0.522006 0.524597
0.527307 0.527205 0.529796
0.529608 0.532403 0.534994
0.521407 0.498122 0.503611
0.523708 0.503321 0.508810
0.526009 0.508519 0.514009
0.528309 0.513718 0.519207
0.530610 0.518917 0.524406
0.532911 0.524115 0.529605
0.535212 0.529314 0.534803
0.537513 0.534513 0.540002
0.539814 0.539711 0.545201
0.531613 0.505430 0.513817
0.533914 0.510629 0.519016
0.536215 0.515828 0.524215
0.538515 0.521026 0.529413
0.540816 0.526225 0.534612
0.543117 0.531424 0.539811
0.545418 0.536622 0.545009
0.547719 0.541821 0.550208
0.550020 0.547020 0.555407
0.451946 0.448946 0.431253
0.454247 0.454145 0.436452
0.456548 0.459344 0.441650
0.458849 0.464542 0.446849
0.461150 0.469741 0.452048
0.463451 0.474940 0.457246
0.465751 0.480138 0.462445
0.468052 0.485337 0.467644
0.470353 0.490536 0.472842
0.462152 0.456255 0.441459
0.464453 0.461453 0.446658
0.466754 0.466652 0.451856
0.469055 0.471851 0.457055
0.471356 0.477049 0.462254
0.473657 0.482248 0.467452
0.475958 0.487447 0.472651
0.478258 0.492645 0.477850
0.480559 0.497844 0.483048
0.472358 0.463563 0.451665
0.474659 0.468762 0.456864
0.476960 0.473960 0.462062
0.479261 0.479159 0.467261
0.481562 0.484358 0.472460
0.483863 0.489556 0.477658
0.486164 0.494755 0.482857
0.488464 0.499954 0.488056
0.490765 0.505152 0.493254
0.482565 0.470871 0.461871
0.484865 0.476070 0.467070
0.487166 0.481268 0.472268
0.489467 0.486467 0.477467
0.491768 0.491666 0.482666
0.494069 0.496864 0.487864
0.496370 0.502063 0.493063
0.498671 0.507262 0.498262
0.500971 0.512460 0.503460
0.492771 0.478179 0.472077
0.495071 0.483378 0.477276
0.497372 0.488577 0.482475
0.499673 0.493775 0.487673
0.501974 0.498974 0.492872
0.504275 0.504173 0.498071
0.506576 0.509371 0.503269
0.508877 0.514570 0.508468
0.511178 0.519769 0.513667
0.502977 0.485488 0.482283
0.505278 0.490686 0.487482
0.507578 0.495885 0.492681
0.509879 0.501084 0.497879
0.512180 0.506282 0.503078
0.514481 0.511481 0.508277
0.516782 0.516680 0.513475
0.519083 0.521878 0.518674
0.521384 0.527077 0.523873
0.513183 0.492796 0.492489
0.515484 0.497995 0.497688
0.517785 0.503193 0.502887
0.520085 0.508392 0.508085
0.522386 0.513591 0.513284
0.524687 0.518789 0.518483
0.526988 0.523988 0.523681
0.529289 0.529187 0.528880
0.531590 0.534385 0.534079
0.523389 0.500104 0.502695
0.525690 0.505303 0.507894
0.527991 0.510502 0.513093
0.530291 0.515700 0.518291
0.532592 0.520899 0.523490
0.534893 0.526098 0.528689
0.537194 0.531296 0.533887
0.539495 0.536495 0.539086
0.541796 0.541694 0.544285
0.533595 0.507412 0.512902
0.535896 0.512611 0.518100
0.538197 0.517810 0.523299
0.540498 0.523009 0.528498
0.542798 0.528207 0.533696
0.545099 0.533406 0.538895
0.547400 0.538605 0.544094
0.549701 0.543803 0.549292
0.552002 0.549002 0.554491
0.453928 0.450928 0.430337
0.456229 0.456127 0.435536
0.458530 0.461326 0.440735
0.460831 0.466524 0.445933
0.463132 0.471723 0.451132
0.465433 0.476922 0.456331
0.467734 0.482120 0.461529
0.470034 0.487319 0.466728
0.472335 0.492518 0.471927
0.464134 0.458237 0.440543
0.466435 0.463435 0.445742
0.468736 0.468634 0.450941
0.471037 0.473833 0.456139
0.473338 0.479031 0.461338
0.475639 0.484230 0.466537
0.477940 0.489429 0.471735
0.480241 0.494627 0.476934
0.482541 0.499826 0.482133
0.474341 0.465545 0.450749
0.476641 0.470744 0.455948
0.478942 0.475942 0.461147
0.481243 0.481141 0.466345
0.483544 0.486340 0.471544
0.485845 0.491538 0.476743
0.488146 0.496737 0.481941
0.490447 0.501936 0.487140
0.492747 0.507134 0.492339
0.484547 0.472853 0.460955
0.486848 0.478052 0.466154
0.489148 0.483251 0.471353
0.491449 0.488449 0.476551
0.493750 0.493648 0.481750
0.496051 0.498847 0.486949
0.498352 0.504045 0.492147
0.500653 0.509244 0.497346
0.502954 0.514443 0.502545
0.494753 0.480162 0.471162
0.497054 0.485360 0.476360
0.499354 0.490559 0.481559
0.501655 0.495758 0.486758
0.503956 0.500956 0.491956
0.506257 0.506155 0.497155
0.508558 0.511354 0.502354
0.510859 0.516552 0.507552
0.513160 0.521751 0.512751
0.504959 0.487470 0.481368
0.507260 0.492668 0.486566
0.509561 0.497867 0.491765
0.511861 0.503066 0.496964
0.514162 0.508264 0.502162
0.516463 0.513463 0.507361
0.518764 0.518662 0.512560
0.521065 0.523860 0.517758
0.523366 0.529059 0.522957
0.515165 0.494778 0.491574
0.517466 0.499977 0.496772
0.519767 0.505175 0.501971
0.522067 0.510374 0.507170
0.524368 0.515573 0.512368
0.526669 0.520771 0.517567
0.528970 0.525970 0.522766
0.531271 0.531169 0.527964
0.533572 0.536367 0.533163
0.525371 0.502086 0.501780
0.527672 0.507285 0.506978
0.529973 0.512484 0.512177
0.532274 0.517682 0.517376
0.534574 0.522881 0.522574
0.536875 0.528080 0.527773
0.539176 0.533278 0.532972
0.541477 0.538477 0.538170
0.543778 0.543676 0.543369
0.535577 0.509395 0.511986
0.537878 0.514593 0.517185
0.540179 0.519792 0.522383
0.542480 0.524991 0.527582
0.544781 0.530189 0.532781
0.547081 0.535388 0.537979
0.549382 0.540587 0.543178
0.551683 0.545785 0.548377
0.553984 0.550984 0.553575
0.455911 0.452911 0.429421
0.458211 0.458109 0.434620
0.460512 0.463308 0.439819
0.462813 0.468507 0.445017
0.465114 0.473705 0.450216
0.467415 0.478904 0.455415
0.469716 0.484103 0.460613
0.472017 0.489301 0.465812
0.474317 0.494500 0.471011
0.466117 0.460219 0.439628
0.468417 0.465417 0.444826
0.470718 0.470616 0.450025
0.473019 0.475815 0.455224
0.475320 0.481013 0.460422
0.477621 0.486212 0.465621
0.479922 0.491411 0.470820
0.482223 0.496609 0.476018
0.484523 0.501808 0.481217
0.476323 0.467527 0.449834
0.478624 0.472726 0.455032
0.480924 0.477924 0.460231
0.483225 0.483123 0.465430
0.485526 0.488322 0.470628
0.487827 0.493520 0.475827
0.490128 0.498719 0.481026
0.492429 0.503918 0.486224
0.494730 0.509116 0.491423
0.486529 0.474835 0.460040
0.488830 0.480034 0.465238
0.491130 0.485233 0.470437
0.493431 0.490431 0.475636
0.495732 0.495630 0.480834
0.498033 0.500829 0.486033
0.500334 0.506027 0.491232
0.502635 0.511226 0.496430
0.504936 0.516425 0.501629
0.496735 0.482144 0.470246
0.499036 0.487342 0.475444
0.501337 0.492541 0.480643
0.503637 0.497740 0.485842
0.505938 0.502938 0.491040
0.508239 0.508137 0.496239
0.510540 0.513336 0.501438
0.512841 0.518534 0.506636
0.515142 0.523733 0.511835
0.506941 0.489452 0.480452
0.509242 0.494651 0.485651
0.511543 0.499849 0.490849
0.513844 0.505048 0.496048
0.516144 0.510247 0.501247
0.518445 0.515445 0.506445
0.520746 0.520644 0.511644
0.523047 0.525843 0.516843
0.525348 0.531041 0.522041
0.517147 0.496760 0.490658
0.519448 0.501959 0.495857
0.521749 0.507157 0.501055
0.524050 0.512356 0.506254
0.526350 0.517555 0.511453
0.528651 0.522753 0.516651
0.530952 0.527952 0.521850
0.533253 0.533151 0.527049
0.535554 0.538350 0.532247
0.527353 0.504068 0.500864
0.529654 0.509267 0.506063
0.531955 0.514466 0.511261
0.534256 0.519664 0.516460
0.536557 0.524863 0.521659
0.538857 0.530062 0.526857
0.541158 0.535260 0.532056
0.543459 0.540459 0.537255
0.545760 0.545658 0.542453
0.537559 0.511377 0.511070
0.539860 0.516575 0.516269
0.542161 0.521774 0.521467
0.544462 0.526973 0.526666
0.546763 0.532171 0.531865
0.549063 0.537370 0.537063
0.551364 0.542569 0.542262
0.553665 0.547767 0.547461
0.555966 0.552966 0.552659
0.457893 0.454893 0.428506
0.460193 0.460091 0.433704
0.462494 0.465290 0.438903
0.464795 0.470489 0.444102
0.467096 0.475687 0.449300
0.469397 0.480886 0.454499
0.471698 0.486085 0.459698
0.473999 0.491283 0.464896
0.476299 0.496482 0.470095
0.468099 0.462201 0.438712
0.470400 0.467400 0.443911
0.472700 0.472598 0.449109
0.475001 0.477797 0.454308
0.477302 0.482996 0.459507
0.479603 0.488194 0.464705
0.481904 0.493393 0.469904
0.484205 0.498592 0.475103
0.486506 0.503790 0.480301
0.478305 0.469509 0.448918
0.480606 0.474708 0.454117
0.482906 0.479906 0.459315
0.485207 0.485105 0.464514
0.487508 0.490304 0.469713
0.489809 0.495503 0.474911
0.492110 0.500701 0.480110
0.494411 0.505900 0.485309
0.496712 0.511099 0.490507
0.488511 0.476817 0.459124
0.490812 0.482016 0.464323
0.493113 0.487215 0.469521
0.495413 0.492413 0.474720
0.497714 0.497612 0.479919
0.500015 0.502811 0.485117
0.502316 0.508009 0.490316
0.504617 0.513208 0.495515
0.506918 0.518407 0.500713
0.498717 0.484126 0.469330
0.501018 0.489324 0.474529
0.503319 0.494523 0.479727
0.505620 0.499722 0.484926
0.507920 0.504920 0.490125
0.510221 0.510119 0.495323
0.512522 0.515318 0.500522
0.514823 0.520516 0.505721
0.517124 0.525715 0.510919
0.508923 0.491434 0.479536
0.511224 0.496633 0.484735
0.513525 0.501831 0.489934
0.515826 0.507030 0.495132
0.518126 0.512229 0.500331
0.520427 0.517427 0.505530
0.522728 0.522626 0.510728
0.525029 0.527825 0.515927
0.527330 0.533023 0.521126
0.519129 0.498742 0.489742
0.521430 0.503941 0.494941
0.523731 0.509140 0.500140
0.526032 0.514338 0.505338
0.528333 0.519537 0.510537
0.530633 0.524736 0.515736
0.532934 0.529934 0.520934
0.535235 0.535133 0.526133
0.537536 0.540332 0.531332
0.529335 0.506051 0.499948
0.531636 0.511249 0.505147
0.533937 0.516448 0.510346
0.536238 0.521647 0.515544
0.538539 0.526845 0.520743
0.540839 0.532044 0.525942
0.543140 0.537243 0.531140
0.545441 0.542441 0.536339
0.547742 0.547640 0.541538
0.539541 0.513359 0.510154
0.541842 0.518557 0.515353
0.544143 0.523756 0.520552
0.546444 0.528955 0.525750
0.548745 0.534153 0.530949
0.551046 0.539352 0.536148
0.553346 0.544551 0.541346
0.555647 0.549749 0.546545
0.557948 0.554948 0.551744
0.459875 0.456875 0.427590
0.462176 0.462073 0.432789
0.464476 0.467272 0.437987
0.466777 0.472471 0.443186
0.469078 0.477669 0.448385
0.471379 0.482868 0.453583
0.473680 0.488067 0.458782
0.475981 0.493265 0.463981
0.478282 0.498464 0.469179
0.470081 0.464183 0.437796
0.472382 0.469382 0.442995
0.474683 0.474580 0.448193
0.476983 0.479779 0.453392
0.479284 0.484978 0.458591
0.481585 0.490176 0.463789
0.483886 0.495375 0.468988
0.486187 0.500574 0.474187
0.488488 0.505772 0.479385
0.480287 0.471491 0.448002
0.482588 0.476690 0.453201
0.484889 0.481889 0.458400
0.487189 0.487087 0.463598
0.489490 0.492286 0.468797
0.491791 0.497485 0.473996
0.494092 0.502683 0.479194
0.496393 0.507882 0.484393
0.498694 0.513081 0.489592
0.490493 0.478800 0.458208
0.492794 0.483998 0.463407
0.495095 0.489197 0.468606
0.497396 0.494396 0.473804
0.499696 0.499594 0.479003
0.501997 0.504793 0.484202
0.504298 0.509992 0.489400
0.506599 0.515190 0.494599
0.508900 0.520389 0.499798
0.500699 0.486108 0.468414
0.503000 0.491306 0.473613
0.505301 0.496505 0.478812
0.507602 0.501704 0.484010
0.509902 0.506902 0.489209
0.512203 0.512101 0.494408
0.514504 0.517300 0.499606
0.516805 0.522498 0.504805
0.519106 0.527697 0.510004
0.510905 0.493416 0.478620
0.513206 0.498615 0.483819
0.515507 0.503813 0.489018
0.517808 0.509012 0.494216
0.520109 0.514211 0.499415
0.522409 0.519409 0.504614
0.524710 0.524608 0.509812
0.527011 0.529807 0.515011
0.529312 0.535005 0.520210
0.521111 0.500724 0.488827
0.523412 0.505923 0.494025
0.525713 0.511122 0.499224
0.528014 0.516320 0.504423
0.530315 0.521519 0.509621
0.532616 0.526718 0.514820
0.534916 0.531916 0.520019
0.537217 0.537115 0.525217
0.539518 0.542314 0.530416
0.531317 0.508033 0.499033
0.533618 0.513231 0.504231
0.535919 0.518430 0.509430
0.538220 0.523629 0.514629
0.540521 0.528827 0.519827
0.542822 0.534026 0.525026
0.545122 0.539225 0.530225
0.547423 0.544423 0.535423
0.549724 0.549622 0.540622
0.541523 0.515341 0.509239
0.543824 0.520540 0.514437
0.546125 0.525738 0.519636
0.548426 0.530937 0.524835
0.550727 0.536136 0.530033
0.553028 0.541334 0.535232
0.555329 0.546533 0.540431
0.557629 0.551732 0.545629
0.559930 0.556930 0.550828
0.461857 0.458857 0.426674
0.464158 0.464055 0.431873
0.466459 0.469254 0.437072
0.468759 0.474453 0.442270
0.471060 0.479651 0.447469
0.473361 0.484850 0.452668
0.475662 0.490049 0.457866
0.477963 0.495247 0.463065
0.480264 0.500446 0.468264
0.472063 0.466165 0.436880
0.474364 0.471364 0.442079
0.476665 0.476562 0.447278
0.478965 0.481761 0.452476
0.481266 0.486960 0.457675
0.483567 0.492158 0.462874
0.485868 0.497357 0.468072
0.488169 0.502556 0.473271
0.490470 0.507754 0.478470
0.482269 0.473473 0.447087
0.484570 0.478672 0.452285
0.486871 0.483871 0.457484
0.489172 0.489069 0.462683
0.491472 0.494268 0.467881
0.493773 0.499467 0.473080
0.496074 0.504665 0.478279
0.498375 0.509864 0.483477
0.500676 0.515063 0.488676
0.492475 0.480782 0.457293
0.494776 0.485980 0.462491
0.497077 0.491179 0.467690
0.499378 0.496378 0.472889
0.501679 0.501576 0.478087
0.503979 0.506775 0.483286
0.506280 0.511974 0.488485
0.508581 0.517172 0.493683
0.510882 0.522371 0.498882
0.502681 0.488090 0.467499
0.504982 0.493289 0.472697
0.507283 0.498487 0.477896
0.509584 0.503686 0.483095
0.511885 0.508885 0.488293
0.514185 0.514083 0.493492
0.516486 0.519282 0.498691
0.518787 0.524481 0.503889
0.521088 0.529679 0.509088
0.512887 0.495398 0.477705
0.515188 0.500597 0.482903
0.517489 0.505796 0.488102
0.519790 0.510994 0.493301
0.522091 0.516193 0.498499
0.524392 0.521392 0.503698
0.526692 0.526590 0.508897
0.528993 0.531789 0.514095
0.531294 0.536988 0.519294
0.523093 0.502706 0.487911
0.525394 0.507905 0.493110
0.527695 0.513104 0.498308
0.529996 0.518302 0.503507
0.532297 0.523501 0.508706
0.534598 0.528700 0.513904
0.536898 0.533898 0.519103
0.539199 0.539097 0.524302
0.541500 0.544296 0.529500
0.533299 0.510015 0.498117
0.535600 0.515213 0.503316
0.537901 0.520412 0.508514
0.540202 0.525611 0.513713
0.542503 0.530809 0.518912
0.544804 0.536008 0.524110
0.547105 0.541207 0.529309
0.549405 0.546405 0.534508
0.551706 0.551604 0.539706
0.543505 0.517323 0.508323
0.545806 0.522522 0.513522
0.548107 0.527720 0.518720
0.550408 0.532919 0.523919
0.552709 0.538118 0.529118
0.555010 0.543316 0.534316
0.557311 0.548515 0.539515
0.559611 0.553714 0.544714
0.561912 0.558912 0.549912
