shared/src/main/assets/luts/drama_sterile_office.cube
TITLE "DALUR Sterile Office"
LUT_3D_SIZE 5
DOMAIN_MIN 0.0 0.0 0.0
DOMAIN_MAX 1.0 1.0 1.0
0.485200 0.491000 0.494800
0.486225 0.492817 0.496617
0.487249 0.494635 0.498435
0.488274 0.496452 0.500252
0.489298 0.498269 0.502069
0.488768 0.493775 0.498368
0.489792 0.495592 0.500185
0.490817 0.497409 0.502002
0.491841 0.499227 0.503820
0.492866 0.501044 0.505637
0.492335 0.496550 0.501935
0.493360 0.498367 0.503753
0.494384 0.500184 0.505570
0.495409 0.502002 0.507387
0.496433 0.503819 0.509205
0.495903 0.499325 0.505503
0.496928 0.501142 0.507320
0.497952 0.502959 0.509138
0.498977 0.504777 0.510955
0.500001 0.506594 0.512772
0.499471 0.502100 0.509071
0.500495 0.503917 0.510888
0.501520 0.505734 0.512705
0.502544 0.507552 0.514523
0.503569 0.509369 0.516340
0.485893 0.491693 0.494700
0.486917 0.493510 0.496517
0.487942 0.495327 0.498335
0.488966 0.497145 0.500152
0.489991 0.498962 0.501969
0.489461 0.494468 0.498268
0.490485 0.496285 0.500085
0.491510 0.498102 0.501902
0.492534 0.499920 0.503720
0.493559 0.501737 0.505537
0.493028 0.497243 0.501836
0.494053 0.499060 0.503653
0.495077 0.500877 0.505470
0.496102 0.502695 0.507287
0.497126 0.504512 0.509105
0.496596 0.500018 0.505403
0.497620 0.501835 0.507220
0.498645 0.503652 0.509038
0.499670 0.505470 0.510855
0.500694 0.507287 0.512672
0.500164 0.502793 0.508971
0.501188 0.504610 0.510788
0.502213 0.506427 0.512605
0.503237 0.508244 0.514423
0.504262 0.510062 0.516240
0.486586 0.492386 0.494600
0.487610 0.494203 0.496418
0.488635 0.496020 0.498235
0.489659 0.497838 0.500052
0.490684 0.499655 0.501869
0.490153 0.495161 0.498168
0.491178 0.496978 0.499985
0.492202 0.498795 0.501802
0.493227 0.500613 0.503620
0.494252 0.502430 0.505437
0.493721 0.497936 0.501736
0.494746 0.499753 0.503553
0.495770 0.501570 0.505370
0.496795 0.503387 0.507187
0.497819 0.505205 0.509005
0.497289 0.500711 0.505303
0.498313 0.502528 0.507121
0.499338 0.504345 0.508938
0.500362 0.506162 0.510755
0.501387 0.507980 0.512572
0.500857 0.503485 0.508871
0.501881 0.505303 0.510688
0.502906 0.507120 0.512506
0.503930 0.508937 0.514323
0.504955 0.510755 0.516140
0.487279 0.493079 0.494500
0.488303 0.494896 0.496318
0.489328 0.496713 0.498135
0.490352 0.498530 0.499952
0.491377 0.500348 0.501769
0.490846 0.495854 0.498068
0.491871 0.497671 0.499885
0.492895 0.499488 0.501703
0.493920 0.501305 0.503520
0.494944 0.503123 0.505337
0.494414 0.498628 0.501636
0.495439 0.500446 0.503453
0.496463 0.502263 0.505270
0.497488 0.504080 0.507088
0.498512 0.505898 0.508905
0.497982 0.501403 0.505203
0.499006 0.503221 0.507021
0.500031 0.505038 0.508838
0.501055 0.506855 0.510655
0.502080 0.508673 0.512473
0.501549 0.504178 0.508771
0.502574 0.505996 0.510588
0.503598 0.507813 0.512406
0.504623 0.509630 0.514223
0.505647 0.511447 0.516040
0.487972 0.493772 0.494400
0.488996 0.495589 0.496218
0.490021 0.497406 0.498035
0.491045 0.499223 0.499852
0.492070 0.501041 0.501670
0.491539 0.496546 0.497968
0.492564 0.498364 0.499785
0.493588 0.500181 0.501603
0.494613 0.501998 0.503420
0.495637 0.503816 0.505237
0.495107 0.499321 0.501536
0.496131 0.501139 0.503353
0.497156 0.502956 0.505170
0.498180 0.504773 0.506988
0.499205 0.506590 0.508805
0.498675 0.502096 0.505104
0.499699 0.503914 0.506921
0.500724 0.505731 0.508738
0.501748 0.507548 0.510555
0.502773 0.509365 0.512373
0.502242 0.504871 0.508671
0.503267 0.506689 0.510489
0.504291 0.508506 0.512306
0.505316 0.510323 0.514123
0.506340 0.512140 0.515940
