shared/src/main/assets/luts/drama_tropical_grit.cube
TITLE "DALUR Tropical Grit"
LUT_3D_SIZE 9
DOMAIN_MIN 0.0 0.0 0.0
DOMAIN_MAX 1.0 1.0 1.0
0.449000 0.442500 0.431000
0.455147 0.446365 0.434865
0.461294 0.450231 0.438731
0.467441 0.454096 0.442596
0.473588 0.457962 0.446462
0.479734 0.461827 0.450327
0.485881 0.465693 0.454193
0.492028 0.469558 0.458058
0.498175 0.473424 0.461924
0.456589 0.452370 0.438589
0.462736 0.456236 0.442454
0.468882 0.460101 0.446320
0.475029 0.463967 0.450185
0.481176 0.467832 0.454051
0.487323 0.471697 0.457916
0.493470 0.475563 0.461782
0.499617 0.479428 0.465647
0.505764 0.483294 0.469512
0.464177 0.462240 0.446177
0.470324 0.466106 0.450043
0.476471 0.469971 0.453908
0.482618 0.473837 0.457774
0.488765 0.477702 0.461639
0.494912 0.481568 0.465505
0.501059 0.485433 0.469370
0.507206 0.489299 0.473236
0.513352 0.493164 0.477101
0.471766 0.472110 0.453766
0.477913 0.475976 0.457632
0.484060 0.479841 0.461497
0.490207 0.483707 0.465363
0.496354 0.487572 0.469228
0.502501 0.491438 0.473094
0.508647 0.495303 0.476959
0.514794 0.499169 0.480824
0.520941 0.503034 0.484690
0.479355 0.481981 0.461355
0.485502 0.485846 0.465220
0.491649 0.489711 0.469086
0.497796 0.493577 0.472951
0.503942 0.497442 0.476817
0.510089 0.501308 0.480682
0.516236 0.505173 0.484548
0.522383 0.509039 0.488413
0.528530 0.512904 0.492279
0.486944 0.491851 0.468944
0.493091 0.495716 0.472809
0.499237 0.499582 0.476675
0.505384 0.503447 0.480540
0.511531 0.507313 0.484405
0.517678 0.511178 0.488271
0.523825 0.515043 0.492136
0.529972 0.518909 0.496002
0.536119 0.522774 0.499867
0.494532 0.501721 0.476532
0.500679 0.505586 0.480398
0.506826 0.509452 0.484263
0.512973 0.513317 0.488129
0.519120 0.517183 0.491994
0.525267 0.521048 0.495860
0.531414 0.524914 0.499725
0.537560 0.528779 0.503591
0.543707 0.532645 0.507456
0.502121 0.511591 0.484121
0.508268 0.515456 0.487987
0.514415 0.519322 0.491852
0.520562 0.523187 0.495717
0.526709 0.527053 0.499583
0.532855 0.530918 0.503448
0.539002 0.534784 0.507314
0.545149 0.538649 0.511179
0.551296 0.542515 0.515045
0.509710 0.521461 0.491710
0.515857 0.525327 0.495575
0.522004 0.529192 0.499441
0.528150 0.533057 0.503306
0.534297 0.536923 0.507172
0.540444 0.540788 0.511037
0.546591 0.544654 0.514903
0.552738 0.548519 0.518768
0.558885 0.552385 0.522634
0.450474 0.443974 0.434755
0.456621 0.447839 0.438621
0.462768 0.451705 0.442486
0.468914 0.455570 0.446352
0.475061 0.459436 0.450217
0.481208 0.463301 0.454083
0.487355 0.467167 0.457948
0.493502 0.471032 0.461813
0.499649 0.474898 0.465679
0.458063 0.453844 0.442344
0.464209 0.457709 0.446209
0.470356 0.461575 0.450075
0.476503 0.465440 0.453940
0.482650 0.469306 0.457806
0.488797 0.473171 0.461671
0.494944 0.477037 0.465537
0.501091 0.480902 0.469402
0.507238 0.484768 0.473268
0.465651 0.463714 0.449933
0.471798 0.467580 0.453798
0.477945 0.471445 0.457664
0.484092 0.475310 0.461529
0.490239 0.479176 0.465395
0.496386 0.483041 0.469260
0.502532 0.486907 0.473125
0.508679 0.490772 0.476991
0.514826 0.494638 0.480856
0.473240 0.473584 0.457521
0.479387 0.477450 0.461387
0.485534 0.481315 0.465252
0.491681 0.485181 0.469118
0.497827 0.489046 0.472983
0.503974 0.492912 0.476849
0.510121 0.496777 0.480714
0.516268 0.500642 0.484580
0.522415 0.504508 0.488445
0.480829 0.483454 0.465110
0.486976 0.487320 0.468976
0.493122 0.491185 0.472841
0.499269 0.495051 0.476707
0.505416 0.498916 0.480572
0.511563 0.502782 0.484437
0.517710 0.506647 0.488303
0.523857 0.510513 0.492168
0.530004 0.514378 0.496034
0.488417 0.493324 0.472699
0.494564 0.497190 0.476564
0.500711 0.501055 0.480430
0.506858 0.504921 0.484295
0.513005 0.508786 0.488161
0.519152 0.512652 0.492026
0.525299 0.516517 0.495892
0.531446 0.520383 0.499757
0.537592 0.524248 0.503623
0.496006 0.503195 0.480288
0.502153 0.507060 0.484153
0.508300 0.510926 0.488018
0.514447 0.514791 0.491884
0.520594 0.518656 0.495749
0.526741 0.522522 0.499615
0.532887 0.526387 0.503480
0.539034 0.530253 0.507346
0.545181 0.534118 0.511211
0.503595 0.513065 0.487876
0.509742 0.516930 0.491742
0.515889 0.520796 0.495607
0.522036 0.524661 0.499473
0.528182 0.528527 0.503338
0.534329 0.532392 0.507204
0.540476 0.536258 0.511069
0.546623 0.540123 0.514935
0.552770 0.543988 0.518800
0.511184 0.522935 0.495465
0.517330 0.526800 0.499330
0.523477 0.530666 0.503196
0.529624 0.534531 0.507061
0.535771 0.538397 0.510927
0.541918 0.542262 0.514792
0.548065 0.546128 0.518658
0.554212 0.549993 0.522523
0.560359 0.553859 0.526389
0.451948 0.445448 0.438510
0.458094 0.449313 0.442376
0.464241 0.453179 0.446241
0.470388 0.457044 0.450107
0.476535 0.460909 0.453972
0.482682 0.464775 0.457838
0.488829 0.468640 0.461703
0.494976 0.472506 0.465569
0.501123 0.476371 0.469434
0.459536 0.455318 0.446099
0.465683 0.459183 0.449965
0.471830 0.463049 0.453830
0.477977 0.466914 0.457696
0.484124 0.470780 0.461561
0.490271 0.474645 0.465426
0.496418 0.478511 0.469292
0.502564 0.482376 0.473157
0.508711 0.486241 0.477023
0.467125 0.465188 0.453688
0.473272 0.469053 0.457553
0.479419 0.472919 0.461419
0.485566 0.476784 0.465284
0.491713 0.480650 0.469150
0.497859 0.484515 0.473015
0.504006 0.488381 0.476881
0.510153 0.492246 0.480746
0.516300 0.496112 0.484612
0.474714 0.475058 0.461277
0.480861 0.478923 0.465142
0.487008 0.482789 0.469008
0.493154 0.486654 0.472873
0.499301 0.490520 0.476738
0.505448 0.494385 0.480604
0.511595 0.498251 0.484469
0.517742 0.502116 0.488335
0.523889 0.505982 0.492200
0.482302 0.484928 0.468865
0.488449 0.488794 0.472731
0.494596 0.492659 0.476596
0.500743 0.496525 0.480462
0.506890 0.500390 0.484327
0.513037 0.504255 0.488193
0.519184 0.508121 0.492058
0.525331 0.511986 0.495924
0.531477 0.515852 0.499789
0.489891 0.494798 0.476454
0.496038 0.498664 0.480319
0.502185 0.502529 0.484185
0.508332 0.506395 0.488050
0.514479 0.510260 0.491916
0.520626 0.514126 0.495781
0.526772 0.517991 0.499647
0.532919 0.521857 0.503512
0.539066 0.525722 0.507378
0.497480 0.504668 0.484043
0.503627 0.508534 0.487908
0.509774 0.512399 0.491774
0.515921 0.516265 0.495639
0.522067 0.520130 0.499505
0.528214 0.523996 0.503370
0.534361 0.527861 0.507236
0.540508 0.531727 0.511101
0.546655 0.535592 0.514966
0.505069 0.514539 0.491631
0.511216 0.518404 0.495497
0.517362 0.522269 0.499362
0.523509 0.526135 0.503228
0.529656 0.530000 0.507093
0.535803 0.533866 0.510959
0.541950 0.537731 0.514824
0.548097 0.541597 0.518690
0.554244 0.545462 0.522555
0.512657 0.524409 0.499220
0.518804 0.528274 0.503086
0.524951 0.532140 0.506951
0.531098 0.536005 0.510817
0.537245 0.539871 0.514682
0.543392 0.543736 0.518548
0.549539 0.547601 0.522413
0.555686 0.551467 0.526278
0.561832 0.555332 0.530144
0.453421 0.446921 0.442266
0.459568 0.450787 0.446131
0.465715 0.454652 0.449997
0.471862 0.458518 0.453862
0.478009 0.462383 0.457727
0.484156 0.466249 0.461593
0.490303 0.470114 0.465458
0.496450 0.473980 0.469324
0.502596 0.477845 0.473189
0.461010 0.456792 0.449854
0.467157 0.460657 0.453720
0.473304 0.464522 0.457585
0.479451 0.468388 0.461451
0.485598 0.472253 0.465316
0.491744 0.476119 0.469182
0.497891 0.479984 0.473047
0.504038 0.483850 0.476913
0.510185 0.487715 0.480778
0.468599 0.466662 0.457443
0.474746 0.470527 0.461309
0.480893 0.474393 0.465174
0.487039 0.478258 0.469039
0.493186 0.482124 0.472905
0.499333 0.485989 0.476770
0.505480 0.489854 0.480636
0.511627 0.493720 0.484501
0.517774 0.497585 0.488367
0.476188 0.476532 0.465032
0.482334 0.480397 0.468897
0.488481 0.484263 0.472763
0.494628 0.488128 0.476628
0.500775 0.491994 0.480494
0.506922 0.495859 0.484359
0.513069 0.499725 0.488225
0.519216 0.503590 0.492090
0.525363 0.507456 0.495956
0.483776 0.486402 0.472621
0.489923 0.490267 0.476486
0.496070 0.494133 0.480351
0.502217 0.497998 0.484217
0.508364 0.501864 0.488082
0.514511 0.505729 0.491948
0.520658 0.509595 0.495813
0.526804 0.513460 0.499679
0.532951 0.517326 0.503544
0.491365 0.496272 0.480209
0.497512 0.500138 0.484075
0.503659 0.504003 0.487940
0.509806 0.507868 0.491806
0.515953 0.511734 0.495671
0.522099 0.515599 0.499537
0.528246 0.519465 0.503402
0.534393 0.523330 0.507267
0.540540 0.527196 0.511133
0.498954 0.506142 0.487798
0.505101 0.510008 0.491663
0.511247 0.513873 0.495529
0.517394 0.517739 0.499394
0.523541 0.521604 0.503260
0.529688 0.525470 0.507125
0.535835 0.529335 0.510991
0.541982 0.533200 0.514856
0.548129 0.537066 0.518722
0.506542 0.516012 0.495387
0.512689 0.519878 0.499252
0.518836 0.523743 0.503118
0.524983 0.527609 0.506983
0.531130 0.531474 0.510849
0.537277 0.535340 0.514714
0.543424 0.539205 0.518579
0.549571 0.543071 0.522445
0.555717 0.546936 0.526310
0.514131 0.525882 0.502975
0.520278 0.529748 0.506841
0.526425 0.533613 0.510706
0.532572 0.537479 0.514572
0.538719 0.541344 0.518437
0.544866 0.545210 0.522303
0.551012 0.549075 0.526168
0.557159 0.552941 0.530034
0.563306 0.556806 0.533899
0.454895 0.448395 0.446021
0.461042 0.452261 0.449886
0.467189 0.456126 0.453752
0.473336 0.459992 0.457617
0.479483 0.463857 0.461483
0.485630 0.467722 0.465348
0.491776 0.471588 0.469214
0.497923 0.475453 0.473079
0.504070 0.479319 0.476945
0.462484 0.458265 0.453610
0.468631 0.462131 0.457475
0.474778 0.465996 0.461340
0.480925 0.469862 0.465206
0.487071 0.473727 0.469071
0.493218 0.477593 0.472937
0.499365 0.481458 0.476802
0.505512 0.485324 0.480668
0.511659 0.489189 0.484533
0.470073 0.468135 0.461198
0.476219 0.472001 0.465064
0.482366 0.475866 0.468929
0.488513 0.479732 0.472795
0.494660 0.483597 0.476660
0.500807 0.487463 0.480526
0.506954 0.491328 0.484391
0.513101 0.495194 0.488257
0.519248 0.499059 0.492122
0.477661 0.478006 0.468787
0.483808 0.481871 0.472652
0.489955 0.485736 0.476518
0.496102 0.489602 0.480383
0.502249 0.493467 0.484249
0.508396 0.497333 0.488114
0.514543 0.501198 0.491980
0.520689 0.505064 0.495845
0.526836 0.508929 0.499711
0.485250 0.487876 0.476376
0.491397 0.491741 0.480241
0.497544 0.495607 0.484107
0.503691 0.499472 0.487972
0.509838 0.503338 0.491838
0.515984 0.507203 0.495703
0.522131 0.511069 0.499569
0.528278 0.514934 0.503434
0.534425 0.518799 0.507299
0.492839 0.497746 0.483964
0.498986 0.501611 0.487830
0.505133 0.505477 0.491695
0.511279 0.509342 0.495561
0.517426 0.513208 0.499426
0.523573 0.517073 0.503292
0.529720 0.520939 0.507157
0.535867 0.524804 0.511023
0.542014 0.528670 0.514888
0.500428 0.507616 0.491553
0.506574 0.511481 0.495419
0.512721 0.515347 0.499284
0.518868 0.519212 0.503150
0.525015 0.523078 0.507015
0.531162 0.526943 0.510880
0.537309 0.530809 0.514746
0.543456 0.534674 0.518611
0.549603 0.538540 0.522477
0.508016 0.517486 0.499142
0.514163 0.521352 0.503007
0.520310 0.525217 0.506873
0.526457 0.529083 0.510738
0.532604 0.532948 0.514604
0.538751 0.536813 0.518469
0.544897 0.540679 0.522335
0.551044 0.544544 0.526200
0.557191 0.548410 0.530066
0.515605 0.527356 0.506731
0.521752 0.531222 0.510596
0.527899 0.535087 0.514462
0.534046 0.538953 0.518327
0.540192 0.542818 0.522192
0.546339 0.546684 0.526058
0.552486 0.550549 0.529923
0.558633 0.554415 0.533789
0.564780 0.558280 0.537654
0.456369 0.449869 0.449776
0.462516 0.453734 0.453641
0.468663 0.457600 0.457507
0.474810 0.461465 0.461372
0.480956 0.465331 0.465238
0.487103 0.469196 0.469103
0.493250 0.473062 0.472969
0.499397 0.476927 0.476834
0.505544 0.480793 0.480700
0.463958 0.459739 0.457365
0.470105 0.463605 0.461230
0.476251 0.467470 0.465096
0.482398 0.471335 0.468961
0.488545 0.475201 0.472827
0.494692 0.479066 0.476692
0.500839 0.482932 0.480558
0.506986 0.486797 0.484423
0.513133 0.490663 0.488288
0.471546 0.469609 0.464953
0.477693 0.473475 0.468819
0.483840 0.477340 0.472684
0.489987 0.481206 0.476550
0.496134 0.485071 0.480415
0.502281 0.488937 0.484281
0.508428 0.492802 0.488146
0.514575 0.496667 0.492012
0.520721 0.500533 0.495877
0.479135 0.479479 0.472542
0.485282 0.483345 0.476408
0.491429 0.487210 0.480273
0.497576 0.491076 0.484139
0.503723 0.494941 0.488004
0.509870 0.498807 0.491870
0.516016 0.502672 0.495735
0.522163 0.506538 0.499600
0.528310 0.510403 0.503466
0.486724 0.489349 0.480131
0.492871 0.493215 0.483996
0.499018 0.497080 0.487862
0.505164 0.500946 0.491727
0.511311 0.504811 0.495593
0.517458 0.508677 0.499458
0.523605 0.512542 0.503324
0.529752 0.516408 0.507189
0.535899 0.520273 0.511055
0.494313 0.499220 0.487720
0.500459 0.503085 0.491585
0.506606 0.506951 0.495451
0.512753 0.510816 0.499316
0.518900 0.514681 0.503181
0.525047 0.518547 0.507047
0.531194 0.522412 0.510912
0.537341 0.526278 0.514778
0.543488 0.530143 0.518643
0.501901 0.509090 0.495308
0.508048 0.512955 0.499174
0.514195 0.516821 0.503039
0.520342 0.520686 0.506905
0.526489 0.524552 0.510770
0.532636 0.528417 0.514636
0.538783 0.532283 0.518501
0.544929 0.536148 0.522367
0.551076 0.540013 0.526232
0.509490 0.518960 0.502897
0.515637 0.522825 0.506763
0.521784 0.526691 0.510628
0.527931 0.530556 0.514493
0.534078 0.534422 0.518359
0.540224 0.538287 0.522224
0.546371 0.542153 0.526090
0.552518 0.546018 0.529955
0.558665 0.549884 0.533821
0.517079 0.528830 0.510486
0.523226 0.532695 0.514351
0.529373 0.536561 0.518217
0.535519 0.540426 0.522082
0.541666 0.544292 0.525948
0.547813 0.548157 0.529813
0.553960 0.552023 0.533679
0.560107 0.555888 0.537544
0.566254 0.559754 0.541410
0.457843 0.451343 0.453531
0.463990 0.455208 0.457397
0.470136 0.459074 0.461262
0.476283 0.462939 0.465128
0.482430 0.466805 0.468993
0.488577 0.470670 0.472859
0.494724 0.474536 0.476724
0.500871 0.478401 0.480589
0.507018 0.482266 0.484455
0.465431 0.461213 0.461120
0.471578 0.465078 0.464985
0.477725 0.468944 0.468851
0.483872 0.472809 0.472716
0.490019 0.476675 0.476582
0.496166 0.480540 0.480447
0.502313 0.484406 0.484313
0.508460 0.488271 0.488178
0.514606 0.492137 0.492044
0.473020 0.471083 0.468709
0.479167 0.474948 0.472574
0.485314 0.478814 0.476440
0.491461 0.482679 0.480305
0.497608 0.486545 0.484171
0.503755 0.490410 0.488036
0.509901 0.494276 0.491901
0.516048 0.498141 0.495767
0.522195 0.502007 0.499632
0.480609 0.480953 0.476297
0.486756 0.484819 0.480163
0.492903 0.488684 0.484028
0.499050 0.492550 0.487894
0.505196 0.496415 0.491759
0.511343 0.500280 0.495625
0.517490 0.504146 0.499490
0.523637 0.508011 0.503356
0.529784 0.511877 0.507221
0.488198 0.490823 0.483886
0.494345 0.494689 0.487752
0.500491 0.498554 0.491617
0.506638 0.502420 0.495482
0.512785 0.506285 0.499348
0.518932 0.510151 0.503213
0.525079 0.514016 0.507079
0.531226 0.517882 0.510944
0.537373 0.521747 0.514810
0.495786 0.500693 0.491475
0.501933 0.504559 0.495340
0.508080 0.508424 0.499206
0.514227 0.512290 0.503071
0.520374 0.516155 0.506937
0.526521 0.520021 0.510802
0.532668 0.523886 0.514668
0.538815 0.527752 0.518533
0.544961 0.531617 0.522399
0.503375 0.510564 0.499064
0.509522 0.514429 0.502929
0.515669 0.518294 0.506794
0.521816 0.522160 0.510660
0.527963 0.526025 0.514525
0.534109 0.529891 0.518391
0.540256 0.533756 0.522256
0.546403 0.537622 0.526122
0.552550 0.541487 0.529987
0.510964 0.520434 0.506652
0.517111 0.524299 0.510518
0.523258 0.528165 0.514383
0.529404 0.532030 0.518249
0.535551 0.535896 0.522114
0.541698 0.539761 0.525980
0.547845 0.543626 0.529845
0.553992 0.547492 0.533711
0.560139 0.551357 0.537576
0.518553 0.530304 0.514241
0.524699 0.534169 0.518106
0.530846 0.538035 0.521972
0.536993 0.541900 0.525837
0.543140 0.545766 0.529703
0.549287 0.549631 0.533568
0.555434 0.553497 0.537434
0.561581 0.557362 0.541299
0.567728 0.561228 0.545165
0.459317 0.452817 0.457286
0.465463 0.456682 0.461152
0.471610 0.460547 0.465017
0.477757 0.464413 0.468883
0.483904 0.468278 0.472748
0.490051 0.472144 0.476614
0.496198 0.476009 0.480479
0.502345 0.479875 0.484345
0.508492 0.483740 0.488210
0.466905 0.462687 0.464875
0.473052 0.466552 0.468741
0.479199 0.470418 0.472606
0.485346 0.474283 0.476472
0.491493 0.478149 0.480337
0.497640 0.482014 0.484202
0.503787 0.485879 0.488068
0.509933 0.489745 0.491933
0.516080 0.493610 0.495799
0.474494 0.472557 0.472464
0.480641 0.476422 0.476329
0.486788 0.480288 0.480195
0.492935 0.484153 0.484060
0.499081 0.488019 0.487926
0.505228 0.491884 0.491791
0.511375 0.495750 0.495657
0.517522 0.499615 0.499522
0.523669 0.503481 0.503388
0.482083 0.482427 0.480053
0.488230 0.486292 0.483918
0.494376 0.490158 0.487784
0.500523 0.494023 0.491649
0.506670 0.497889 0.495514
0.512817 0.501754 0.499380
0.518964 0.505620 0.503245
0.525111 0.509485 0.507111
0.531258 0.513351 0.510976
0.489671 0.492297 0.487641
0.495818 0.496163 0.491507
0.501965 0.500028 0.495372
0.508112 0.503893 0.499238
0.514259 0.507759 0.503103
0.520406 0.511624 0.506969
0.526553 0.515490 0.510834
0.532700 0.519355 0.514700
0.538846 0.523221 0.518565
0.497260 0.502167 0.495230
0.503407 0.506033 0.499095
0.509554 0.509898 0.502961
0.515701 0.513764 0.506826
0.521848 0.517629 0.510692
0.527995 0.521495 0.514557
0.534141 0.525360 0.518423
0.540288 0.529225 0.522288
0.546435 0.533091 0.526154
0.504849 0.512037 0.502819
0.510996 0.515903 0.506684
0.517143 0.519768 0.510550
0.523290 0.523634 0.514415
0.529436 0.527499 0.518281
0.535583 0.531365 0.522146
0.541730 0.535230 0.526012
0.547877 0.539096 0.529877
0.554024 0.542961 0.533742
0.512438 0.521907 0.510407
0.518584 0.525773 0.514273
0.524731 0.529638 0.518138
0.530878 0.533504 0.522004
0.537025 0.537369 0.525869
0.543172 0.541235 0.529735
0.549319 0.545100 0.533600
0.555466 0.548966 0.537466
0.561613 0.552831 0.541331
0.520026 0.531778 0.517996
0.526173 0.535643 0.521862
0.532320 0.539509 0.525727
0.538467 0.543374 0.529593
0.544614 0.547239 0.533458
0.550761 0.551105 0.537324
0.556908 0.554970 0.541189
0.563054 0.558836 0.545054
0.569201 0.562701 0.548920
0.460790 0.454290 0.461042
0.466937 0.458156 0.464907
0.473084 0.462021 0.468773
0.479231 0.465887 0.472638
0.485378 0.469752 0.476503
0.491525 0.473618 0.480369
0.497672 0.477483 0.484234
0.503818 0.481349 0.488100
0.509965 0.485214 0.491965
0.468379 0.464160 0.468630
0.474526 0.468026 0.472496
0.480673 0.471891 0.476361
0.486820 0.475757 0.480227
0.492967 0.479622 0.484092
0.499113 0.483488 0.487958
0.505260 0.487353 0.491823
0.511407 0.491219 0.495689
0.517554 0.495084 0.499554
0.475968 0.474031 0.476219
0.482115 0.477896 0.480085
0.488262 0.481762 0.483950
0.494408 0.485627 0.487815
0.500555 0.489492 0.491681
0.506702 0.493358 0.495546
0.512849 0.497223 0.499412
0.518996 0.501089 0.503277
0.525143 0.504954 0.507143
0.483556 0.483901 0.483808
0.489703 0.487766 0.487673
0.495850 0.491632 0.491539
0.501997 0.495497 0.495404
0.508144 0.499363 0.499270
0.514291 0.503228 0.503135
0.520438 0.507094 0.507001
0.526585 0.510959 0.510866
0.532732 0.514824 0.514732
0.491145 0.493771 0.491396
0.497292 0.497636 0.495262
0.503439 0.501502 0.499127
0.509586 0.505367 0.502993
0.515733 0.509233 0.506858
0.521880 0.513098 0.510724
0.528026 0.516964 0.514589
0.534173 0.520829 0.518455
0.540320 0.524695 0.522320
0.498734 0.503641 0.498985
0.504881 0.507506 0.502851
0.511028 0.511372 0.506716
0.517175 0.515237 0.510582
0.523321 0.519103 0.514447
0.529468 0.522968 0.518313
0.535615 0.526834 0.522178
0.541762 0.530699 0.526043
0.547909 0.534565 0.529909
0.506323 0.513511 0.506574
0.512470 0.517377 0.510439
0.518616 0.521242 0.514305
0.524763 0.525108 0.518170
0.530910 0.528973 0.522036
0.537057 0.532838 0.525901
0.543204 0.536704 0.529767
0.549351 0.540569 0.533632
0.555498 0.544435 0.537498
0.513911 0.523381 0.514163
0.520058 0.527247 0.518028
0.526205 0.531112 0.521894
0.532352 0.534978 0.525759
0.538499 0.538843 0.529625
0.544646 0.542709 0.533490
0.550793 0.546574 0.537355
0.556940 0.550440 0.541221
0.563086 0.554305 0.545086
0.521500 0.533251 0.521751
0.527647 0.537117 0.525617
0.533794 0.540982 0.529482
0.539941 0.544848 0.533348
0.546088 0.548713 0.537213
0.552235 0.552579 0.541079
0.558381 0.556444 0.544944
0.564528 0.560310 0.548810
0.570675 0.564175 0.552675
