shared/src/main/assets/luts/drama_cold_lake.cube
TITLE "DALUR Cold Lake"
LUT_3D_SIZE 9
DOMAIN_MIN 0.0 0.0 0.0
DOMAIN_MAX 1.0 1.0 1.0
0.413200 0.432000 0.446800
0.415793 0.437859 0.452659
0.418386 0.443717 0.458517
0.420979 0.449576 0.464376
0.423572 0.455434 0.470234
0.426164 0.461293 0.476093
0.428757 0.467151 0.481951
0.431350 0.473010 0.487810
0.433943 0.478868 0.493668
0.424701 0.440236 0.458301
0.427294 0.446094 0.464160
0.429887 0.451953 0.470019
0.432480 0.457811 0.475877
0.435073 0.463670 0.481736
0.437666 0.469528 0.487594
0.440259 0.475387 0.493453
0.442852 0.481245 0.499311
0.445445 0.487104 0.505170
0.436203 0.448472 0.469803
0.438796 0.454330 0.475662
0.441389 0.460189 0.481520
0.443982 0.466047 0.487379
0.446575 0.471906 0.493237
0.449167 0.477764 0.499096
0.451760 0.483623 0.504954
0.454353 0.489481 0.510813
0.456946 0.495340 0.516671
0.447704 0.456708 0.481304
0.450297 0.462566 0.487163
0.452890 0.468425 0.493022
0.455483 0.474283 0.498880
0.458076 0.480142 0.504739
0.460669 0.486000 0.510597
0.463262 0.491859 0.516456
0.465855 0.497717 0.522314
0.468448 0.503576 0.528173
0.459206 0.464944 0.492806
0.461799 0.470802 0.498665
0.464392 0.476661 0.504523
0.466985 0.482519 0.510382
0.469578 0.488378 0.516240
0.472170 0.494236 0.522099
0.474763 0.500095 0.527957
0.477356 0.505953 0.533816
0.479949 0.511812 0.539674
0.470707 0.473179 0.504307
0.473300 0.479038 0.510166
0.475893 0.484896 0.516025
0.478486 0.490755 0.521883
0.481079 0.496613 0.527742
0.483672 0.502472 0.533600
0.486265 0.508330 0.539459
0.488858 0.514189 0.545317
0.491451 0.520048 0.551176
0.482209 0.481415 0.515809
0.484802 0.487274 0.521668
0.487395 0.493132 0.527526
0.489988 0.498991 0.533385
0.492581 0.504849 0.539243
0.495173 0.510708 0.545102
0.497766 0.516566 0.550960
0.500359 0.522425 0.556819
0.502952 0.528283 0.562677
0.493710 0.489651 0.527310
0.496303 0.495510 0.533169
0.498896 0.501368 0.539028
0.501489 0.507227 0.544886
0.504082 0.513085 0.550745
0.506675 0.518944 0.556603
0.509268 0.524802 0.562462
0.511861 0.530661 0.568320
0.514454 0.536519 0.574179
0.505212 0.497887 0.538812
0.507805 0.503746 0.544670
0.510398 0.509604 0.550529
0.512991 0.515463 0.556388
0.515584 0.521321 0.562246
0.518176 0.527180 0.568105
0.520769 0.533038 0.573963
0.523362 0.538897 0.579822
0.525955 0.544755 0.585680
0.415434 0.434234 0.445768
0.418027 0.440092 0.451627
0.420619 0.445951 0.457485
0.423212 0.451809 0.463344
0.425805 0.457668 0.469202
0.428398 0.463526 0.475061
0.430991 0.469385 0.480919
0.433584 0.475243 0.486778
0.436177 0.481102 0.492636
0.426935 0.442470 0.457270
0.429528 0.448328 0.463128
0.432121 0.454187 0.468987
0.434714 0.460045 0.474845
0.437307 0.465904 0.480704
0.439900 0.471762 0.486562
0.442493 0.477621 0.492421
0.445085 0.483479 0.498279
0.447678 0.489338 0.504138
0.438437 0.450705 0.468771
0.441030 0.456564 0.474630
0.443622 0.462422 0.480488
0.446215 0.468281 0.486347
0.448808 0.474140 0.492205
0.451401 0.479998 0.498064
0.453994 0.485857 0.503922
0.456587 0.491715 0.509781
0.459180 0.497574 0.515639
0.449938 0.458941 0.480273
0.452531 0.464800 0.486131
0.455124 0.470658 0.491990
0.457717 0.476517 0.497848
0.460310 0.482375 0.503707
0.462903 0.488234 0.509565
0.465496 0.494092 0.515424
0.468088 0.499951 0.521282
0.470681 0.505809 0.527141
0.461440 0.467177 0.491774
0.464033 0.473036 0.497633
0.466625 0.478894 0.503491
0.469218 0.484753 0.509350
0.471811 0.490611 0.515208
0.474404 0.496470 0.521067
0.476997 0.502328 0.526925
0.479590 0.508187 0.532784
0.482183 0.514045 0.538642
0.472941 0.475413 0.503276
0.475534 0.481272 0.509134
0.478127 0.487130 0.514993
0.480720 0.492989 0.520851
0.483313 0.498847 0.526710
0.485906 0.504706 0.532568
0.488499 0.510564 0.538427
0.491091 0.516423 0.544285
0.493684 0.522281 0.550144
0.484443 0.483649 0.514777
0.487036 0.489507 0.520636
0.489628 0.495366 0.526494
0.492221 0.501225 0.532353
0.494814 0.507083 0.538211
0.497407 0.512942 0.544070
0.500000 0.518800 0.549928
0.502593 0.524659 0.555787
0.505186 0.530517 0.561645
0.495944 0.491885 0.526279
0.498537 0.497743 0.532137
0.501130 0.503602 0.537996
0.503723 0.509460 0.543854
0.506316 0.515319 0.549713
0.508909 0.521177 0.555571
0.511502 0.527036 0.561430
0.514094 0.532894 0.567288
0.516687 0.538753 0.573147
0.507446 0.500121 0.537780
0.510039 0.505979 0.543639
0.512631 0.511838 0.549497
0.515224 0.517696 0.555356
0.517817 0.523555 0.561214
0.520410 0.529413 0.567073
0.523003 0.535272 0.572931
0.525596 0.541130 0.578790
0.528189 0.546989 0.584648
0.417667 0.436467 0.444736
0.420260 0.442326 0.450595
0.422853 0.448184 0.456453
0.425446 0.454043 0.462312
0.428039 0.459901 0.468170
0.430632 0.465760 0.474029
0.433225 0.471618 0.479887
0.435818 0.477477 0.485746
0.438411 0.483335 0.491604
0.429169 0.444703 0.456238
0.431762 0.450562 0.462096
0.434355 0.456420 0.467955
0.436948 0.462279 0.473813
0.439540 0.468137 0.479672
0.442133 0.473996 0.485530
0.444726 0.479854 0.491389
0.447319 0.485713 0.497247
0.449912 0.491571 0.503106
0.440670 0.452939 0.467739
0.443263 0.458798 0.473598
0.445856 0.464656 0.479456
0.448449 0.470515 0.485315
0.451042 0.476373 0.491173
0.453635 0.482232 0.497032
0.456228 0.488090 0.502890
0.458821 0.493949 0.508749
0.461414 0.499807 0.514607
0.452172 0.461175 0.479241
0.454765 0.467034 0.485099
0.457358 0.472892 0.490958
0.459951 0.478751 0.496816
0.462543 0.484609 0.502675
0.465136 0.490468 0.508533
0.467729 0.496326 0.514392
0.470322 0.502185 0.520250
0.472915 0.508043 0.526109
0.463673 0.469411 0.490742
0.466266 0.475269 0.496601
0.468859 0.481128 0.502459
0.471452 0.486986 0.508318
0.474045 0.492845 0.514176
0.476638 0.498703 0.520035
0.479231 0.504562 0.525893
0.481824 0.510420 0.531752
0.484417 0.516279 0.537610
0.475175 0.477647 0.502244
0.477768 0.483505 0.508102
0.480361 0.489364 0.513961
0.482954 0.495222 0.519819
0.485546 0.501081 0.525678
0.488139 0.506939 0.531536
0.490732 0.512798 0.537395
0.493325 0.518656 0.543253
0.495918 0.524515 0.549112
0.486676 0.485883 0.513745
0.489269 0.491741 0.519604
0.491862 0.497600 0.525462
0.494455 0.503458 0.531321
0.497048 0.509317 0.537179
0.499641 0.515175 0.543038
0.502234 0.521034 0.548896
0.504827 0.526892 0.554755
0.507420 0.532751 0.560613
0.498178 0.494119 0.525247
0.500771 0.499977 0.531105
0.503364 0.505836 0.536964
0.505957 0.511694 0.542822
0.508549 0.517553 0.548681
0.511142 0.523411 0.554539
0.513735 0.529270 0.560398
0.516328 0.535128 0.566256
0.518921 0.540987 0.572115
0.509679 0.502354 0.536748
0.512272 0.508213 0.542607
0.514865 0.514071 0.548465
0.517458 0.519930 0.554324
0.520051 0.525788 0.560182
0.522644 0.531647 0.566041
0.525237 0.537506 0.571899
0.527830 0.543364 0.577758
0.530423 0.549223 0.583616
0.419901 0.438701 0.443704
0.422494 0.444560 0.449563
0.425087 0.450418 0.455421
0.427680 0.456277 0.461280
0.430273 0.462135 0.467138
0.432866 0.467994 0.472997
0.435458 0.473852 0.478855
0.438051 0.479711 0.484714
0.440644 0.485569 0.490572
0.431403 0.446937 0.455206
0.433995 0.452795 0.461064
0.436588 0.458654 0.466923
0.439181 0.464512 0.472781
0.441774 0.470371 0.478640
0.444367 0.476229 0.484498
0.446960 0.482088 0.490357
0.449553 0.487947 0.496215
0.452146 0.493805 0.502074
0.442904 0.455173 0.466707
0.445497 0.461031 0.472566
0.448090 0.466890 0.478424
0.450683 0.472748 0.484283
0.453276 0.478607 0.490141
0.455869 0.484465 0.496000
0.458461 0.490324 0.501858
0.461054 0.496182 0.507717
0.463647 0.502041 0.513575
0.454406 0.463409 0.478209
0.456998 0.469267 0.484067
0.459591 0.475126 0.489926
0.462184 0.480984 0.495784
0.464777 0.486843 0.501643
0.467370 0.492701 0.507501
0.469963 0.498560 0.513360
0.472556 0.504418 0.519218
0.475149 0.510277 0.525077
0.465907 0.471645 0.489710
0.468500 0.477503 0.495569
0.471093 0.483362 0.501427
0.473686 0.489220 0.507286
0.476279 0.495079 0.513144
0.478872 0.500937 0.519003
0.481464 0.506796 0.524861
0.484057 0.512654 0.530720
0.486650 0.518513 0.536578
0.477409 0.479880 0.501212
0.480001 0.485739 0.507070
0.482594 0.491597 0.512929
0.485187 0.497456 0.518787
0.487780 0.503315 0.524646
0.490373 0.509173 0.530504
0.492966 0.515032 0.536363
0.495559 0.520890 0.542221
0.498152 0.526749 0.548080
0.488910 0.488116 0.512713
0.491503 0.493975 0.518572
0.494096 0.499833 0.524430
0.496689 0.505692 0.530289
0.499282 0.511550 0.536147
0.501875 0.517409 0.542006
0.504467 0.523267 0.547864
0.507060 0.529126 0.553723
0.509653 0.534984 0.559581
0.500412 0.496352 0.524215
0.503004 0.502211 0.530073
0.505597 0.508069 0.535932
0.508190 0.513928 0.541790
0.510783 0.519786 0.547649
0.513376 0.525645 0.553507
0.515969 0.531503 0.559366
0.518562 0.537362 0.565224
0.521155 0.543220 0.571083
0.511913 0.504588 0.535716
0.514506 0.510447 0.541575
0.517099 0.516305 0.547433
0.519692 0.522164 0.553292
0.522285 0.528022 0.559150
0.524878 0.533881 0.565009
0.527470 0.539739 0.570867
0.530063 0.545598 0.576726
0.532656 0.551456 0.582584
0.422135 0.440935 0.442672
0.424728 0.446793 0.448531
0.427321 0.452652 0.454389
0.429913 0.458510 0.460248
0.432506 0.464369 0.466106
0.435099 0.470227 0.471965
0.437692 0.476086 0.477823
0.440285 0.481944 0.483682
0.442878 0.487803 0.489540
0.433636 0.449171 0.454174
0.436229 0.455029 0.460032
0.438822 0.460888 0.465891
0.441415 0.466746 0.471749
0.444008 0.472605 0.477608
0.446601 0.478463 0.483466
0.449194 0.484322 0.489325
0.451787 0.490180 0.495183
0.454379 0.496039 0.501042
0.445138 0.457406 0.465675
0.447731 0.463265 0.471534
0.450324 0.469124 0.477392
0.452916 0.474982 0.483251
0.455509 0.480841 0.489109
0.458102 0.486699 0.494968
0.460695 0.492558 0.500826
0.463288 0.498416 0.506685
0.465881 0.504275 0.512543
0.456639 0.465642 0.477177
0.459232 0.471501 0.483035
0.461825 0.477359 0.488894
0.464418 0.483218 0.494752
0.467011 0.489076 0.500611
0.469604 0.494935 0.506469
0.472197 0.500793 0.512328
0.474790 0.506652 0.518186
0.477382 0.512510 0.524045
0.468141 0.473878 0.488678
0.470734 0.479737 0.494537
0.473327 0.485595 0.500395
0.475919 0.491454 0.506254
0.478512 0.497312 0.512112
0.481105 0.503171 0.517971
0.483698 0.509029 0.523829
0.486291 0.514888 0.529688
0.488884 0.520746 0.535546
0.479642 0.482114 0.500180
0.482235 0.487973 0.506038
0.484828 0.493831 0.511897
0.487421 0.499690 0.517755
0.490014 0.505548 0.523614
0.492607 0.511407 0.529472
0.495200 0.517265 0.535331
0.497793 0.523124 0.541189
0.500385 0.528982 0.547048
0.491144 0.490350 0.511681
0.493737 0.496209 0.517540
0.496330 0.502067 0.523398
0.498922 0.507926 0.529257
0.501515 0.513784 0.535115
0.504108 0.519643 0.540974
0.506701 0.525501 0.546832
0.509294 0.531360 0.552691
0.511887 0.537218 0.558549
0.502645 0.498586 0.523183
0.505238 0.504444 0.529041
0.507831 0.510303 0.534900
0.510424 0.516161 0.540758
0.513017 0.522020 0.546617
0.515610 0.527878 0.552475
0.518203 0.533737 0.558334
0.520795 0.539595 0.564192
0.523388 0.545454 0.570051
0.514147 0.506822 0.534684
0.516740 0.512680 0.540543
0.519333 0.518539 0.546401
0.521925 0.524397 0.552260
0.524518 0.530256 0.558118
0.527111 0.536114 0.563977
0.529704 0.541973 0.569835
0.532297 0.547831 0.575694
0.534890 0.553690 0.581552
0.424368 0.443168 0.441640
0.426961 0.449027 0.447499
0.429554 0.454885 0.453357
0.432147 0.460744 0.459216
0.434740 0.466602 0.465074
0.437333 0.472461 0.470933
0.439926 0.478319 0.476791
0.442519 0.484178 0.482650
0.445112 0.490037 0.488508
0.435870 0.451404 0.453142
0.438463 0.457263 0.459000
0.441056 0.463121 0.464859
0.443649 0.468980 0.470717
0.446241 0.474838 0.476576
0.448834 0.480697 0.482434
0.451427 0.486555 0.488293
0.454020 0.492414 0.494151
0.456613 0.498272 0.500010
0.447371 0.459640 0.464643
0.449964 0.465499 0.470502
0.452557 0.471357 0.476360
0.455150 0.477216 0.482219
0.457743 0.483074 0.488077
0.460336 0.488933 0.493936
0.462929 0.494791 0.499794
0.465522 0.500650 0.505653
0.468115 0.506508 0.511511
0.458873 0.467876 0.476145
0.461466 0.473735 0.482003
0.464059 0.479593 0.487862
0.466652 0.485452 0.493720
0.469244 0.491310 0.499579
0.471837 0.497169 0.505437
0.474430 0.503027 0.511296
0.477023 0.508886 0.517154
0.479616 0.514744 0.523013
0.470374 0.476112 0.487646
0.472967 0.481970 0.493505
0.475560 0.487829 0.499363
0.478153 0.493687 0.505222
0.480746 0.499546 0.511080
0.483339 0.505405 0.516939
0.485932 0.511263 0.522797
0.488525 0.517122 0.528656
0.491118 0.522980 0.534514
0.481876 0.484348 0.499148
0.484469 0.490206 0.505006
0.487062 0.496065 0.510865
0.489655 0.501923 0.516723
0.492247 0.507782 0.522582
0.494840 0.513640 0.528440
0.497433 0.519499 0.534299
0.500026 0.525357 0.540157
0.502619 0.531216 0.546016
0.493377 0.492584 0.510649
0.495970 0.498442 0.516508
0.498563 0.504301 0.522366
0.501156 0.510159 0.528225
0.503749 0.516018 0.534083
0.506342 0.521876 0.539942
0.508935 0.527735 0.545800
0.511528 0.533593 0.551659
0.514121 0.539452 0.557517
0.504879 0.500820 0.522151
0.507472 0.506678 0.528009
0.510065 0.512537 0.533868
0.512658 0.518395 0.539726
0.515250 0.524254 0.545585
0.517843 0.530112 0.551443
0.520436 0.535971 0.557302
0.523029 0.541829 0.563160
0.525622 0.547688 0.569019
0.516380 0.509055 0.533652
0.518973 0.514914 0.539511
0.521566 0.520772 0.545369
0.524159 0.526631 0.551228
0.526752 0.532490 0.557086
0.529345 0.538348 0.562945
0.531938 0.544207 0.568803
0.534531 0.550065 0.574662
0.537124 0.555924 0.580520
0.426602 0.445402 0.440608
0.429195 0.451261 0.446467
0.431788 0.457119 0.452325
0.434381 0.462978 0.458184
0.436974 0.468836 0.464042
0.439567 0.474695 0.469901
0.442159 0.480553 0.475759
0.444752 0.486412 0.481618
0.447345 0.492270 0.487477
0.438104 0.453638 0.452110
0.440696 0.459496 0.457968
0.443289 0.465355 0.463827
0.445882 0.471214 0.469685
0.448475 0.477072 0.475544
0.451068 0.482931 0.481402
0.453661 0.488789 0.487261
0.456254 0.494648 0.493119
0.458847 0.500506 0.498978
0.449605 0.461874 0.463611
0.452198 0.467732 0.469470
0.454791 0.473591 0.475328
0.457384 0.479449 0.481187
0.459977 0.485308 0.487045
0.462570 0.491166 0.492904
0.465162 0.497025 0.498762
0.467755 0.502883 0.504621
0.470348 0.508742 0.510480
0.461107 0.470110 0.475113
0.463699 0.475968 0.480971
0.466292 0.481827 0.486830
0.468885 0.487685 0.492688
0.471478 0.493544 0.498547
0.474071 0.499402 0.504405
0.476664 0.505261 0.510264
0.479257 0.511119 0.516122
0.481850 0.516978 0.521981
0.472608 0.478346 0.486614
0.475201 0.484204 0.492473
0.477794 0.490063 0.498331
0.480387 0.495921 0.504190
0.482980 0.501780 0.510048
0.485573 0.507638 0.515907
0.488165 0.513497 0.521765
0.490758 0.519355 0.527624
0.493351 0.525214 0.533482
0.484110 0.486581 0.498116
0.486702 0.492440 0.503974
0.489295 0.498299 0.509833
0.491888 0.504157 0.515691
0.494481 0.510016 0.521550
0.497074 0.515874 0.527408
0.499667 0.521733 0.533267
0.502260 0.527591 0.539125
0.504853 0.533450 0.544984
0.495611 0.494817 0.509617
0.498204 0.500676 0.515476
0.500797 0.506534 0.521334
0.503390 0.512393 0.527193
0.505983 0.518251 0.533051
0.508576 0.524110 0.538910
0.511168 0.529968 0.544768
0.513761 0.535827 0.550627
0.516354 0.541685 0.556485
0.507113 0.503053 0.521119
0.509705 0.508912 0.526977
0.512298 0.514770 0.532836
0.514891 0.520629 0.538694
0.517484 0.526487 0.544553
0.520077 0.532346 0.550411
0.522670 0.538204 0.556270
0.525263 0.544063 0.562128
0.527856 0.549921 0.567987
0.518614 0.511289 0.532620
0.521207 0.517148 0.538479
0.523800 0.523006 0.544337
0.526393 0.528865 0.550196
0.528986 0.534723 0.556054
0.531579 0.540582 0.561913
0.534171 0.546440 0.567771
0.536764 0.552299 0.573630
0.539357 0.558157 0.579488
0.428836 0.447636 0.439576
0.431429 0.453494 0.445435
0.434022 0.459353 0.451293
0.436614 0.465211 0.457152
0.439207 0.471070 0.463011
0.441800 0.476928 0.468869
0.444393 0.482787 0.474728
0.446986 0.488645 0.480586
0.449579 0.494504 0.486445
0.440337 0.455872 0.451078
0.442930 0.461730 0.456936
0.445523 0.467589 0.462795
0.448116 0.473447 0.468653
0.450709 0.479306 0.474512
0.453302 0.485164 0.480371
0.455895 0.491023 0.486229
0.458488 0.496881 0.492088
0.461080 0.502740 0.497946
0.451839 0.464108 0.462579
0.454432 0.469966 0.468438
0.457025 0.475825 0.474296
0.459617 0.481683 0.480155
0.462210 0.487542 0.486014
0.464803 0.493400 0.491872
0.467396 0.499259 0.497731
0.469989 0.505117 0.503589
0.472582 0.510976 0.509448
0.463340 0.472343 0.474081
0.465933 0.478202 0.479939
0.468526 0.484060 0.485798
0.471119 0.489919 0.491656
0.473712 0.495777 0.497515
0.476305 0.501636 0.503374
0.478898 0.507494 0.509232
0.481491 0.513353 0.515091
0.484083 0.519212 0.520949
0.474842 0.480579 0.485582
0.477435 0.486438 0.491441
0.480028 0.492296 0.497299
0.482620 0.498155 0.503158
0.485213 0.504013 0.509017
0.487806 0.509872 0.514875
0.490399 0.515730 0.520734
0.492992 0.521589 0.526592
0.495585 0.527447 0.532451
0.486343 0.488815 0.497084
0.488936 0.494674 0.502942
0.491529 0.500532 0.508801
0.494122 0.506391 0.514659
0.496715 0.512249 0.520518
0.499308 0.518108 0.526377
0.501901 0.523966 0.532235
0.504494 0.529825 0.538094
0.507086 0.535683 0.543952
0.497845 0.497051 0.508585
0.500438 0.502910 0.514444
0.503031 0.508768 0.520302
0.505623 0.514627 0.526161
0.508216 0.520485 0.532020
0.510809 0.526344 0.537878
0.513402 0.532202 0.543737
0.515995 0.538061 0.549595
0.518588 0.543919 0.555454
0.509346 0.505287 0.520087
0.511939 0.511145 0.525945
0.514532 0.517004 0.531804
0.517125 0.522862 0.537662
0.519718 0.528721 0.543521
0.522311 0.534580 0.549380
0.524904 0.540438 0.555238
0.527497 0.546297 0.561097
0.530089 0.552155 0.566955
0.520848 0.513523 0.531588
0.523441 0.519381 0.537447
0.526034 0.525240 0.543305
0.528626 0.531098 0.549164
0.531219 0.536957 0.555022
0.533812 0.542815 0.560881
0.536405 0.548674 0.566740
0.538998 0.554532 0.572598
0.541591 0.560391 0.578457
0.431069 0.449869 0.438545
0.433662 0.455728 0.444403
0.436255 0.461586 0.450262
0.438848 0.467445 0.456120
0.441441 0.473304 0.461979
0.444034 0.479162 0.467837
0.446627 0.485021 0.473696
0.449220 0.490879 0.479554
0.451813 0.496738 0.485413
0.442571 0.458105 0.450046
0.445164 0.463964 0.455905
0.447757 0.469822 0.461763
0.450350 0.475681 0.467622
0.452943 0.481539 0.473480
0.455535 0.487398 0.479339
0.458128 0.493256 0.485197
0.460721 0.499115 0.491056
0.463314 0.504973 0.496914
0.454072 0.466341 0.461548
0.456665 0.472200 0.467406
0.459258 0.478058 0.473265
0.461851 0.483917 0.479123
0.464444 0.489775 0.484982
0.467037 0.495634 0.490840
0.469630 0.501492 0.496699
0.472223 0.507351 0.502557
0.474816 0.513209 0.508416
0.465574 0.474577 0.473049
0.468167 0.480436 0.478908
0.470760 0.486294 0.484766
0.473353 0.492153 0.490625
0.475946 0.498011 0.496483
0.478538 0.503870 0.502342
0.481131 0.509728 0.508200
0.483724 0.515587 0.514059
0.486317 0.521445 0.519917
0.477075 0.482813 0.484551
0.479668 0.488671 0.490409
0.482261 0.494530 0.496268
0.484854 0.500389 0.502126
0.487447 0.506247 0.507985
0.490040 0.512106 0.513843
0.492633 0.517964 0.519702
0.495226 0.523823 0.525560
0.497819 0.529681 0.531419
0.488577 0.491049 0.496052
0.491170 0.496907 0.501911
0.493763 0.502766 0.507769
0.496356 0.508624 0.513628
0.498949 0.514483 0.519486
0.501541 0.520341 0.525345
0.504134 0.526200 0.531203
0.506727 0.532058 0.537062
0.509320 0.537917 0.542920
0.500078 0.499285 0.507554
0.502671 0.505143 0.513412
0.505264 0.511002 0.519271
0.507857 0.516860 0.525129
0.510450 0.522719 0.530988
0.513043 0.528577 0.536846
0.515636 0.534436 0.542705
0.518229 0.540294 0.548563
0.520822 0.546153 0.554422
0.511580 0.507521 0.519055
0.514173 0.513379 0.524914
0.516766 0.519238 0.530772
0.519359 0.525096 0.536631
0.521952 0.530955 0.542489
0.524544 0.536813 0.548348
0.527137 0.542672 0.554206
0.529730 0.548530 0.560065
0.532323 0.554389 0.565923
0.523081 0.515757 0.530557
0.525674 0.521615 0.536415
0.528267 0.527474 0.542274
0.530860 0.533332 0.548132
0.533453 0.539191 0.553991
0.536046 0.545049 0.559849
0.538639 0.550908 0.565708
0.541232 0.556766 0.571566
0.543825 0.562625 0.577425
