shared/src/main/assets/luts/drama_vintage_chess.cube
TITLE "DALUR Vintage Chess"
LUT_3D_SIZE 9
DOMAIN_MIN 0.0 0.0 0.0
DOMAIN_MAX 1.0 1.0 1.0
0.476000 0.470000 0.464000
0.478866 0.472089 0.466089
0.481732 0.474179 0.468179
0.484598 0.476268 0.470268
0.487463 0.478358 0.472358
0.490329 0.480447 0.474447
0.493195 0.482537 0.476537
0.496061 0.484626 0.478626
0.498927 0.486715 0.480715
0.480102 0.474878 0.468102
0.482968 0.476968 0.470191
0.485834 0.479057 0.472281
0.488700 0.481147 0.474370
0.491565 0.483236 0.476460
0.494431 0.485326 0.478549
0.497297 0.487415 0.480639
0.500163 0.489504 0.482728
0.503029 0.491594 0.484817
0.484204 0.479757 0.472204
0.487070 0.481846 0.474293
0.489936 0.483936 0.476383
0.492802 0.486025 0.478472
0.495667 0.488115 0.480562
0.498533 0.490204 0.482651
0.501399 0.492293 0.484740
0.504265 0.494383 0.486830
0.507131 0.496472 0.488919
0.488306 0.484635 0.476306
0.491172 0.486725 0.478395
0.494038 0.488814 0.480485
0.496904 0.490904 0.482574
0.499769 0.492993 0.484664
0.502635 0.495082 0.486753
0.505501 0.497172 0.488842
0.508367 0.499261 0.490932
0.511233 0.501351 0.493021
0.492408 0.489514 0.480408
0.495274 0.491603 0.482497
0.498140 0.493693 0.484587
0.501006 0.495782 0.486676
0.503871 0.497871 0.488766
0.506737 0.499961 0.490855
0.509603 0.502050 0.492944
0.512469 0.504140 0.495034
0.515335 0.506229 0.497123
0.496510 0.494392 0.484510
0.499376 0.496482 0.486599
0.502242 0.498571 0.488689
0.505108 0.500660 0.490778
0.507973 0.502750 0.492868
0.510839 0.504839 0.494957
0.513705 0.506929 0.497046
0.516571 0.509018 0.499136
0.519437 0.511108 0.501225
0.500612 0.499271 0.488612
0.503478 0.501360 0.490701
0.506344 0.503449 0.492791
0.509209 0.505539 0.494880
0.512075 0.507628 0.496970
0.514941 0.509718 0.499059
0.517807 0.511807 0.501148
0.520673 0.513897 0.503238
0.523539 0.515986 0.505327
0.504714 0.504149 0.492714
0.507580 0.506238 0.494803
0.510446 0.508328 0.496893
0.513311 0.510417 0.498982
0.516177 0.512507 0.501072
0.519043 0.514596 0.503161
0.521909 0.516686 0.505250
0.524775 0.518775 0.507340
0.527641 0.520864 0.509429
0.508816 0.509027 0.496816
0.511682 0.511117 0.498905
0.514548 0.513206 0.500995
0.517413 0.515296 0.503084
0.520279 0.517385 0.505174
0.523145 0.519475 0.507263
0.526011 0.521564 0.509352
0.528877 0.523653 0.511442
0.531743 0.525743 0.513531
0.476797 0.470797 0.465573
0.479663 0.472886 0.467663
0.482528 0.474975 0.469752
0.485394 0.477065 0.471841
0.488260 0.479154 0.473931
0.491126 0.481244 0.476020
0.493992 0.483333 0.478110
0.496858 0.485423 0.480199
0.499724 0.487512 0.482288
0.480899 0.475675 0.469675
0.483764 0.477764 0.471764
0.486630 0.479854 0.473854
0.489496 0.481943 0.475943
0.492362 0.484033 0.478033
0.495228 0.486122 0.480122
0.498094 0.488212 0.482212
0.500960 0.490301 0.484301
0.503826 0.492390 0.486390
0.485001 0.480553 0.473777
0.487866 0.482643 0.475866
0.490732 0.484732 0.477956
0.493598 0.486822 0.480045
0.496464 0.488911 0.482135
0.499330 0.491001 0.484224
0.502196 0.493090 0.486314
0.505062 0.495179 0.488403
0.507928 0.497269 0.490492
0.489103 0.485432 0.477879
0.491968 0.487521 0.479968
0.494834 0.489611 0.482058
0.497700 0.491700 0.484147
0.500566 0.493790 0.486237
0.503432 0.495879 0.488326
0.506298 0.497968 0.490416
0.509164 0.500058 0.492505
0.512030 0.502147 0.494594
0.493205 0.490310 0.481981
0.496070 0.492400 0.484070
0.498936 0.494489 0.486160
0.501802 0.496579 0.488249
0.504668 0.498668 0.490339
0.507534 0.500757 0.492428
0.510400 0.502847 0.494518
0.513266 0.504936 0.496607
0.516132 0.507026 0.498696
0.497307 0.495189 0.486083
0.500172 0.497278 0.488172
0.503038 0.499368 0.490262
0.505904 0.501457 0.492351
0.508770 0.503546 0.494441
0.511636 0.505636 0.496530
0.514502 0.507725 0.498620
0.517368 0.509815 0.500709
0.520234 0.511904 0.502798
0.501409 0.500067 0.490185
0.504274 0.502157 0.492274
0.507140 0.504246 0.494364
0.510006 0.506335 0.496453
0.512872 0.508425 0.498543
0.515738 0.510514 0.500632
0.518604 0.512604 0.502721
0.521470 0.514693 0.504811
0.524335 0.516783 0.506900
0.505510 0.504946 0.494287
0.508376 0.507035 0.496376
0.511242 0.509124 0.498466
0.514108 0.511214 0.500555
0.516974 0.513303 0.502645
0.519840 0.515393 0.504734
0.522706 0.517482 0.506823
0.525572 0.519572 0.508913
0.528437 0.521661 0.511002
0.509612 0.509824 0.498389
0.512478 0.511913 0.500478
0.515344 0.514003 0.502568
0.518210 0.516092 0.504657
0.521076 0.518182 0.506747
0.523942 0.520271 0.508836
0.526808 0.522361 0.510925
0.529674 0.524450 0.513015
0.532539 0.526539 0.515104
0.477593 0.471593 0.467146
0.480459 0.473683 0.469236
0.483325 0.475772 0.471325
0.486191 0.477862 0.473414
0.489057 0.479951 0.475504
0.491923 0.482040 0.477593
0.494789 0.484130 0.479683
0.497654 0.486219 0.481772
0.500520 0.488309 0.483862
0.481695 0.476472 0.471248
0.484561 0.478561 0.473338
0.487427 0.480651 0.475427
0.490293 0.482740 0.477516
0.493159 0.484829 0.479606
0.496025 0.486919 0.481695
0.498890 0.489008 0.483785
0.501756 0.491098 0.485874
0.504622 0.493187 0.487964
0.485797 0.481350 0.475350
0.488663 0.483440 0.477440
0.491529 0.485529 0.479529
0.494395 0.487618 0.481618
0.497261 0.489708 0.483708
0.500127 0.491797 0.485797
0.502992 0.493887 0.487887
0.505858 0.495976 0.489976
0.508724 0.498066 0.492066
0.489899 0.486229 0.479452
0.492765 0.488318 0.481542
0.495631 0.490407 0.483631
0.498497 0.492497 0.485720
0.501363 0.494586 0.487810
0.504229 0.496676 0.489899
0.507094 0.498765 0.491989
0.509960 0.500855 0.494078
0.512826 0.502944 0.496167
0.494001 0.491107 0.483554
0.496867 0.493196 0.485644
0.499733 0.495286 0.487733
0.502599 0.497375 0.489822
0.505465 0.499465 0.491912
0.508331 0.501554 0.494001
0.511196 0.503644 0.496091
0.514062 0.505733 0.498180
0.516928 0.507822 0.500269
0.498103 0.495985 0.487656
0.500969 0.498075 0.489745
0.503835 0.500164 0.491835
0.506701 0.502254 0.493924
0.509567 0.504343 0.496014
0.512433 0.506433 0.498103
0.515298 0.508522 0.500193
0.518164 0.510611 0.502282
0.521030 0.512701 0.504371
0.502205 0.500864 0.491758
0.505071 0.502953 0.493847
0.507937 0.505043 0.495937
0.510803 0.507132 0.498026
0.513669 0.509222 0.500116
0.516535 0.511311 0.502205
0.519400 0.513400 0.504295
0.522266 0.515490 0.506384
0.525132 0.517579 0.508473
0.506307 0.505742 0.495860
0.509173 0.507832 0.497949
0.512039 0.509921 0.500039
0.514905 0.512011 0.502128
0.517771 0.514100 0.504218
0.520636 0.516189 0.506307
0.523502 0.518279 0.508397
0.526368 0.520368 0.510486
0.529234 0.522458 0.512575
0.510409 0.510621 0.499962
0.513275 0.512710 0.502051
0.516141 0.514800 0.504141
0.519007 0.516889 0.506230
0.521873 0.518978 0.508320
0.524738 0.521068 0.510409
0.527604 0.523157 0.512499
0.530470 0.525247 0.514588
0.533336 0.527336 0.516677
0.478390 0.472390 0.468719
0.481256 0.474479 0.470809
0.484122 0.476569 0.472898
0.486988 0.478658 0.474988
0.489853 0.480748 0.477077
0.492719 0.482837 0.479166
0.495585 0.484926 0.481256
0.498451 0.487016 0.483345
0.501317 0.489105 0.485435
0.482492 0.477268 0.472821
0.485358 0.479358 0.474911
0.488224 0.481447 0.477000
0.491090 0.483537 0.479090
0.493955 0.485626 0.481179
0.496821 0.487715 0.483268
0.499687 0.489805 0.485358
0.502553 0.491894 0.487447
0.505419 0.493984 0.489537
0.486594 0.482147 0.476923
0.489460 0.484236 0.479013
0.492326 0.486326 0.481102
0.495191 0.488415 0.483191
0.498057 0.490504 0.485281
0.500923 0.492594 0.487370
0.503789 0.494683 0.489460
0.506655 0.496773 0.491549
0.509521 0.498862 0.493639
0.490696 0.487025 0.481025
0.493562 0.489115 0.483115
0.496428 0.491204 0.485204
0.499293 0.493293 0.487293
0.502159 0.495383 0.489383
0.505025 0.497472 0.491472
0.507891 0.499562 0.493562
0.510757 0.501651 0.495651
0.513623 0.503741 0.497741
0.494798 0.491904 0.485127
0.497664 0.493993 0.487217
0.500530 0.496082 0.489306
0.503395 0.498172 0.491395
0.506261 0.500261 0.493485
0.509127 0.502351 0.495574
0.511993 0.504440 0.497664
0.514859 0.506530 0.499753
0.517725 0.508619 0.501843
0.498900 0.496782 0.489229
0.501766 0.498871 0.491319
0.504632 0.500961 0.493408
0.507497 0.503050 0.495497
0.510363 0.505140 0.497587
0.513229 0.507229 0.499676
0.516095 0.509319 0.501766
0.518961 0.511408 0.503855
0.521827 0.513497 0.505945
0.503002 0.501660 0.493331
0.505868 0.503750 0.495421
0.508734 0.505839 0.497510
0.511599 0.507929 0.499599
0.514465 0.510018 0.501689
0.517331 0.512108 0.503778
0.520197 0.514197 0.505868
0.523063 0.516286 0.507957
0.525929 0.518376 0.510047
0.507104 0.506539 0.497433
0.509970 0.508628 0.499523
0.512836 0.510718 0.501612
0.515701 0.512807 0.503701
0.518567 0.514897 0.505791
0.521433 0.516986 0.507880
0.524299 0.519075 0.509970
0.527165 0.521165 0.512059
0.530031 0.523254 0.514148
0.511206 0.511417 0.501535
0.514072 0.513507 0.503625
0.516937 0.515596 0.505714
0.519803 0.517686 0.507803
0.522669 0.519775 0.509893
0.525535 0.521864 0.511982
0.528401 0.523954 0.514072
0.531267 0.526043 0.516161
0.534133 0.528133 0.518250
0.479187 0.473187 0.470292
0.482052 0.475276 0.472382
0.484918 0.477365 0.474471
0.487784 0.479455 0.476561
0.490650 0.481544 0.478650
0.493516 0.483634 0.480739
0.496382 0.485723 0.482829
0.499248 0.487813 0.484918
0.502114 0.489902 0.487008
0.483289 0.478065 0.474394
0.486154 0.480154 0.476484
0.489020 0.482244 0.478573
0.491886 0.484333 0.480663
0.494752 0.486423 0.482752
0.497618 0.488512 0.484841
0.500484 0.490602 0.486931
0.503350 0.492691 0.489020
0.506216 0.494780 0.491110
0.487391 0.482943 0.478496
0.490256 0.485033 0.480586
0.493122 0.487122 0.482675
0.495988 0.489212 0.484765
0.498854 0.491301 0.486854
0.501720 0.493391 0.488943
0.504586 0.495480 0.491033
0.507452 0.497569 0.493122
0.510317 0.499659 0.495212
0.491492 0.487822 0.482598
0.494358 0.489911 0.484688
0.497224 0.492001 0.486777
0.500090 0.494090 0.488867
0.502956 0.496180 0.490956
0.505822 0.498269 0.493045
0.508688 0.500358 0.495135
0.511554 0.502448 0.497224
0.514419 0.504537 0.499314
0.495594 0.492700 0.486700
0.498460 0.494790 0.488790
0.501326 0.496879 0.490879
0.504192 0.498969 0.492969
0.507058 0.501058 0.495058
0.509924 0.503147 0.497147
0.512790 0.505237 0.499237
0.515656 0.507326 0.501326
0.518521 0.509416 0.503416
0.499696 0.497579 0.490802
0.502562 0.499668 0.492892
0.505428 0.501758 0.494981
0.508294 0.503847 0.497071
0.511160 0.505936 0.499160
0.514026 0.508026 0.501249
0.516892 0.510115 0.503339
0.519758 0.512205 0.505428
0.522623 0.514294 0.507518
0.503798 0.502457 0.494904
0.506664 0.504547 0.496994
0.509530 0.506636 0.499083
0.512396 0.508725 0.501172
0.515262 0.510815 0.503262
0.518128 0.512904 0.505351
0.520994 0.514994 0.507441
0.523860 0.517083 0.509530
0.526725 0.519172 0.511620
0.507900 0.507336 0.499006
0.510766 0.509425 0.501096
0.513632 0.511514 0.503185
0.516498 0.513604 0.505274
0.519364 0.515693 0.507364
0.522230 0.517783 0.509453
0.525096 0.519872 0.511543
0.527961 0.521961 0.513632
0.530827 0.524051 0.515722
0.512002 0.512214 0.503108
0.514868 0.514303 0.505198
0.517734 0.516393 0.507287
0.520600 0.518482 0.509376
0.523466 0.520572 0.511466
0.526332 0.522661 0.513555
0.529198 0.524751 0.515645
0.532063 0.526840 0.517734
0.534929 0.528929 0.519824
0.479983 0.473983 0.471865
0.482849 0.476073 0.473955
0.485715 0.478162 0.476044
0.488581 0.480251 0.478134
0.491447 0.482341 0.480223
0.494313 0.484430 0.482313
0.497178 0.486520 0.484402
0.500044 0.488609 0.486491
0.502910 0.490699 0.488581
0.484085 0.478862 0.475967
0.486951 0.480951 0.478057
0.489817 0.483040 0.480146
0.492683 0.485130 0.482236
0.495549 0.487219 0.484325
0.498415 0.489309 0.486415
0.501280 0.491398 0.488504
0.504146 0.493488 0.490593
0.507012 0.495577 0.492683
0.488187 0.483740 0.480069
0.491053 0.485829 0.482159
0.493919 0.487919 0.484248
0.496785 0.490008 0.486338
0.499651 0.492098 0.488427
0.502516 0.494187 0.490516
0.505382 0.496277 0.492606
0.508248 0.498366 0.494695
0.511114 0.500455 0.496785
0.492289 0.488618 0.484171
0.495155 0.490708 0.486261
0.498021 0.492797 0.488350
0.500887 0.494887 0.490440
0.503753 0.496976 0.492529
0.506618 0.499066 0.494618
0.509484 0.501155 0.496708
0.512350 0.503244 0.498797
0.515216 0.505334 0.500887
0.496391 0.493497 0.488273
0.499257 0.495586 0.490363
0.502123 0.497676 0.492452
0.504989 0.499765 0.494542
0.507855 0.501855 0.496631
0.510720 0.503944 0.498720
0.513586 0.506033 0.500810
0.516452 0.508123 0.502899
0.519318 0.510212 0.504989
0.500493 0.498375 0.492375
0.503359 0.500465 0.494465
0.506225 0.502554 0.496554
0.509091 0.504644 0.498644
0.511957 0.506733 0.500733
0.514822 0.508822 0.502822
0.517688 0.510912 0.504912
0.520554 0.513001 0.507001
0.523420 0.515091 0.509091
0.504595 0.503254 0.496477
0.507461 0.505343 0.498567
0.510327 0.507433 0.500656
0.513193 0.509522 0.502746
0.516059 0.511611 0.504835
0.518924 0.513701 0.506924
0.521790 0.515790 0.509014
0.524656 0.517880 0.511103
0.527522 0.519969 0.513193
0.508697 0.508132 0.500579
0.511563 0.510222 0.502669
0.514429 0.512311 0.504758
0.517295 0.514400 0.506848
0.520161 0.516490 0.508937
0.523026 0.518579 0.511026
0.525892 0.520669 0.513116
0.528758 0.522758 0.515205
0.531624 0.524848 0.517295
0.512799 0.513011 0.504681
0.515665 0.515100 0.506771
0.518531 0.517189 0.508860
0.521397 0.519279 0.510950
0.524262 0.521368 0.513039
0.527128 0.523458 0.515128
0.529994 0.525547 0.517218
0.532860 0.527637 0.519307
0.535726 0.529726 0.521397
0.480780 0.474780 0.473439
0.483646 0.476869 0.475528
0.486512 0.478959 0.477617
0.489377 0.481048 0.479707
0.492243 0.483138 0.481796
0.495109 0.485227 0.483886
0.497975 0.487316 0.485975
0.500841 0.489406 0.488064
0.503707 0.491495 0.490154
0.484882 0.479658 0.477540
0.487748 0.481748 0.479630
0.490614 0.483837 0.481719
0.493479 0.485927 0.483809
0.496345 0.488016 0.485898
0.499211 0.490105 0.487988
0.502077 0.492195 0.490077
0.504943 0.494284 0.492166
0.507809 0.496374 0.494256
0.488984 0.484537 0.481642
0.491850 0.486626 0.483732
0.494716 0.488716 0.485821
0.497581 0.490805 0.487911
0.500447 0.492894 0.490000
0.503313 0.494984 0.492090
0.506179 0.497073 0.494179
0.509045 0.499163 0.496268
0.511911 0.501252 0.498358
0.493086 0.489415 0.485744
0.495952 0.491505 0.487834
0.498817 0.493594 0.489923
0.501683 0.495683 0.492013
0.504549 0.497773 0.494102
0.507415 0.499862 0.496192
0.510281 0.501952 0.498281
0.513147 0.504041 0.500370
0.516013 0.506130 0.502460
0.497188 0.494294 0.489846
0.500054 0.496383 0.491936
0.502919 0.498472 0.494025
0.505785 0.500562 0.496115
0.508651 0.502651 0.498204
0.511517 0.504741 0.500294
0.514383 0.506830 0.502383
0.517249 0.508919 0.504472
0.520115 0.511009 0.506562
0.501290 0.499172 0.493948
0.504156 0.501261 0.496038
0.507021 0.503351 0.498127
0.509887 0.505440 0.500217
0.512753 0.507530 0.502306
0.515619 0.509619 0.504396
0.518485 0.511708 0.506485
0.521351 0.513798 0.508574
0.524217 0.515887 0.510664
0.505392 0.504050 0.498050
0.508258 0.506140 0.500140
0.511123 0.508229 0.502229
0.513989 0.510319 0.504319
0.516855 0.512408 0.506408
0.519721 0.514497 0.508497
0.522587 0.516587 0.510587
0.525453 0.518676 0.512676
0.528319 0.520766 0.514766
0.509494 0.508929 0.502152
0.512360 0.511018 0.504242
0.515225 0.513108 0.506331
0.518091 0.515197 0.508421
0.520957 0.517287 0.510510
0.523823 0.519376 0.512599
0.526689 0.521465 0.514689
0.529555 0.523555 0.516778
0.532421 0.525644 0.518868
0.513596 0.513807 0.506254
0.516462 0.515897 0.508344
0.519327 0.517986 0.510433
0.522193 0.520076 0.512523
0.525059 0.522165 0.514612
0.527925 0.524254 0.516701
0.530791 0.526344 0.518791
0.533657 0.528433 0.520880
0.536523 0.530523 0.522970
0.481576 0.475576 0.475012
0.484442 0.477666 0.477101
0.487308 0.479755 0.479190
0.490174 0.481845 0.481280
0.493040 0.483934 0.483369
0.495906 0.486024 0.485459
0.498772 0.488113 0.487548
0.501638 0.490202 0.489638
0.504503 0.492292 0.491727
0.485678 0.480455 0.479114
0.488544 0.482544 0.481203
0.491410 0.484634 0.483292
0.494276 0.486723 0.485382
0.497142 0.488813 0.487471
0.500008 0.490902 0.489561
0.502874 0.492991 0.491650
0.505740 0.495081 0.493740
0.508605 0.497170 0.495829
0.489780 0.485333 0.483216
0.492646 0.487423 0.485305
0.495512 0.489512 0.487394
0.498378 0.491602 0.489484
0.501244 0.493691 0.491573
0.504110 0.495780 0.493663
0.506976 0.497870 0.495752
0.509842 0.499959 0.497842
0.512707 0.502049 0.499931
0.493882 0.490212 0.487318
0.496748 0.492301 0.489407
0.499614 0.494391 0.491496
0.502480 0.496480 0.493586
0.505346 0.498569 0.495675
0.508212 0.500659 0.497765
0.511078 0.502748 0.499854
0.513943 0.504838 0.501943
0.516809 0.506927 0.504033
0.497984 0.495090 0.491420
0.500850 0.497180 0.493509
0.503716 0.499269 0.495598
0.506582 0.501358 0.497688
0.509448 0.503448 0.499777
0.512314 0.505537 0.501867
0.515180 0.507627 0.503956
0.518045 0.509716 0.506045
0.520911 0.511806 0.508135
0.502086 0.499969 0.495521
0.504952 0.502058 0.497611
0.507818 0.504147 0.499700
0.510684 0.506237 0.501790
0.513550 0.508326 0.503879
0.516416 0.510416 0.505969
0.519282 0.512505 0.508058
0.522147 0.514595 0.510147
0.525013 0.516684 0.512237
0.506188 0.504847 0.499623
0.509054 0.506936 0.501713
0.511920 0.509026 0.503802
0.514786 0.511115 0.505892
0.517652 0.513205 0.507981
0.520518 0.515294 0.510071
0.523384 0.517384 0.512160
0.526249 0.519473 0.514249
0.529115 0.521562 0.516339
0.510290 0.509725 0.503725
0.513156 0.511815 0.505815
0.516022 0.513904 0.507904
0.518888 0.515994 0.509994
0.521754 0.518083 0.512083
0.524620 0.520173 0.514173
0.527486 0.522262 0.516262
0.530351 0.524351 0.518351
0.533217 0.526441 0.520441
0.514392 0.514604 0.507827
0.517258 0.516693 0.509917
0.520124 0.518783 0.512006
0.522990 0.520872 0.514096
0.525856 0.522962 0.516185
0.528722 0.525051 0.518275
0.531588 0.527140 0.520364
0.534453 0.529230 0.522453
0.537319 0.531319 0.524543
0.482373 0.476373 0.476585
0.485239 0.478463 0.478674
0.488105 0.480552 0.480764
0.490971 0.482641 0.482853
0.493837 0.484731 0.484942
0.496702 0.486820 0.487032
0.499568 0.488910 0.489121
0.502434 0.490999 0.491211
0.505300 0.493088 0.493300
0.486475 0.481252 0.480687
0.489341 0.483341 0.482776
0.492207 0.485430 0.484866
0.495073 0.487520 0.486955
0.497939 0.489609 0.489044
0.500804 0.491699 0.491134
0.503670 0.493788 0.493223
0.506536 0.495877 0.495313
0.509402 0.497967 0.497402
0.490577 0.486130 0.484789
0.493443 0.488219 0.486878
0.496309 0.490309 0.488967
0.499175 0.492398 0.491057
0.502041 0.494488 0.493146
0.504906 0.496577 0.495236
0.507772 0.498666 0.497325
0.510638 0.500756 0.499415
0.513504 0.502845 0.501504
0.494679 0.491008 0.488891
0.497545 0.493098 0.490980
0.500411 0.495187 0.493069
0.503277 0.497277 0.495159
0.506143 0.499366 0.497248
0.509008 0.501455 0.499338
0.511874 0.503545 0.501427
0.514740 0.505634 0.503517
0.517606 0.507724 0.505606
0.498781 0.495887 0.492993
0.501647 0.497976 0.495082
0.504513 0.500066 0.497171
0.507379 0.502155 0.499261
0.510244 0.504244 0.501350
0.513110 0.506334 0.503440
0.515976 0.508423 0.505529
0.518842 0.510513 0.507619
0.521708 0.512602 0.509708
0.502883 0.500765 0.497095
0.505749 0.502855 0.499184
0.508615 0.504944 0.501273
0.511481 0.507033 0.503363
0.514346 0.509123 0.505452
0.517212 0.511212 0.507542
0.520078 0.513302 0.509631
0.522944 0.515391 0.511721
0.525810 0.517481 0.513810
0.506985 0.505644 0.501197
0.509851 0.507733 0.503286
0.512717 0.509823 0.505375
0.515583 0.511912 0.507465
0.518448 0.514001 0.509554
0.521314 0.516091 0.511644
0.524180 0.518180 0.513733
0.527046 0.520270 0.515823
0.529912 0.522359 0.517912
0.511087 0.510522 0.505299
0.513953 0.512612 0.507388
0.516819 0.514701 0.509477
0.519685 0.516790 0.511567
0.522550 0.518880 0.513656
0.525416 0.520969 0.515746
0.528282 0.523059 0.517835
0.531148 0.525148 0.519924
0.534014 0.527237 0.522014
0.515189 0.515401 0.509401
0.518055 0.517490 0.511490
0.520921 0.519579 0.513579
0.523787 0.521669 0.515669
0.526652 0.523758 0.517758
0.529518 0.525848 0.519848
0.532384 0.527937 0.521937
0.535250 0.530026 0.524026
0.538116 0.532116 0.526116
