shared/src/main/assets/luts/drama_albuquerque_sun.cube
TITLE "DALUR Albuquerque Sun"
LUT_3D_SIZE 17
DOMAIN_MIN 0.0 0.0 0.0
DOMAIN_MAX 1.0 1.0 1.0
0.475000 0.460000 0.445000
0.477354 0.461282 0.446282
0.479707 0.462564 0.447564
0.482061 0.463846 0.448846
0.484414 0.465127 0.450127
0.486768 0.466409 0.451409
0.489122 0.467691 0.452691
0.491475 0.468973 0.453973
0.493829 0.470255 0.455255
0.496183 0.471537 0.456537
0.498536 0.472818 0.457818
0.500890 0.474100 0.459100
0.503243 0.475382 0.460382
0.505597 0.476664 0.461664
0.507951 0.477946 0.462946
0.510304 0.479228 0.464228
0.512658 0.480509 0.465509
0.477517 0.463588 0.447517
0.479870 0.464870 0.448798
0.482224 0.466152 0.450080
0.484577 0.467434 0.451362
0.486931 0.468716 0.452644
0.489285 0.469998 0.453926
0.491638 0.471279 0.455208
0.493992 0.472561 0.456489
0.496345 0.473843 0.457771
0.498699 0.475125 0.459053
0.501053 0.476407 0.460335
0.503406 0.477689 0.461617
0.505760 0.478970 0.462899
0.508114 0.480252 0.464180
0.510467 0.481534 0.465462
0.512821 0.482816 0.466744
0.515174 0.484098 0.468026
0.480033 0.467177 0.450033
0.482387 0.468458 0.451315
0.484740 0.469740 0.452597
0.487094 0.471022 0.453879
0.489448 0.472304 0.455160
0.491801 0.473586 0.456442
0.494155 0.474868 0.457724
0.496508 0.476149 0.459006
0.498862 0.477431 0.460288
0.501216 0.478713 0.461570
0.503569 0.479995 0.462851
0.505923 0.481277 0.464133
0.508276 0.482559 0.465415
0.510630 0.483841 0.466697
0.512984 0.485122 0.467979
0.515337 0.486404 0.469261
0.517691 0.487686 0.470543
0.482550 0.470765 0.452550
0.484903 0.472047 0.453831
0.487257 0.473329 0.455113
0.489610 0.474610 0.456395
0.491964 0.475892 0.457677
0.494318 0.477174 0.458959
0.496671 0.478456 0.460241
0.499025 0.479738 0.461522
0.501378 0.481020 0.462804
0.503732 0.482301 0.464086
0.506086 0.483583 0.465368
0.508439 0.484865 0.466650
0.510793 0.486147 0.467932
0.513147 0.487429 0.469214
0.515500 0.488711 0.470495
0.517854 0.489993 0.471777
0.520207 0.491274 0.473059
0.485066 0.474353 0.455066
0.487420 0.475635 0.456348
0.489773 0.476917 0.457630
0.492127 0.478199 0.458912
0.494481 0.479481 0.460193
0.496834 0.480762 0.461475
0.499188 0.482044 0.462757
0.501541 0.483326 0.464039
0.503895 0.484608 0.465321
0.506249 0.485890 0.466603
0.508602 0.487172 0.467885
0.510956 0.488453 0.469166
0.513309 0.489735 0.470448
0.515663 0.491017 0.471730
0.518017 0.492299 0.473012
0.520370 0.493581 0.474294
0.522724 0.494863 0.475576
0.487583 0.477941 0.457583
0.489936 0.479223 0.458864
0.492290 0.480505 0.460146
0.494643 0.481787 0.461428
0.496997 0.483069 0.462710
0.499351 0.484351 0.463992
0.501704 0.485633 0.465274
0.504058 0.486914 0.466556
0.506412 0.488196 0.467837
0.508765 0.489478 0.469119
0.511119 0.490760 0.470401
0.513472 0.492042 0.471683
0.515826 0.493324 0.472965
0.518180 0.494605 0.474247
0.520533 0.495887 0.475528
0.522887 0.497169 0.476810
0.525240 0.498451 0.478092
0.490099 0.481530 0.460099
0.492453 0.482812 0.461381
0.494806 0.484093 0.462663
0.497160 0.485375 0.463945
0.499514 0.486657 0.465227
0.501867 0.487939 0.466508
0.504221 0.489221 0.467790
0.506574 0.490503 0.469072
0.508928 0.491785 0.470354
0.511282 0.493066 0.471636
0.513635 0.494348 0.472918
0.515989 0.495630 0.474199
0.518343 0.496912 0.475481
0.520696 0.498194 0.476763
0.523050 0.499476 0.478045
0.525403 0.500757 0.479327
0.527757 0.502039 0.480609
0.492616 0.485118 0.462616
0.494969 0.486400 0.463898
0.497323 0.487682 0.465179
0.499677 0.488964 0.466461
0.502030 0.490245 0.467743
0.504384 0.491527 0.469025
0.506737 0.492809 0.470307
0.509091 0.494091 0.471589
0.511445 0.495373 0.472870
0.513798 0.496655 0.474152
0.516152 0.497936 0.475434
0.518505 0.499218 0.476716
0.520859 0.500500 0.477998
0.523213 0.501782 0.479280
0.525566 0.503064 0.480561
0.527920 0.504346 0.481843
0.530274 0.505628 0.483125
0.495132 0.488706 0.465132
0.497486 0.489988 0.466414
0.499839 0.491270 0.467696
0.502193 0.492552 0.468978
0.504547 0.493834 0.470260
0.506900 0.495116 0.471541
0.509254 0.496397 0.472823
0.511607 0.497679 0.474105
0.513961 0.498961 0.475387
0.516315 0.500243 0.476669
0.518668 0.501525 0.477951
0.521022 0.502807 0.479232
0.523376 0.504088 0.480514
0.525729 0.505370 0.481796
0.528083 0.506652 0.483078
0.530436 0.507934 0.484360
0.532790 0.509216 0.485642
0.497649 0.492295 0.467649
0.500002 0.493577 0.468931
0.502356 0.494858 0.470212
0.504710 0.496140 0.471494
0.507063 0.497422 0.472776
0.509417 0.498704 0.474058
0.511770 0.499986 0.475340
0.514124 0.501268 0.476622
0.516478 0.502549 0.477903
0.518831 0.503831 0.479185
0.521185 0.505113 0.480467
0.523538 0.506395 0.481749
0.525892 0.507677 0.483031
0.528246 0.508959 0.484313
0.530599 0.510240 0.485594
0.532953 0.511522 0.486876
0.535307 0.512804 0.488158
0.500165 0.495883 0.470165
0.502519 0.497165 0.471447
0.504872 0.498447 0.472729
0.507226 0.499728 0.474011
0.509580 0.501010 0.475293
0.511933 0.502292 0.476574
0.514287 0.503574 0.477856
0.516641 0.504856 0.479138
0.518994 0.506138 0.480420
0.521348 0.507420 0.481702
0.523701 0.508701 0.482984
0.526055 0.509983 0.484265
0.528409 0.511265 0.485547
0.530762 0.512547 0.486829
0.533116 0.513829 0.488111
0.535469 0.515111 0.489393
0.537823 0.516392 0.490675
0.502682 0.499471 0.472682
0.505035 0.500753 0.473964
0.507389 0.502035 0.475245
0.509743 0.503317 0.476527
0.512096 0.504599 0.477809
0.514450 0.505880 0.479091
0.516803 0.507162 0.480373
0.519157 0.508444 0.481655
0.521511 0.509726 0.482936
0.523864 0.511008 0.484218
0.526218 0.512290 0.485500
0.528572 0.513572 0.486782
0.530925 0.514853 0.488064
0.533279 0.516135 0.489346
0.535632 0.517417 0.490628
0.537986 0.518699 0.491909
0.540340 0.519981 0.493191
0.505198 0.503060 0.475198
0.507552 0.504341 0.476480
0.509906 0.505623 0.477762
0.512259 0.506905 0.479044
0.514613 0.508187 0.480326
0.516966 0.509469 0.481607
0.519320 0.510751 0.482889
0.521674 0.512032 0.484171
0.524027 0.513314 0.485453
0.526381 0.514596 0.486735
0.528734 0.515878 0.488017
0.531088 0.517160 0.489299
0.533442 0.518442 0.490580
0.535795 0.519724 0.491862
0.538149 0.521005 0.493144
0.540503 0.522287 0.494426
0.542856 0.523569 0.495708
0.507715 0.506648 0.477715
0.510068 0.507930 0.478997
0.512422 0.509212 0.480278
0.514776 0.510493 0.481560
0.517129 0.511775 0.482842
0.519483 0.513057 0.484124
0.521837 0.514339 0.485406
0.524190 0.515621 0.486688
0.526544 0.516903 0.487970
0.528897 0.518184 0.489251
0.531251 0.519466 0.490533
0.533605 0.520748 0.491815
0.535958 0.522030 0.493097
0.538312 0.523312 0.494379
0.540665 0.524594 0.495661
0.543019 0.525875 0.496942
0.545373 0.527157 0.498224
0.510231 0.510236 0.480231
0.512585 0.511518 0.481513
0.514939 0.512800 0.482795
0.517292 0.514082 0.484077
0.519646 0.515364 0.485359
0.521999 0.516645 0.486641
0.524353 0.517927 0.487922
0.526707 0.519209 0.489204
0.529060 0.520491 0.490486
0.531414 0.521773 0.491768
0.533767 0.523055 0.493050
0.536121 0.524336 0.494332
0.538475 0.525618 0.495613
0.540828 0.526900 0.496895
0.543182 0.528182 0.498177
0.545536 0.529464 0.499459
0.547889 0.530746 0.500741
0.512748 0.513824 0.482748
0.515101 0.515106 0.484030
0.517455 0.516388 0.485312
0.519809 0.517670 0.486593
0.522162 0.518952 0.487875
0.524516 0.520234 0.489157
0.526870 0.521516 0.490439
0.529223 0.522797 0.491721
0.531577 0.524079 0.493003
0.533930 0.525361 0.494284
0.536284 0.526643 0.495566
0.538638 0.527925 0.496848
0.540991 0.529207 0.498130
0.543345 0.530488 0.499412
0.545698 0.531770 0.500694
0.548052 0.533052 0.501975
0.550406 0.534334 0.503257
0.515264 0.517413 0.485264
0.517618 0.518695 0.486546
0.519972 0.519976 0.487828
0.522325 0.521258 0.489110
0.524679 0.522540 0.490392
0.527032 0.523822 0.491674
0.529386 0.525104 0.492955
0.531740 0.526386 0.494237
0.534093 0.527667 0.495519
0.536447 0.528949 0.496801
0.538801 0.530231 0.498083
0.541154 0.531513 0.499365
0.543508 0.532795 0.500646
0.545861 0.534077 0.501928
0.548215 0.535359 0.503210
0.550569 0.536640 0.504492
0.552922 0.537922 0.505774
0.475489 0.460489 0.446561
0.477842 0.461771 0.447842
0.480196 0.463052 0.449124
0.482550 0.464334 0.450406
0.484903 0.465616 0.451688
0.487257 0.466898 0.452970
0.489610 0.468180 0.454252
0.491964 0.469462 0.455533
0.494318 0.470743 0.456815
0.496671 0.472025 0.458097
0.499025 0.473307 0.459379
0.501378 0.474589 0.460661
0.503732 0.475871 0.461943
0.506086 0.477153 0.463224
0.508439 0.478435 0.464506
0.510793 0.479716 0.465788
0.513147 0.480998 0.467070
0.478005 0.464077 0.449077
0.480359 0.465359 0.450359
0.482712 0.466641 0.451641
0.485066 0.467923 0.452923
0.487420 0.469204 0.454204
0.489773 0.470486 0.455486
0.492127 0.471768 0.456768
0.494481 0.473050 0.458050
0.496834 0.474332 0.459332
0.499188 0.475614 0.460614
0.501541 0.476895 0.461895
0.503895 0.478177 0.463177
0.506249 0.479459 0.464459
0.508602 0.480741 0.465741
0.510956 0.482023 0.467023
0.513309 0.483305 0.468305
0.515663 0.484586 0.469586
0.480522 0.467665 0.451594
0.482875 0.468947 0.452875
0.485229 0.470229 0.454157
0.487583 0.471511 0.455439
0.489936 0.472793 0.456721
0.492290 0.474075 0.458003
0.494643 0.475356 0.459285
0.496997 0.476638 0.460566
0.499351 0.477920 0.461848
0.501704 0.479202 0.463130
0.504058 0.480484 0.464412
0.506412 0.481766 0.465694
0.508765 0.483047 0.466976
0.511119 0.484329 0.468257
0.513472 0.485611 0.469539
0.515826 0.486893 0.470821
0.518180 0.488175 0.472103
0.483038 0.471254 0.454110
0.485392 0.472535 0.455392
0.487746 0.473817 0.456674
0.490099 0.475099 0.457956
0.492453 0.476381 0.459237
0.494806 0.477663 0.460519
0.497160 0.478945 0.461801
0.499514 0.480227 0.463083
0.501867 0.481508 0.464365
0.504221 0.482790 0.465647
0.506574 0.484072 0.466928
0.508928 0.485354 0.468210
0.511282 0.486636 0.469492
0.513635 0.487918 0.470774
0.515989 0.489199 0.472056
0.518343 0.490481 0.473338
0.520696 0.491763 0.474620
0.485555 0.474842 0.456627
0.487908 0.476124 0.457908
0.490262 0.477406 0.459190
0.492616 0.478687 0.460472
0.494969 0.479969 0.461754
0.497323 0.481251 0.463036
0.499677 0.482533 0.464318
0.502030 0.483815 0.465599
0.504384 0.485097 0.466881
0.506737 0.486378 0.468163
0.509091 0.487660 0.469445
0.511445 0.488942 0.470727
0.513798 0.490224 0.472009
0.516152 0.491506 0.473291
0.518505 0.492788 0.474572
0.520859 0.494070 0.475854
0.523213 0.495351 0.477136
0.488071 0.478430 0.459143
0.490425 0.479712 0.460425
0.492779 0.480994 0.461707
0.495132 0.482276 0.462989
0.497486 0.483558 0.464270
0.499839 0.484839 0.465552
0.502193 0.486121 0.466834
0.504547 0.487403 0.468116
0.506900 0.488685 0.469398
0.509254 0.489967 0.470680
0.511607 0.491249 0.471962
0.513961 0.492530 0.473243
0.516315 0.493812 0.474525
0.518668 0.495094 0.475807
0.521022 0.496376 0.477089
0.523376 0.497658 0.478371
0.525729 0.498940 0.479653
0.490588 0.482019 0.461660
0.492941 0.483300 0.462941
0.495295 0.484582 0.464223
0.497649 0.485864 0.465505
0.500002 0.487146 0.466787
0.502356 0.488428 0.468069
0.504710 0.489710 0.469351
0.507063 0.490991 0.470633
0.509417 0.492273 0.471914
0.511770 0.493555 0.473196
0.514124 0.494837 0.474478
0.516478 0.496119 0.475760
0.518831 0.497401 0.477042
0.521185 0.498682 0.478324
0.523538 0.499964 0.479605
0.525892 0.501246 0.480887
0.528246 0.502528 0.482169
0.493104 0.485607 0.464176
0.495458 0.486889 0.465458
0.497812 0.488170 0.466740
0.500165 0.489452 0.468022
0.502519 0.490734 0.469304
0.504872 0.492016 0.470585
0.507226 0.493298 0.471867
0.509580 0.494580 0.473149
0.511933 0.495862 0.474431
0.514287 0.497143 0.475713
0.516641 0.498425 0.476995
0.518994 0.499707 0.478276
0.521348 0.500989 0.479558
0.523701 0.502271 0.480840
0.526055 0.503553 0.482122
0.528409 0.504834 0.483404
0.530762 0.506116 0.484686
0.495621 0.489195 0.466693
0.497975 0.490477 0.467975
0.500328 0.491759 0.469256
0.502682 0.493041 0.470538
0.505035 0.494322 0.471820
0.507389 0.495604 0.473102
0.509743 0.496886 0.474384
0.512096 0.498168 0.475666
0.514450 0.499450 0.476947
0.516803 0.500732 0.478229
0.519157 0.502014 0.479511
0.521511 0.503295 0.480793
0.523864 0.504577 0.482075
0.526218 0.505859 0.483357
0.528572 0.507141 0.484638
0.530925 0.508423 0.485920
0.533279 0.509705 0.487202
0.498137 0.492783 0.469209
0.500491 0.494065 0.470491
0.502845 0.495347 0.471773
0.505198 0.496629 0.473055
0.507552 0.497911 0.474337
0.509906 0.499193 0.475618
0.512259 0.500474 0.476900
0.514613 0.501756 0.478182
0.516966 0.503038 0.479464
0.519320 0.504320 0.480746
0.521674 0.505602 0.482028
0.524027 0.506884 0.483309
0.526381 0.508165 0.484591
0.528734 0.509447 0.485873
0.531088 0.510729 0.487155
0.533442 0.512011 0.488437
0.535795 0.513293 0.489719
0.500654 0.496372 0.471726
0.503008 0.497654 0.473008
0.505361 0.498935 0.474289
0.507715 0.500217 0.475571
0.510068 0.501499 0.476853
0.512422 0.502781 0.478135
0.514776 0.504063 0.479417
0.517129 0.505345 0.480699
0.519483 0.506626 0.481980
0.521837 0.507908 0.483262
0.524190 0.509190 0.484544
0.526544 0.510472 0.485826
0.528897 0.511754 0.487108
0.531251 0.513036 0.488390
0.533605 0.514317 0.489672
0.535958 0.515599 0.490953
0.538312 0.516881 0.492235
0.503170 0.499960 0.474242
0.505524 0.501242 0.475524
0.507878 0.502524 0.476806
0.510231 0.503806 0.478088
0.512585 0.505087 0.479370
0.514939 0.506369 0.480651
0.517292 0.507651 0.481933
0.519646 0.508933 0.483215
0.521999 0.510215 0.484497
0.524353 0.511497 0.485779
0.526707 0.512778 0.487061
0.529060 0.514060 0.488343
0.531414 0.515342 0.489624
0.533767 0.516624 0.490906
0.536121 0.517906 0.492188
0.538475 0.519188 0.493470
0.540828 0.520469 0.494752
0.505687 0.503548 0.476759
0.508041 0.504830 0.478041
0.510394 0.506112 0.479322
0.512748 0.507394 0.480604
0.515101 0.508676 0.481886
0.517455 0.509958 0.483168
0.519809 0.511239 0.484450
0.522162 0.512521 0.485732
0.524516 0.513803 0.487014
0.526870 0.515085 0.488295
0.529223 0.516367 0.489577
0.531577 0.517649 0.490859
0.533930 0.518930 0.492141
0.536284 0.520212 0.493423
0.538638 0.521494 0.494705
0.540991 0.522776 0.495986
0.543345 0.524058 0.497268
0.508204 0.507137 0.479275
0.510557 0.508418 0.480557
0.512911 0.509700 0.481839
0.515264 0.510982 0.483121
0.517618 0.512264 0.484403
0.519972 0.513546 0.485685
0.522325 0.514828 0.486966
0.524679 0.516109 0.488248
0.527032 0.517391 0.489530
0.529386 0.518673 0.490812
0.531740 0.519955 0.492094
0.534093 0.521237 0.493376
0.536447 0.522519 0.494657
0.538801 0.523801 0.495939
0.541154 0.525082 0.497221
0.543508 0.526364 0.498503
0.545861 0.527646 0.499785
0.510720 0.510725 0.481792
0.513074 0.512007 0.483074
0.515427 0.513289 0.484356
0.517781 0.514570 0.485637
0.520135 0.515852 0.486919
0.522488 0.517134 0.488201
0.524842 0.518416 0.489483
0.527195 0.519698 0.490765
0.529549 0.520980 0.492047
0.531903 0.522261 0.493328
0.534256 0.523543 0.494610
0.536610 0.524825 0.495892
0.538963 0.526107 0.497174
0.541317 0.527389 0.498456
0.543671 0.528671 0.499738
0.546024 0.529953 0.501019
0.548378 0.531234 0.502301
0.513237 0.514313 0.484308
0.515590 0.515595 0.485590
0.517944 0.516877 0.486872
0.520297 0.518159 0.488154
0.522651 0.519441 0.489436
0.525005 0.520722 0.490718
0.527358 0.522004 0.491999
0.529712 0.523286 0.493281
0.532066 0.524568 0.494563
0.534419 0.525850 0.495845
0.536773 0.527132 0.497127
0.539126 0.528413 0.498409
0.541480 0.529695 0.499690
0.543834 0.530977 0.500972
0.546187 0.532259 0.502254
0.548541 0.533541 0.503536
0.550894 0.534823 0.504818
0.515753 0.517901 0.486825
0.518107 0.519183 0.488107
0.520460 0.520465 0.489389
0.522814 0.521747 0.490670
0.525168 0.523029 0.491952
0.527521 0.524311 0.493234
0.529875 0.525593 0.494516
0.532228 0.526874 0.495798
0.534582 0.528156 0.497080
0.536936 0.529438 0.498361
0.539289 0.530720 0.499643
0.541643 0.532002 0.500925
0.543996 0.533284 0.502207
0.546350 0.534565 0.503489
0.548704 0.535847 0.504771
0.551057 0.537129 0.506053
0.553411 0.538411 0.507334
0.475977 0.460977 0.448121
0.478331 0.462259 0.449403
0.480685 0.463541 0.450685
0.483038 0.464823 0.451967
0.485392 0.466105 0.453248
0.487746 0.467387 0.454530
0.490099 0.468669 0.455812
0.492453 0.469950 0.457094
0.494806 0.471232 0.458376
0.497160 0.472514 0.459658
0.499514 0.473796 0.460939
0.501867 0.475078 0.462221
0.504221 0.476360 0.463503
0.506574 0.477641 0.464785
0.508928 0.478923 0.466067
0.511282 0.480205 0.467349
0.513635 0.481487 0.468630
0.478494 0.464566 0.450638
0.480848 0.465848 0.451919
0.483201 0.467129 0.453201
0.485555 0.468411 0.454483
0.487908 0.469693 0.455765
0.490262 0.470975 0.457047
0.492616 0.472257 0.458329
0.494969 0.473539 0.459610
0.497323 0.474820 0.460892
0.499677 0.476102 0.462174
0.502030 0.477384 0.463456
0.504384 0.478666 0.464738
0.506737 0.479948 0.466020
0.509091 0.481230 0.467301
0.511445 0.482512 0.468583
0.513798 0.483793 0.469865
0.516152 0.485075 0.471147
0.481011 0.468154 0.453154
0.483364 0.469436 0.454436
0.485718 0.470718 0.455718
0.488071 0.472000 0.457000
0.490425 0.473281 0.458281
0.492779 0.474563 0.459563
0.495132 0.475845 0.460845
0.497486 0.477127 0.462127
0.499839 0.478409 0.463409
0.502193 0.479691 0.464691
0.504547 0.480972 0.465972
0.506900 0.482254 0.467254
0.509254 0.483536 0.468536
0.511607 0.484818 0.469818
0.513961 0.486100 0.471100
0.516315 0.487382 0.472382
0.518668 0.488664 0.473664
0.483527 0.471742 0.455671
0.485881 0.473024 0.456952
0.488234 0.474306 0.458234
0.490588 0.475588 0.459516
0.492941 0.476870 0.460798
0.495295 0.478152 0.462080
0.497649 0.479433 0.463362
0.500002 0.480715 0.464643
0.502356 0.481997 0.465925
0.504710 0.483279 0.467207
0.507063 0.484561 0.468489
0.509417 0.485843 0.469771
0.511770 0.487124 0.471053
0.514124 0.488406 0.472335
0.516478 0.489688 0.473616
0.518831 0.490970 0.474898
0.521185 0.492252 0.476180
0.486044 0.475331 0.458187
0.488397 0.476612 0.459469
0.490751 0.477894 0.460751
0.493104 0.479176 0.462033
0.495458 0.480458 0.463314
0.497812 0.481740 0.464596
0.500165 0.483022 0.465878
0.502519 0.484304 0.467160
0.504872 0.485585 0.468442
0.507226 0.486867 0.469724
0.509580 0.488149 0.471006
0.511933 0.489431 0.472287
0.514287 0.490713 0.473569
0.516641 0.491995 0.474851
0.518994 0.493276 0.476133
0.521348 0.494558 0.477415
0.523701 0.495840 0.478697
0.488560 0.478919 0.460704
0.490914 0.480201 0.461985
0.493267 0.481483 0.463267
0.495621 0.482764 0.464549
0.497975 0.484046 0.465831
0.500328 0.485328 0.467113
0.502682 0.486610 0.468395
0.505035 0.487892 0.469677
0.507389 0.489174 0.470958
0.509743 0.490456 0.472240
0.512096 0.491737 0.473522
0.514450 0.493019 0.474804
0.516803 0.494301 0.476086
0.519157 0.495583 0.477368
0.521511 0.496865 0.478649
0.523864 0.498147 0.479931
0.526218 0.499428 0.481213
0.491077 0.482507 0.463220
0.493430 0.483789 0.464502
0.495784 0.485071 0.465784
0.498137 0.486353 0.467066
0.500491 0.487635 0.468348
0.502845 0.488916 0.469629
0.505198 0.490198 0.470911
0.507552 0.491480 0.472193
0.509906 0.492762 0.473475
0.512259 0.494044 0.474757
0.514613 0.495326 0.476039
0.516966 0.496607 0.477320
0.519320 0.497889 0.478602
0.521674 0.499171 0.479884
0.524027 0.500453 0.481166
0.526381 0.501735 0.482448
0.528734 0.503017 0.483730
0.493593 0.486096 0.465737
0.495947 0.487377 0.467019
0.498300 0.488659 0.468300
0.500654 0.489941 0.469582
0.503008 0.491223 0.470864
0.505361 0.492505 0.472146
0.507715 0.493787 0.473428
0.510068 0.495068 0.474710
0.512422 0.496350 0.475991
0.514776 0.497632 0.477273
0.517129 0.498914 0.478555
0.519483 0.500196 0.479837
0.521837 0.501478 0.481119
0.524190 0.502759 0.482401
0.526544 0.504041 0.483682
0.528897 0.505323 0.484964
0.531251 0.506605 0.486246
0.496110 0.489684 0.468253
0.498463 0.490966 0.469535
0.500817 0.492248 0.470817
0.503170 0.493529 0.472099
0.505524 0.494811 0.473381
0.507878 0.496093 0.474662
0.510231 0.497375 0.475944
0.512585 0.498657 0.477226
0.514939 0.499939 0.478508
0.517292 0.501220 0.479790
0.519646 0.502502 0.481072
0.521999 0.503784 0.482353
0.524353 0.505066 0.483635
0.526707 0.506348 0.484917
0.529060 0.507630 0.486199
0.531414 0.508911 0.487481
0.533767 0.510193 0.488763
0.498626 0.493272 0.470770
0.500980 0.494554 0.472052
0.503333 0.495836 0.473333
0.505687 0.497118 0.474615
0.508041 0.498399 0.475897
0.510394 0.499681 0.477179
0.512748 0.500963 0.478461
0.515101 0.502245 0.479743
0.517455 0.503527 0.481024
0.519809 0.504809 0.482306
0.522162 0.506091 0.483588
0.524516 0.507372 0.484870
0.526870 0.508654 0.486152
0.529223 0.509936 0.487434
0.531577 0.511218 0.488715
0.533930 0.512500 0.489997
0.536284 0.513782 0.491279
0.501143 0.496860 0.473286
0.503496 0.498142 0.474568
0.505850 0.499424 0.475850
0.508204 0.500706 0.477132
0.510557 0.501988 0.478414
0.512911 0.503270 0.479695
0.515264 0.504551 0.480977
0.517618 0.505833 0.482259
0.519972 0.507115 0.483541
0.522325 0.508397 0.484823
0.524679 0.509679 0.486105
0.527032 0.510961 0.487386
0.529386 0.512243 0.488668
0.531740 0.513524 0.489950
0.534093 0.514806 0.491232
0.536447 0.516088 0.492514
0.538801 0.517370 0.493796
0.503659 0.500449 0.475803
0.506013 0.501731 0.477085
0.508366 0.503012 0.478366
0.510720 0.504294 0.479648
0.513074 0.505576 0.480930
0.515427 0.506858 0.482212
0.517781 0.508140 0.483494
0.520135 0.509422 0.484776
0.522488 0.510703 0.486057
0.524842 0.511985 0.487339
0.527195 0.513267 0.488621
0.529549 0.514549 0.489903
0.531903 0.515831 0.491185
0.534256 0.517113 0.492467
0.536610 0.518395 0.493749
0.538963 0.519676 0.495030
0.541317 0.520958 0.496312
0.506176 0.504037 0.478319
0.508529 0.505319 0.479601
0.510883 0.506601 0.480883
0.513237 0.507883 0.482165
0.515590 0.509164 0.483447
0.517944 0.510446 0.484728
0.520297 0.511728 0.486010
0.522651 0.513010 0.487292
0.525005 0.514292 0.488574
0.527358 0.515574 0.489856
0.529712 0.516855 0.491138
0.532066 0.518137 0.492420
0.534419 0.519419 0.493701
0.536773 0.520701 0.494983
0.539126 0.521983 0.496265
0.541480 0.523265 0.497547
0.543834 0.524546 0.498829
0.508692 0.507625 0.480836
0.511046 0.508907 0.482118
0.513399 0.510189 0.483399
0.515753 0.511471 0.484681
0.518107 0.512753 0.485963
0.520460 0.514035 0.487245
0.522814 0.515316 0.488527
0.525168 0.516598 0.489809
0.527521 0.517880 0.491091
0.529875 0.519162 0.492372
0.532228 0.520444 0.493654
0.534582 0.521726 0.494936
0.536936 0.523007 0.496218
0.539289 0.524289 0.497500
0.541643 0.525571 0.498782
0.543996 0.526853 0.500063
0.546350 0.528135 0.501345
0.511209 0.511214 0.483352
0.513562 0.512495 0.484634
0.515916 0.513777 0.485916
0.518270 0.515059 0.487198
0.520623 0.516341 0.488480
0.522977 0.517623 0.489762
0.525330 0.518905 0.491043
0.527684 0.520187 0.492325
0.530038 0.521468 0.493607
0.532391 0.522750 0.494889
0.534745 0.524032 0.496171
0.537099 0.525314 0.497453
0.539452 0.526596 0.498734
0.541806 0.527878 0.500016
0.544159 0.529159 0.501298
0.546513 0.530441 0.502580
0.548867 0.531723 0.503862
0.513725 0.514802 0.485869
0.516079 0.516084 0.487151
0.518433 0.517366 0.488433
0.520786 0.518647 0.489714
0.523140 0.519929 0.490996
0.525493 0.521211 0.492278
0.527847 0.522493 0.493560
0.530201 0.523775 0.494842
0.532554 0.525057 0.496124
0.534908 0.526338 0.497405
0.537261 0.527620 0.498687
0.539615 0.528902 0.499969
0.541969 0.530184 0.501251
0.544322 0.531466 0.502533
0.546676 0.532748 0.503815
0.549030 0.534030 0.505096
0.551383 0.535311 0.506378
0.516242 0.518390 0.488385
0.518595 0.519672 0.489667
0.520949 0.520954 0.490949
0.523303 0.522236 0.492231
0.525656 0.523518 0.493513
0.528010 0.524799 0.494795
0.530364 0.526081 0.496076
0.532717 0.527363 0.497358
0.535071 0.528645 0.498640
0.537424 0.529927 0.499922
0.539778 0.531209 0.501204
0.542132 0.532490 0.502486
0.544485 0.533772 0.503767
0.546839 0.535054 0.505049
0.549192 0.536336 0.506331
0.551546 0.537618 0.507613
0.553900 0.538900 0.508895
0.476466 0.461466 0.449682
0.478820 0.462748 0.450963
0.481173 0.464030 0.452245
0.483527 0.465312 0.453527
0.485881 0.466594 0.454809
0.488234 0.467875 0.456091
0.490588 0.469157 0.457373
0.492941 0.470439 0.458654
0.495295 0.471721 0.459936
0.497649 0.473003 0.461218
0.500002 0.474285 0.462500
0.502356 0.475566 0.463782
0.504710 0.476848 0.465064
0.507063 0.478130 0.466345
0.509417 0.479412 0.467627
0.511770 0.480694 0.468909
0.514124 0.481976 0.470191
0.478983 0.465054 0.452198
