shared/src/main/assets/luts/drama_birmingham_smoke.cube
TITLE "DALUR Birmingham Smoke"
LUT_3D_SIZE 5
DOMAIN_MIN 0.0 0.0 0.0
DOMAIN_MAX 1.0 1.0 1.0
0.427200 0.420000 0.412800
0.430465 0.434307 0.427107
0.433730 0.448614 0.441414
0.436994 0.462921 0.455721
0.440259 0.477228 0.470028
0.455288 0.437046 0.440888
0.458553 0.451353 0.455195
0.461817 0.465660 0.469502
0.465082 0.479967 0.483809
0.468347 0.494274 0.498116
0.483376 0.454091 0.468976
0.486640 0.468398 0.483283
0.489905 0.482705 0.497590
0.493170 0.497012 0.511897
0.496435 0.511319 0.526204
0.511463 0.471137 0.497063
0.514728 0.485444 0.511371
0.517993 0.499751 0.525678
0.521258 0.514058 0.539985
0.524523 0.528365 0.554292
0.539551 0.488182 0.525151
0.542816 0.502489 0.539458
0.546081 0.516796 0.553765
0.549346 0.531103 0.568072
0.552611 0.545411 0.582380
0.432655 0.425455 0.407213
0.435920 0.439762 0.421520
0.439185 0.454069 0.435827
0.442449 0.468376 0.450134
0.445714 0.482683 0.464441
0.460743 0.442500 0.435300
0.464008 0.456808 0.449608
0.467272 0.471115 0.463915
0.470537 0.485422 0.478222
0.473802 0.499729 0.492529
0.488830 0.459546 0.463388
0.492095 0.473853 0.477695
0.495360 0.488160 0.492002
0.498625 0.502467 0.506309
0.501890 0.516774 0.520617
0.516918 0.476592 0.491476
0.520183 0.490899 0.505783
0.523448 0.505206 0.520090
0.526713 0.519513 0.534397
0.529978 0.533820 0.548704
0.545006 0.493637 0.519564
0.548271 0.507944 0.533871
0.551536 0.522251 0.548178
0.554801 0.536558 0.562485
0.558065 0.550865 0.576792
0.438110 0.430910 0.401625
0.441375 0.445217 0.415932
0.444639 0.459524 0.430239
0.447904 0.473831 0.444546
0.451169 0.488138 0.458854
0.466198 0.447955 0.429713
0.469462 0.462262 0.444020
0.472727 0.476569 0.458327
0.475992 0.490877 0.472634
0.479257 0.505184 0.486941
0.494285 0.465001 0.457801
0.497550 0.479308 0.472108
0.500815 0.493615 0.486415
0.504080 0.507922 0.500722
0.507345 0.522229 0.515029
0.522373 0.482046 0.485889
0.525638 0.496353 0.500196
0.528903 0.510661 0.514503
0.532168 0.524968 0.528810
0.535432 0.539275 0.543117
0.550461 0.499092 0.513976
0.553726 0.513399 0.528284
0.556991 0.527706 0.542591
0.560255 0.542013 0.556898
0.563520 0.556320 0.571205
0.443565 0.436365 0.396038
0.446829 0.450672 0.410345
0.450094 0.464979 0.424652
0.453359 0.479286 0.438959
0.456624 0.493593 0.453266
0.471652 0.453410 0.424126
0.474917 0.467717 0.438433
0.478182 0.482024 0.452740
0.481447 0.496331 0.467047
0.484712 0.510638 0.481354
0.499740 0.470456 0.452213
0.503005 0.484763 0.466521
0.506270 0.499070 0.480828
0.509535 0.513377 0.495135
0.512800 0.527684 0.509442
0.527828 0.487501 0.480301
0.531093 0.501808 0.494608
0.534358 0.516115 0.508915
0.537623 0.530423 0.523223
0.540887 0.544730 0.537530
0.555916 0.504547 0.508389
0.559181 0.518854 0.522696
0.562446 0.533161 0.537003
0.565710 0.547468 0.551310
0.568975 0.561775 0.565617
0.449019 0.441819 0.390450
0.452284 0.456127 0.404758
0.455549 0.470434 0.419065
0.458814 0.484741 0.433372
0.462079 0.499048 0.447679
0.477107 0.458865 0.418538
0.480372 0.473172 0.432845
0.483637 0.487479 0.447152
0.486902 0.501786 0.461460
0.490167 0.516093 0.475767
0.505195 0.475911 0.446626
0.508460 0.490218 0.460933
0.511725 0.504525 0.475240
0.514990 0.518832 0.489547
0.518254 0.533139 0.503854
0.533283 0.492956 0.474714
0.536548 0.507263 0.489021
0.539813 0.521570 0.503328
0.543077 0.535877 0.517635
0.546342 0.550184 0.531942
0.561371 0.510002 0.502802
0.564636 0.524309 0.517109
0.567900 0.538616 0.531416
0.571165 0.552923 0.545723
0.574430 0.567230 0.560030
