shared/src/main/assets/luts/drama_southern_dust.cube
TITLE "DALUR Southern Dust"
LUT_3D_SIZE 5
DOMAIN_MIN 0.0 0.0 0.0
DOMAIN_MAX 1.0 1.0 1.0
0.446000 0.443000 0.434000
0.450602 0.453397 0.444397
0.455203 0.463795 0.454795
0.459805 0.474192 0.465192
0.464407 0.484589 0.475589
0.466412 0.457617 0.454412
0.471014 0.468014 0.464810
0.475616 0.478411 0.475207
0.480217 0.488809 0.485604
0.484819 0.499206 0.496002
0.486824 0.472233 0.474824
0.491426 0.482630 0.485222
0.496028 0.493028 0.495619
0.500629 0.503425 0.506016
0.505231 0.513822 0.516414
0.507236 0.486850 0.495236
0.511838 0.497247 0.505634
0.516440 0.507644 0.516031
0.521042 0.518042 0.526429
0.525643 0.528439 0.536826
0.527649 0.501466 0.515649
0.532250 0.511864 0.526046
0.536852 0.522261 0.536443
0.541454 0.532658 0.546841
0.546056 0.543056 0.557238
0.449964 0.446964 0.432169
0.454566 0.457362 0.442566
0.459168 0.467759 0.452963
0.463769 0.478156 0.463361
0.468371 0.488554 0.473758
0.470376 0.461581 0.452581
0.474978 0.471978 0.462978
0.479580 0.482375 0.473375
0.484182 0.492773 0.483773
0.488783 0.503170 0.494170
0.490789 0.476197 0.472993
0.495390 0.486595 0.483390
0.499992 0.496992 0.493788
0.504594 0.507389 0.504185
0.509195 0.517787 0.514582
0.511201 0.490814 0.493405
0.515802 0.501211 0.503802
0.520404 0.511609 0.514200
0.525006 0.522006 0.524597
0.529608 0.532403 0.534994
0.531613 0.505430 0.513817
0.536215 0.515828 0.524215
0.540816 0.526225 0.534612
0.545418 0.536622 0.545009
0.550020 0.547020 0.555407
0.453928 0.450928 0.430337
0.458530 0.461326 0.440735
0.463132 0.471723 0.451132
0.467734 0.482120 0.461529
0.472335 0.492518 0.471927
0.474341 0.465545 0.450749
0.478942 0.475942 0.461147
0.483544 0.486340 0.471544
0.488146 0.496737 0.481941
0.492747 0.507134 0.492339
0.494753 0.480162 0.471162
0.499354 0.490559 0.481559
0.503956 0.500956 0.491956
0.508558 0.511354 0.502354
0.513160 0.521751 0.512751
0.515165 0.494778 0.491574
0.519767 0.505175 0.501971
0.524368 0.515573 0.512368
0.528970 0.525970 0.522766
0.533572 0.536367 0.533163
0.535577 0.509395 0.511986
0.540179 0.519792 0.522383
0.544781 0.530189 0.532781
0.549382 0.540587 0.543178
0.553984 0.550984 0.553575
0.457893 0.454893 0.428506
0.462494 0.465290 0.438903
0.467096 0.475687 0.449300
0.471698 0.486085 0.459698
0.476299 0.496482 0.470095
0.478305 0.469509 0.448918
0.482906 0.479906 0.459315
0.487508 0.490304 0.469713
0.492110 0.500701 0.480110
0.496712 0.511099 0.490507
0.498717 0.484126 0.469330
0.503319 0.494523 0.479727
0.507920 0.504920 0.490125
0.512522 0.515318 0.500522
0.517124 0.525715 0.510919
0.519129 0.498742 0.489742
0.523731 0.509140 0.500140
0.528333 0.519537 0.510537
0.532934 0.529934 0.520934
0.537536 0.540332 0.531332
0.539541 0.513359 0.510154
0.544143 0.523756 0.520552
0.548745 0.534153 0.530949
0.553346 0.544551 0.541346
0.557948 0.554948 0.551744
0.461857 0.458857 0.426674
0.466459 0.469254 0.437072
0.471060 0.479651 0.447469
0.475662 0.490049 0.457866
0.480264 0.500446 0.468264
0.482269 0.473473 0.447087
0.486871 0.483871 0.457484
0.491472 0.494268 0.467881
0.496074 0.504665 0.478279
0.500676 0.515063 0.488676
0.502681 0.488090 0.467499
0.507283 0.498487 0.477896
0.511885 0.508885 0.488293
0.516486 0.519282 0.498691
0.521088 0.529679 0.509088
0.523093 0.502706 0.487911
0.527695 0.513104 0.498308
0.532297 0.523501 0.508706
0.536898 0.533898 0.519103
0.541500 0.544296 0.529500
0.543505 0.517323 0.508323
0.548107 0.527720 0.518720
0.552709 0.538118 0.529118
0.557311 0.548515 0.539515
0.561912 0.558912 0.549912
