shared/src/main/assets/luts/drama_southern_analog.cube
TITLE "DALUR Southern Analog"
LUT_3D_SIZE 17
DOMAIN_MIN 0.0 0.0 0.0
DOMAIN_MAX 1.0 1.0 1.0
0.472000 0.461000 0.448000
0.473320 0.462570 0.449570
0.474639 0.464139 0.451139
0.475959 0.465709 0.452709
0.477279 0.467279 0.454279
0.478599 0.468849 0.455849
0.479918 0.470418 0.457418
0.481238 0.471988 0.458988
0.482558 0.473558 0.460558
0.483878 0.475128 0.462128
0.485197 0.476697 0.463697
0.486517 0.478267 0.465267
0.487837 0.479837 0.466837
0.489157 0.481407 0.468407
0.490476 0.482976 0.469976
0.491796 0.484546 0.471546
0.493116 0.486116 0.473116
0.475082 0.463832 0.451082
0.476401 0.465401 0.452651
0.477721 0.466971 0.454221
0.479041 0.468541 0.455791
0.480361 0.470111 0.457361
0.481680 0.471680 0.458930
0.483000 0.473250 0.460500
0.484320 0.474820 0.462070
0.485640 0.476390 0.463640
0.486959 0.477959 0.465209
0.488279 0.479529 0.466779
0.489599 0.481099 0.468349
0.490919 0.482669 0.469919
0.492238 0.484238 0.471488
0.493558 0.485808 0.473058
0.494878 0.487378 0.474628
0.496198 0.488948 0.476198
0.478163 0.466663 0.454163
0.479483 0.468233 0.455733
0.480803 0.469803 0.457303
0.482123 0.471373 0.458873
0.483442 0.472942 0.460442
0.484762 0.474512 0.462012
0.486082 0.476082 0.463582
0.487402 0.477652 0.465152
0.488721 0.479221 0.466721
0.490041 0.480791 0.468291
0.491361 0.482361 0.469861
0.492681 0.483931 0.471431
0.494000 0.485500 0.473000
0.495320 0.487070 0.474570
0.496640 0.488640 0.476140
0.497960 0.490210 0.477710
0.499279 0.491779 0.479279
0.481245 0.469495 0.457245
0.482565 0.471065 0.458815
0.483885 0.472635 0.460385
0.485204 0.474204 0.461954
0.486524 0.475774 0.463524
0.487844 0.477344 0.465094
0.489164 0.478914 0.466664
0.490483 0.480483 0.468233
0.491803 0.482053 0.469803
0.493123 0.483623 0.471373
0.494443 0.485193 0.472943
0.495763 0.486763 0.474513
0.497082 0.488332 0.476082
0.498402 0.489902 0.477652
0.499722 0.491472 0.479222
0.501042 0.493042 0.480791
0.502361 0.494611 0.482361
0.484327 0.472327 0.460327
0.485647 0.473897 0.461897
0.486966 0.475466 0.463466
0.488286 0.477036 0.465036
0.489606 0.478606 0.466606
0.490926 0.480176 0.468176
0.492245 0.481745 0.469745
0.493565 0.483315 0.471315
0.494885 0.484885 0.472885
0.496205 0.486455 0.474455
0.497524 0.488024 0.476024
0.498844 0.489594 0.477594
0.500164 0.491164 0.479164
0.501484 0.492734 0.480734
0.502803 0.494303 0.482303
0.504123 0.495873 0.483873
0.505443 0.497443 0.485443
0.487409 0.475159 0.463409
0.488728 0.476728 0.464978
0.490048 0.478298 0.466548
0.491368 0.479868 0.468118
0.492688 0.481438 0.469688
0.494007 0.483007 0.471257
0.495327 0.484577 0.472827
0.496647 0.486147 0.474397
0.497967 0.487717 0.475967
0.499286 0.489286 0.477536
0.500606 0.490856 0.479106
0.501926 0.492426 0.480676
0.503246 0.493996 0.482246
0.504566 0.495565 0.483815
0.505885 0.497135 0.485385
0.507205 0.498705 0.486955
0.508525 0.500275 0.488525
0.490490 0.477990 0.466490
0.491810 0.479560 0.468060
0.493130 0.481130 0.469630
0.494450 0.482700 0.471200
0.495769 0.484269 0.472769
0.497089 0.485839 0.474339
0.498409 0.487409 0.475909
0.499729 0.488979 0.477479
0.501049 0.490548 0.479048
0.502368 0.492118 0.480618
0.503688 0.493688 0.482188
0.505008 0.495258 0.483758
0.506327 0.496827 0.485327
0.507647 0.498397 0.486897
0.508967 0.499967 0.488467
0.510287 0.501537 0.490037
0.511606 0.503107 0.491607
0.493572 0.480822 0.469572
0.494892 0.482392 0.471142
0.496212 0.483962 0.472712
0.497531 0.485531 0.474281
0.498851 0.487101 0.475851
0.500171 0.488671 0.477421
0.501491 0.490241 0.478991
0.502810 0.491810 0.480560
0.504130 0.493380 0.482130
0.505450 0.494950 0.483700
0.506770 0.496520 0.485270
0.508089 0.498089 0.486839
0.509409 0.499659 0.488409
0.510729 0.501229 0.489979
0.512049 0.502799 0.491549
0.513369 0.504368 0.493119
0.514688 0.505938 0.494688
0.496654 0.483654 0.472654
0.497974 0.485224 0.474224
0.499293 0.486793 0.475793
0.500613 0.488363 0.477363
0.501933 0.489933 0.478933
0.503253 0.491503 0.480503
0.504572 0.493073 0.482073
0.505892 0.494642 0.483642
0.507212 0.496212 0.485212
0.508532 0.497782 0.486782
0.509852 0.499352 0.488351
0.511171 0.500921 0.489921
0.512491 0.502491 0.491491
0.513811 0.504061 0.493061
0.515131 0.505630 0.494630
0.516450 0.507200 0.496200
0.517770 0.508770 0.497770
0.499736 0.486486 0.475736
0.501055 0.488056 0.477305
0.502375 0.489625 0.478875
0.503695 0.491195 0.480445
0.505015 0.492765 0.482015
0.506335 0.494335 0.483584
0.507654 0.495904 0.485154
0.508974 0.497474 0.486724
0.510294 0.499044 0.488294
0.511613 0.500613 0.489864
0.512933 0.502183 0.491433
0.514253 0.503753 0.493003
0.515573 0.505323 0.494573
0.516892 0.506893 0.496143
0.518212 0.508462 0.497712
0.519532 0.510032 0.499282
0.520852 0.511602 0.500852
0.502817 0.489317 0.478817
0.504137 0.490887 0.480387
0.505457 0.492457 0.481957
0.506777 0.494027 0.483527
0.508096 0.495596 0.485096
0.509416 0.497166 0.486666
0.510736 0.498736 0.488236
0.512056 0.500306 0.489806
0.513376 0.501876 0.491376
0.514695 0.503445 0.492945
0.516015 0.505015 0.494515
0.517335 0.506585 0.496085
0.518655 0.508155 0.497654
0.519974 0.509724 0.499224
0.521294 0.511294 0.500794
0.522614 0.512864 0.502364
0.523934 0.514433 0.503934
0.505899 0.492149 0.481899
0.507219 0.493719 0.483469
0.508539 0.495289 0.485039
0.509858 0.496858 0.486608
0.511178 0.498428 0.488178
0.512498 0.499998 0.489748
0.513818 0.501568 0.491318
0.515138 0.503138 0.492888
0.516457 0.504707 0.494457
0.517777 0.506277 0.496027
0.519097 0.507847 0.497597
0.520417 0.509417 0.499166
0.521736 0.510986 0.500736
0.523056 0.512556 0.502306
0.524376 0.514126 0.503876
0.525695 0.515695 0.505445
0.527015 0.517265 0.507015
0.508981 0.494981 0.484981
0.510301 0.496551 0.486551
0.511620 0.498120 0.488120
0.512940 0.499690 0.489690
0.514260 0.501260 0.491260
0.515580 0.502830 0.492830
0.516900 0.504400 0.494399
0.518219 0.505969 0.495969
0.519539 0.507539 0.497539
0.520859 0.509109 0.499109
0.522178 0.510679 0.500679
0.523498 0.512248 0.502248
0.524818 0.513818 0.503818
0.526138 0.515388 0.505388
0.527458 0.516957 0.506957
0.528777 0.518527 0.508527
0.530097 0.520097 0.510097
0.512063 0.497813 0.488063
0.513382 0.499383 0.489632
0.514702 0.500952 0.491202
0.516022 0.502522 0.492772
0.517342 0.504092 0.494342
0.518661 0.505661 0.495912
0.519981 0.507231 0.497481
0.521301 0.508801 0.499051
0.522621 0.510371 0.500621
0.523941 0.511941 0.502190
0.525260 0.513510 0.503760
0.526580 0.515080 0.505330
0.527900 0.516650 0.506900
0.529219 0.518219 0.508470
0.530539 0.519789 0.510039
0.531859 0.521359 0.511609
0.533179 0.522929 0.513179
0.515145 0.500645 0.491144
0.516464 0.502214 0.492714
0.517784 0.503784 0.494284
0.519104 0.505354 0.495854
0.520424 0.506923 0.497424
0.521743 0.508493 0.498993
0.523063 0.510063 0.500563
0.524383 0.511633 0.502133
0.525702 0.513203 0.503702
0.527022 0.514772 0.505272
0.528342 0.516342 0.506842
0.529662 0.517912 0.508412
0.530981 0.519482 0.509981
0.532301 0.521051 0.511551
0.533621 0.522621 0.513121
0.534941 0.524191 0.514691
0.536261 0.525760 0.516261
0.518226 0.503476 0.494226
0.519546 0.505046 0.495796
0.520866 0.506616 0.497366
0.522186 0.508186 0.498935
0.523505 0.509755 0.500505
0.524825 0.511325 0.502075
0.526145 0.512895 0.503645
0.527465 0.514464 0.505215
0.528784 0.516034 0.506784
0.530104 0.517604 0.508354
0.531424 0.519174 0.509924
0.532744 0.520744 0.511494
0.534063 0.522313 0.513063
0.535383 0.523883 0.514633
0.536703 0.525453 0.516203
0.538023 0.527023 0.517773
0.539342 0.528592 0.519342
0.521308 0.506308 0.497308
0.522628 0.507878 0.498878
0.523948 0.509448 0.500448
0.525267 0.511017 0.502017
0.526587 0.512587 0.503587
0.527907 0.514157 0.505157
0.529227 0.515726 0.506726
0.530546 0.517296 0.508296
0.531866 0.518866 0.509866
0.533186 0.520436 0.511436
0.534505 0.522006 0.513006
0.535825 0.523575 0.514575
0.537145 0.525145 0.516145
0.538465 0.526715 0.517715
0.539785 0.528284 0.519284
0.541104 0.529854 0.520854
0.542424 0.531424 0.522424
0.472598 0.461598 0.448348
0.473918 0.463168 0.449918
0.475238 0.464738 0.451488
0.476558 0.466308 0.453058
0.477877 0.467877 0.454627
0.479197 0.469447 0.456197
0.480517 0.471017 0.457767
0.481837 0.472587 0.459337
0.483156 0.474156 0.460906
0.484476 0.475726 0.462476
0.485796 0.477296 0.464046
0.487116 0.478866 0.465616
0.488436 0.480436 0.467185
0.489755 0.482005 0.468755
0.491075 0.483575 0.470325
0.492395 0.485145 0.471895
0.493715 0.486714 0.473464
0.475680 0.464430 0.451430
0.477000 0.466000 0.453000
0.478320 0.467570 0.454570
0.479639 0.469139 0.456139
0.480959 0.470709 0.457709
0.482279 0.472279 0.459279
0.483599 0.473849 0.460849
0.484918 0.475418 0.462418
0.486238 0.476988 0.463988
0.487558 0.478558 0.465558
0.488878 0.480128 0.467128
0.490198 0.481698 0.468697
0.491517 0.483267 0.470267
0.492837 0.484837 0.471837
0.494157 0.486407 0.473407
0.495476 0.487976 0.474976
0.496796 0.489546 0.476546
0.478762 0.467262 0.454512
0.480082 0.468832 0.456082
0.481401 0.470401 0.457651
0.482721 0.471971 0.459221
0.484041 0.473541 0.460791
0.485361 0.475111 0.462361
0.486681 0.476681 0.463930
0.488000 0.478250 0.465500
0.489320 0.479820 0.467070
0.490640 0.481390 0.468640
0.491959 0.482959 0.470209
0.493279 0.484529 0.471779
0.494599 0.486099 0.473349
0.495919 0.487669 0.474919
0.497238 0.489238 0.476488
0.498558 0.490808 0.478058
0.499878 0.492378 0.479628
0.481844 0.470094 0.457594
0.483164 0.471664 0.459164
0.484483 0.473233 0.460733
0.485803 0.474803 0.462303
0.487123 0.476373 0.463873
0.488443 0.477942 0.465442
0.489762 0.479512 0.467012
0.491082 0.481082 0.468582
0.492402 0.482652 0.470152
0.493721 0.484221 0.471721
0.495041 0.485791 0.473291
0.496361 0.487361 0.474861
0.497681 0.488931 0.476431
0.499000 0.490500 0.478000
0.500320 0.492070 0.479570
0.501640 0.493640 0.481140
0.502960 0.495210 0.482710
0.484925 0.472925 0.460675
0.486245 0.474495 0.462245
0.487565 0.476065 0.463815
0.488885 0.477635 0.465385
0.490204 0.479204 0.466954
0.491524 0.480774 0.468524
0.492844 0.482344 0.470094
0.494164 0.483914 0.471664
0.495483 0.485483 0.473233
0.496803 0.487053 0.474803
0.498123 0.488623 0.476373
0.499443 0.490193 0.477943
0.500762 0.491762 0.479512
0.502082 0.493332 0.481082
0.503402 0.494902 0.482652
0.504722 0.496472 0.484222
0.506041 0.498041 0.485791
0.488007 0.475757 0.463757
0.489327 0.477327 0.465327
0.490647 0.478897 0.466897
0.491966 0.480467 0.468467
0.493286 0.482036 0.470036
0.494606 0.483606 0.471606
0.495926 0.485176 0.473176
0.497246 0.486745 0.474745
0.498565 0.488315 0.476315
0.499885 0.489885 0.477885
0.501205 0.491455 0.479455
0.502524 0.493024 0.481024
0.503844 0.494594 0.482594
0.505164 0.496164 0.484164
0.506484 0.497734 0.485734
0.507803 0.499303 0.487303
0.509123 0.500873 0.488873
0.491089 0.478589 0.466839
0.492409 0.480159 0.468409
0.493729 0.481729 0.469978
0.495048 0.483298 0.471548
0.496368 0.484868 0.473118
0.497688 0.486438 0.474688
0.499007 0.488007 0.476257
0.500327 0.489577 0.477827
0.501647 0.491147 0.479397
0.502967 0.492717 0.480967
0.504286 0.494286 0.482536
0.505606 0.495856 0.484106
0.506926 0.497426 0.485676
0.508246 0.498996 0.487246
0.509566 0.500565 0.488815
0.510885 0.502135 0.490385
0.512205 0.503705 0.491955
0.494171 0.481421 0.469921
0.495491 0.482990 0.471490
0.496810 0.484560 0.473060
0.498130 0.486130 0.474630
0.499450 0.487700 0.476200
0.500769 0.489269 0.477769
0.502089 0.490839 0.479339
0.503409 0.492409 0.480909
0.504729 0.493979 0.482479
0.506048 0.495548 0.484048
0.507368 0.497118 0.485618
0.508688 0.498688 0.487188
0.510008 0.500258 0.488758
0.511327 0.501827 0.490327
0.512647 0.503397 0.491897
0.513967 0.504967 0.493467
0.515287 0.506537 0.495037
0.497252 0.484252 0.473002
0.498572 0.485822 0.474572
0.499892 0.487392 0.476142
0.501212 0.488962 0.477712
0.502531 0.490531 0.479281
0.503851 0.492101 0.480851
0.505171 0.493671 0.482421
0.506491 0.495241 0.483991
0.507810 0.496810 0.485560
0.509130 0.498380 0.487130
0.510450 0.499950 0.488700
0.511770 0.501520 0.490270
0.513089 0.503089 0.491839
0.514409 0.504659 0.493409
0.515729 0.506229 0.494979
0.517049 0.507799 0.496549
0.518369 0.509369 0.498119
0.500334 0.487084 0.476084
0.501654 0.488654 0.477654
0.502974 0.490224 0.479224
0.504293 0.491793 0.480793
0.505613 0.493363 0.482363
0.506933 0.494933 0.483933
0.508253 0.496503 0.485503
0.509572 0.498073 0.487073
0.510892 0.499642 0.488642
0.512212 0.501212 0.490212
0.513532 0.502782 0.491782
0.514852 0.504352 0.493352
0.516171 0.505921 0.494921
0.517491 0.507491 0.496491
0.518811 0.509061 0.498061
0.520131 0.510630 0.499630
0.521450 0.512200 0.501200
0.503416 0.489916 0.479166
0.504736 0.491486 0.480736
0.506055 0.493055 0.482305
0.507375 0.494625 0.483875
0.508695 0.496195 0.485445
0.510015 0.497765 0.487015
0.511334 0.499334 0.488584
0.512654 0.500904 0.490154
0.513974 0.502474 0.491724
0.515294 0.504044 0.493294
0.516613 0.505613 0.494863
0.517933 0.507183 0.496433
0.519253 0.508753 0.498003
0.520573 0.510323 0.499573
0.521893 0.511892 0.501143
0.523212 0.513462 0.502712
0.524532 0.515032 0.504282
0.506498 0.492748 0.482248
0.507817 0.494317 0.483817
0.509137 0.495887 0.485387
0.510457 0.497457 0.486957
0.511777 0.499027 0.488527
0.513096 0.500596 0.490096
0.514416 0.502166 0.491666
0.515736 0.503736 0.493236
0.517056 0.505306 0.494806
0.518376 0.506876 0.496376
0.519695 0.508445 0.497945
0.521015 0.510015 0.499515
0.522335 0.511585 0.501085
0.523655 0.513155 0.502655
0.524974 0.514724 0.504224
0.526294 0.516294 0.505794
0.527614 0.517864 0.507364
0.509579 0.495580 0.485330
0.510899 0.497149 0.486899
0.512219 0.498719 0.488469
0.513539 0.500289 0.490039
0.514859 0.501859 0.491609
0.516178 0.503428 0.493178
0.517498 0.504998 0.494748
0.518818 0.506568 0.496318
0.520138 0.508138 0.497888
0.521457 0.509707 0.499457
0.522777 0.511277 0.501027
0.524097 0.512847 0.502597
0.525417 0.514417 0.504166
0.526736 0.515986 0.505736
0.528056 0.517556 0.507306
0.529376 0.519126 0.508876
0.530695 0.520695 0.510445
0.512661 0.498411 0.488411
0.513981 0.499981 0.489981
0.515301 0.501551 0.491551
0.516620 0.503120 0.493120
0.517940 0.504690 0.494690
0.519260 0.506260 0.496260
0.520580 0.507830 0.497830
0.521900 0.509400 0.499399
0.523219 0.510969 0.500969
0.524539 0.512539 0.502539
0.525859 0.514109 0.504109
0.527178 0.515679 0.505679
0.528498 0.517248 0.507248
0.529818 0.518818 0.508818
0.531138 0.520388 0.510388
0.532458 0.521957 0.511957
0.533777 0.523527 0.513527
0.515743 0.501243 0.491493
0.517063 0.502813 0.493063
0.518383 0.504383 0.494633
0.519702 0.505952 0.496202
0.521022 0.507522 0.497772
0.522342 0.509092 0.499342
0.523662 0.510661 0.500912
0.524981 0.512231 0.502481
0.526301 0.513801 0.504051
0.527621 0.515371 0.505621
0.528941 0.516941 0.507190
0.530260 0.518510 0.508760
0.531580 0.520080 0.510330
0.532900 0.521650 0.511900
0.534219 0.523219 0.513470
0.535539 0.524789 0.515039
0.536859 0.526359 0.516609
0.518825 0.504075 0.494575
0.520145 0.505645 0.496144
0.521464 0.507214 0.497714
0.522784 0.508784 0.499284
0.524104 0.510354 0.500854
0.525424 0.511923 0.502424
0.526743 0.513493 0.503993
0.528063 0.515063 0.505563
0.529383 0.516633 0.507133
0.530703 0.518203 0.508703
0.532022 0.519772 0.510272
0.533342 0.521342 0.511842
0.534662 0.522912 0.513412
0.535981 0.524482 0.514981
0.537301 0.526051 0.516551
0.538621 0.527621 0.518121
0.539941 0.529191 0.519691
0.521907 0.506907 0.497657
0.523226 0.508476 0.499226
0.524546 0.510046 0.500796
0.525866 0.511616 0.502366
0.527185 0.513185 0.503935
0.528505 0.514755 0.505505
0.529825 0.516325 0.507075
0.531145 0.517895 0.508645
0.532465 0.519464 0.510215
0.533784 0.521034 0.511784
0.535104 0.522604 0.513354
0.536424 0.524174 0.514924
0.537744 0.525744 0.516493
0.539063 0.527313 0.518063
0.540383 0.528883 0.519633
0.541703 0.530453 0.521203
0.543022 0.532022 0.522772
0.473197 0.462197 0.448697
0.474517 0.463767 0.450267
0.475836 0.465336 0.451836
0.477156 0.466906 0.453406
0.478476 0.468476 0.454976
0.479796 0.470046 0.456546
0.481115 0.471615 0.458115
0.482435 0.473185 0.459685
0.483755 0.474755 0.461255
0.485075 0.476325 0.462825
0.486394 0.477894 0.464394
0.487714 0.479464 0.465964
0.489034 0.481034 0.467534
0.490354 0.482604 0.469104
0.491673 0.484173 0.470673
0.492993 0.485743 0.472243
0.494313 0.487313 0.473813
0.476279 0.465029 0.451779
0.477598 0.466598 0.453348
0.478918 0.468168 0.454918
0.480238 0.469738 0.456488
0.481558 0.471308 0.458058
0.482877 0.472877 0.459627
0.484197 0.474447 0.461197
0.485517 0.476017 0.462767
0.486837 0.477587 0.464337
0.488156 0.479156 0.465906
0.489476 0.480726 0.467476
0.490796 0.482296 0.469046
0.492116 0.483866 0.470616
0.493435 0.485435 0.472185
0.494755 0.487005 0.473755
0.496075 0.488575 0.475325
0.497395 0.490145 0.476895
0.479360 0.467860 0.454860
0.480680 0.469430 0.456430
0.482000 0.471000 0.458000
0.483320 0.472570 0.459570
0.484640 0.474139 0.461139
0.485959 0.475709 0.462709
0.487279 0.477279 0.464279
0.488599 0.478849 0.465849
0.489918 0.480418 0.467418
0.491238 0.481988 0.468988
0.492558 0.483558 0.470558
0.493878 0.485128 0.472128
0.495198 0.486698 0.473697
0.496517 0.488267 0.475267
0.497837 0.489837 0.476837
0.499157 0.491407 0.478407
0.500476 0.492976 0.479976
0.482442 0.470692 0.457942
0.483762 0.472262 0.459512
0.485082 0.473832 0.461082
0.486401 0.475401 0.462651
0.487721 0.476971 0.464221
0.489041 0.478541 0.465791
0.490361 0.480111 0.467361
0.491681 0.481681 0.468930
0.493000 0.483250 0.470500
0.494320 0.484820 0.472070
0.495640 0.486390 0.473640
0.496960 0.487960 0.475210
0.498279 0.489529 0.476779
0.499599 0.491099 0.478349
0.500919 0.492669 0.479919
0.502239 0.494239 0.481489
0.503558 0.495808 0.483058
0.485524 0.473524 0.461024
0.486844 0.475094 0.462594
0.488163 0.476663 0.464163
0.489483 0.478233 0.465733
0.490803 0.479803 0.467303
0.492123 0.481373 0.468873
0.493442 0.482942 0.470442
0.494762 0.484512 0.472012
0.496082 0.486082 0.473582
0.497402 0.487652 0.475152
0.498721 0.489221 0.476721
0.500041 0.490791 0.478291
0.501361 0.492361 0.479861
0.502681 0.493931 0.481431
0.504000 0.495500 0.483000
0.505320 0.497070 0.484570
0.506640 0.498640 0.486140
0.488606 0.476356 0.464106
0.489925 0.477925 0.465675
0.491245 0.479495 0.467245
0.492565 0.481065 0.468815
0.493885 0.482635 0.470385
0.495204 0.484204 0.471954
0.496524 0.485774 0.473524
0.497844 0.487344 0.475094
0.499164 0.488914 0.476664
0.500483 0.490483 0.478233
0.501803 0.492053 0.479803
0.503123 0.493623 0.481373
0.504443 0.495193 0.482943
0.505763 0.496763 0.484513
0.507082 0.498332 0.486082
0.508402 0.499902 0.487652
0.509722 0.501472 0.489222
0.491687 0.479187 0.467187
0.493007 0.480757 0.468757
0.494327 0.482327 0.470327
0.495647 0.483897 0.471897
0.496966 0.485467 0.473467
0.498286 0.487036 0.475036
0.499606 0.488606 0.476606
0.500926 0.490176 0.478176
0.502246 0.491746 0.479746
0.503565 0.493315 0.481315
0.504885 0.494885 0.482885
0.506205 0.496455 0.484455
0.507525 0.498025 0.486025
0.508844 0.499594 0.487594
0.510164 0.501164 0.489164
0.511484 0.502734 0.490734
0.512803 0.504303 0.492303
0.494769 0.482019 0.470269
0.496089 0.483589 0.471839
0.497409 0.485159 0.473409
0.498728 0.486728 0.474978
0.500048 0.488298 0.476548
0.501368 0.489868 0.478118
0.502688 0.491438 0.479688
0.504007 0.493007 0.481257
0.505327 0.494577 0.482827
0.506647 0.496147 0.484397
0.507967 0.497717 0.485967
0.509286 0.499287 0.487536
0.510606 0.500856 0.489106
0.511926 0.502426 0.490676
0.513246 0.503996 0.492246
0.514566 0.505566 0.493815
0.515885 0.507135 0.495385
0.497851 0.484851 0.473351
0.499171 0.486421 0.474921
0.500490 0.487990 0.476490
0.501810 0.489560 0.478060
0.503130 0.491130 0.479630
0.504450 0.492700 0.481200
0.505769 0.494270 0.482770
0.507089 0.495839 0.484339
0.508409 0.497409 0.485909
0.509729 0.498979 0.487479
0.511049 0.500548 0.489048
0.512368 0.502118 0.490618
0.513688 0.503688 0.492188
0.515008 0.505258 0.493758
0.516327 0.506827 0.495327
0.517647 0.508397 0.496897
0.518967 0.509967 0.498467
0.500933 0.487683 0.476433
0.502252 0.489253 0.478003
0.503572 0.490822 0.479572
0.504892 0.492392 0.481142
0.506212 0.493962 0.482712
0.507532 0.495532 0.484282
0.508851 0.497101 0.485851
0.510171 0.498671 0.487421
0.511491 0.500241 0.488991
0.512810 0.501810 0.490560
0.514130 0.503380 0.492130
0.515450 0.504950 0.493700
0.516770 0.506520 0.495270
0.518089 0.508089 0.496839
0.519409 0.509659 0.498409
0.520729 0.511229 0.499979
0.522049 0.512799 0.501549
0.504014 0.490514 0.479514
0.505334 0.492084 0.481084
0.506654 0.493654 0.482654
0.507974 0.495224 0.484224
0.509293 0.496793 0.485793
0.510613 0.498363 0.487363
0.511933 0.499933 0.488933
0.513253 0.501503 0.490503
0.514572 0.503072 0.492072
0.515892 0.504642 0.493642
0.517212 0.506212 0.495212
0.518532 0.507782 0.496782
0.519851 0.509351 0.498351
0.521171 0.510921 0.499921
0.522491 0.512491 0.501491
0.523811 0.514061 0.503061
0.525130 0.515630 0.504630
0.507096 0.493346 0.482596
0.508416 0.494916 0.484166
0.509736 0.496486 0.485736
0.511055 0.498056 0.487306
0.512375 0.499625 0.488875
0.513695 0.501195 0.490445
0.515015 0.502765 0.492015
0.516334 0.504334 0.493584
0.517654 0.505904 0.495154
0.518974 0.507474 0.496724
0.520294 0.509044 0.498294
0.521613 0.510613 0.499863
0.522933 0.512183 0.501433
0.524253 0.513753 0.503003
0.525573 0.515323 0.504573
0.526892 0.516892 0.506142
0.528212 0.518462 0.507712
0.510178 0.496178 0.485678
0.511498 0.497748 0.487248
0.512818 0.499318 0.488818
0.514137 0.500887 0.490387
0.515457 0.502457 0.491957
0.516777 0.504027 0.493527
0.518096 0.505596 0.495096
0.519416 0.507166 0.496666
0.520736 0.508736 0.498236
0.522056 0.510306 0.499806
0.523375 0.511875 0.501375
0.524695 0.513445 0.502945
0.526015 0.515015 0.504515
0.527335 0.516585 0.506085
0.528655 0.518155 0.507655
0.529974 0.519724 0.509224
0.531294 0.521294 0.510794
0.513260 0.499010 0.488760
0.514579 0.500579 0.490329
0.515899 0.502149 0.491899
0.517219 0.503719 0.493469
0.518539 0.505289 0.495039
0.519859 0.506858 0.496608
0.521178 0.508428 0.498178
0.522498 0.509998 0.499748
0.523818 0.511568 0.501318
0.525137 0.513137 0.502887
0.526457 0.514707 0.504457
0.527777 0.516277 0.506027
0.529097 0.517847 0.507597
0.530416 0.519416 0.509166
0.531736 0.520986 0.510736
0.533056 0.522556 0.512306
0.534376 0.524126 0.513876
0.516342 0.501841 0.491841
0.517661 0.503411 0.493411
0.518981 0.504981 0.494981
0.520301 0.506551 0.496551
0.521620 0.508120 0.498120
0.522940 0.509690 0.499690
0.524260 0.511260 0.501260
0.525580 0.512830 0.502830
0.526899 0.514399 0.504399
0.528219 0.515969 0.505969
0.529539 0.517539 0.507539
0.530859 0.519109 0.509109
0.532178 0.520679 0.510679
0.533498 0.522248 0.512248
0.534818 0.523818 0.513818
0.536138 0.525388 0.515388
0.537458 0.526957 0.516957
0.519423 0.504673 0.494923
0.520743 0.506243 0.496493
0.522063 0.507813 0.498063
0.523382 0.509382 0.499632
0.524702 0.510952 0.501202
0.526022 0.512522 0.502772
0.527342 0.514092 0.504342
0.528662 0.515661 0.505912
0.529981 0.517231 0.507481
0.531301 0.518801 0.509051
0.532621 0.520371 0.510621
0.533941 0.521941 0.512190
0.535260 0.523510 0.513760
0.536580 0.525080 0.515330
0.537900 0.526650 0.516900
0.539219 0.528219 0.518470
0.540539 0.529789 0.520039
0.522505 0.507505 0.498005
0.523825 0.509075 0.499575
0.525144 0.510644 0.501144
0.526464 0.512214 0.502714
0.527784 0.513784 0.504284
0.529104 0.515354 0.505854
0.530423 0.516923 0.507423
0.531743 0.518493 0.508993
0.533063 0.520063 0.510563
0.534383 0.521633 0.512133
0.535702 0.523202 0.513702
0.537022 0.524772 0.515272
0.538342 0.526342 0.516842
0.539662 0.527912 0.518412
0.540982 0.529482 0.519981
0.542301 0.531051 0.521551
0.543621 0.532621 0.523121
0.473795 0.462795 0.449045
0.475115 0.464365 0.450615
0.476435 0.465935 0.452185
0.477755 0.467505 0.453755
0.479074 0.469074 0.455324
0.480394 0.470644 0.456894
0.481714 0.472214 0.458464
0.483034 0.473784 0.460034
0.484353 0.475353 0.461603
0.485673 0.476923 0.463173
0.486993 0.478493 0.464743
0.488313 0.480063 0.466313
0.489632 0.481632 0.467882
0.490952 0.483202 0.469452
0.492272 0.484772 0.471022
0.493592 0.486342 0.472592
0.494911 0.487911 0.474161
0.476877 0.465627 0.452127
