shared/src/main/assets/luts/drama_chrome_frontier.cube
TITLE "DALUR Chrome Frontier"
LUT_3D_SIZE 9
DOMAIN_MIN 0.0 0.0 0.0
DOMAIN_MAX 1.0 1.0 1.0
0.449000 0.440000 0.431000
0.454537 0.444037 0.435036
0.460073 0.448073 0.439073
0.465609 0.452109 0.443109
0.471146 0.456146 0.447146
0.476683 0.460182 0.451182
0.482219 0.464219 0.455219
0.487756 0.468255 0.459255
0.493292 0.472292 0.463292
0.456925 0.449425 0.438924
0.462461 0.453461 0.442961
0.467998 0.457498 0.446997
0.473534 0.461534 0.451034
0.479070 0.465570 0.455070
0.484607 0.469607 0.459107
0.490144 0.473643 0.463143
0.495680 0.477680 0.467180
0.501217 0.481717 0.471217
0.464849 0.458849 0.446849
0.470385 0.462885 0.450885
0.475922 0.466922 0.454922
0.481458 0.470958 0.458958
0.486995 0.474995 0.462995
0.492532 0.479031 0.467031
0.498068 0.483068 0.471068
0.503605 0.487104 0.475104
0.509141 0.491141 0.479141
0.472773 0.468273 0.454773
0.478310 0.472310 0.458810
0.483846 0.476346 0.462846
0.489383 0.480383 0.466883
0.494920 0.484420 0.470919
0.500456 0.488456 0.474956
0.505992 0.492492 0.478992
0.511529 0.496529 0.483029
0.517065 0.500565 0.487065
0.480698 0.477698 0.462698
0.486234 0.481734 0.466734
0.491771 0.485771 0.470771
0.497307 0.489807 0.474807
0.502844 0.493844 0.478844
0.508381 0.497881 0.482880
0.513917 0.501917 0.486917
0.519454 0.505954 0.490954
0.524990 0.509990 0.494990
0.488622 0.487122 0.470622
0.494159 0.491159 0.474659
0.499695 0.495195 0.478695
0.505232 0.499232 0.482732
0.510768 0.503269 0.486768
0.516305 0.507305 0.490805
0.521842 0.511342 0.494842
0.527378 0.515378 0.498878
0.532914 0.519415 0.502914
0.496547 0.496547 0.478547
0.502083 0.500583 0.482583
0.507620 0.504620 0.486620
0.513157 0.508656 0.490656
0.518693 0.512693 0.494693
0.524230 0.516730 0.498730
0.529766 0.520766 0.502766
0.535303 0.524803 0.506803
0.540839 0.528839 0.510839
0.504471 0.505971 0.486471
0.510008 0.510008 0.490508
0.515544 0.514045 0.494544
0.521081 0.518081 0.498581
0.526618 0.522118 0.502618
0.532154 0.526154 0.506654
0.537691 0.530191 0.510691
0.543227 0.534227 0.514727
0.548763 0.538264 0.518763
0.512396 0.515396 0.494396
0.517933 0.519432 0.498432
0.523469 0.523469 0.502469
0.529006 0.527505 0.506505
0.534542 0.531542 0.510542
0.540079 0.535579 0.514579
0.545615 0.539615 0.518615
0.551152 0.543652 0.522652
0.556688 0.547688 0.526688
0.450539 0.441539 0.434039
0.456076 0.445576 0.438076
0.461612 0.449612 0.442112
0.467148 0.453649 0.446149
0.472685 0.457685 0.450185
0.478222 0.461722 0.454222
0.483758 0.465758 0.458258
0.489295 0.469795 0.462295
0.494831 0.473831 0.466331
0.458464 0.450964 0.441964
0.464000 0.455000 0.446000
0.469537 0.459037 0.450037
0.475073 0.463073 0.454073
0.480610 0.467110 0.458110
0.486146 0.471146 0.462146
0.491683 0.475183 0.466183
0.497219 0.479219 0.470219
0.502756 0.483256 0.474256
0.466388 0.460388 0.449888
0.471924 0.464424 0.453924
0.477461 0.468461 0.457961
0.482998 0.472498 0.461998
0.488534 0.476534 0.466034
0.494071 0.480571 0.470071
0.499607 0.484607 0.474107
0.505143 0.488644 0.478143
0.510680 0.492680 0.482180
0.474312 0.469812 0.457812
0.479849 0.473849 0.461849
0.485386 0.477885 0.465886
0.490922 0.481922 0.469922
0.496459 0.485959 0.473959
0.501995 0.489995 0.477995
0.507532 0.494032 0.482032
0.513068 0.498068 0.486068
0.518604 0.502104 0.490104
0.482237 0.479237 0.465737
0.487773 0.483273 0.469773
0.493310 0.487310 0.473810
0.498847 0.491347 0.477847
0.504383 0.495383 0.481883
0.509920 0.499420 0.485920
0.515456 0.503456 0.489956
0.520993 0.507493 0.493993
0.526529 0.511529 0.498029
0.490161 0.488661 0.473661
0.495698 0.492698 0.477698
0.501235 0.496735 0.481735
0.506771 0.500771 0.485771
0.512308 0.504807 0.489807
0.517844 0.508844 0.493844
0.523381 0.512881 0.497881
0.528917 0.516917 0.501917
0.534453 0.520953 0.505953
0.498086 0.498086 0.481586
0.503622 0.502123 0.485623
0.509159 0.506159 0.489659
0.514695 0.510196 0.493695
0.520232 0.514232 0.497732
0.525768 0.518269 0.501768
0.531305 0.522305 0.505805
0.536842 0.526342 0.509842
0.542378 0.530378 0.513878
0.506010 0.507510 0.489510
0.511547 0.511547 0.493547
0.517083 0.515583 0.497583
0.522620 0.519620 0.501620
0.528157 0.523656 0.505656
0.533693 0.527693 0.509693
0.539230 0.531730 0.513730
0.544766 0.535766 0.517766
0.550303 0.539802 0.521802
0.513935 0.516935 0.497435
0.519471 0.520971 0.501471
0.525008 0.525008 0.505508
0.530544 0.529045 0.509544
0.536081 0.533081 0.513581
0.541617 0.537118 0.517618
0.547154 0.541154 0.521654
0.552691 0.545191 0.525691
0.558227 0.549227 0.529727
0.452078 0.443078 0.437078
0.457615 0.447115 0.441115
0.463151 0.451151 0.445151
0.468687 0.455187 0.449187
0.474224 0.459224 0.453224
0.479761 0.463261 0.457261
0.485297 0.467297 0.461297
0.490834 0.471334 0.465334
0.496370 0.475370 0.469370
0.460003 0.452503 0.445003
0.465539 0.456539 0.449039
0.471076 0.460576 0.453076
0.476612 0.464612 0.457112
0.482148 0.468649 0.461148
0.487685 0.472685 0.465185
0.493222 0.476722 0.469222
0.498758 0.480758 0.473258
0.504295 0.484795 0.477295
0.467927 0.461927 0.452927
0.473463 0.465963 0.456963
0.479000 0.470000 0.461000
0.484536 0.474036 0.465036
0.490073 0.478073 0.469073
0.495610 0.482110 0.473110
0.501146 0.486146 0.477146
0.506683 0.490183 0.481183
0.512219 0.494219 0.485219
0.475851 0.471351 0.460851
0.481388 0.475388 0.464888
0.486924 0.479424 0.468924
0.492461 0.483461 0.472961
0.497998 0.487498 0.476998
0.503534 0.491534 0.481034
0.509070 0.495570 0.485070
0.514607 0.499607 0.489107
0.520143 0.503643 0.493143
0.483776 0.480776 0.468776
0.489312 0.484812 0.472812
0.494849 0.488849 0.476849
0.500386 0.492885 0.480885
0.505922 0.496922 0.484922
0.511459 0.500958 0.488958
0.516995 0.504995 0.492995
0.522532 0.509031 0.497031
0.528068 0.513068 0.501068
0.491700 0.490200 0.476700
0.497237 0.494237 0.480737
0.502773 0.498273 0.484773
0.508310 0.502310 0.488810
0.513846 0.506347 0.492846
0.519383 0.510383 0.496883
0.524919 0.514420 0.500919
0.530456 0.518456 0.504956
0.535992 0.522492 0.508992
0.499625 0.499625 0.484625
0.505161 0.503661 0.488661
0.510698 0.507698 0.492698
0.516234 0.511734 0.496734
0.521771 0.515771 0.500771
0.527308 0.519807 0.504807
0.532844 0.523844 0.508844
0.538381 0.527880 0.512880
0.543917 0.531917 0.516917
0.507549 0.509049 0.492549
0.513086 0.513086 0.496586
0.518622 0.517122 0.500622
0.524159 0.521159 0.504659
0.529695 0.525196 0.508695
0.535232 0.529232 0.512732
0.540768 0.533269 0.516768
0.546305 0.537305 0.520805
0.551841 0.541341 0.524841
0.515474 0.518474 0.500474
0.521010 0.522510 0.504510
0.526547 0.526547 0.508547
0.532084 0.530583 0.512583
0.537620 0.534620 0.516620
0.543157 0.538656 0.520656
0.548693 0.542693 0.524693
0.554230 0.546730 0.528730
0.559766 0.550766 0.532766
0.453617 0.444617 0.440117
0.459154 0.448654 0.444154
0.464690 0.452690 0.448190
0.470226 0.456726 0.452226
0.475763 0.460763 0.456263
0.481299 0.464799 0.460299
0.486836 0.468836 0.464336
0.492373 0.472873 0.468373
0.497909 0.476909 0.472409
0.461542 0.454042 0.448042
0.467078 0.458078 0.452078
0.472614 0.462114 0.456114
0.478151 0.466151 0.460151
0.483687 0.470187 0.464187
0.489224 0.474224 0.468224
0.494761 0.478261 0.472261
0.500297 0.482297 0.476297
0.505834 0.486334 0.480334
0.469466 0.463466 0.455966
0.475002 0.467502 0.460002
0.480539 0.471539 0.464039
0.486075 0.475575 0.468075
0.491612 0.479612 0.472112
0.497148 0.483649 0.476148
0.502685 0.487685 0.480185
0.508221 0.491721 0.484221
0.513758 0.495758 0.488258
0.477390 0.472890 0.463890
0.482927 0.476927 0.467927
0.488463 0.480963 0.471963
0.494000 0.485000 0.476000
0.499536 0.489036 0.480036
0.505073 0.493073 0.484073
0.510610 0.497109 0.488109
0.516146 0.501146 0.492146
0.521682 0.505182 0.496182
0.485315 0.482315 0.471815
0.490851 0.486351 0.475851
0.496388 0.490388 0.479888
0.501924 0.494424 0.483924
0.507461 0.498461 0.487961
0.512997 0.502497 0.491997
0.518534 0.506534 0.496034
0.524070 0.510571 0.500070
0.529607 0.514607 0.504107
0.493239 0.491739 0.479739
0.498776 0.495776 0.483776
0.504312 0.499812 0.487812
0.509849 0.503849 0.491849
0.515385 0.507885 0.495885
0.520922 0.511922 0.499922
0.526459 0.515958 0.503958
0.531995 0.519995 0.507995
0.537531 0.524031 0.512031
0.501164 0.501164 0.487664
0.506700 0.505200 0.491700
0.512237 0.509237 0.495737
0.517773 0.513273 0.499773
0.523310 0.517310 0.503810
0.528846 0.521346 0.507846
0.534383 0.525383 0.511883
0.539919 0.529420 0.515919
0.545456 0.533456 0.519956
0.509088 0.510588 0.495588
0.514625 0.514625 0.499625
0.520161 0.518661 0.503661
0.525698 0.522698 0.507698
0.531234 0.526734 0.511734
0.536771 0.530771 0.515771
0.542308 0.534807 0.519807
0.547844 0.538844 0.523844
0.553380 0.542880 0.527880
0.517013 0.520013 0.503513
0.522550 0.524049 0.507549
0.528086 0.528086 0.511586
0.533622 0.532122 0.515622
0.539159 0.536159 0.519659
0.544695 0.540196 0.523695
0.550232 0.544232 0.527732
0.555768 0.548269 0.531768
0.561305 0.552305 0.535805
0.455156 0.446156 0.443156
0.460693 0.450193 0.447192
0.466229 0.454229 0.451229
0.471765 0.458265 0.455265
0.477302 0.462302 0.459302
0.482839 0.466338 0.463338
0.488375 0.470375 0.467375
0.493912 0.474412 0.471411
0.499448 0.478448 0.475448
0.463081 0.455580 0.451080
0.468617 0.459617 0.455117
0.474154 0.463653 0.459153
0.479690 0.467690 0.463190
0.485227 0.471726 0.467226
0.490763 0.475763 0.471263
0.496300 0.479799 0.475299
0.501836 0.483836 0.479336
0.507373 0.487873 0.483373
0.471005 0.465005 0.459005
0.476541 0.469041 0.463041
0.482078 0.473078 0.467078
0.487614 0.477114 0.471114
0.493151 0.481151 0.475151
0.498688 0.485187 0.479187
0.504224 0.489224 0.483224
0.509760 0.493260 0.487260
0.515297 0.497297 0.491297
0.478929 0.474429 0.466929
0.484466 0.478466 0.470966
0.490002 0.482502 0.475002
0.495539 0.486539 0.479039
0.501076 0.490575 0.483075
0.506612 0.494612 0.487112
0.512149 0.498648 0.491148
0.517685 0.502685 0.495185
0.523222 0.506722 0.499221
0.486854 0.483854 0.474854
0.492390 0.487890 0.478890
0.497927 0.491927 0.482927
0.503463 0.495964 0.486963
0.509000 0.500000 0.491000
0.514537 0.504037 0.495037
0.520073 0.508073 0.499073
0.525609 0.512109 0.503109
0.531146 0.516146 0.507146
0.494778 0.493278 0.482778
0.500315 0.497315 0.486815
0.505852 0.501351 0.490851
0.511388 0.505388 0.494888
0.516925 0.509425 0.498925
0.522461 0.513461 0.502961
0.527998 0.517497 0.506997
0.533534 0.521534 0.511034
0.539071 0.525571 0.515070
0.502703 0.502703 0.490703
0.508239 0.506740 0.494739
0.513776 0.510776 0.498776
0.519313 0.514813 0.502812
0.524849 0.518849 0.506849
0.530386 0.522886 0.510886
0.535922 0.526922 0.514922
0.541459 0.530958 0.518958
0.546995 0.534995 0.522995
0.510628 0.512128 0.498628
0.516164 0.516164 0.502664
0.521701 0.520201 0.506700
0.527237 0.524237 0.510737
0.532774 0.528274 0.514774
0.538310 0.532310 0.518810
0.543847 0.536347 0.522846
0.549383 0.540383 0.526883
0.554920 0.544420 0.530919
0.518552 0.521552 0.506552
0.524089 0.525589 0.510589
0.529625 0.529625 0.514625
0.535162 0.533662 0.518661
0.540698 0.537698 0.522698
0.546235 0.541735 0.526735
0.551771 0.545771 0.530771
0.557308 0.549808 0.534807
0.562844 0.553844 0.538844
0.456695 0.447695 0.446195
0.462232 0.451732 0.450232
0.467768 0.455768 0.454268
0.473304 0.459804 0.458304
0.478841 0.463841 0.462341
0.484378 0.467878 0.466378
0.489914 0.471914 0.470414
0.495451 0.475950 0.474450
0.500987 0.479987 0.478487
0.464620 0.457120 0.454120
0.470156 0.461156 0.458156
0.475693 0.465193 0.462193
0.481229 0.469229 0.466229
0.486765 0.473265 0.470265
0.492302 0.477302 0.474302
0.497839 0.481339 0.478338
0.503375 0.485375 0.482375
0.508912 0.489412 0.486411
0.472544 0.466544 0.462044
0.478080 0.470580 0.466080
0.483617 0.474617 0.470117
0.489153 0.478653 0.474153
0.494690 0.482690 0.478190
0.500227 0.486727 0.482227
0.505763 0.490763 0.486263
0.511300 0.494799 0.490299
0.516836 0.498836 0.494336
0.480468 0.475968 0.469968
0.486005 0.480005 0.474005
0.491541 0.484041 0.478041
0.497078 0.488078 0.482078
0.502614 0.492115 0.486115
0.508151 0.496151 0.490151
0.513687 0.500188 0.494188
0.519224 0.504224 0.498224
0.524760 0.508261 0.502260
0.488393 0.485393 0.477893
0.493929 0.489429 0.481929
0.499466 0.493466 0.485966
0.505002 0.497502 0.490002
0.510539 0.501539 0.494039
0.516076 0.505576 0.498076
0.521612 0.509612 0.502112
0.527149 0.513648 0.506149
0.532685 0.517685 0.510185
0.496317 0.494817 0.485817
0.501854 0.498854 0.489854
0.507390 0.502891 0.493891
0.512927 0.506927 0.497927
0.518464 0.510964 0.501964
0.524000 0.515000 0.506000
0.529536 0.519037 0.510037
0.535073 0.523073 0.514073
0.540610 0.527110 0.518110
0.504242 0.504242 0.493742
0.509779 0.508278 0.497779
0.515315 0.512315 0.501815
0.520852 0.516352 0.505852
0.526388 0.520388 0.509888
0.531925 0.524425 0.513925
0.537461 0.528461 0.517961
0.542998 0.532497 0.521998
0.548534 0.536534 0.526034
0.512166 0.513667 0.501667
0.517703 0.517703 0.505703
0.523240 0.521740 0.509740
0.528776 0.525776 0.513776
0.534313 0.529813 0.517813
0.539849 0.533849 0.521849
0.545385 0.537886 0.525886
0.550922 0.541922 0.529922
0.556459 0.545959 0.533959
0.520091 0.523091 0.509591
0.525628 0.527127 0.513628
0.531164 0.531164 0.517664
0.536701 0.535201 0.521701
0.542237 0.539237 0.525737
0.547774 0.543274 0.529774
0.553310 0.547310 0.533810
0.558847 0.551346 0.537847
0.564383 0.555383 0.541883
0.458234 0.449234 0.449234
0.463771 0.453271 0.453271
0.469307 0.457307 0.457307
0.474843 0.461344 0.461343
0.480380 0.465380 0.465380
0.485917 0.469417 0.469417
0.491453 0.473453 0.473453
0.496990 0.477490 0.477490
0.502526 0.481526 0.481526
0.466159 0.458659 0.457159
0.471695 0.462695 0.461195
0.477232 0.466732 0.465232
0.482768 0.470768 0.469268
0.488305 0.474805 0.473305
0.493841 0.478841 0.477341
0.499378 0.482878 0.481378
0.504914 0.486914 0.485414
0.510451 0.490951 0.489451
0.474083 0.468083 0.465083
0.479619 0.472119 0.469119
0.485156 0.476156 0.473156
0.490693 0.480193 0.477193
0.496229 0.484229 0.481229
0.501765 0.488266 0.485266
0.507302 0.492302 0.489302
0.512838 0.496339 0.493339
0.518375 0.500375 0.497375
0.482007 0.477507 0.473007
0.487544 0.481544 0.477044
0.493080 0.485580 0.481080
0.498617 0.489617 0.485117
0.504154 0.493654 0.489154
0.509690 0.497690 0.493190
0.515226 0.501726 0.497226
0.520763 0.505763 0.501263
0.526300 0.509799 0.505300
0.489932 0.486932 0.480932
0.495468 0.490968 0.484968
0.501005 0.495005 0.489005
0.506541 0.499042 0.493042
0.512078 0.503078 0.497078
0.517615 0.507115 0.501115
0.523151 0.511151 0.505151
0.528687 0.515188 0.509188
0.534224 0.519224 0.513224
0.497856 0.496356 0.488856
0.503393 0.500393 0.492893
0.508930 0.504429 0.496930
0.514466 0.508466 0.500966
0.520003 0.512503 0.505003
0.525539 0.516539 0.509039
0.531075 0.520575 0.513075
0.536612 0.524612 0.517112
0.542149 0.528648 0.521149
0.505781 0.505781 0.496781
0.511317 0.509818 0.500818
0.516854 0.513854 0.504854
0.522391 0.517891 0.508891
0.527927 0.521927 0.512927
0.533464 0.525964 0.516964
0.539000 0.530000 0.521000
0.544536 0.534037 0.525037
0.550073 0.538073 0.529073
0.513706 0.515205 0.504706
0.519242 0.519242 0.508742
0.524779 0.523278 0.512779
0.530315 0.527315 0.516815
0.535852 0.531352 0.520852
0.541388 0.535388 0.524888
0.546925 0.539424 0.528925
0.552461 0.543461 0.532961
0.557998 0.547497 0.536998
0.521630 0.524630 0.512630
0.527166 0.528667 0.516667
0.532703 0.532703 0.520703
0.538240 0.536740 0.524740
0.543776 0.540776 0.528776
0.549313 0.544813 0.532813
0.554849 0.548849 0.536849
0.560385 0.552886 0.540886
0.565922 0.556922 0.544922
0.459773 0.450773 0.452273
0.465310 0.454810 0.456310
0.470846 0.458846 0.460346
0.476382 0.462882 0.464382
0.481919 0.466919 0.468419
0.487456 0.470956 0.472456
0.492992 0.474992 0.476492
0.498529 0.479029 0.480529
0.504065 0.483065 0.484565
0.467698 0.460198 0.460198
0.473234 0.464234 0.464234
0.478771 0.468271 0.468271
0.484307 0.472307 0.472307
0.489843 0.476344 0.476343
0.495380 0.480380 0.480380
0.500916 0.484417 0.484417
0.506453 0.488453 0.488453
0.511990 0.492490 0.492490
0.475622 0.469622 0.468122
0.481158 0.473658 0.472158
0.486695 0.477695 0.476195
0.492231 0.481731 0.480231
0.497768 0.485768 0.484268
0.503305 0.489805 0.488305
0.508841 0.493841 0.492341
0.514377 0.497877 0.496377
0.519914 0.501914 0.500414
0.483546 0.479046 0.476046
0.489083 0.483083 0.480083
0.494619 0.487119 0.484119
0.500156 0.491156 0.488156
0.505692 0.495193 0.492193
0.511229 0.499229 0.496229
0.516765 0.503265 0.500265
0.522302 0.507302 0.504302
0.527838 0.511338 0.508338
0.491471 0.488471 0.483971
0.497007 0.492507 0.488007
0.502544 0.496544 0.492044
0.508080 0.500580 0.496081
0.513617 0.504617 0.500117
0.519154 0.508654 0.504154
0.524690 0.512690 0.508190
0.530226 0.516726 0.512226
0.535763 0.520763 0.516263
0.499395 0.497895 0.491895
0.504932 0.501932 0.495932
0.510468 0.505969 0.499969
0.516005 0.510005 0.504005
0.521541 0.514042 0.508042
0.527078 0.518078 0.512078
0.532614 0.522114 0.516114
0.538151 0.526151 0.520151
0.543687 0.530188 0.524188
0.507320 0.507320 0.499820
0.512857 0.511356 0.503857
0.518393 0.515393 0.507893
0.523930 0.519429 0.511930
0.529466 0.523466 0.515966
0.535003 0.527503 0.520003
0.540539 0.531539 0.524039
0.546076 0.535575 0.528076
0.551612 0.539612 0.532112
0.515244 0.516744 0.507744
0.520781 0.520781 0.511781
0.526317 0.524818 0.515818
0.531854 0.528854 0.519854
0.537390 0.532891 0.523891
0.542927 0.536927 0.527927
0.548463 0.540963 0.531963
0.554000 0.545000 0.536000
0.559536 0.549037 0.540037
0.523169 0.526169 0.515669
0.528706 0.530205 0.519706
0.534242 0.534242 0.523742
0.539779 0.538278 0.527779
0.545315 0.542315 0.531815
0.550852 0.546352 0.535852
0.556388 0.550388 0.539888
0.561925 0.554424 0.543925
0.567461 0.558461 0.547961
0.461312 0.452312 0.455312
0.466849 0.456349 0.459349
0.472385 0.460385 0.463385
0.477921 0.464421 0.467421
0.483458 0.468458 0.471458
0.488994 0.472494 0.475494
0.494531 0.476531 0.479531
0.500067 0.480568 0.483568
0.505604 0.484604 0.487604
0.469237 0.461737 0.463237
0.474773 0.465773 0.467273
0.480310 0.469809 0.471309
0.485846 0.473846 0.475346
0.491382 0.477882 0.479382
0.496919 0.481919 0.483419
0.502456 0.485956 0.487456
0.507992 0.489992 0.491492
0.513529 0.494029 0.495529
0.477161 0.471161 0.471161
0.482697 0.475197 0.475197
0.488234 0.479234 0.479234
0.493771 0.483270 0.483270
0.499307 0.487307 0.487307
0.504844 0.491343 0.491344
0.510380 0.495380 0.495380
0.515917 0.499417 0.499417
0.521453 0.503453 0.503453
0.485085 0.480585 0.479085
0.490622 0.484622 0.483122
0.496159 0.488658 0.487158
0.501695 0.492695 0.491195
0.507231 0.496731 0.495232
0.512768 0.500768 0.499268
0.518304 0.504804 0.503304
0.523841 0.508841 0.507341
0.529377 0.512877 0.511377
0.493010 0.490010 0.487010
0.498547 0.494046 0.491046
0.504083 0.498083 0.495083
0.509620 0.502120 0.499120
0.515156 0.506156 0.503156
0.520693 0.510193 0.507193
0.526229 0.514229 0.511229
0.531766 0.518265 0.515265
0.537302 0.522302 0.519302
0.500934 0.499434 0.494934
0.506471 0.503471 0.498971
0.512007 0.507508 0.503007
0.517544 0.511544 0.507044
0.523081 0.515580 0.511081
0.528617 0.519617 0.515117
0.534154 0.523653 0.519154
0.539690 0.527690 0.523190
0.545226 0.531726 0.527226
0.508859 0.508859 0.502859
0.514396 0.512895 0.506895
0.519932 0.516932 0.510932
0.525469 0.520969 0.514969
0.531005 0.525005 0.519005
0.536542 0.529042 0.523042
0.542078 0.533078 0.527078
0.547615 0.537115 0.531115
0.553151 0.541151 0.535151
0.516783 0.518284 0.510783
0.522320 0.522320 0.514820
0.527857 0.526357 0.518856
0.533393 0.530393 0.522893
0.538930 0.534430 0.526930
0.544466 0.538466 0.530966
0.550002 0.542502 0.535002
0.555539 0.546539 0.539039
0.561075 0.550575 0.543075
0.524708 0.527708 0.518708
0.530245 0.531744 0.522744
0.535781 0.535781 0.526781
0.541318 0.539818 0.530818
0.546854 0.543854 0.534854
0.552391 0.547891 0.538891
0.557927 0.551927 0.542927
0.563464 0.555963 0.546963
0.569000 0.560000 0.551000
