shared/src/main/assets/luts/drama_chrome_frontier.cube
TITLE "DALUR Chrome Frontier"
LUT_3D_SIZE 5
DOMAIN_MIN 0.0 0.0 0.0
DOMAIN_MAX 1.0 1.0 1.0
0.449000 0.440000 0.431000
0.460073 0.448073 0.439073
0.471146 0.456146 0.447146
0.482219 0.464219 0.455219
0.493292 0.472292 0.463292
0.464849 0.458849 0.446849
0.475922 0.466922 0.454922
0.486995 0.474995 0.462995
0.498068 0.483068 0.471068
0.509141 0.491141 0.479141
0.480698 0.477698 0.462698
0.491771 0.485771 0.470771
0.502844 0.493844 0.478844
0.513917 0.501917 0.486917
0.524990 0.509990 0.494990
0.496547 0.496547 0.478547
0.507620 0.504620 0.486620
0.518693 0.512693 0.494693
0.529766 0.520766 0.502766
0.540839 0.528839 0.510839
0.512396 0.515396 0.494396
0.523469 0.523469 0.502469
0.534542 0.531542 0.510542
0.545615 0.539615 0.518615
0.556688 0.547688 0.526688
0.452078 0.443078 0.437078
0.463151 0.451151 0.445151
0.474224 0.459224 0.453224
0.485297 0.467297 0.461297
0.496370 0.475370 0.469370
0.467927 0.461927 0.452927
0.479000 0.470000 0.461000
0.490073 0.478073 0.469073
0.501146 0.486146 0.477146
0.512219 0.494219 0.485219
0.483776 0.480776 0.468776
0.494849 0.488849 0.476849
0.505922 0.496922 0.484922
0.516995 0.504995 0.492995
0.528068 0.513068 0.501068
0.499625 0.499625 0.484625
0.510698 0.507698 0.492698
0.521771 0.515771 0.500771
0.532844 0.523844 0.508844
0.543917 0.531917 0.516917
0.515474 0.518474 0.500474
0.526547 0.526547 0.508547
0.537620 0.534620 0.516620
0.548693 0.542693 0.524693
0.559766 0.550766 0.532766
0.455156 0.446156 0.443156
0.466229 0.454229 0.451229
0.477302 0.462302 0.459302
0.488375 0.470375 0.467375
0.499448 0.478448 0.475448
0.471005 0.465005 0.459005
0.482078 0.473078 0.467078
0.493151 0.481151 0.475151
0.504224 0.489224 0.483224
0.515297 0.497297 0.491297
0.486854 0.483854 0.474854
0.497927 0.491927 0.482927
0.509000 0.500000 0.491000
0.520073 0.508073 0.499073
0.531146 0.516146 0.507146
0.502703 0.502703 0.490703
0.513776 0.510776 0.498776
0.524849 0.518849 0.506849
0.535922 0.526922 0.514922
0.546995 0.534995 0.522995
0.518552 0.521552 0.506552
0.529625 0.529625 0.514625
0.540698 0.537698 0.522698
0.551771 0.545771 0.530771
0.562844 0.553844 0.538844
0.458234 0.449234 0.449234
0.469307 0.457307 0.457307
0.480380 0.465380 0.465380
0.491453 0.473453 0.473453
0.502526 0.481526 0.481526
0.474083 0.468083 0.465083
0.485156 0.476156 0.473156
0.496229 0.484229 0.481229
0.507302 0.492302 0.489302
0.518375 0.500375 0.497375
0.489932 0.486932 0.480932
0.501005 0.495005 0.489005
0.512078 0.503078 0.497078
0.523151 0.511151 0.505151
0.534224 0.519224 0.513224
0.505781 0.505781 0.496781
0.516854 0.513854 0.504854
0.527927 0.521927 0.512927
0.539000 0.530000 0.521000
0.550073 0.538073 0.529073
0.521630 0.524630 0.512630
0.532703 0.532703 0.520703
0.543776 0.540776 0.528776
0.554849 0.548849 0.536849
0.565922 0.556922 0.544922
0.461312 0.452312 0.455312
0.472385 0.460385 0.463385
0.483458 0.468458 0.471458
0.494531 0.476531 0.479531
0.505604 0.484604 0.487604
0.477161 0.471161 0.471161
0.488234 0.479234 0.479234
0.499307 0.487307 0.487307
0.510380 0.495380 0.495380
0.521453 0.503453 0.503453
0.493010 0.490010 0.487010
0.504083 0.498083 0.495083
0.515156 0.506156 0.503156
0.526229 0.514229 0.511229
0.537302 0.522302 0.519302
0.508859 0.508859 0.502859
0.519932 0.516932 0.510932
0.531005 0.525005 0.519005
0.542078 0.533078 0.527078
0.553151 0.541151 0.535151
0.524708 0.527708 0.518708
0.535781 0.535781 0.526781
0.546854 0.543854 0.534854
0.557927 0.551927 0.542927
0.569000 0.560000 0.551000
