shared/src/main/assets/luts/drama_european_pop.cube
TITLE "DALUR European Pop"
LUT_3D_SIZE 9
DOMAIN_MIN 0.0 0.0 0.0
DOMAIN_MAX 1.0 1.0 1.0
0.443000 0.438500 0.437000
0.450640 0.441640 0.440140
0.458279 0.444779 0.443279
0.465918 0.447918 0.446418
0.473558 0.451058 0.449558
0.481198 0.454197 0.452697
0.488837 0.457337 0.455837
0.496477 0.460477 0.458977
0.504116 0.463616 0.462116
0.449163 0.449163 0.443163
0.456803 0.452303 0.446303
0.464442 0.455442 0.449442
0.472082 0.458582 0.452582
0.479721 0.461721 0.455722
0.487361 0.464861 0.458861
0.495001 0.468000 0.462000
0.502640 0.471140 0.465140
0.510279 0.474280 0.468280
0.455327 0.459827 0.449327
0.462966 0.462966 0.452466
0.470606 0.466106 0.455606
0.478245 0.469245 0.458745
0.485885 0.472385 0.461885
0.493524 0.475524 0.465025
0.501164 0.478664 0.468164
0.508803 0.481803 0.471303
0.516443 0.484943 0.474443
0.461490 0.470490 0.455490
0.469130 0.473630 0.458630
0.476769 0.476769 0.461769
0.484409 0.479909 0.464909
0.492048 0.483048 0.468048
0.499688 0.486188 0.471188
0.507327 0.489327 0.474327
0.514967 0.492467 0.477467
0.522606 0.495606 0.480606
0.467654 0.481154 0.461654
0.475293 0.484293 0.464793
0.482933 0.487433 0.467933
0.490572 0.490572 0.471073
0.498212 0.493712 0.474212
0.505852 0.496852 0.477351
0.513491 0.499991 0.480491
0.521131 0.503131 0.483631
0.528770 0.506270 0.486770
0.473817 0.491817 0.467817
0.481457 0.494957 0.470957
0.489096 0.498096 0.474096
0.496736 0.501236 0.477236
0.504375 0.504376 0.480376
0.512015 0.507515 0.483515
0.519655 0.510655 0.486654
0.527294 0.513794 0.489794
0.534933 0.516934 0.492933
0.479981 0.502481 0.473981
0.487620 0.505621 0.477120
0.495260 0.508760 0.480260
0.502899 0.511900 0.483399
0.510539 0.515039 0.486539
0.518178 0.518179 0.489679
0.525818 0.521318 0.492818
0.533458 0.524458 0.495958
0.541097 0.527597 0.499097
0.486144 0.513145 0.480144
0.493784 0.516284 0.483284
0.501423 0.519424 0.486424
0.509063 0.522563 0.489563
0.516702 0.525703 0.492702
0.524342 0.528842 0.495842
0.531981 0.531982 0.498982
0.539621 0.535121 0.502121
0.547261 0.538261 0.505261
0.492308 0.523808 0.486308
0.499947 0.526948 0.489447
0.507587 0.530087 0.492587
0.515227 0.533227 0.495727
0.522866 0.536366 0.498866
0.530506 0.539506 0.502005
0.538145 0.542645 0.505145
0.545785 0.545785 0.508285
0.553424 0.548924 0.511424
0.444197 0.439697 0.442697
0.451837 0.442837 0.445837
0.459476 0.445976 0.448976
0.467116 0.449116 0.452116
0.474755 0.452255 0.455255
0.482395 0.455395 0.458395
0.490034 0.458534 0.461534
0.497674 0.461674 0.464674
0.505313 0.464813 0.467813
0.450361 0.450361 0.448861
0.458000 0.453500 0.452000
0.465640 0.456640 0.455140
0.473279 0.459779 0.458279
0.480919 0.462919 0.461419
0.488558 0.466058 0.464558
0.496198 0.469198 0.467698
0.503837 0.472337 0.470837
0.511477 0.475477 0.473977
0.456524 0.461024 0.455024
0.464164 0.464163 0.458164
0.471803 0.467303 0.461303
0.479442 0.470442 0.464442
0.487082 0.473582 0.467582
0.494722 0.476722 0.470722
0.502361 0.479861 0.473861
0.510000 0.483000 0.477000
0.517640 0.486140 0.480140
0.462687 0.471687 0.461187
0.470327 0.474827 0.464327
0.477966 0.477967 0.467467
0.485606 0.481106 0.470606
0.493246 0.484245 0.473746
0.500885 0.487385 0.476885
0.508525 0.490524 0.480025
0.516164 0.493664 0.483164
0.523803 0.496803 0.486303
0.468851 0.482351 0.467351
0.476490 0.485490 0.470490
0.484130 0.488630 0.473630
0.491770 0.491770 0.476770
0.499409 0.494909 0.479909
0.507049 0.498049 0.483049
0.514688 0.501188 0.486188
0.522328 0.504328 0.489328
0.529967 0.507467 0.492467
0.475015 0.493014 0.473515
0.482654 0.496154 0.476654
0.490293 0.499294 0.479793
0.497933 0.502433 0.482933
0.505572 0.505573 0.486073
0.513212 0.508712 0.489212
0.520852 0.511852 0.492351
0.528491 0.514991 0.495491
0.536130 0.518131 0.498630
0.481178 0.503678 0.479678
0.488818 0.506818 0.482818
0.496457 0.509957 0.485957
0.504096 0.513097 0.489096
0.511736 0.516236 0.492236
0.519375 0.519376 0.495376
0.527015 0.522515 0.498515
0.534655 0.525655 0.501655
0.542294 0.528794 0.504794
0.487341 0.514342 0.485841
0.494981 0.517481 0.488981
0.502620 0.520621 0.492120
0.510260 0.523760 0.495260
0.517899 0.526900 0.498399
0.525539 0.530039 0.501539
0.533178 0.533179 0.504679
0.540818 0.536318 0.507818
0.548457 0.539458 0.510957
0.493505 0.525005 0.492005
0.501144 0.528145 0.495144
0.508784 0.531284 0.498284
0.516424 0.534424 0.501424
0.524063 0.537563 0.504563
0.531703 0.540703 0.507703
0.539342 0.543842 0.510842
0.546982 0.546982 0.513982
0.554621 0.550121 0.517121
0.445394 0.440894 0.448394
0.453034 0.444034 0.451534
0.460673 0.447173 0.454673
0.468312 0.450313 0.457812
0.475952 0.453452 0.460952
0.483592 0.456591 0.464091
0.491231 0.459731 0.467231
0.498871 0.462871 0.470371
0.506510 0.466010 0.473510
0.451558 0.451558 0.454558
0.459197 0.454697 0.457697
0.466836 0.457837 0.460836
0.474476 0.460976 0.463976
0.482116 0.464116 0.467116
0.489755 0.467255 0.470255
0.497395 0.470395 0.473394
0.505034 0.473534 0.476534
0.512674 0.476674 0.479674
0.457721 0.462221 0.460721
0.465360 0.465360 0.463860
0.473000 0.468500 0.467000
0.480639 0.471639 0.470139
0.488279 0.474779 0.473279
0.495919 0.477919 0.476419
0.503558 0.481058 0.479558
0.511197 0.484198 0.482698
0.518837 0.487337 0.485837
0.463884 0.472884 0.466884
0.471524 0.476024 0.470024
0.479163 0.479163 0.473163
0.486803 0.482303 0.476303
0.494443 0.485442 0.479442
0.502082 0.488582 0.482582
0.509722 0.491721 0.485721
0.517361 0.494861 0.488861
0.525000 0.498000 0.492000
0.470048 0.483548 0.473048
0.477687 0.486687 0.476187
0.485327 0.489827 0.479327
0.492966 0.492967 0.482467
0.500606 0.496106 0.485606
0.508246 0.499245 0.488745
0.515885 0.502385 0.491885
0.523525 0.505525 0.495024
0.531164 0.508664 0.498164
0.476211 0.494211 0.479211
0.483851 0.497351 0.482351
0.491490 0.500491 0.485490
0.499130 0.503630 0.488630
0.506769 0.506769 0.491769
0.514409 0.509909 0.494909
0.522049 0.513049 0.498049
0.529688 0.516188 0.501188
0.537327 0.519328 0.504327
0.482375 0.504875 0.485375
0.490014 0.508015 0.488514
0.497654 0.511154 0.491654
0.505293 0.514294 0.494793
0.512933 0.517433 0.497933
0.520572 0.520573 0.501073
0.528212 0.523712 0.504212
0.535852 0.526852 0.507352
0.543491 0.529991 0.510491
0.488538 0.515539 0.491538
0.496178 0.518678 0.494678
0.503817 0.521818 0.497817
0.511457 0.524957 0.500957
0.519096 0.528097 0.504096
0.526736 0.531236 0.507236
0.534376 0.534376 0.510375
0.542015 0.537515 0.513515
0.549654 0.540655 0.516654
0.494702 0.526202 0.497702
0.502341 0.529342 0.500841
0.509981 0.532481 0.503981
0.517620 0.535621 0.507120
0.525260 0.538760 0.510260
0.532899 0.541900 0.513400
0.540539 0.545039 0.516539
0.548179 0.548179 0.519679
0.555818 0.551318 0.522818
0.446591 0.442091 0.454091
0.454231 0.445231 0.457231
0.461870 0.448370 0.460370
0.469509 0.451509 0.463509
0.477149 0.454649 0.466649
0.484789 0.457788 0.469788
0.492428 0.460928 0.472928
0.500067 0.464068 0.476068
0.507707 0.467207 0.479207
0.452755 0.452755 0.460255
0.460394 0.455894 0.463394
0.468033 0.459034 0.466533
0.475673 0.462173 0.469673
0.483312 0.465313 0.472812
0.490952 0.468452 0.475952
0.498592 0.471591 0.479092
0.506231 0.474731 0.482231
0.513871 0.477871 0.485371
0.458918 0.463418 0.466418
0.466557 0.466557 0.469557
0.474197 0.469697 0.472697
0.481837 0.472836 0.475836
0.489476 0.475976 0.478976
0.497116 0.479115 0.482116
0.504755 0.482255 0.485255
0.512394 0.485395 0.488395
0.520034 0.488534 0.491534
0.465081 0.474081 0.472581
0.472721 0.477221 0.475721
0.480360 0.480360 0.478860
0.488000 0.483500 0.482000
0.495640 0.486640 0.485140
0.503279 0.489779 0.488279
0.510918 0.492918 0.491418
0.518558 0.496058 0.494558
0.526197 0.499197 0.497697
0.471245 0.484745 0.478745
0.478884 0.487884 0.481884
0.486524 0.491024 0.485024
0.494163 0.494163 0.488163
0.501803 0.497303 0.491303
0.509443 0.500443 0.494442
0.517082 0.503582 0.497582
0.524722 0.506722 0.500722
0.532361 0.509861 0.503861
0.477408 0.495408 0.484908
0.485048 0.498548 0.488048
0.492688 0.501688 0.491187
0.500327 0.504827 0.494327
0.507966 0.507966 0.497466
0.515606 0.511106 0.500606
0.523246 0.514246 0.503745
0.530885 0.517385 0.506885
0.538524 0.520524 0.510024
0.483572 0.506072 0.491072
0.491211 0.509212 0.494211
0.498851 0.512351 0.497351
0.506490 0.515491 0.500490
0.514130 0.518630 0.503630
0.521769 0.521770 0.506769
0.529409 0.524909 0.509909
0.537049 0.528049 0.513049
0.544688 0.531188 0.516188
0.489735 0.516736 0.497235
0.497375 0.519875 0.500375
0.505014 0.523015 0.503514
0.512654 0.526154 0.506654
0.520293 0.529294 0.509794
0.527933 0.532433 0.512933
0.535573 0.535573 0.516073
0.543212 0.538712 0.519212
0.550851 0.541852 0.522351
0.495899 0.527399 0.503399
0.503538 0.530539 0.506538
0.511178 0.533678 0.509678
0.518817 0.536818 0.512817
0.526457 0.539957 0.515957
0.534096 0.543097 0.519096
0.541736 0.546236 0.522236
0.549376 0.549376 0.525375
0.557015 0.552515 0.528515
0.447788 0.443288 0.459788
0.455428 0.446428 0.462928
0.463067 0.449567 0.466067
0.470706 0.452706 0.469206
0.478346 0.455846 0.472346
0.485986 0.458985 0.475486
0.493625 0.462125 0.478625
0.501265 0.465265 0.481765
0.508904 0.468404 0.484904
0.453952 0.453952 0.465952
0.461591 0.457091 0.469091
0.469230 0.460230 0.472230
0.476870 0.463370 0.475370
0.484509 0.466509 0.478509
0.492149 0.469649 0.481649
0.499789 0.472789 0.484789
0.507428 0.475928 0.487928
0.515068 0.479068 0.491068
0.460115 0.464615 0.472115
0.467754 0.467754 0.475254
0.475394 0.470894 0.478394
0.483034 0.474033 0.481533
0.490673 0.477173 0.484673
0.498312 0.480312 0.487812
0.505952 0.483452 0.490952
0.513591 0.486591 0.494091
0.521231 0.489731 0.497231
0.466278 0.475278 0.478278
0.473918 0.478418 0.481418
0.481557 0.481557 0.484557
0.489197 0.484697 0.487697
0.496837 0.487837 0.490837
0.504476 0.490976 0.493976
0.512115 0.494115 0.497115
0.519755 0.497255 0.500255
0.527394 0.500395 0.503394
0.472442 0.485942 0.484442
0.480081 0.489081 0.487581
0.487721 0.492221 0.490721
0.495360 0.495360 0.493860
0.503000 0.498500 0.497000
0.510640 0.501640 0.500140
0.518279 0.504779 0.503279
0.525919 0.507919 0.506418
0.533558 0.511058 0.509558
0.478605 0.496605 0.490605
0.486245 0.499745 0.493745
0.493884 0.502885 0.496884
0.501524 0.506024 0.500024
0.509163 0.509164 0.503163
0.516803 0.512303 0.506303
0.524443 0.515443 0.509443
0.532082 0.518582 0.512582
0.539722 0.521722 0.515722
0.484769 0.507269 0.496769
0.492409 0.510409 0.499908
0.500048 0.513548 0.503048
0.507688 0.516688 0.506188
0.515327 0.519827 0.509327
0.522967 0.522967 0.512467
0.530606 0.526106 0.515606
0.538246 0.529246 0.518745
0.545885 0.532385 0.521885
0.490932 0.517933 0.502933
0.498572 0.521072 0.506072
0.506212 0.524212 0.509212
0.513851 0.527351 0.512351
0.521491 0.530491 0.515491
0.529130 0.533630 0.518630
0.536770 0.536770 0.521769
0.544409 0.539909 0.524909
0.552049 0.543049 0.528049
0.497096 0.528596 0.509096
0.504736 0.531736 0.512236
0.512375 0.534875 0.515375
0.520015 0.538015 0.518515
0.527654 0.541154 0.521654
0.535294 0.544294 0.524794
0.542933 0.547433 0.527933
0.550573 0.550573 0.531073
0.558212 0.553712 0.534212
0.448985 0.444485 0.465485
0.456625 0.447625 0.468624
0.464264 0.450764 0.471764
0.471903 0.453903 0.474903
0.479543 0.457043 0.478043
0.487182 0.460182 0.481182
0.494822 0.463322 0.484322
0.502462 0.466462 0.487461
0.510101 0.469601 0.490601
0.455149 0.455149 0.471649
0.462788 0.458288 0.474788
0.470427 0.461427 0.477928
0.478067 0.464567 0.481067
0.485706 0.467706 0.484206
0.493346 0.470846 0.487346
0.500985 0.473986 0.490486
0.508625 0.477125 0.493625
0.516265 0.480265 0.496765
0.461312 0.465812 0.477812
0.468951 0.468951 0.480951
0.476591 0.472091 0.484091
0.484230 0.475230 0.487230
0.491870 0.478370 0.490370
0.499509 0.481509 0.493509
0.507149 0.484649 0.496649
0.514788 0.487788 0.499788
0.522428 0.490928 0.502928
0.467475 0.476475 0.483975
0.475115 0.479615 0.487115
0.482754 0.482754 0.490254
0.490394 0.485894 0.493394
0.498034 0.489033 0.496533
0.505673 0.492173 0.499673
0.513312 0.495312 0.502812
0.520952 0.498452 0.505952
0.528591 0.501592 0.509092
0.473639 0.487139 0.490139
0.481278 0.490278 0.493278
0.488918 0.493418 0.496418
0.496557 0.496557 0.499557
0.504197 0.499697 0.502697
0.511837 0.502837 0.505837
0.519476 0.505976 0.508976
0.527115 0.509116 0.512115
0.534755 0.512255 0.515255
0.479802 0.497802 0.496302
0.487442 0.500942 0.499442
0.495082 0.504082 0.502582
0.502721 0.507221 0.505721
0.510360 0.510361 0.508861
0.518000 0.513500 0.512000
0.525640 0.516640 0.515139
0.533279 0.519779 0.518279
0.540918 0.522919 0.521419
0.485966 0.508466 0.502466
0.493606 0.511606 0.505606
0.501245 0.514745 0.508745
0.508885 0.517885 0.511885
0.516524 0.521024 0.515024
0.524164 0.524164 0.518164
0.531803 0.527303 0.521303
0.539443 0.530443 0.524443
0.547082 0.533582 0.527582
0.492129 0.519130 0.508629
0.499769 0.522269 0.511769
0.507409 0.525409 0.514908
0.515048 0.528548 0.518048
0.522688 0.531688 0.521188
0.530327 0.534827 0.524327
0.537967 0.537967 0.527466
0.545606 0.541106 0.530606
0.553246 0.544246 0.533745
0.498293 0.529793 0.514793
0.505933 0.532933 0.517933
0.513572 0.536072 0.521072
0.521212 0.539212 0.524212
0.528851 0.542351 0.527351
0.536491 0.545491 0.530491
0.544130 0.548630 0.533630
0.551770 0.551770 0.536770
0.559409 0.554909 0.539909
0.450182 0.445682 0.471182
0.457822 0.448822 0.474322
0.465461 0.451961 0.477461
0.473100 0.455100 0.480600
0.480740 0.458240 0.483740
0.488380 0.461379 0.486880
0.496019 0.464519 0.490019
0.503659 0.467659 0.493159
0.511298 0.470798 0.496298
0.456346 0.456346 0.477346
0.463985 0.459485 0.480485
0.471625 0.462625 0.483625
0.479264 0.465764 0.486764
0.486903 0.468904 0.489903
0.494543 0.472043 0.493043
0.502182 0.475183 0.496183
0.509822 0.478322 0.499322
0.517462 0.481462 0.502462
0.462509 0.467009 0.483509
0.470148 0.470148 0.486648
0.477788 0.473288 0.489788
0.485428 0.476428 0.492928
0.493067 0.479567 0.496067
0.500707 0.482707 0.499206
0.508346 0.485846 0.502346
0.515985 0.488986 0.505486
0.523625 0.492125 0.508625
0.468672 0.477672 0.489672
0.476312 0.480812 0.492812
0.483951 0.483951 0.495951
0.491591 0.487091 0.499091
0.499231 0.490231 0.502231
0.506870 0.493370 0.505370
0.514509 0.496509 0.508509
0.522149 0.499649 0.511649
0.529788 0.502789 0.514788
0.474836 0.488336 0.495836
0.482476 0.491476 0.498976
0.490115 0.494615 0.502115
0.497754 0.497754 0.505255
0.505394 0.500894 0.508394
0.513034 0.504034 0.511534
0.520673 0.507173 0.514673
0.528312 0.510313 0.517813
0.535952 0.513452 0.520952
0.480999 0.498999 0.502000
0.488639 0.502139 0.505139
0.496279 0.505279 0.508278
0.503918 0.508418 0.511418
0.511557 0.511558 0.514558
0.519197 0.514697 0.517697
0.526837 0.517837 0.520837
0.534476 0.520976 0.523976
0.542115 0.524116 0.527115
0.487163 0.509663 0.508163
0.494803 0.512803 0.511302
0.502442 0.515942 0.514442
0.510081 0.519082 0.517582
0.517721 0.522221 0.520721
0.525361 0.525361 0.523861
0.533000 0.528500 0.527000
0.540640 0.531640 0.530139
0.548279 0.534779 0.533279
0.493327 0.520327 0.514327
0.500966 0.523466 0.517466
0.508606 0.526606 0.520606
0.516245 0.529745 0.523745
0.523885 0.532885 0.526885
0.531524 0.536024 0.530024
0.539164 0.539164 0.533164
0.546803 0.542303 0.536303
0.554443 0.545443 0.539443
0.499490 0.530990 0.520490
0.507130 0.534130 0.523629
0.514769 0.537269 0.526769
0.522409 0.540409 0.529909
0.530048 0.543548 0.533048
0.537688 0.546688 0.536188
0.545327 0.549827 0.539327
0.552967 0.552967 0.542466
0.560606 0.556106 0.545606
0.451379 0.446879 0.476879
0.459019 0.450019 0.480019
0.466658 0.453158 0.483158
0.474297 0.456297 0.486297
0.481937 0.459437 0.489437
0.489577 0.462577 0.492577
0.497216 0.465716 0.495716
0.504856 0.468856 0.498856
0.512495 0.471995 0.501995
0.457543 0.457543 0.483043
0.465182 0.460682 0.486182
0.472822 0.463821 0.489322
0.480461 0.466961 0.492461
0.488100 0.470100 0.495600
0.495740 0.473240 0.498740
0.503379 0.476380 0.501880
0.511019 0.479519 0.505019
0.518659 0.482659 0.508159
0.463706 0.468206 0.489206
0.471345 0.471345 0.492345
0.478985 0.474485 0.495485
0.486625 0.477625 0.498625
0.494264 0.480764 0.501764
0.501903 0.483903 0.504904
0.509543 0.487043 0.508043
0.517182 0.490182 0.511182
0.524822 0.493322 0.514322
0.469869 0.478869 0.495369
0.477509 0.482009 0.498509
0.485148 0.485148 0.501649
0.492788 0.488288 0.504788
0.500428 0.491428 0.507927
0.508067 0.494567 0.511067
0.515706 0.497706 0.514207
0.523346 0.500846 0.517346
0.530985 0.503986 0.520486
0.476033 0.489533 0.501533
0.483673 0.492672 0.504672
0.491312 0.495812 0.507812
0.498951 0.498952 0.510952
0.506591 0.502091 0.514091
0.514231 0.505231 0.517231
0.521870 0.508370 0.520370
0.529509 0.511510 0.523509
0.537149 0.514649 0.526649
0.482196 0.500197 0.507696
0.489836 0.503336 0.510836
0.497476 0.506476 0.513976
0.505115 0.509615 0.517115
0.512755 0.512755 0.520255
0.520394 0.515894 0.523394
0.528033 0.519034 0.526533
0.535673 0.522173 0.529673
0.543312 0.525313 0.532813
0.488360 0.510860 0.513860
0.495999 0.514000 0.516999
0.503639 0.517139 0.520139
0.511278 0.520279 0.523278
0.518918 0.523418 0.526418
0.526558 0.526558 0.529558
0.534197 0.529697 0.532697
0.541836 0.532837 0.535836
0.549476 0.535976 0.538976
0.494524 0.521524 0.520023
0.502163 0.524663 0.523163
0.509803 0.527803 0.526303
0.517442 0.530942 0.529442
0.525082 0.534082 0.532582
0.532721 0.537221 0.535721
0.540361 0.540361 0.538860
0.548000 0.543500 0.542000
0.555640 0.546640 0.545139
0.500687 0.532187 0.526187
0.508327 0.535327 0.529327
0.515966 0.538466 0.532466
0.523606 0.541606 0.535606
0.531245 0.544745 0.538745
0.538885 0.547885 0.541885
0.546524 0.551024 0.545024
0.554164 0.554164 0.548164
0.561803 0.557303 0.551303
0.452576 0.448076 0.482576
0.460216 0.451216 0.485716
0.467855 0.454355 0.488855
0.475494 0.457494 0.491995
0.483134 0.460634 0.495134
0.490774 0.463774 0.498274
0.498413 0.466913 0.501413
0.506053 0.470053 0.504553
0.513692 0.473192 0.507692
0.458740 0.458740 0.488740
0.466379 0.461879 0.491879
0.474019 0.465019 0.495019
0.481658 0.468158 0.498158
0.489297 0.471297 0.501298
0.496937 0.474437 0.504437
0.504576 0.477577 0.507576
0.512216 0.480716 0.510716
0.519856 0.483856 0.513856
0.464903 0.469403 0.494903
0.472542 0.472542 0.498042
0.480182 0.475682 0.501182
0.487821 0.478821 0.504321
0.495461 0.481961 0.507461
0.503101 0.485100 0.510601
0.510740 0.488240 0.513740
0.518380 0.491380 0.516880
0.526019 0.494519 0.520019
0.471066 0.480066 0.501066
0.478706 0.483206 0.504206
0.486345 0.486345 0.507346
0.493985 0.489485 0.510485
0.501625 0.492625 0.513625
0.509264 0.495764 0.516764
0.516903 0.498903 0.519903
0.524543 0.502043 0.523043
0.532183 0.505182 0.526182
0.477230 0.490730 0.507230
0.484869 0.493869 0.510370
0.492509 0.497009 0.513509
0.500148 0.500148 0.516648
0.507788 0.503288 0.519788
0.515428 0.506428 0.522927
0.523067 0.509567 0.526067
0.530706 0.512707 0.529207
0.538346 0.515846 0.532346
0.483393 0.501394 0.513393
0.491033 0.504533 0.516533
0.498672 0.507673 0.519672
0.506312 0.510812 0.522812
0.513952 0.513952 0.525952
0.521591 0.517091 0.529091
0.529231 0.520231 0.532231
0.536870 0.523370 0.535370
0.544509 0.526510 0.538509
0.489557 0.512057 0.519557
0.497196 0.515197 0.522697
0.504836 0.518336 0.525836
0.512475 0.521476 0.528976
0.520115 0.524615 0.532115
0.527755 0.527755 0.535255
0.535394 0.530894 0.538394
0.543034 0.534034 0.541534
0.550673 0.537173 0.544673
0.495721 0.522721 0.525721
0.503360 0.525860 0.528860
0.510999 0.529000 0.532000
0.518639 0.532139 0.535139
0.526278 0.535279 0.538278
0.533918 0.538418 0.541418
0.541558 0.541558 0.544558
0.549197 0.544697 0.547697
0.556837 0.547837 0.550837
0.501884 0.533384 0.531884
0.509524 0.536524 0.535023
0.517163 0.539663 0.538163
0.524803 0.542803 0.541303
0.532442 0.545942 0.544442
0.540081 0.549082 0.547582
0.547721 0.552221 0.550721
0.555361 0.555361 0.553860
0.563000 0.558500 0.557000
