shared/src/main/assets/luts/drama_80s_night.cube
TITLE "DALUR 80s Night"
LUT_3D_SIZE 17
DOMAIN_MIN 0.0 0.0 0.0
DOMAIN_MAX 1.0 1.0 1.0
0.424000 0.428500 0.436000
0.427712 0.430522 0.438022
0.431424 0.432543 0.440043
0.435136 0.434565 0.442065
0.438848 0.436587 0.444087
0.442560 0.438609 0.446109
0.446273 0.440630 0.448130
0.449985 0.442652 0.450152
0.453697 0.444674 0.452174
0.457409 0.446695 0.454195
0.461121 0.448717 0.456217
0.464833 0.450739 0.458239
0.468545 0.452760 0.460260
0.472257 0.454782 0.462282
0.475969 0.456804 0.464304
0.479681 0.458826 0.466326
0.483393 0.460847 0.468347
0.427969 0.434159 0.439969
0.431681 0.436181 0.441991
0.435393 0.438203 0.444012
0.439105 0.440225 0.446034
0.442817 0.442246 0.448056
0.446529 0.444268 0.450078
0.450242 0.446290 0.452099
0.453954 0.448311 0.454121
0.457666 0.450333 0.456143
0.461378 0.452355 0.458164
0.465090 0.454376 0.460186
0.468802 0.456398 0.462208
0.472514 0.458420 0.464229
0.476226 0.460442 0.466251
0.479938 0.462463 0.468273
0.483650 0.464485 0.470295
0.487363 0.466507 0.472316
0.431938 0.439819 0.443938
0.435650 0.441841 0.445960
0.439362 0.443862 0.447981
0.443074 0.445884 0.450003
0.446786 0.447906 0.452025
0.450499 0.449927 0.454047
0.454211 0.451949 0.456068
0.457923 0.453971 0.458090
0.461635 0.455992 0.460112
0.465347 0.458014 0.462133
0.469059 0.460036 0.464155
0.472771 0.462058 0.466177
0.476483 0.464079 0.468199
0.480195 0.466101 0.470220
0.483907 0.468123 0.472242
0.487619 0.470144 0.474264
0.491332 0.472166 0.476285
0.435907 0.445478 0.447907
0.439619 0.447500 0.449929
0.443331 0.449522 0.451951
0.447043 0.451543 0.453972
0.450755 0.453565 0.455994
0.454468 0.455587 0.458016
0.458180 0.457608 0.460037
0.461892 0.459630 0.462059
0.465604 0.461652 0.464081
0.469316 0.463674 0.466102
0.473028 0.465695 0.468124
0.476740 0.467717 0.470146
0.480452 0.469739 0.472168
0.484164 0.471760 0.474189
0.487876 0.473782 0.476211
0.491588 0.475804 0.478233
0.495301 0.477826 0.480254
0.439876 0.451138 0.451876
0.443588 0.453159 0.453898
0.447300 0.455181 0.455920
0.451012 0.457203 0.457941
0.454725 0.459225 0.459963
0.458437 0.461246 0.461985
0.462149 0.463268 0.464006
0.465861 0.465290 0.466028
0.469573 0.467311 0.468050
0.473285 0.469333 0.470071
0.476997 0.471355 0.472093
0.480709 0.473376 0.474115
0.484421 0.475398 0.476137
0.488133 0.477420 0.478158
0.491845 0.479442 0.480180
0.495558 0.481463 0.482202
0.499270 0.483485 0.484223
0.443845 0.456797 0.455845
0.447557 0.458819 0.457867
0.451269 0.460841 0.459889
0.454981 0.462862 0.461910
0.458694 0.464884 0.463932
0.462406 0.466906 0.465954
0.466118 0.468927 0.467975
0.469830 0.470949 0.469997
0.473542 0.472971 0.472019
0.477254 0.474992 0.474041
0.480966 0.477014 0.476062
0.484678 0.479036 0.478084
0.488390 0.481058 0.480106
0.492102 0.483079 0.482127
0.495814 0.485101 0.484149
0.499527 0.487123 0.486171
0.503239 0.489144 0.488192
0.447814 0.462457 0.459814
0.451526 0.464478 0.461836
0.455238 0.466500 0.463858
0.458950 0.468522 0.465879
0.462663 0.470543 0.467901
0.466375 0.472565 0.469923
0.470087 0.474587 0.471944
0.473799 0.476608 0.473966
0.477511 0.478630 0.475988
0.481223 0.480652 0.478010
0.484935 0.482674 0.480031
0.488647 0.484695 0.482053
0.492359 0.486717 0.484075
0.496071 0.488739 0.486096
0.499784 0.490760 0.488118
0.503496 0.492782 0.490140
0.507208 0.494804 0.492161
0.451783 0.468116 0.463783
0.455495 0.470138 0.465805
0.459207 0.472159 0.467827
0.462920 0.474181 0.469848
0.466632 0.476203 0.471870
0.470344 0.478224 0.473892
0.474056 0.480246 0.475913
0.477768 0.482268 0.477935
0.481480 0.484290 0.479957
0.485192 0.486311 0.481979
0.488904 0.488333 0.484000
0.492616 0.490355 0.486022
0.496328 0.492376 0.488044
0.500040 0.494398 0.490065
0.503753 0.496420 0.492087
0.507465 0.498442 0.494109
0.511177 0.500463 0.496131
0.455752 0.473775 0.467752
0.459464 0.475797 0.469774
0.463176 0.477819 0.471796
0.466889 0.479840 0.473817
0.470601 0.481862 0.475839
0.474313 0.483884 0.477861
0.478025 0.485906 0.479882
0.481737 0.487927 0.481904
0.485449 0.489949 0.483926
0.489161 0.491971 0.485948
0.492873 0.493992 0.487969
0.496585 0.496014 0.489991
0.500297 0.498036 0.492013
0.504009 0.500058 0.494034
0.507722 0.502079 0.496056
0.511434 0.504101 0.498078
0.515146 0.506123 0.500100
0.459721 0.479435 0.471721
0.463433 0.481456 0.473743
0.467145 0.483478 0.475765
0.470858 0.485500 0.477786
0.474570 0.487522 0.479808
0.478282 0.489543 0.481830
0.481994 0.491565 0.483852
0.485706 0.493587 0.485873
0.489418 0.495608 0.487895
0.493130 0.497630 0.489917
0.496842 0.499652 0.491938
0.500554 0.501674 0.493960
0.504266 0.503695 0.495982
0.507979 0.505717 0.498003
0.511691 0.507739 0.500025
0.515403 0.509760 0.502047
0.519115 0.511782 0.504069
0.463690 0.485094 0.475690
0.467402 0.487116 0.477712
0.471115 0.489138 0.479734
0.474827 0.491159 0.481755
0.478539 0.493181 0.483777
0.482251 0.495203 0.485799
0.485963 0.497224 0.487821
0.489675 0.499246 0.489842
0.493387 0.501268 0.491864
0.497099 0.503290 0.493886
0.500811 0.505311 0.495907
0.504523 0.507333 0.497929
0.508235 0.509355 0.499951
0.511948 0.511376 0.501972
0.515660 0.513398 0.503994
0.519372 0.515420 0.506016
0.523084 0.517441 0.508038
0.467659 0.490754 0.479659
0.471371 0.492775 0.481681
0.475084 0.494797 0.483703
0.478796 0.496819 0.485724
0.482508 0.498840 0.487746
0.486220 0.500862 0.489768
0.489932 0.502884 0.491790
0.493644 0.504906 0.493811
0.497356 0.506927 0.495833
0.501068 0.508949 0.497855
0.504780 0.510971 0.499876
0.508492 0.512992 0.501898
0.512204 0.515014 0.503920
0.515917 0.517036 0.505942
0.519629 0.519057 0.507963
0.523341 0.521079 0.509985
0.527053 0.523101 0.512007
0.471628 0.496413 0.483628
0.475340 0.498435 0.485650
0.479053 0.500456 0.487672
0.482765 0.502478 0.489694
0.486477 0.504500 0.491715
0.490189 0.506522 0.493737
0.493901 0.508543 0.495759
0.497613 0.510565 0.497780
0.501325 0.512587 0.499802
0.505037 0.514608 0.501824
0.508749 0.516630 0.503845
0.512461 0.518652 0.505867
0.516174 0.520674 0.507889
0.519886 0.522695 0.509911
0.523598 0.524717 0.511932
0.527310 0.526739 0.513954
0.531022 0.528760 0.515976
0.475597 0.502072 0.487597
0.479310 0.504094 0.489619
0.483022 0.506116 0.491641
0.486734 0.508138 0.493663
0.490446 0.510159 0.495684
0.494158 0.512181 0.497706
0.497870 0.514203 0.499728
0.501582 0.516224 0.501749
0.505294 0.518246 0.503771
0.509006 0.520268 0.505793
0.512718 0.522290 0.507814
0.516430 0.524311 0.509836
0.520143 0.526333 0.511858
0.523855 0.528355 0.513880
0.527567 0.530376 0.515901
0.531279 0.532398 0.517923
0.534991 0.534420 0.519945
0.479566 0.507732 0.491566
0.483279 0.509754 0.493588
0.486991 0.511775 0.495610
0.490703 0.513797 0.497632
0.494415 0.515819 0.499653
0.498127 0.517840 0.501675
0.501839 0.519862 0.503697
0.505551 0.521884 0.505718
0.509263 0.523906 0.507740
0.512975 0.525927 0.509762
0.516687 0.527949 0.511784
0.520399 0.529971 0.513805
0.524112 0.531992 0.515827
0.527824 0.534014 0.517849
0.531536 0.536036 0.519870
0.535248 0.538057 0.521892
0.538960 0.540079 0.523914
0.483535 0.513391 0.495535
0.487248 0.515413 0.497557
0.490960 0.517435 0.499579
0.494672 0.519456 0.501601
0.498384 0.521478 0.503622
0.502096 0.523500 0.505644
0.505808 0.525522 0.507666
0.509520 0.527543 0.509687
0.513232 0.529565 0.511709
0.516944 0.531587 0.513731
0.520656 0.533608 0.515753
0.524369 0.535630 0.517774
0.528081 0.537652 0.519796
0.531793 0.539673 0.521818
0.535505 0.541695 0.523839
0.539217 0.543717 0.525861
0.542929 0.545739 0.527883
0.487505 0.519051 0.499505
0.491217 0.521072 0.501526
0.494929 0.523094 0.503548
0.498641 0.525116 0.505570
0.502353 0.527138 0.507591
0.506065 0.529159 0.509613
0.509777 0.531181 0.511635
0.513489 0.533203 0.513656
0.517201 0.535224 0.515678
0.520913 0.537246 0.517700
0.524625 0.539268 0.519722
0.528338 0.541289 0.521743
0.532050 0.543311 0.523765
0.535762 0.545333 0.525787
0.539474 0.547355 0.527808
0.543186 0.549376 0.529830
0.546898 0.551398 0.531852
0.424771 0.429271 0.438461
0.428483 0.431293 0.440483
0.432195 0.433314 0.442505
0.435907 0.435336 0.444526
0.439619 0.437358 0.446548
0.443331 0.439379 0.448570
0.447043 0.441401 0.450591
0.450755 0.443423 0.452613
0.454468 0.445444 0.454635
0.458180 0.447466 0.456657
0.461892 0.449488 0.458678
0.465604 0.451510 0.460700
0.469316 0.453531 0.462722
0.473028 0.455553 0.464743
0.476740 0.457575 0.466765
0.480452 0.459596 0.468787
0.484164 0.461618 0.470808
0.428740 0.434930 0.442430
0.432452 0.436952 0.444452
0.436164 0.438974 0.446474
0.439876 0.440995 0.448495
0.443588 0.443017 0.450517
0.447300 0.445039 0.452539
0.451012 0.447060 0.454560
0.454725 0.449082 0.456582
0.458437 0.451104 0.458604
0.462149 0.453126 0.460626
0.465861 0.455147 0.462647
0.469573 0.457169 0.464669
0.473285 0.459191 0.466691
0.476997 0.461212 0.468712
0.480709 0.463234 0.470734
0.484421 0.465256 0.472756
0.488133 0.467278 0.474778
0.432709 0.440590 0.446399
0.436421 0.442611 0.448421
0.440133 0.444633 0.450443
0.443845 0.446655 0.452464
0.447557 0.448676 0.454486
0.451269 0.450698 0.456508
0.454981 0.452720 0.458529
0.458694 0.454742 0.460551
0.462406 0.456763 0.462573
0.466118 0.458785 0.464595
0.469830 0.460807 0.466616
0.473542 0.462828 0.468638
0.477254 0.464850 0.470660
0.480966 0.466872 0.472681
0.484678 0.468894 0.474703
0.488390 0.470915 0.476725
0.492102 0.472937 0.478747
0.436678 0.446249 0.450368
0.440390 0.448271 0.452390
0.444102 0.450292 0.454412
0.447814 0.452314 0.456433
0.451526 0.454336 0.458455
0.455238 0.456358 0.460477
0.458950 0.458379 0.462499
0.462663 0.460401 0.464520
0.466375 0.462423 0.466542
0.470087 0.464444 0.468564
0.473799 0.466466 0.470585
0.477511 0.468488 0.472607
0.481223 0.470510 0.474629
0.484935 0.472531 0.476650
0.488647 0.474553 0.478672
0.492359 0.476575 0.480694
0.496071 0.478596 0.482716
0.440647 0.451909 0.454337
0.444359 0.453930 0.456359
0.448071 0.455952 0.458381
0.451783 0.457974 0.460402
0.455495 0.459995 0.462424
0.459207 0.462017 0.464446
0.462920 0.464039 0.466468
0.466632 0.466060 0.468489
0.470344 0.468082 0.470511
0.474056 0.470104 0.472533
0.477768 0.472126 0.474554
0.481480 0.474147 0.476576
0.485192 0.476169 0.478598
0.488904 0.478191 0.480619
0.492616 0.480212 0.482641
0.496328 0.482234 0.484663
0.500040 0.484256 0.486685
0.444616 0.457568 0.458306
0.448328 0.459590 0.460328
0.452040 0.461611 0.462350
0.455752 0.463633 0.464371
0.459464 0.465655 0.466393
0.463176 0.467676 0.468415
0.466889 0.469698 0.470437
0.470601 0.471720 0.472458
0.474313 0.473742 0.474480
0.478025 0.475763 0.476502
0.481737 0.477785 0.478523
0.485449 0.479807 0.480545
0.489161 0.481828 0.482567
0.492873 0.483850 0.484589
0.496585 0.485872 0.486610
0.500297 0.487893 0.488632
0.504009 0.489915 0.490654
0.448585 0.463227 0.462275
0.452297 0.465249 0.464297
0.456009 0.467271 0.466319
0.459721 0.469292 0.468341
0.463433 0.471314 0.470362
0.467145 0.473336 0.472384
0.470858 0.475358 0.474406
0.474570 0.477379 0.476427
0.478282 0.479401 0.478449
0.481994 0.481423 0.480471
0.485706 0.483444 0.482492
0.489418 0.485466 0.484514
0.493130 0.487488 0.486536
0.496842 0.489510 0.488558
0.500554 0.491531 0.490579
0.504266 0.493553 0.492601
0.507979 0.495575 0.494623
0.452554 0.468887 0.466244
0.456266 0.470908 0.468266
0.459978 0.472930 0.470288
0.463690 0.474952 0.472310
0.467402 0.476974 0.474331
0.471115 0.478995 0.476353
0.474827 0.481017 0.478375
0.478539 0.483039 0.480396
0.482251 0.485060 0.482418
0.485963 0.487082 0.484440
0.489675 0.489104 0.486461
0.493387 0.491126 0.488483
0.497099 0.493147 0.490505
0.500811 0.495169 0.492527
0.504523 0.497191 0.494548
0.508235 0.499212 0.496570
0.511948 0.501234 0.498592
0.456523 0.474546 0.470213
0.460235 0.476568 0.472235
0.463947 0.478590 0.474257
0.467659 0.480611 0.476279
0.471371 0.482633 0.478300
0.475084 0.484655 0.480322
0.478796 0.486676 0.482344
0.482508 0.488698 0.484365
0.486220 0.490720 0.486387
0.489932 0.492742 0.488409
0.493644 0.494763 0.490431
0.497356 0.496785 0.492452
0.501068 0.498807 0.494474
0.504780 0.500828 0.496496
0.508492 0.502850 0.498517
0.512204 0.504872 0.500539
0.515917 0.506893 0.502561
0.460492 0.480206 0.474182
0.464204 0.482227 0.476204
0.467916 0.484249 0.478226
0.471628 0.486271 0.480248
0.475340 0.488292 0.482269
0.479053 0.490314 0.484291
0.482765 0.492336 0.486313
0.486477 0.494358 0.488334
0.490189 0.496379 0.490356
0.493901 0.498401 0.492378
0.497613 0.500423 0.494400
0.501325 0.502444 0.496421
0.505037 0.504466 0.498443
0.508749 0.506488 0.500465
0.512461 0.508509 0.502486
0.516174 0.510531 0.504508
0.519886 0.512553 0.506530
0.464461 0.485865 0.478152
0.468173 0.487887 0.480173
0.471885 0.489908 0.482195
0.475597 0.491930 0.484217
0.479310 0.493952 0.486238
0.483022 0.495974 0.488260
0.486734 0.497995 0.490282
0.490446 0.500017 0.492303
0.494158 0.502039 0.494325
0.497870 0.504060 0.496347
0.501582 0.506082 0.498369
0.505294 0.508104 0.500390
0.509006 0.510125 0.502412
0.512718 0.512147 0.504434
0.516430 0.514169 0.506455
0.520143 0.516191 0.508477
0.523855 0.518212 0.510499
0.468430 0.491524 0.482121
0.472142 0.493546 0.484142
0.475854 0.495568 0.486164
0.479566 0.497590 0.488186
0.483279 0.499611 0.490207
0.486991 0.501633 0.492229
0.490703 0.503655 0.494251
0.494415 0.505676 0.496272
0.498127 0.507698 0.498294
0.501839 0.509720 0.500316
0.505551 0.511741 0.502338
0.509263 0.513763 0.504359
0.512975 0.515785 0.506381
0.516687 0.517807 0.508403
0.520399 0.519828 0.510424
0.524112 0.521850 0.512446
0.527824 0.523872 0.514468
0.472399 0.497184 0.486090
0.476111 0.499206 0.488111
0.479823 0.501227 0.490133
0.483535 0.503249 0.492155
0.487248 0.505271 0.494176
0.490960 0.507292 0.496198
0.494672 0.509314 0.498220
0.498384 0.511336 0.500242
0.502096 0.513358 0.502263
0.505808 0.515379 0.504285
0.509520 0.517401 0.506307
0.513232 0.519423 0.508328
0.516944 0.521444 0.510350
0.520656 0.523466 0.512372
0.524369 0.525488 0.514393
0.528081 0.527509 0.516415
0.531793 0.529531 0.518437
0.476368 0.502843 0.490059
0.480080 0.504865 0.492080
0.483792 0.506887 0.494102
0.487505 0.508908 0.496124
0.491217 0.510930 0.498145
0.494929 0.512952 0.500167
0.498641 0.514974 0.502189
0.502353 0.516995 0.504211
0.506065 0.519017 0.506232
0.509777 0.521039 0.508254
0.513489 0.523060 0.510276
0.517201 0.525082 0.512297
0.520913 0.527104 0.514319
0.524625 0.529125 0.516341
0.528338 0.531147 0.518362
0.532050 0.533169 0.520384
0.535762 0.535191 0.522406
0.480337 0.508503 0.494028
0.484049 0.510524 0.496049
0.487761 0.512546 0.498071
0.491474 0.514568 0.500093
0.495186 0.516590 0.502114
0.498898 0.518611 0.504136
0.502610 0.520633 0.506158
0.506322 0.522655 0.508180
0.510034 0.524676 0.510201
0.513746 0.526698 0.512223
0.517458 0.528720 0.514245
0.521170 0.530741 0.516266
0.524882 0.532763 0.518288
0.528594 0.534785 0.520310
0.532307 0.536807 0.522332
0.536019 0.538828 0.524353
0.539731 0.540850 0.526375
0.484306 0.514162 0.497997
0.488018 0.516184 0.500018
0.491730 0.518206 0.502040
0.495443 0.520227 0.504062
0.499155 0.522249 0.506084
0.502867 0.524271 0.508105
0.506579 0.526292 0.510127
0.510291 0.528314 0.512149
0.514003 0.530336 0.514170
0.517715 0.532357 0.516192
0.521427 0.534379 0.518214
0.525139 0.536401 0.520235
0.528851 0.538423 0.522257
0.532564 0.540444 0.524279
0.536276 0.542466 0.526301
0.539988 0.544488 0.528322
0.543700 0.546509 0.530344
0.488275 0.519822 0.501966
0.491987 0.521843 0.503987
0.495700 0.523865 0.506009
0.499412 0.525887 0.508031
0.503124 0.527908 0.510053
0.506836 0.529930 0.512074
0.510548 0.531952 0.514096
0.514260 0.533973 0.516118
0.517972 0.535995 0.518139
0.521684 0.538017 0.520161
0.525396 0.540039 0.522183
0.529108 0.542060 0.524204
0.532820 0.544082 0.526226
0.536533 0.546104 0.528248
0.540245 0.548125 0.530270
0.543957 0.550147 0.532291
0.547669 0.552169 0.534313
0.425542 0.430042 0.440922
0.429254 0.432063 0.442944
0.432966 0.434085 0.444966
0.436678 0.436107 0.446988
0.440390 0.438128 0.449009
0.444102 0.440150 0.451031
0.447814 0.442172 0.453053
0.451526 0.444194 0.455074
0.455238 0.446215 0.457096
0.458950 0.448237 0.459118
0.462663 0.450259 0.461139
0.466375 0.452280 0.463161
0.470087 0.454302 0.465183
0.473799 0.456324 0.467205
0.477511 0.458346 0.469226
0.481223 0.460367 0.471248
0.484935 0.462389 0.473270
0.429511 0.435701 0.444891
0.433223 0.437723 0.446913
0.436935 0.439744 0.448935
0.440647 0.441766 0.450957
0.444359 0.443788 0.452978
0.448071 0.445810 0.455000
0.451783 0.447831 0.457022
0.455495 0.449853 0.459043
0.459207 0.451875 0.461065
0.462920 0.453896 0.463087
0.466632 0.455918 0.465108
0.470344 0.457940 0.467130
0.474056 0.459962 0.469152
0.477768 0.461983 0.471174
0.481480 0.464005 0.473195
0.485192 0.466027 0.475217
0.488904 0.468048 0.477239
0.433480 0.441360 0.448860
0.437192 0.443382 0.450882
0.440904 0.445404 0.452904
0.444616 0.447426 0.454926
0.448328 0.449447 0.456947
0.452040 0.451469 0.458969
0.455752 0.453491 0.460991
0.459464 0.455512 0.463012
0.463176 0.457534 0.465034
0.466889 0.459556 0.467056
0.470601 0.461578 0.469078
0.474313 0.463599 0.471099
0.478025 0.465621 0.473121
0.481737 0.467643 0.475143
0.485449 0.469664 0.477164
0.489161 0.471686 0.479186
0.492873 0.473708 0.481208
0.437449 0.447020 0.452830
0.441161 0.449042 0.454851
0.444873 0.451063 0.456873
0.448585 0.453085 0.458895
0.452297 0.455107 0.460916
0.456009 0.457128 0.462938
0.459721 0.459150 0.464960
0.463433 0.461172 0.466981
0.467145 0.463194 0.469003
0.470858 0.465215 0.471025
0.474570 0.467237 0.473047
0.478282 0.469259 0.475068
0.481994 0.471280 0.477090
0.485706 0.473302 0.479112
0.489418 0.475324 0.481133
0.493130 0.477345 0.483155
0.496842 0.479367 0.485177
0.441418 0.452679 0.456799
0.445130 0.454701 0.458820
0.448842 0.456723 0.460842
0.452554 0.458744 0.462864
0.456266 0.460766 0.464885
0.459978 0.462788 0.466907
0.463690 0.464810 0.468929
0.467402 0.466831 0.470950
0.471115 0.468853 0.472972
0.474827 0.470875 0.474994
0.478539 0.472896 0.477016
0.482251 0.474918 0.479037
0.485963 0.476940 0.481059
0.489675 0.478961 0.483081
0.493387 0.480983 0.485102
0.497099 0.483005 0.487124
0.500811 0.485027 0.489146
0.445387 0.458339 0.460768
0.449099 0.460360 0.462789
0.452811 0.462382 0.464811
0.456523 0.464404 0.466833
0.460235 0.466426 0.468854
0.463947 0.468447 0.470876
0.467659 0.470469 0.472898
0.471371 0.472491 0.474920
0.475084 0.474512 0.476941
0.478796 0.476534 0.478963
0.482508 0.478556 0.480985
0.486220 0.480577 0.483006
0.489932 0.482599 0.485028
0.493644 0.484621 0.487050
0.497356 0.486643 0.489071
0.501068 0.488664 0.491093
0.504780 0.490686 0.493115
0.449356 0.463998 0.464737
0.453068 0.466020 0.466758
0.456780 0.468042 0.468780
0.460492 0.470063 0.470802
0.464204 0.472085 0.472823
0.467916 0.474107 0.474845
0.471628 0.476128 0.476867
0.475340 0.478150 0.478889
0.479053 0.480172 0.480910
0.482765 0.482194 0.482932
0.486477 0.484215 0.484954
0.490189 0.486237 0.486975
0.493901 0.488259 0.488997
0.497613 0.490280 0.491019
0.501325 0.492302 0.493040
0.505037 0.494324 0.495062
0.508749 0.496345 0.497084
0.453325 0.469658 0.468706
0.457037 0.471679 0.470727
0.460749 0.473701 0.472749
0.464461 0.475723 0.474771
0.468173 0.477744 0.476792
0.471885 0.479766 0.478814
0.475597 0.481788 0.480836
0.479310 0.483810 0.482858
0.483022 0.485831 0.484879
0.486734 0.487853 0.486901
0.490446 0.489875 0.488923
0.494158 0.491896 0.490944
0.497870 0.493918 0.492966
0.501582 0.495940 0.494988
0.505294 0.497961 0.497010
0.509006 0.499983 0.499031
0.512718 0.502005 0.501053
0.457294 0.475317 0.472675
0.461006 0.477339 0.474696
0.464718 0.479360 0.476718
0.468430 0.481382 0.478740
0.472142 0.483404 0.480761
0.475854 0.485426 0.482783
0.479566 0.487447 0.484805
0.483279 0.489469 0.486827
0.486991 0.491491 0.488848
0.490703 0.493512 0.490870
0.494415 0.495534 0.492892
0.498127 0.497556 0.494913
0.501839 0.499577 0.496935
0.505551 0.501599 0.498957
0.509263 0.503621 0.500979
0.512975 0.505643 0.503000
0.516687 0.507664 0.505022
0.461263 0.480976 0.476644
0.464975 0.482998 0.478665
0.468687 0.485020 0.480687
0.472399 0.487042 0.482709
0.476111 0.489063 0.484731
0.479823 0.491085 0.486752
0.483535 0.493107 0.488774
0.487248 0.495128 0.490796
0.490960 0.497150 0.492817
0.494672 0.499172 0.494839
0.498384 0.501193 0.496861
0.502096 0.503215 0.498882
0.505808 0.505237 0.500904
0.509520 0.507259 0.502926
0.513232 0.509280 0.504948
0.516944 0.511302 0.506969
0.520656 0.513324 0.508991
0.465232 0.486636 0.480613
0.468944 0.488658 0.482634
0.472656 0.490679 0.484656
0.476368 0.492701 0.486678
0.480080 0.494723 0.488700
0.483792 0.496744 0.490721
0.487505 0.498766 0.492743
0.491217 0.500788 0.494765
0.494929 0.502809 0.496786
0.498641 0.504831 0.498808
0.502353 0.506853 0.500830
0.506065 0.508875 0.502851
0.509777 0.510896 0.504873
0.513489 0.512918 0.506895
0.517201 0.514940 0.508917
0.520913 0.516961 0.510938
0.524625 0.518983 0.512960
0.469201 0.492295 0.484582
0.472913 0.494317 0.486603
0.476625 0.496339 0.488625
0.480337 0.498360 0.490647
0.484049 0.500382 0.492669
0.487761 0.502404 0.494690
0.491474 0.504425 0.496712
0.495186 0.506447 0.498734
0.498898 0.508469 0.500755
0.502610 0.510491 0.502777
0.506322 0.512512 0.504799
0.510034 0.514534 0.506821
0.513746 0.516556 0.508842
0.517458 0.518577 0.510864
0.521170 0.520599 0.512886
0.524882 0.522621 0.514907
0.528594 0.524643 0.516929
0.473170 0.497955 0.488551
0.476882 0.499976 0.490573
0.480594 0.501998 0.492594
0.484306 0.504020 0.494616
0.488018 0.506042 0.496638
0.491730 0.508063 0.498659
0.495443 0.510085 0.500681
0.499155 0.512107 0.502703
0.502867 0.514128 0.504724
0.506579 0.516150 0.506746
0.510291 0.518172 0.508768
0.514003 0.520193 0.510790
0.517715 0.522215 0.512811
0.521427 0.524237 0.514833
0.525139 0.526259 0.516855
0.528851 0.528280 0.518876
0.532564 0.530302 0.520898
0.477139 0.503614 0.492520
0.480851 0.505636 0.494542
0.484563 0.507658 0.496563
0.488275 0.509679 0.498585
0.491987 0.511701 0.500607
0.495700 0.513723 0.502628
0.499412 0.515744 0.504650
0.503124 0.517766 0.506672
0.506836 0.519788 0.508693
0.510548 0.521809 0.510715
0.514260 0.523831 0.512737
0.517972 0.525853 0.514759
0.521684 0.527875 0.516780
0.525396 0.529896 0.518802
0.529108 0.531918 0.520824
0.532820 0.533940 0.522845
0.536533 0.535961 0.524867
0.481108 0.509274 0.496489
0.484820 0.511295 0.498511
0.488532 0.513317 0.500532
0.492244 0.515339 0.502554
0.495956 0.517360 0.504576
0.499669 0.519382 0.506597
0.503381 0.521404 0.508619
0.507093 0.523425 0.510641
0.510805 0.525447 0.512663
0.514517 0.527469 0.514684
0.518229 0.529491 0.516706
0.521941 0.531512 0.518728
0.525653 0.533534 0.520749
0.529365 0.535556 0.522771
0.533077 0.537577 0.524793
0.536789 0.539599 0.526814
0.540502 0.541621 0.528836
0.485077 0.514933 0.500458
0.488789 0.516955 0.502480
0.492501 0.518976 0.504501
0.496213 0.520998 0.506523
0.499925 0.523020 0.508545
0.503638 0.525041 0.510566
0.507350 0.527063 0.512588
0.511062 0.529085 0.514610
0.514774 0.531107 0.516632
0.518486 0.533128 0.518653
0.522198 0.535150 0.520675
0.525910 0.537172 0.522697
0.529622 0.539193 0.524718
0.533334 0.541215 0.526740
0.537046 0.543237 0.528762
0.540759 0.545259 0.530783
0.544471 0.547280 0.532805
0.489046 0.520592 0.504427
0.492758 0.522614 0.506449
0.496470 0.524636 0.508470
0.500182 0.526657 0.510492
0.503895 0.528679 0.512514
0.507607 0.530701 0.514535
0.511319 0.532723 0.516557
0.515031 0.534744 0.518579
0.518743 0.536766 0.520601
0.522455 0.538788 0.522622
0.526167 0.540809 0.524644
0.529879 0.542831 0.526666
0.533591 0.544853 0.528687
0.537303 0.546875 0.530709
0.541015 0.548896 0.532731
0.544728 0.550918 0.534753
0.548440 0.552940 0.536774
0.426312 0.430812 0.443384
0.430025 0.432834 0.445405
0.433737 0.434856 0.447427
0.437449 0.436878 0.449449
0.441161 0.438899 0.451470
0.444873 0.440921 0.453492
0.448585 0.442943 0.455514
0.452297 0.444964 0.457536
0.456009 0.446986 0.459557
0.459721 0.449008 0.461579
0.463433 0.451029 0.463601
0.467145 0.453051 0.465622
0.470858 0.455073 0.467644
0.474570 0.457095 0.469666
0.478282 0.459116 0.471687
0.481994 0.461138 0.473709
0.485706 0.463160 0.475731
0.430281 0.436472 0.447353
