shared/src/main/assets/luts/drama_winter_steel.cube
TITLE "DALUR Winter Steel"
LUT_3D_SIZE 5
DOMAIN_MIN 0.0 0.0 0.0
DOMAIN_MAX 1.0 1.0 1.0
0.410800 0.430000 0.449200
0.413737 0.442871 0.462071
0.416674 0.455741 0.474941
0.419611 0.468612 0.487812
0.422548 0.481483 0.500683
0.436068 0.445334 0.474468
0.439005 0.458205 0.487338
0.441942 0.471075 0.500209
0.444879 0.483946 0.513080
0.447816 0.496817 0.525950
0.461336 0.460668 0.499736
0.464273 0.473539 0.512606
0.467210 0.486410 0.525477
0.470147 0.499280 0.538347
0.473084 0.512151 0.551218
0.486603 0.476003 0.525003
0.489540 0.488873 0.537874
0.492477 0.501744 0.550745
0.495414 0.514614 0.563615
0.498351 0.527485 0.576486
0.511871 0.491337 0.550271
0.514808 0.504207 0.563142
0.517745 0.517078 0.576012
0.520682 0.529949 0.588883
0.523619 0.542819 0.601754
0.415707 0.434907 0.444174
0.418644 0.447778 0.457044
0.421581 0.460648 0.469915
0.424518 0.473519 0.482786
0.427455 0.486390 0.495656
0.440975 0.450241 0.469441
0.443912 0.463112 0.482312
0.446849 0.475983 0.495183
0.449786 0.488853 0.508053
0.452723 0.501724 0.520924
0.466243 0.465576 0.494709
0.469180 0.478446 0.507580
0.472117 0.491317 0.520450
0.475054 0.504187 0.533321
0.477991 0.517058 0.546192
0.491511 0.480910 0.519977
0.494448 0.493780 0.532848
0.497385 0.506651 0.545718
0.500322 0.519522 0.558589
0.503259 0.532392 0.571460
0.516778 0.496244 0.545245
0.519715 0.509115 0.558115
0.522652 0.521985 0.570986
0.525589 0.534856 0.583857
0.528526 0.547726 0.596727
0.420614 0.439814 0.439147
0.423551 0.452685 0.452018
0.426488 0.465556 0.464888
0.429426 0.478426 0.477759
0.432363 0.491297 0.490630
0.445882 0.455149 0.464415
0.448819 0.468019 0.477286
0.451756 0.480890 0.490156
0.454693 0.493761 0.503027
0.457630 0.506631 0.515898
0.471150 0.470483 0.489683
0.474087 0.483353 0.502553
0.477024 0.496224 0.515424
0.479961 0.509095 0.528295
0.482898 0.521965 0.541165
0.496418 0.485817 0.514951
0.499355 0.498688 0.527821
0.502292 0.511558 0.540692
0.505229 0.524429 0.553562
0.508166 0.537299 0.566433
0.521686 0.501151 0.540218
0.524623 0.514022 0.553089
0.527560 0.526892 0.565960
0.530497 0.539763 0.578830
0.533434 0.552634 0.591701
0.425522 0.444722 0.434121
0.428459 0.457592 0.446991
0.431396 0.470463 0.459862
0.434333 0.483334 0.472733
0.437270 0.496204 0.485603
0.450789 0.460056 0.459389
0.453726 0.472926 0.472259
0.456663 0.485797 0.485130
0.459600 0.498668 0.498000
0.462538 0.511538 0.510871
0.476057 0.475390 0.484656
0.478994 0.488261 0.497527
0.481931 0.501131 0.510398
0.484868 0.514002 0.523268
0.487805 0.526873 0.536139
0.501325 0.490724 0.509924
0.504262 0.503595 0.522795
0.507199 0.516465 0.535665
0.510136 0.529336 0.548536
0.513073 0.542207 0.561407
0.526593 0.506058 0.535192
0.529530 0.518929 0.548063
0.532467 0.531800 0.560933
0.535404 0.544670 0.573804
0.538341 0.557541 0.586674
0.430429 0.449629 0.429094
0.433366 0.462499 0.441965
0.436303 0.475370 0.454836
0.439240 0.488241 0.467706
0.442177 0.501111 0.480577
0.455697 0.464963 0.454362
0.458634 0.477834 0.467233
0.461571 0.490704 0.480103
0.464508 0.503575 0.492974
0.467445 0.516446 0.505845
0.480964 0.480297 0.479630
0.483901 0.493168 0.492501
0.486838 0.506038 0.505371
0.489775 0.518909 0.518242
0.492713 0.531780 0.531113
0.506232 0.495631 0.504898
0.509169 0.508502 0.517768
0.512106 0.521373 0.530639
0.515043 0.534243 0.543510
0.517980 0.547114 0.556380
0.531500 0.510966 0.530166
0.534437 0.523836 0.543036
0.537374 0.536707 0.555907
0.540311 0.549577 0.568777
0.543248 0.562448 0.581648
