shared/src/main/assets/luts/drama_birmingham_smoke.cube
TITLE "DALUR Birmingham Smoke"
LUT_3D_SIZE 17
DOMAIN_MIN 0.0 0.0 0.0
DOMAIN_MAX 1.0 1.0 1.0
0.427200 0.420000 0.412800
0.428016 0.423577 0.416377
0.428832 0.427154 0.419954
0.429649 0.430730 0.423530
0.430465 0.434307 0.427107
0.431281 0.437884 0.430684
0.432097 0.441461 0.434261
0.432913 0.445037 0.437837
0.433730 0.448614 0.441414
0.434546 0.452191 0.444991
0.435362 0.455768 0.448568
0.436178 0.459344 0.452144
0.436994 0.462921 0.455721
0.437811 0.466498 0.459298
0.438627 0.470075 0.462875
0.439443 0.473652 0.466452
0.440259 0.477228 0.470028
0.434222 0.424261 0.419822
0.435038 0.427838 0.423399
0.435854 0.431415 0.426975
0.436671 0.434992 0.430552
0.437487 0.438568 0.434129
0.438303 0.442145 0.437706
0.439119 0.445722 0.441283
0.439935 0.449299 0.444859
0.440752 0.452876 0.448436
0.441568 0.456452 0.452013
0.442384 0.460029 0.455590
0.443200 0.463606 0.459166
0.444016 0.467183 0.462743
0.444833 0.470759 0.466320
0.445649 0.474336 0.469897
0.446465 0.477913 0.473473
0.447281 0.481490 0.477050
0.441244 0.428523 0.426844
0.442060 0.432100 0.430421
0.442876 0.435676 0.433997
0.443693 0.439253 0.437574
0.444509 0.442830 0.441151
0.445325 0.446407 0.444728
0.446141 0.449983 0.448305
0.446957 0.453560 0.451881
0.447774 0.457137 0.455458
0.448590 0.460714 0.459035
0.449406 0.464290 0.462612
0.450222 0.467867 0.466188
0.451038 0.471444 0.469765
0.451855 0.475021 0.473342
0.452671 0.478598 0.476919
0.453487 0.482174 0.480495
0.454303 0.485751 0.484072
0.448266 0.432784 0.433866
0.449082 0.436361 0.437443
0.449898 0.439938 0.441019
0.450714 0.443514 0.444596
0.451531 0.447091 0.448173
0.452347 0.450668 0.451750
0.453163 0.454245 0.455326
0.453979 0.457822 0.458903
0.454796 0.461398 0.462480
0.455612 0.464975 0.466057
0.456428 0.468552 0.469634
0.457244 0.472129 0.473210
0.458060 0.475705 0.476787
0.458877 0.479282 0.480364
0.459693 0.482859 0.483941
0.460509 0.486436 0.487517
0.461325 0.490012 0.491094
0.455288 0.437046 0.440888
0.456104 0.440622 0.444465
0.456920 0.444199 0.448041
0.457736 0.447776 0.451618
0.458553 0.451353 0.455195
0.459369 0.454929 0.458772
0.460185 0.458506 0.462348
0.461001 0.462083 0.465925
0.461817 0.465660 0.469502
0.462634 0.469236 0.473079
0.463450 0.472813 0.476656
0.464266 0.476390 0.480232
0.465082 0.479967 0.483809
0.465898 0.483544 0.487386
0.466715 0.487120 0.490963
0.467531 0.490697 0.494539
0.468347 0.494274 0.498116
0.462310 0.441307 0.447910
0.463126 0.444884 0.451487
0.463942 0.448460 0.455063
0.464758 0.452037 0.458640
0.465575 0.455614 0.462217
0.466391 0.459191 0.465794
0.467207 0.462768 0.469370
0.468023 0.466344 0.472947
0.468839 0.469921 0.476524
0.469656 0.473498 0.480101
0.470472 0.477075 0.483677
0.471288 0.480651 0.487254
0.472104 0.484228 0.490831
0.472920 0.487805 0.494408
0.473737 0.491382 0.497985
0.474553 0.494958 0.501561
0.475369 0.498535 0.505138
0.469332 0.445568 0.454932
0.470148 0.449145 0.458508
0.470964 0.452722 0.462085
0.471780 0.456299 0.465662
0.472597 0.459875 0.469239
0.473413 0.463452 0.472816
0.474229 0.467029 0.476392
0.475045 0.470606 0.479969
0.475861 0.474182 0.483546
0.476678 0.477759 0.487123
0.477494 0.481336 0.490699
0.478310 0.484913 0.494276
0.479126 0.488490 0.497853
0.479942 0.492066 0.501430
0.480759 0.495643 0.505006
0.481575 0.499220 0.508583
0.482391 0.502797 0.512160
0.476354 0.449830 0.461954
0.477170 0.453406 0.465530
0.477986 0.456983 0.469107
0.478802 0.460560 0.472684
0.479618 0.464137 0.476261
0.480435 0.467714 0.479838
0.481251 0.471290 0.483414
0.482067 0.474867 0.486991
0.482883 0.478444 0.490568
0.483700 0.482021 0.494145
0.484516 0.485597 0.497721
0.485332 0.489174 0.501298
0.486148 0.492751 0.504875
0.486964 0.496328 0.508452
0.487781 0.499904 0.512028
0.488597 0.503481 0.515605
0.489413 0.507058 0.519182
0.483376 0.454091 0.468976
0.484192 0.457668 0.472552
0.485008 0.461245 0.476129
0.485824 0.464821 0.479706
0.486640 0.468398 0.483283
0.487457 0.471975 0.486859
0.488273 0.475552 0.490436
0.489089 0.479128 0.494013
0.489905 0.482705 0.497590
0.490721 0.486282 0.501167
0.491538 0.489859 0.504743
0.492354 0.493436 0.508320
0.493170 0.497012 0.511897
0.493986 0.500589 0.515474
0.494803 0.504166 0.519050
0.495619 0.507743 0.522627
0.496435 0.511319 0.526204
0.490398 0.458353 0.475998
0.491214 0.461929 0.479574
0.492030 0.465506 0.483151
0.492846 0.469083 0.486728
0.493662 0.472660 0.490305
0.494479 0.476236 0.493881
0.495295 0.479813 0.497458
0.496111 0.483390 0.501035
0.496927 0.486967 0.504612
0.497743 0.490543 0.508188
0.498560 0.494120 0.511765
0.499376 0.497697 0.515342
0.500192 0.501274 0.518919
0.501008 0.504851 0.522496
0.501824 0.508427 0.526072
0.502641 0.512004 0.529649
0.503457 0.515581 0.533226
0.497420 0.462614 0.483020
0.498236 0.466191 0.486596
0.499052 0.469767 0.490173
0.499868 0.473344 0.493750
0.500684 0.476921 0.497327
0.501501 0.480498 0.500903
0.502317 0.484075 0.504480
0.503133 0.487651 0.508057
0.503949 0.491228 0.511634
0.504765 0.494805 0.515210
0.505582 0.498382 0.518787
0.506398 0.501958 0.522364
0.507214 0.505535 0.525941
0.508030 0.509112 0.529518
0.508846 0.512689 0.533094
0.509663 0.516265 0.536671
0.510479 0.519842 0.540248
0.504441 0.466875 0.490041
0.505258 0.470452 0.493618
0.506074 0.474029 0.497195
0.506890 0.477606 0.500772
0.507706 0.481182 0.504349
0.508523 0.484759 0.507925
0.509339 0.488336 0.511502
0.510155 0.491913 0.515079
0.510971 0.495489 0.518656
0.511787 0.499066 0.522232
0.512604 0.502643 0.525809
0.513420 0.506220 0.529386
0.514236 0.509797 0.532963
0.515052 0.513373 0.536539
0.515868 0.516950 0.540116
0.516685 0.520527 0.543693
0.517501 0.524104 0.547270
0.511463 0.471137 0.497063
0.512280 0.474713 0.500640
0.513096 0.478290 0.504217
0.513912 0.481867 0.507794
0.514728 0.485444 0.511371
0.515544 0.489021 0.514947
0.516361 0.492597 0.518524
0.517177 0.496174 0.522101
0.517993 0.499751 0.525678
0.518809 0.503328 0.529254
0.519625 0.506904 0.532831
0.520442 0.510481 0.536408
0.521258 0.514058 0.539985
0.522074 0.517635 0.543561
0.522890 0.521211 0.547138
0.523707 0.524788 0.550715
0.524523 0.528365 0.554292
0.518485 0.475398 0.504085
0.519302 0.478975 0.507662
0.520118 0.482552 0.511239
0.520934 0.486128 0.514816
0.521750 0.489705 0.518392
0.522566 0.493282 0.521969
0.523383 0.496859 0.525546
0.524199 0.500435 0.529123
0.525015 0.504012 0.532700
0.525831 0.507589 0.536276
0.526647 0.511166 0.539853
0.527464 0.514743 0.543430
0.528280 0.518319 0.547007
0.529096 0.521896 0.550583
0.529912 0.525473 0.554160
0.530728 0.529050 0.557737
0.531545 0.532626 0.561314
0.525507 0.479659 0.511107
0.526324 0.483236 0.514684
0.527140 0.486813 0.518261
0.527956 0.490390 0.521838
0.528772 0.493967 0.525414
0.529588 0.497543 0.528991
0.530405 0.501120 0.532568
0.531221 0.504697 0.536145
0.532037 0.508274 0.539721
0.532853 0.511850 0.543298
0.533669 0.515427 0.546875
0.534486 0.519004 0.550452
0.535302 0.522581 0.554029
0.536118 0.526157 0.557605
0.536934 0.529734 0.561182
0.537750 0.533311 0.564759
0.538567 0.536888 0.568336
0.532529 0.483921 0.518129
0.533345 0.487498 0.521706
0.534162 0.491074 0.525283
0.534978 0.494651 0.528860
0.535794 0.498228 0.532436
0.536610 0.501805 0.536013
0.537427 0.505381 0.539590
0.538243 0.508958 0.543167
0.539059 0.512535 0.546743
0.539875 0.516112 0.550320
0.540691 0.519689 0.553897
0.541508 0.523265 0.557474
0.542324 0.526842 0.561051
0.543140 0.530419 0.564627
0.543956 0.533996 0.568204
0.544772 0.537572 0.571781
0.545589 0.541149 0.575358
0.539551 0.488182 0.525151
0.540367 0.491759 0.528728
0.541184 0.495336 0.532305
0.542000 0.498913 0.535882
0.542816 0.502489 0.539458
0.543632 0.506066 0.543035
0.544448 0.509643 0.546612
0.545265 0.513220 0.550189
0.546081 0.516796 0.553765
0.546897 0.520373 0.557342
0.547713 0.523950 0.560919
0.548530 0.527527 0.564496
0.549346 0.531103 0.568072
0.550162 0.534680 0.571649
0.550978 0.538257 0.575226
0.551794 0.541834 0.578803
0.552611 0.545411 0.582380
0.428564 0.421364 0.411403
0.429380 0.424940 0.414980
0.430196 0.428517 0.418557
0.431012 0.432094 0.422133
0.431829 0.435671 0.425710
0.432645 0.439248 0.429287
0.433461 0.442824 0.432864
0.434277 0.446401 0.436441
0.435093 0.449978 0.440017
0.435910 0.453555 0.443594
0.436726 0.457131 0.447171
0.437542 0.460708 0.450748
0.438358 0.464285 0.454324
0.439174 0.467862 0.457901
0.439991 0.471438 0.461478
0.440807 0.475015 0.465055
0.441623 0.478592 0.468631
0.435586 0.425625 0.418425
0.436402 0.429202 0.422002
0.437218 0.432779 0.425579
0.438034 0.436355 0.429155
0.438850 0.439932 0.432732
0.439667 0.443509 0.436309
0.440483 0.447086 0.439886
0.441299 0.450662 0.443462
0.442115 0.454239 0.447039
0.442932 0.457816 0.450616
0.443748 0.461393 0.454193
0.444564 0.464970 0.457770
0.445380 0.468546 0.461346
0.446196 0.472123 0.464923
0.447013 0.475700 0.468500
0.447829 0.479277 0.472077
0.448645 0.482853 0.475653
0.442608 0.429886 0.425447
0.443424 0.433463 0.429024
0.444240 0.437040 0.432601
0.445056 0.440617 0.436177
0.445872 0.444194 0.439754
0.446689 0.447770 0.443331
0.447505 0.451347 0.446908
0.448321 0.454924 0.450484
0.449137 0.458501 0.454061
0.449953 0.462077 0.457638
0.450770 0.465654 0.461215
0.451586 0.469231 0.464792
0.452402 0.472808 0.468368
0.453218 0.476384 0.471945
0.454035 0.479961 0.475522
0.454851 0.483538 0.479099
0.455667 0.487115 0.482675
0.449630 0.434148 0.432469
0.450446 0.437725 0.436046
0.451262 0.441301 0.439623
0.452078 0.444878 0.443199
0.452894 0.448455 0.446776
0.453711 0.452032 0.450353
0.454527 0.455609 0.453930
0.455343 0.459185 0.457506
0.456159 0.462762 0.461083
0.456975 0.466339 0.464660
0.457792 0.469916 0.468237
0.458608 0.473492 0.471813
0.459424 0.477069 0.475390
0.460240 0.480646 0.478967
0.461056 0.484223 0.482544
0.461873 0.487799 0.486121
0.462689 0.491376 0.489697
0.456652 0.438409 0.439491
0.457468 0.441986 0.443068
0.458284 0.445563 0.446645
0.459100 0.449140 0.450221
0.459916 0.452716 0.453798
0.460733 0.456293 0.457375
0.461549 0.459870 0.460952
0.462365 0.463447 0.464528
0.463181 0.467023 0.468105
0.463997 0.470600 0.471682
0.464814 0.474177 0.475259
0.465630 0.477754 0.478835
0.466446 0.481331 0.482412
0.467262 0.484907 0.485989
0.468078 0.488484 0.489566
0.468895 0.492061 0.493143
0.469711 0.495638 0.496719
0.463673 0.442671 0.446513
0.464490 0.446247 0.450090
0.465306 0.449824 0.453666
0.466122 0.453401 0.457243
0.466938 0.456978 0.460820
0.467755 0.460555 0.464397
0.468571 0.464131 0.467974
0.469387 0.467708 0.471550
0.470203 0.471285 0.475127
0.471019 0.474862 0.478704
0.471836 0.478438 0.482281
0.472652 0.482015 0.485857
0.473468 0.485592 0.489434
0.474284 0.489169 0.493011
0.475100 0.492745 0.496588
0.475917 0.496322 0.500164
0.476733 0.499899 0.503741
0.470695 0.446932 0.453535
0.471512 0.450509 0.457112
0.472328 0.454086 0.460688
0.473144 0.457662 0.464265
0.473960 0.461239 0.467842
0.474776 0.464816 0.471419
0.475593 0.468393 0.474995
0.476409 0.471969 0.478572
0.477225 0.475546 0.482149
0.478041 0.479123 0.485726
0.478857 0.482700 0.489303
0.479674 0.486277 0.492879
0.480490 0.489853 0.496456
0.481306 0.493430 0.500033
0.482122 0.497007 0.503610
0.482939 0.500584 0.507186
0.483755 0.504160 0.510763
0.477717 0.451193 0.460557
0.478534 0.454770 0.464134
0.479350 0.458347 0.467710
0.480166 0.461924 0.471287
0.480982 0.465501 0.474864
0.481798 0.469077 0.478441
0.482615 0.472654 0.482017
0.483431 0.476231 0.485594
0.484247 0.479808 0.489171
0.485063 0.483384 0.492748
0.485879 0.486961 0.496325
0.486696 0.490538 0.499901
0.487512 0.494115 0.503478
0.488328 0.497691 0.507055
0.489144 0.501268 0.510632
0.489960 0.504845 0.514208
0.490777 0.508422 0.517785
0.484739 0.455455 0.467579
0.485556 0.459032 0.471156
0.486372 0.462608 0.474732
0.487188 0.466185 0.478309
0.488004 0.469762 0.481886
0.488820 0.473339 0.485463
0.489637 0.476915 0.489039
0.490453 0.480492 0.492616
0.491269 0.484069 0.496193
0.492085 0.487646 0.499770
0.492901 0.491223 0.503346
0.493718 0.494799 0.506923
0.494534 0.498376 0.510500
0.495350 0.501953 0.514077
0.496166 0.505530 0.517654
0.496982 0.509106 0.521230
0.497799 0.512683 0.524807
0.491761 0.459716 0.474601
0.492577 0.463293 0.478177
0.493394 0.466870 0.481754
0.494210 0.470447 0.485331
0.495026 0.474023 0.488908
0.495842 0.477600 0.492485
0.496659 0.481177 0.496061
0.497475 0.484754 0.499638
0.498291 0.488330 0.503215
0.499107 0.491907 0.506792
0.499923 0.495484 0.510368
0.500740 0.499061 0.513945
0.501556 0.502637 0.517522
0.502372 0.506214 0.521099
0.503188 0.509791 0.524675
0.504004 0.513368 0.528252
0.504821 0.516945 0.531829
0.498783 0.463978 0.481623
0.499599 0.467554 0.485199
0.500416 0.471131 0.488776
0.501232 0.474708 0.492353
0.502048 0.478285 0.495930
0.502864 0.481861 0.499507
0.503680 0.485438 0.503083
0.504497 0.489015 0.506660
0.505313 0.492592 0.510237
0.506129 0.496169 0.513814
0.506945 0.499745 0.517390
0.507762 0.503322 0.520967
0.508578 0.506899 0.524544
0.509394 0.510476 0.528121
0.510210 0.514052 0.531697
0.511026 0.517629 0.535274
0.511843 0.521206 0.538851
0.505805 0.468239 0.488645
0.506621 0.471816 0.492221
0.507438 0.475393 0.495798
0.508254 0.478969 0.499375
0.509070 0.482546 0.502952
0.509886 0.486123 0.506528
0.510702 0.489700 0.510105
0.511519 0.493276 0.513682
0.512335 0.496853 0.517259
0.513151 0.500430 0.520836
0.513967 0.504007 0.524412
0.514783 0.507583 0.527989
0.515600 0.511160 0.531566
0.516416 0.514737 0.535143
0.517232 0.518314 0.538719
0.518048 0.521891 0.542296
0.518864 0.525467 0.545873
0.512827 0.472500 0.495667
0.513643 0.476077 0.499243
0.514460 0.479654 0.502820
0.515276 0.483231 0.506397
0.516092 0.486807 0.509974
0.516908 0.490384 0.513550
0.517724 0.493961 0.517127
0.518541 0.497538 0.520704
0.519357 0.501115 0.524281
0.520173 0.504691 0.527858
0.520989 0.508268 0.531434
0.521805 0.511845 0.535011
0.522622 0.515422 0.538588
0.523438 0.518998 0.542165
0.524254 0.522575 0.545741
0.525070 0.526152 0.549318
0.525886 0.529729 0.552895
0.519849 0.476762 0.502689
0.520665 0.480339 0.506265
0.521482 0.483915 0.509842
0.522298 0.487492 0.513419
0.523114 0.491069 0.516996
0.523930 0.494646 0.520572
0.524746 0.498222 0.524149
0.525563 0.501799 0.527726
0.526379 0.505376 0.531303
0.527195 0.508953 0.534879
0.528011 0.512529 0.538456
0.528827 0.516106 0.542033
0.529644 0.519683 0.545610
0.530460 0.523260 0.549187
0.531276 0.526837 0.552763
0.532092 0.530413 0.556340
0.532908 0.533990 0.559917
0.526871 0.481023 0.509710
0.527687 0.484600 0.513287
0.528503 0.488177 0.516864
0.529320 0.491753 0.520441
0.530136 0.495330 0.524018
0.530952 0.498907 0.527594
0.531768 0.502484 0.531171
0.532584 0.506061 0.534748
0.533401 0.509637 0.538325
0.534217 0.513214 0.541901
0.535033 0.516791 0.545478
0.535849 0.520368 0.549055
0.536666 0.523944 0.552632
0.537482 0.527521 0.556208
0.538298 0.531098 0.559785
0.539114 0.534675 0.563362
0.539930 0.538251 0.566939
0.533893 0.485285 0.516732
0.534709 0.488861 0.520309
0.535525 0.492438 0.523886
0.536342 0.496015 0.527463
0.537158 0.499592 0.531040
0.537974 0.503168 0.534616
0.538790 0.506745 0.538193
0.539606 0.510322 0.541770
0.540423 0.513899 0.545347
0.541239 0.517475 0.548923
0.542055 0.521052 0.552500
0.542871 0.524629 0.556077
0.543687 0.528206 0.559654
0.544504 0.531783 0.563230
0.545320 0.535359 0.566807
0.546136 0.538936 0.570384
0.546952 0.542513 0.573961
0.540915 0.489546 0.523754
0.541731 0.493123 0.527331
0.542547 0.496699 0.530908
0.543364 0.500276 0.534485
0.544180 0.503853 0.538061
0.544996 0.507430 0.541638
0.545812 0.511007 0.545215
0.546628 0.514583 0.548792
0.547445 0.518160 0.552369
0.548261 0.521737 0.555945
0.549077 0.525314 0.559522
0.549893 0.528890 0.563099
0.550709 0.532467 0.566676
0.551526 0.536044 0.570252
0.552342 0.539621 0.573829
0.553158 0.543197 0.577406
0.553974 0.546774 0.580983
0.429927 0.422727 0.410006
0.430744 0.426304 0.413583
0.431560 0.429881 0.417160
0.432376 0.433458 0.420737
0.433192 0.437035 0.424313
0.434008 0.440611 0.427890
0.434825 0.444188 0.431467
0.435641 0.447765 0.435044
0.436457 0.451342 0.438620
0.437273 0.454918 0.442197
0.438090 0.458495 0.445774
0.438906 0.462072 0.449351
0.439722 0.465649 0.452928
0.440538 0.469225 0.456504
0.441354 0.472802 0.460081
0.442171 0.476379 0.463658
0.442987 0.479956 0.467235
0.436949 0.426989 0.417028
0.437766 0.430566 0.420605
0.438582 0.434142 0.424182
0.439398 0.437719 0.427759
0.440214 0.441296 0.431335
0.441030 0.444873 0.434912
0.441847 0.448449 0.438489
0.442663 0.452026 0.442066
0.443479 0.455603 0.445642
0.444295 0.459180 0.449219
0.445111 0.462757 0.452796
0.445928 0.466333 0.456373
0.446744 0.469910 0.459949
0.447560 0.473487 0.463526
0.448376 0.477064 0.467103
0.449192 0.480640 0.470680
0.450009 0.484217 0.474257
0.443971 0.431250 0.424050
0.444788 0.434827 0.427627
0.445604 0.438404 0.431204
0.446420 0.441981 0.434781
0.447236 0.445557 0.438357
0.448052 0.449134 0.441934
0.448869 0.452711 0.445511
0.449685 0.456288 0.449088
0.450501 0.459864 0.452664
0.451317 0.463441 0.456241
0.452133 0.467018 0.459818
0.452950 0.470595 0.463395
0.453766 0.474171 0.466971
0.454582 0.477748 0.470548
0.455398 0.481325 0.474125
0.456214 0.484902 0.477702
0.457031 0.488479 0.481279
0.450993 0.435512 0.431072
0.451809 0.439088 0.434649
0.452626 0.442665 0.438226
0.453442 0.446242 0.441802
0.454258 0.449819 0.445379
0.455074 0.453395 0.448956
0.455891 0.456972 0.452533
0.456707 0.460549 0.456110
0.457523 0.464126 0.459686
0.458339 0.467703 0.463263
0.459155 0.471279 0.466840
0.459972 0.474856 0.470417
0.460788 0.478433 0.473993
0.461604 0.482010 0.477570
0.462420 0.485586 0.481147
0.463236 0.489163 0.484724
0.464053 0.492740 0.488300
0.458015 0.439773 0.438094
0.458831 0.443350 0.441671
0.459648 0.446927 0.445248
0.460464 0.450503 0.448824
0.461280 0.454080 0.452401
0.462096 0.457657 0.455978
0.462912 0.461234 0.459555
0.463729 0.464810 0.463132
0.464545 0.468387 0.466708
0.465361 0.471964 0.470285
0.466177 0.475541 0.473862
0.466994 0.479117 0.477439
0.467810 0.482694 0.481015
0.468626 0.486271 0.484592
0.469442 0.489848 0.488169
0.470258 0.493425 0.491746
0.471075 0.497001 0.495322
0.465037 0.444034 0.445116
0.465853 0.447611 0.448693
0.466670 0.451188 0.452270
0.467486 0.454765 0.455846
0.468302 0.458341 0.459423
0.469118 0.461918 0.463000
0.469934 0.465495 0.466577
0.470751 0.469072 0.470153
0.471567 0.472649 0.473730
0.472383 0.476225 0.477307
0.473199 0.479802 0.480884
0.474015 0.483379 0.484461
0.474832 0.486956 0.488037
0.475648 0.490532 0.491614
0.476464 0.494109 0.495191
0.477280 0.497686 0.498768
0.478096 0.501263 0.502344
0.472059 0.448296 0.452138
0.472875 0.451873 0.455715
0.473692 0.455449 0.459292
0.474508 0.459026 0.462868
0.475324 0.462603 0.466445
0.476140 0.466180 0.470022
0.476956 0.469756 0.473599
0.477773 0.473333 0.477175
0.478589 0.476910 0.480752
0.479405 0.480487 0.484329
0.480221 0.484063 0.487906
0.481037 0.487640 0.491482
0.481854 0.491217 0.495059
0.482670 0.494794 0.498636
0.483486 0.498371 0.502213
0.484302 0.501947 0.505790
0.485118 0.505524 0.509366
0.479081 0.452557 0.459160
0.479897 0.456134 0.462737
0.480714 0.459711 0.466314
0.481530 0.463287 0.469890
0.482346 0.466864 0.473467
0.483162 0.470441 0.477044
0.483978 0.474018 0.480621
0.484795 0.477595 0.484197
0.485611 0.481171 0.487774
0.486427 0.484748 0.491351
0.487243 0.488325 0.494928
0.488059 0.491902 0.498504
0.488876 0.495478 0.502081
0.489692 0.499055 0.505658
0.490508 0.502632 0.509235
0.491324 0.506209 0.512812
0.492140 0.509785 0.516388
0.486103 0.456819 0.466182
0.486919 0.460395 0.469759
0.487735 0.463972 0.473335
0.488552 0.467549 0.476912
0.489368 0.471126 0.480489
0.490184 0.474702 0.484066
0.491000 0.478279 0.487643
0.491816 0.481856 0.491219
0.492633 0.485433 0.494796
0.493449 0.489009 0.498373
0.494265 0.492586 0.501950
0.495081 0.496163 0.505526
0.495898 0.499740 0.509103
0.496714 0.503317 0.512680
0.497530 0.506893 0.516257
0.498346 0.510470 0.519833
0.499162 0.514047 0.523410
0.493125 0.461080 0.473204
0.493941 0.464657 0.476781
0.494757 0.468233 0.480357
0.495574 0.471810 0.483934
0.496390 0.475387 0.487511
0.497206 0.478964 0.491088
0.498022 0.482541 0.494664
0.498838 0.486117 0.498241
0.499655 0.489694 0.501818
0.500471 0.493271 0.505395
0.501287 0.496848 0.508972
0.502103 0.500424 0.512548
0.502919 0.504001 0.516125
0.503736 0.507578 0.519702
0.504552 0.511155 0.523279
0.505368 0.514731 0.526855
0.506184 0.518308 0.530432
0.500147 0.465341 0.480226
0.500963 0.468918 0.483803
0.501779 0.472495 0.487379
0.502596 0.476072 0.490956
0.503412 0.479648 0.494533
0.504228 0.483225 0.498110
0.505044 0.486802 0.501686
0.505860 0.490379 0.505263
0.506677 0.493955 0.508840
0.507493 0.497532 0.512417
0.508309 0.501109 0.515994
0.509125 0.504686 0.519570
0.509941 0.508263 0.523147
0.510758 0.511839 0.526724
0.511574 0.515416 0.530301
0.512390 0.518993 0.533877
0.513206 0.522570 0.537454
0.507169 0.469603 0.487248
0.507985 0.473179 0.490825
0.508801 0.476756 0.494401
0.509618 0.480333 0.497978
0.510434 0.483910 0.501555
0.511250 0.487487 0.505132
0.512066 0.491063 0.508708
0.512882 0.494640 0.512285
0.513699 0.498217 0.515862
0.514515 0.501794 0.519439
0.515331 0.505370 0.523015
0.516147 0.508947 0.526592
0.516963 0.512524 0.530169
0.517780 0.516101 0.533746
0.518596 0.519677 0.537323
0.519412 0.523254 0.540899
0.520228 0.526831 0.544476
0.514191 0.473864 0.494270
0.515007 0.477441 0.497847
0.515823 0.481018 0.501423
0.516639 0.484594 0.505000
0.517456 0.488171 0.508577
0.518272 0.491748 0.512154
0.519088 0.495325 0.515730
0.519904 0.498901 0.519307
0.520721 0.502478 0.522884
0.521537 0.506055 0.526461
0.522353 0.509632 0.530037
0.523169 0.513209 0.533614
0.523985 0.516785 0.537191
0.524802 0.520362 0.540768
0.525618 0.523939 0.544345
0.526434 0.527516 0.547921
0.527250 0.531092 0.551498
0.521213 0.478125 0.501292
0.522029 0.481702 0.504868
0.522845 0.485279 0.508445
0.523661 0.488856 0.512022
0.524478 0.492433 0.515599
0.525294 0.496009 0.519176
0.526110 0.499586 0.522752
0.526926 0.503163 0.526329
0.527742 0.506740 0.529906
0.528559 0.510316 0.533483
0.529375 0.513893 0.537059
0.530191 0.517470 0.540636
0.531007 0.521047 0.544213
0.531823 0.524623 0.547790
0.532640 0.528200 0.551366
0.533456 0.531777 0.554943
0.534272 0.535354 0.558520
0.528235 0.482387 0.508314
0.529051 0.485964 0.511890
0.529867 0.489540 0.515467
0.530683 0.493117 0.519044
0.531500 0.496694 0.522621
0.532316 0.500271 0.526197
0.533132 0.503847 0.529774
0.533948 0.507424 0.533351
0.534764 0.511001 0.536928
0.535581 0.514578 0.540505
0.536397 0.518155 0.544081
0.537213 0.521731 0.547658
0.538029 0.525308 0.551235
0.538845 0.528885 0.554812
0.539662 0.532462 0.558388
0.540478 0.536038 0.561965
0.541294 0.539615 0.565542
0.535257 0.486648 0.515336
0.536073 0.490225 0.518912
0.536889 0.493802 0.522489
0.537705 0.497379 0.526066
0.538522 0.500955 0.529643
0.539338 0.504532 0.533219
0.540154 0.508109 0.536796
0.540970 0.511686 0.540373
0.541786 0.515262 0.543950
0.542603 0.518839 0.547527
0.543419 0.522416 0.551103
0.544235 0.525993 0.554680
0.545051 0.529570 0.558257
0.545867 0.533146 0.561834
0.546684 0.536723 0.565410
0.547500 0.540300 0.568987
0.548316 0.543877 0.572564
0.542279 0.490910 0.522358
0.543095 0.494486 0.525934
0.543911 0.498063 0.529511
0.544727 0.501640 0.533088
0.545543 0.505217 0.536665
0.546360 0.508794 0.540241
0.547176 0.512370 0.543818
0.547992 0.515947 0.547395
0.548808 0.519524 0.550972
0.549625 0.523101 0.554548
0.550441 0.526677 0.558125
0.551257 0.530254 0.561702
0.552073 0.533831 0.565279
0.552889 0.537408 0.568856
0.553706 0.540984 0.572432
0.554522 0.544561 0.576009
0.555338 0.548138 0.579586
0.431291 0.424091 0.408609
0.432107 0.427668 0.412186
0.432924 0.431245 0.415763
0.433740 0.434821 0.419340
0.434556 0.438398 0.422917
0.435372 0.441975 0.426493
0.436188 0.445552 0.430070
0.437005 0.449129 0.433647
0.437821 0.452705 0.437224
0.438637 0.456282 0.440800
0.439453 0.459859 0.444377
0.440269 0.463436 0.447954
0.441086 0.467012 0.451531
0.441902 0.470589 0.455107
0.442718 0.474166 0.458684
0.443534 0.477743 0.462261
0.444350 0.481319 0.465838
0.438313 0.428353 0.415631
