shared/src/main/assets/luts/drama_albuquerque_sun.cube
TITLE "DALUR Albuquerque Sun"
LUT_3D_SIZE 9
DOMAIN_MIN 0.0 0.0 0.0
DOMAIN_MAX 1.0 1.0 1.0
0.475000 0.460000 0.445000
0.479707 0.462564 0.447564
0.484414 0.465127 0.450127
0.489122 0.467691 0.452691
0.493829 0.470255 0.455255
0.498536 0.472818 0.457818
0.503243 0.475382 0.460382
0.507951 0.477946 0.462946
0.512658 0.480509 0.465509
0.480033 0.467177 0.450033
0.484740 0.469740 0.452597
0.489448 0.472304 0.455160
0.494155 0.474868 0.457724
0.498862 0.477431 0.460288
0.503569 0.479995 0.462851
0.508276 0.482559 0.465415
0.512984 0.485122 0.467979
0.517691 0.487686 0.470543
0.485066 0.474353 0.455066
0.489773 0.476917 0.457630
0.494481 0.479481 0.460193
0.499188 0.482044 0.462757
0.503895 0.484608 0.465321
0.508602 0.487172 0.467885
0.513309 0.489735 0.470448
0.518017 0.492299 0.473012
0.522724 0.494863 0.475576
0.490099 0.481530 0.460099
0.494806 0.484093 0.462663
0.499514 0.486657 0.465227
0.504221 0.489221 0.467790
0.508928 0.491785 0.470354
0.513635 0.494348 0.472918
0.518343 0.496912 0.475481
0.523050 0.499476 0.478045
0.527757 0.502039 0.480609
0.495132 0.488706 0.465132
0.499839 0.491270 0.467696
0.504547 0.493834 0.470260
0.509254 0.496397 0.472823
0.513961 0.498961 0.475387
0.518668 0.501525 0.477951
0.523376 0.504088 0.480514
0.528083 0.506652 0.483078
0.532790 0.509216 0.485642
0.500165 0.495883 0.470165
0.504872 0.498447 0.472729
0.509580 0.501010 0.475293
0.514287 0.503574 0.477856
0.518994 0.506138 0.480420
0.523701 0.508701 0.482984
0.528409 0.511265 0.485547
0.533116 0.513829 0.488111
0.537823 0.516392 0.490675
0.505198 0.503060 0.475198
0.509906 0.505623 0.477762
0.514613 0.508187 0.480326
0.519320 0.510751 0.482889
0.524027 0.513314 0.485453
0.528734 0.515878 0.488017
0.533442 0.518442 0.490580
0.538149 0.521005 0.493144
0.542856 0.523569 0.495708
0.510231 0.510236 0.480231
0.514939 0.512800 0.482795
0.519646 0.515364 0.485359
0.524353 0.517927 0.487922
0.529060 0.520491 0.490486
0.533767 0.523055 0.493050
0.538475 0.525618 0.495613
0.543182 0.528182 0.498177
0.547889 0.530746 0.500741
0.515264 0.517413 0.485264
0.519972 0.519976 0.487828
0.524679 0.522540 0.490392
0.529386 0.525104 0.492955
0.534093 0.527667 0.495519
0.538801 0.530231 0.498083
0.543508 0.532795 0.500646
0.548215 0.535359 0.503210
0.552922 0.537922 0.505774
0.475977 0.460977 0.448121
0.480685 0.463541 0.450685
0.485392 0.466105 0.453248
0.490099 0.468669 0.455812
0.494806 0.471232 0.458376
0.499514 0.473796 0.460939
0.504221 0.476360 0.463503
0.508928 0.478923 0.466067
0.513635 0.481487 0.468630
0.481011 0.468154 0.453154
0.485718 0.470718 0.455718
0.490425 0.473281 0.458281
0.495132 0.475845 0.460845
0.499839 0.478409 0.463409
0.504547 0.480972 0.465972
0.509254 0.483536 0.468536
0.513961 0.486100 0.471100
0.518668 0.488664 0.473664
0.486044 0.475331 0.458187
0.490751 0.477894 0.460751
0.495458 0.480458 0.463314
0.500165 0.483022 0.465878
0.504872 0.485585 0.468442
0.509580 0.488149 0.471006
0.514287 0.490713 0.473569
0.518994 0.493276 0.476133
0.523701 0.495840 0.478697
0.491077 0.482507 0.463220
0.495784 0.485071 0.465784
0.500491 0.487635 0.468348
0.505198 0.490198 0.470911
0.509906 0.492762 0.473475
0.514613 0.495326 0.476039
0.519320 0.497889 0.478602
0.524027 0.500453 0.481166
0.528734 0.503017 0.483730
0.496110 0.489684 0.468253
0.500817 0.492248 0.470817
0.505524 0.494811 0.473381
0.510231 0.497375 0.475944
0.514939 0.499939 0.478508
0.519646 0.502502 0.481072
0.524353 0.505066 0.483635
0.529060 0.507630 0.486199
0.533767 0.510193 0.488763
0.501143 0.496860 0.473286
0.505850 0.499424 0.475850
0.510557 0.501988 0.478414
0.515264 0.504551 0.480977
0.519972 0.507115 0.483541
0.524679 0.509679 0.486105
0.529386 0.512243 0.488668
0.534093 0.514806 0.491232
0.538801 0.517370 0.493796
0.506176 0.504037 0.478319
0.510883 0.506601 0.480883
0.515590 0.509164 0.483447
0.520297 0.511728 0.486010
0.525005 0.514292 0.488574
0.529712 0.516855 0.491138
0.534419 0.519419 0.493701
0.539126 0.521983 0.496265
0.543834 0.524546 0.498829
0.511209 0.511214 0.483352
0.515916 0.513777 0.485916
0.520623 0.516341 0.488480
0.525330 0.518905 0.491043
0.530038 0.521468 0.493607
0.534745 0.524032 0.496171
0.539452 0.526596 0.498734
0.544159 0.529159 0.501298
0.548867 0.531723 0.503862
0.516242 0.518390 0.488385
0.520949 0.520954 0.490949
0.525656 0.523518 0.493513
0.530364 0.526081 0.496076
0.535071 0.528645 0.498640
0.539778 0.531209 0.501204
0.544485 0.533772 0.503767
0.549192 0.536336 0.506331
0.553900 0.538900 0.508895
0.476955 0.461955 0.451242
0.481662 0.464519 0.453806
0.486369 0.467082 0.456369
0.491077 0.469646 0.458933
0.495784 0.472210 0.461497
0.500491 0.474773 0.464060
0.505198 0.477337 0.466624
0.509906 0.479901 0.469188
0.514613 0.482464 0.471751
0.481988 0.469132 0.456275
0.486695 0.471695 0.458839
0.491402 0.474259 0.461402
0.496110 0.476823 0.463966
0.500817 0.479386 0.466530
0.505524 0.481950 0.469093
0.510231 0.484514 0.471657
0.514939 0.487077 0.474221
0.519646 0.489641 0.476785
0.487021 0.476308 0.461308
0.491728 0.478872 0.463872
0.496435 0.481435 0.466435
0.501143 0.483999 0.468999
0.505850 0.486563 0.471563
0.510557 0.489127 0.474127
0.515264 0.491690 0.476690
0.519972 0.494254 0.479254
0.524679 0.496818 0.481818
0.492054 0.483485 0.466341
0.496761 0.486048 0.468905
0.501469 0.488612 0.471469
0.506176 0.491176 0.474032
0.510883 0.493739 0.476596
0.515590 0.496303 0.479160
0.520297 0.498867 0.481723
0.525005 0.501430 0.484287
0.529712 0.503994 0.486851
0.497087 0.490661 0.471374
0.501794 0.493225 0.473938
0.506502 0.495789 0.476502
0.511209 0.498352 0.479065
0.515916 0.500916 0.481629
0.520623 0.503480 0.484193
0.525330 0.506043 0.486756
0.530038 0.508607 0.489320
0.534745 0.511171 0.491884
0.502120 0.497838 0.476407
0.506827 0.500402 0.478971
0.511535 0.502965 0.481535
0.516242 0.505529 0.484098
0.520949 0.508093 0.486662
0.525656 0.510656 0.489226
0.530364 0.513220 0.491789
0.535071 0.515784 0.494353
0.539778 0.518347 0.496917
0.507153 0.505014 0.481440
0.511860 0.507578 0.484004
0.516568 0.510142 0.486568
0.521275 0.512706 0.489131
0.525982 0.515269 0.491695
0.530689 0.517833 0.494259
0.535397 0.520397 0.496822
0.540104 0.522960 0.499386
0.544811 0.525524 0.501950
0.512186 0.512191 0.486473
0.516893 0.514755 0.489037
0.521601 0.517318 0.491601
0.526308 0.519882 0.494164
0.531015 0.522446 0.496728
0.535722 0.525009 0.499292
0.540430 0.527573 0.501855
0.545137 0.530137 0.504419
0.549844 0.532701 0.506983
0.517219 0.519368 0.491506
0.521927 0.521931 0.494070
0.526634 0.524495 0.496634
0.531341 0.527059 0.499197
0.536048 0.529622 0.501761
0.540755 0.532186 0.504325
0.545463 0.534750 0.506888
0.550170 0.537313 0.509452
0.554877 0.539877 0.512016
0.477932 0.462932 0.454363
0.482640 0.465496 0.456927
0.487347 0.468060 0.459490
0.492054 0.470623 0.462054
0.496761 0.473187 0.464618
0.501469 0.475751 0.467181
0.506176 0.478314 0.469745
0.510883 0.480878 0.472309
0.515590 0.483442 0.474872
0.482965 0.470109 0.459396
0.487673 0.472673 0.461960
0.492380 0.475236 0.464523
0.497087 0.477800 0.467087
0.501794 0.480364 0.469651
0.506502 0.482927 0.472214
0.511209 0.485491 0.474778
0.515916 0.488055 0.477342
0.520623 0.490618 0.479906
0.487998 0.477286 0.464429
0.492706 0.479849 0.466993
0.497413 0.482413 0.469556
0.502120 0.484977 0.472120
0.506827 0.487540 0.474684
0.511535 0.490104 0.477248
0.516242 0.492668 0.479811
0.520949 0.495231 0.482375
0.525656 0.497795 0.484939
0.493032 0.484462 0.469462
0.497739 0.487026 0.472026
0.502446 0.489590 0.474590
0.507153 0.492153 0.477153
0.511860 0.494717 0.479717
0.516568 0.497281 0.482281
0.521275 0.499844 0.484844
0.525982 0.502408 0.487408
0.530689 0.504972 0.489972
0.498065 0.491639 0.474495
0.502772 0.494202 0.477059
0.507479 0.496766 0.479623
0.512186 0.499330 0.482186
0.516893 0.501893 0.484750
0.521601 0.504457 0.487314
0.526308 0.507021 0.489877
0.531015 0.509585 0.492441
0.535722 0.512148 0.495005
0.503098 0.498815 0.479528
0.507805 0.501379 0.482092
0.512512 0.503943 0.484656
0.517219 0.506506 0.487219
0.521927 0.509070 0.489783
0.526634 0.511634 0.492347
0.531341 0.514197 0.494910
0.536048 0.516761 0.497474
0.540755 0.519325 0.500038
0.508131 0.505992 0.484561
0.512838 0.508556 0.487125
0.517545 0.511119 0.489689
0.522252 0.513683 0.492252
0.526960 0.516247 0.494816
0.531667 0.518810 0.497380
0.536374 0.521374 0.499943
0.541081 0.523938 0.502507
0.545788 0.526501 0.505071
0.513164 0.513169 0.489594
0.517871 0.515732 0.492158
0.522578 0.518296 0.494722
0.527285 0.520860 0.497285
0.531993 0.523423 0.499849
0.536700 0.525987 0.502413
0.541407 0.528551 0.504976
0.546114 0.531114 0.507540
0.550822 0.533678 0.510104
0.518197 0.520345 0.494627
0.522904 0.522909 0.497191
0.527611 0.525472 0.499755
0.532318 0.528036 0.502318
0.537026 0.530600 0.504882
0.541733 0.533164 0.507446
0.546440 0.535727 0.510009
0.551147 0.538291 0.512573
0.555855 0.540855 0.515137
0.478910 0.463910 0.457484
0.483617 0.466474 0.460048
0.488324 0.469037 0.462611
0.493032 0.471601 0.465175
0.497739 0.474165 0.467739
0.502446 0.476728 0.470302
0.507153 0.479292 0.472866
0.511860 0.481856 0.475430
0.516568 0.484419 0.477993
0.483943 0.471086 0.462517
0.488650 0.473650 0.465081
0.493357 0.476214 0.467644
0.498065 0.478777 0.470208
0.502772 0.481341 0.472772
0.507479 0.483905 0.475335
0.512186 0.486469 0.477899
0.516893 0.489032 0.480463
0.521601 0.491596 0.483027
0.488976 0.478263 0.467550
0.493683 0.480827 0.470114
0.498390 0.483390 0.472677
0.503098 0.485954 0.475241
0.507805 0.488518 0.477805
0.512512 0.491081 0.480369
0.517219 0.493645 0.482932
0.521927 0.496209 0.485496
0.526634 0.498772 0.488060
0.494009 0.485440 0.472583
0.498716 0.488003 0.475147
0.503423 0.490567 0.477711
0.508131 0.493131 0.480274
0.512838 0.495694 0.482838
0.517545 0.498258 0.485402
0.522252 0.500822 0.487965
0.526960 0.503385 0.490529
0.531667 0.505949 0.493093
0.499042 0.492616 0.477616
0.503749 0.495180 0.480180
0.508456 0.497744 0.482744
0.513164 0.500307 0.485307
0.517871 0.502871 0.487871
0.522578 0.505435 0.490435
0.527285 0.507998 0.492998
0.531993 0.510562 0.495562
0.536700 0.513126 0.498126
0.504075 0.499793 0.482649
0.508782 0.502356 0.485213
0.513490 0.504920 0.487777
0.518197 0.507484 0.490340
0.522904 0.510048 0.492904
0.527611 0.512611 0.495468
0.532318 0.515175 0.498031
0.537026 0.517739 0.500595
0.541733 0.520302 0.503159
0.509108 0.506969 0.487682
0.513815 0.509533 0.490246
0.518523 0.512097 0.492810
0.523230 0.514660 0.495373
0.527937 0.517224 0.497937
0.532644 0.519788 0.500501
0.537351 0.522351 0.503064
0.542059 0.524915 0.505628
0.546766 0.527479 0.508192
0.514141 0.514146 0.492715
0.518848 0.516710 0.495279
0.523556 0.519273 0.497843
0.528263 0.521837 0.500406
0.532970 0.524401 0.502970
0.537677 0.526964 0.505534
0.542385 0.529528 0.508097
0.547092 0.532092 0.510661
0.551799 0.534655 0.513225
0.519174 0.521323 0.497748
0.523881 0.523886 0.500312
0.528589 0.526450 0.502876
0.533296 0.529014 0.505439
0.538003 0.531577 0.508003
0.542710 0.534141 0.510567
0.547418 0.536705 0.513130
0.552125 0.539268 0.515694
0.556832 0.541832 0.518258
0.479887 0.464887 0.460605
0.484595 0.467451 0.463169
0.489302 0.470015 0.465732
0.494009 0.472578 0.468296
0.498716 0.475142 0.470860
0.503423 0.477706 0.473423
0.508131 0.480269 0.475987
0.512838 0.482833 0.478551
0.517545 0.485397 0.481114
0.484920 0.472064 0.465638
0.489628 0.474628 0.468202
0.494335 0.477191 0.470765
0.499042 0.479755 0.473329
0.503749 0.482319 0.475893
0.508456 0.484882 0.478456
0.513164 0.487446 0.481020
0.517871 0.490010 0.483584
0.522578 0.492573 0.486148
0.489953 0.479240 0.470671
0.494661 0.481804 0.473235
0.499368 0.484368 0.475798
0.504075 0.486932 0.478362
0.508782 0.489495 0.480926
0.513490 0.492059 0.483490
0.518197 0.494623 0.486053
0.522904 0.497186 0.488617
0.527611 0.499750 0.491181
0.494986 0.486417 0.475704
0.499694 0.488981 0.478268
0.504401 0.491544 0.480832
0.509108 0.494108 0.483395
0.513815 0.496672 0.485959
0.518523 0.499235 0.488523
0.523230 0.501799 0.491086
0.527937 0.504363 0.493650
0.532644 0.506927 0.496214
0.500019 0.493594 0.480737
0.504727 0.496157 0.483301
0.509434 0.498721 0.485865
0.514141 0.501285 0.488428
0.518848 0.503848 0.490992
0.523556 0.506412 0.493556
0.528263 0.508976 0.496119
0.532970 0.511539 0.498683
0.537677 0.514103 0.501247
0.505053 0.500770 0.485770
0.509760 0.503334 0.488334
0.514467 0.505898 0.490898
0.519174 0.508461 0.493461
0.523881 0.511025 0.496025
0.528589 0.513589 0.498589
0.533296 0.516152 0.501152
0.538003 0.518716 0.503716
0.542710 0.521280 0.506280
0.510086 0.507947 0.490803
0.514793 0.510511 0.493367
0.519500 0.513074 0.495931
0.524207 0.515638 0.498494
0.528914 0.518202 0.501058
0.533622 0.520765 0.503622
0.538329 0.523329 0.506185
0.543036 0.525893 0.508749
0.547743 0.528456 0.511313
0.515119 0.515123 0.495836
0.519826 0.517687 0.498400
0.524533 0.520251 0.500964
0.529240 0.522814 0.503527
0.533948 0.525378 0.506091
0.538655 0.527942 0.508655
0.543362 0.530506 0.511218
0.548069 0.533069 0.513782
0.552776 0.535633 0.516346
0.520152 0.522300 0.500869
0.524859 0.524864 0.503433
0.529566 0.527427 0.505997
0.534273 0.529991 0.508560
0.538981 0.532555 0.511124
0.543688 0.535118 0.513688
0.548395 0.537682 0.516251
0.553102 0.540246 0.518815
0.557810 0.542810 0.521379
0.480865 0.465865 0.463726
0.485572 0.468428 0.466290
0.490279 0.470992 0.468853
0.494986 0.473556 0.471417
0.499694 0.476119 0.473981
0.504401 0.478683 0.476544
0.509108 0.481247 0.479108
0.513815 0.483811 0.481672
0.518523 0.486374 0.484235
0.485898 0.473041 0.468759
0.490605 0.475605 0.471323
0.495312 0.478169 0.473886
0.500019 0.480732 0.476450
0.504727 0.483296 0.479014
0.509434 0.485860 0.481577
0.514141 0.488423 0.484141
0.518848 0.490987 0.486705
0.523556 0.493551 0.489269
0.490931 0.480218 0.473792
0.495638 0.482782 0.476356
0.500345 0.485345 0.478919
0.505053 0.487909 0.481483
0.509760 0.490473 0.484047
0.514467 0.493036 0.486611
0.519174 0.495600 0.489174
0.523881 0.498164 0.491738
0.528589 0.500727 0.494302
0.495964 0.487395 0.478825
0.500671 0.489958 0.481389
0.505378 0.492522 0.483953
0.510086 0.495086 0.486516
0.514793 0.497649 0.489080
0.519500 0.500213 0.491644
0.524207 0.502777 0.494207
0.528914 0.505340 0.496771
0.533622 0.507904 0.499335
0.500997 0.494571 0.483858
0.505704 0.497135 0.486422
0.510411 0.499698 0.488986
0.515119 0.502262 0.491549
0.519826 0.504826 0.494113
0.524533 0.507390 0.496677
0.529240 0.509953 0.499240
0.533948 0.512517 0.501804
0.538655 0.515081 0.504368
0.506030 0.501748 0.488891
0.510737 0.504311 0.491455
0.515444 0.506875 0.494019
0.520152 0.509439 0.496582
0.524859 0.512002 0.499146
0.529566 0.514566 0.501710
0.534273 0.517130 0.504273
0.538981 0.519693 0.506837
0.543688 0.522257 0.509401
0.511063 0.508924 0.493924
0.515770 0.511488 0.496488
0.520477 0.514052 0.499052
0.525185 0.516615 0.501615
0.529892 0.519179 0.504179
0.534599 0.521743 0.506743
0.539306 0.524306 0.509306
0.544014 0.526870 0.511870
0.548721 0.529434 0.514434
0.516096 0.516101 0.498957
0.520803 0.518665 0.501521
0.525511 0.521228 0.504085
0.530218 0.523792 0.506648
0.534925 0.526356 0.509212
0.539632 0.528919 0.511776
0.544339 0.531483 0.514339
0.549047 0.534047 0.516903
0.553754 0.536610 0.519467
0.521129 0.523278 0.503990
0.525836 0.525841 0.506554
0.530544 0.528405 0.509118
0.535251 0.530969 0.511681
0.539958 0.533532 0.514245
0.544665 0.536096 0.516809
0.549373 0.538660 0.519373
0.554080 0.541223 0.521936
0.558787 0.543787 0.524500
0.481842 0.466842 0.466847
0.486549 0.469406 0.469411
0.491257 0.471970 0.471974
0.495964 0.474533 0.474538
0.500671 0.477097 0.477102
0.505378 0.479661 0.479665
0.510086 0.482224 0.482229
0.514793 0.484788 0.484793
0.519500 0.487352 0.487356
0.486875 0.474019 0.471880
0.491582 0.476582 0.474444
0.496290 0.479146 0.477007
0.500997 0.481710 0.479571
0.505704 0.484274 0.482135
0.510411 0.486837 0.484698
0.515119 0.489401 0.487262
0.519826 0.491965 0.489826
0.524533 0.494528 0.492390
0.491908 0.481195 0.476913
0.496616 0.483759 0.479477
0.501323 0.486323 0.482040
0.506030 0.488886 0.484604
0.510737 0.491450 0.487168
0.515444 0.494014 0.489732
0.520152 0.496577 0.492295
0.524859 0.499141 0.494859
0.529566 0.501705 0.497423
0.496941 0.488372 0.481946
0.501649 0.490936 0.484510
0.506356 0.493499 0.487074
0.511063 0.496063 0.489637
0.515770 0.498627 0.492201
0.520477 0.501190 0.494765
0.525185 0.503754 0.497328
0.529892 0.506318 0.499892
0.534599 0.508881 0.502456
0.501974 0.495549 0.486979
0.506682 0.498112 0.489543
0.511389 0.500676 0.492107
0.516096 0.503240 0.494670
0.520803 0.505803 0.497234
0.525511 0.508367 0.499798
0.530218 0.510931 0.502361
0.534925 0.513494 0.504925
0.539632 0.516058 0.507489
0.507007 0.502725 0.492012
0.511715 0.505289 0.494576
0.516422 0.507853 0.497140
0.521129 0.510416 0.499703
0.525836 0.512980 0.502267
0.530544 0.515544 0.504831
0.535251 0.518107 0.507394
0.539958 0.520671 0.509958
0.544665 0.523235 0.512522
0.512040 0.509902 0.497045
0.516748 0.512465 0.499609
0.521455 0.515029 0.502173
0.526162 0.517593 0.504736
0.530869 0.520157 0.507300
0.535577 0.522720 0.509864
0.540284 0.525284 0.512427
0.544991 0.527848 0.514991
0.549698 0.530411 0.517555
0.517074 0.517078 0.502078
0.521781 0.519642 0.504642
0.526488 0.522206 0.507206
0.531195 0.524769 0.509769
0.535902 0.527333 0.512333
0.540610 0.529897 0.514897
0.545317 0.532460 0.517460
0.550024 0.535024 0.520024
0.554731 0.537588 0.522588
0.522107 0.524255 0.507111
0.526814 0.526819 0.509675
0.531521 0.529382 0.512239
0.536228 0.531946 0.514802
0.540936 0.534510 0.517366
0.545643 0.537073 0.519930
0.550350 0.539637 0.522494
0.555057 0.542201 0.525057
0.559764 0.544764 0.527621
0.482820 0.467820 0.469968
0.487527 0.470383 0.472532
0.492234 0.472947 0.475095
0.496941 0.475511 0.477659
0.501649 0.478074 0.480223
0.506356 0.480638 0.482786
0.511063 0.483202 0.485350
0.515770 0.485765 0.487914
0.520477 0.488329 0.490477
0.487853 0.474996 0.475001
0.492560 0.477560 0.477565
0.497267 0.480124 0.480128
0.501974 0.482687 0.482692
0.506682 0.485251 0.485256
0.511389 0.487815 0.487819
0.516096 0.490378 0.490383
0.520803 0.492942 0.492947
0.525511 0.495506 0.495511
0.492886 0.482173 0.480034
0.497593 0.484737 0.482598
0.502300 0.487300 0.485161
0.507007 0.489864 0.487725
0.511715 0.492428 0.490289
0.516422 0.494991 0.492853
0.521129 0.497555 0.495416
0.525836 0.500119 0.497980
0.530544 0.502682 0.500544
0.497919 0.489349 0.485067
0.502626 0.491913 0.487631
0.507333 0.494477 0.490195
0.512040 0.497040 0.492758
0.516748 0.499604 0.495322
0.521455 0.502168 0.497886
0.526162 0.504732 0.500449
0.530869 0.507295 0.503013
0.535577 0.509859 0.505577
0.502952 0.496526 0.490100
0.507659 0.499090 0.492664
0.512366 0.501653 0.495228
0.517074 0.504217 0.497791
0.521781 0.506781 0.500355
0.526488 0.509344 0.502919
0.531195 0.511908 0.505482
0.535902 0.514472 0.508046
0.540610 0.517035 0.510610
0.507985 0.503703 0.495133
0.512692 0.506266 0.497697
0.517399 0.508830 0.500261
0.522107 0.511394 0.502824
0.526814 0.513957 0.505388
0.531521 0.516521 0.507952
0.536228 0.519085 0.510515
0.540936 0.521648 0.513079
0.545643 0.524212 0.515643
0.513018 0.510879 0.500166
0.517725 0.513443 0.502730
0.522432 0.516007 0.505294
0.527140 0.518570 0.507857
0.531847 0.521134 0.510421
0.536554 0.523698 0.512985
0.541261 0.526261 0.515548
0.545969 0.528825 0.518112
0.550676 0.531389 0.520676
0.518051 0.518056 0.505199
0.522758 0.520620 0.507763
0.527465 0.523183 0.510327
0.532173 0.525747 0.512890
0.536880 0.528311 0.515454
0.541587 0.530874 0.518018
0.546294 0.533438 0.520581
0.551002 0.536002 0.523145
0.555709 0.538565 0.525709
0.523084 0.525232 0.510232
0.527791 0.527796 0.512796
0.532499 0.530360 0.515360
0.537206 0.532923 0.517923
0.541913 0.535487 0.520487
0.546620 0.538051 0.523051
0.551327 0.540615 0.525615
0.556035 0.543178 0.528178
0.560742 0.545742 0.530742
