shared/src/main/assets/luts/drama_european_pop.cube
TITLE "DALUR European Pop"
LUT_3D_SIZE 17
DOMAIN_MIN 0.0 0.0 0.0
DOMAIN_MAX 1.0 1.0 1.0
0.443000 0.438500 0.437000
0.446820 0.440070 0.438570
0.450640 0.441640 0.440140
0.454459 0.443209 0.441709
0.458279 0.444779 0.443279
0.462099 0.446349 0.444849
0.465918 0.447918 0.446418
0.469738 0.449488 0.447988
0.473558 0.451058 0.449558
0.477378 0.452628 0.451128
0.481198 0.454197 0.452697
0.485017 0.455767 0.454267
0.488837 0.457337 0.455837
0.492657 0.458907 0.457407
0.496477 0.460477 0.458977
0.500296 0.462046 0.460546
0.504116 0.463616 0.462116
0.446082 0.443832 0.440082
0.449901 0.445401 0.441651
0.453721 0.446971 0.443221
0.457541 0.448541 0.444791
0.461361 0.450111 0.446361
0.465180 0.451680 0.447931
0.469000 0.453250 0.449500
0.472820 0.454820 0.451070
0.476640 0.456390 0.452640
0.480459 0.457959 0.454209
0.484279 0.459529 0.455779
0.488099 0.461099 0.457349
0.491919 0.462669 0.458919
0.495738 0.464238 0.460488
0.499558 0.465808 0.462058
0.503378 0.467378 0.463628
0.507198 0.468948 0.465198
0.449163 0.449163 0.443163
0.452983 0.450733 0.444733
0.456803 0.452303 0.446303
0.460623 0.453873 0.447873
0.464442 0.455442 0.449442
0.468262 0.457012 0.451012
0.472082 0.458582 0.452582
0.475902 0.460152 0.454152
0.479721 0.461721 0.455722
0.483541 0.463291 0.457291
0.487361 0.464861 0.458861
0.491181 0.466431 0.460431
0.495001 0.468000 0.462000
0.498820 0.469570 0.463570
0.502640 0.471140 0.465140
0.506460 0.472710 0.466710
0.510279 0.474280 0.468280
0.452245 0.454495 0.446245
0.456065 0.456065 0.447815
0.459885 0.457635 0.449385
0.463705 0.459205 0.450954
0.467524 0.460774 0.452524
0.471344 0.462344 0.454094
0.475164 0.463914 0.455664
0.478983 0.465483 0.457233
0.482803 0.467053 0.458803
0.486623 0.468623 0.460373
0.490443 0.470193 0.461943
0.494262 0.471762 0.463512
0.498082 0.473332 0.465082
0.501902 0.474902 0.466652
0.505722 0.476472 0.468222
0.509541 0.478042 0.469791
0.513361 0.479611 0.471361
0.455327 0.459827 0.449327
0.459147 0.461397 0.450897
0.462966 0.462966 0.452466
0.466786 0.464536 0.454036
0.470606 0.466106 0.455606
0.474426 0.467676 0.457176
0.478245 0.469245 0.458745
0.482065 0.470815 0.460315
0.485885 0.472385 0.461885
0.489705 0.473955 0.463455
0.493524 0.475524 0.465025
0.497344 0.477094 0.466594
0.501164 0.478664 0.468164
0.504984 0.480234 0.469734
0.508803 0.481803 0.471303
0.512623 0.483373 0.472873
0.516443 0.484943 0.474443
0.458409 0.465159 0.452409
0.462228 0.466728 0.453978
0.466048 0.468298 0.455548
0.469868 0.469868 0.457118
0.473688 0.471438 0.458688
0.477507 0.473007 0.460257
0.481327 0.474577 0.461827
0.485147 0.476147 0.463397
0.488967 0.477717 0.464967
0.492786 0.479286 0.466536
0.496606 0.480856 0.468106
0.500426 0.482426 0.469676
0.504246 0.483996 0.471246
0.508065 0.485565 0.472815
0.511885 0.487135 0.474385
0.515705 0.488705 0.475955
0.519525 0.490275 0.477525
0.461490 0.470490 0.455490
0.465310 0.472060 0.457060
0.469130 0.473630 0.458630
0.472950 0.475200 0.460200
0.476769 0.476769 0.461769
0.480589 0.478339 0.463339
0.484409 0.479909 0.464909
0.488229 0.481479 0.466479
0.492048 0.483048 0.468048
0.495868 0.484618 0.469618
0.499688 0.486188 0.471188
0.503508 0.487758 0.472758
0.507327 0.489327 0.474327
0.511147 0.490897 0.475897
0.514967 0.492467 0.477467
0.518787 0.494037 0.479037
0.522606 0.495606 0.480606
0.464572 0.475822 0.458572
0.468392 0.477392 0.460142
0.472212 0.478962 0.461712
0.476031 0.480531 0.463281
0.479851 0.482101 0.464851
0.483671 0.483671 0.466421
0.487491 0.485241 0.467991
0.491310 0.486810 0.469560
0.495130 0.488380 0.471130
0.498950 0.489950 0.472700
0.502770 0.491520 0.474270
0.506589 0.493089 0.475839
0.510409 0.494659 0.477409
0.514229 0.496229 0.478979
0.518049 0.497799 0.480549
0.521868 0.499368 0.482119
0.525688 0.500938 0.483688
0.467654 0.481154 0.461654
0.471474 0.482724 0.463224
0.475293 0.484293 0.464793
0.479113 0.485863 0.466363
0.482933 0.487433 0.467933
0.486753 0.489003 0.469503
0.490572 0.490572 0.471073
0.494392 0.492142 0.472642
0.498212 0.493712 0.474212
0.502032 0.495282 0.475782
0.505852 0.496852 0.477351
0.509671 0.498421 0.478921
0.513491 0.499991 0.480491
0.517311 0.501561 0.482061
0.521131 0.503131 0.483631
0.524950 0.504700 0.485200
0.528770 0.506270 0.486770
0.470736 0.486486 0.464736
0.474555 0.488055 0.466305
0.478375 0.489625 0.467875
0.482195 0.491195 0.469445
0.486015 0.492765 0.471015
0.489834 0.494334 0.472584
0.493654 0.495904 0.474154
0.497474 0.497474 0.475724
0.501294 0.499044 0.477294
0.505113 0.500614 0.478863
0.508933 0.502183 0.480433
0.512753 0.503753 0.482003
0.516573 0.505323 0.483573
0.520392 0.506893 0.485142
0.524212 0.508462 0.486712
0.528032 0.510032 0.488282
0.531852 0.511602 0.489852
0.473817 0.491817 0.467817
0.477637 0.493387 0.469387
0.481457 0.494957 0.470957
0.485277 0.496527 0.472527
0.489096 0.498096 0.474096
0.492916 0.499666 0.475666
0.496736 0.501236 0.477236
0.500556 0.502806 0.478806
0.504375 0.504376 0.480376
0.508195 0.505945 0.481945
0.512015 0.507515 0.483515
0.515835 0.509085 0.485085
0.519655 0.510655 0.486654
0.523474 0.512224 0.488224
0.527294 0.513794 0.489794
0.531114 0.515364 0.491364
0.534933 0.516934 0.492933
0.476899 0.497149 0.470899
0.480719 0.498719 0.472469
0.484539 0.500289 0.474039
0.488358 0.501858 0.475608
0.492178 0.503428 0.477178
0.495998 0.504998 0.478748
0.499818 0.506568 0.480318
0.503637 0.508138 0.481887
0.507457 0.509707 0.483457
0.511277 0.511277 0.485027
0.515097 0.512847 0.486597
0.518917 0.514417 0.488166
0.522736 0.515986 0.489736
0.526556 0.517556 0.491306
0.530376 0.519126 0.492876
0.534196 0.520696 0.494445
0.538015 0.522265 0.496015
0.479981 0.502481 0.473981
0.483801 0.504051 0.475551
0.487620 0.505621 0.477120
0.491440 0.507190 0.478690
0.495260 0.508760 0.480260
0.499080 0.510330 0.481830
0.502899 0.511900 0.483399
0.506719 0.513469 0.484969
0.510539 0.515039 0.486539
0.514359 0.516609 0.488109
0.518178 0.518179 0.489679
0.521998 0.519748 0.491248
0.525818 0.521318 0.492818
0.529638 0.522888 0.494388
0.533458 0.524458 0.495958
0.537277 0.526027 0.497527
0.541097 0.527597 0.499097
0.483063 0.507813 0.477063
0.486882 0.509382 0.478632
0.490702 0.510952 0.480202
0.494522 0.512522 0.481772
0.498342 0.514092 0.483342
0.502161 0.515661 0.484911
0.505981 0.517231 0.486481
0.509801 0.518801 0.488051
0.513621 0.520371 0.489621
0.517440 0.521941 0.491190
0.521260 0.523510 0.492760
0.525080 0.525080 0.494330
0.528900 0.526650 0.495900
0.532720 0.528220 0.497470
0.536539 0.529789 0.499039
0.540359 0.531359 0.500609
0.544179 0.532929 0.502179
0.486144 0.513145 0.480144
0.489964 0.514714 0.481714
0.493784 0.516284 0.483284
0.497604 0.517854 0.484854
0.501423 0.519424 0.486424
0.505243 0.520993 0.487993
0.509063 0.522563 0.489563
0.512883 0.524133 0.491133
0.516702 0.525703 0.492702
0.520522 0.527272 0.494272
0.524342 0.528842 0.495842
0.528162 0.530412 0.497412
0.531981 0.531982 0.498982
0.535801 0.533551 0.500551
0.539621 0.535121 0.502121
0.543441 0.536691 0.503691
0.547261 0.538261 0.505261
0.489226 0.518476 0.483226
0.493046 0.520046 0.484796
0.496866 0.521616 0.486366
0.500686 0.523186 0.487936
0.504505 0.524755 0.489505
0.508325 0.526325 0.491075
0.512145 0.527895 0.492645
0.515964 0.529465 0.494214
0.519784 0.531034 0.495784
0.523604 0.532604 0.497354
0.527424 0.534174 0.498924
0.531243 0.535744 0.500494
0.535063 0.537313 0.502063
0.538883 0.538883 0.503633
0.542703 0.540453 0.505203
0.546523 0.542023 0.506772
0.550342 0.543592 0.508342
0.492308 0.523808 0.486308
0.496128 0.525378 0.487878
0.499947 0.526948 0.489447
0.503767 0.528517 0.491017
0.507587 0.530087 0.492587
0.511407 0.531657 0.494157
0.515227 0.533227 0.495727
0.519046 0.534796 0.497296
0.522866 0.536366 0.498866
0.526686 0.537936 0.500436
0.530506 0.539506 0.502005
0.534325 0.541075 0.503575
0.538145 0.542645 0.505145
0.541965 0.544215 0.506715
0.545785 0.545785 0.508285
0.549604 0.547354 0.509854
0.553424 0.548924 0.511424
0.443599 0.439099 0.439848
0.447418 0.440668 0.441418
0.451238 0.442238 0.442988
0.455058 0.443808 0.444558
0.458877 0.445378 0.446128
0.462697 0.446947 0.447697
0.466517 0.448517 0.449267
0.470337 0.450087 0.450837
0.474157 0.451657 0.452407
0.477976 0.453226 0.453976
0.481796 0.454796 0.455546
0.485616 0.456366 0.457116
0.489436 0.457935 0.458685
0.493255 0.459505 0.460255
0.497075 0.461075 0.461825
0.500895 0.462645 0.463395
0.504715 0.464215 0.464965
0.446680 0.444430 0.442930
0.450500 0.446000 0.444500
0.454320 0.447570 0.446070
0.458139 0.449139 0.447639
0.461959 0.450709 0.449209
0.465779 0.452279 0.450779
0.469599 0.453849 0.452349
0.473419 0.455419 0.453919
0.477238 0.456988 0.455488
0.481058 0.458558 0.457058
0.484878 0.460128 0.458628
0.488698 0.461698 0.460198
0.492517 0.463267 0.461767
0.496337 0.464837 0.463337
0.500157 0.466407 0.464907
0.503976 0.467976 0.466476
0.507796 0.469546 0.468046
0.449762 0.449762 0.446012
0.453582 0.451332 0.447582
0.457402 0.452902 0.449152
0.461221 0.454471 0.450721
0.465041 0.456041 0.452291
0.468861 0.457611 0.453861
0.472681 0.459181 0.455431
0.476500 0.460750 0.457000
0.480320 0.462320 0.458570
0.484140 0.463890 0.460140
0.487960 0.465460 0.461710
0.491779 0.467029 0.463279
0.495599 0.468599 0.464849
0.499419 0.470169 0.466419
0.503239 0.471739 0.467989
0.507058 0.473308 0.469558
0.510878 0.474878 0.471128
0.452844 0.455094 0.449094
0.456663 0.456663 0.450663
0.460483 0.458233 0.452233
0.464303 0.459803 0.453803
0.468123 0.461373 0.455373
0.471942 0.462942 0.456942
0.475762 0.464512 0.458512
0.479582 0.466082 0.460082
0.483402 0.467652 0.461652
0.487222 0.469222 0.463222
0.491041 0.470791 0.464791
0.494861 0.472361 0.466361
0.498681 0.473931 0.467931
0.502500 0.475500 0.469500
0.506320 0.477070 0.471070
0.510140 0.478640 0.472640
0.513960 0.480210 0.474210
0.455925 0.460425 0.452176
0.459745 0.461995 0.453745
0.463565 0.463565 0.455315
0.467385 0.465135 0.456885
0.471204 0.466704 0.458454
0.475024 0.468274 0.460024
0.478844 0.469844 0.461594
0.482664 0.471414 0.463164
0.486483 0.472983 0.464733
0.490303 0.474553 0.466303
0.494123 0.476123 0.467873
0.497943 0.477693 0.469443
0.501763 0.479262 0.471013
0.505582 0.480832 0.472582
0.509402 0.482402 0.474152
0.513222 0.483972 0.475722
0.517042 0.485542 0.477292
0.459007 0.465757 0.455257
0.462827 0.467327 0.456827
0.466647 0.468897 0.458397
0.470467 0.470466 0.459967
0.474286 0.472036 0.461536
0.478106 0.473606 0.463106
0.481926 0.475176 0.464676
0.485745 0.476745 0.466245
0.489565 0.478315 0.467815
0.493385 0.479885 0.469385
0.497205 0.481455 0.470955
0.501024 0.483024 0.472524
0.504844 0.484594 0.474094
0.508664 0.486164 0.475664
0.512484 0.487734 0.477234
0.516304 0.489303 0.478803
0.520123 0.490873 0.480373
0.462089 0.471089 0.458339
0.465909 0.472659 0.459909
0.469729 0.474228 0.461479
0.473548 0.475798 0.463048
0.477368 0.477368 0.464618
0.481188 0.478938 0.466188
0.485007 0.480507 0.467757
0.488827 0.482077 0.469327
0.492647 0.483647 0.470897
0.496467 0.485217 0.472467
0.500286 0.486787 0.474036
0.504106 0.488356 0.475606
0.507926 0.489926 0.477176
0.511746 0.491496 0.478746
0.515566 0.493065 0.480316
0.519385 0.494635 0.481885
0.523205 0.496205 0.483455
0.465171 0.476421 0.461421
0.468990 0.477990 0.462990
0.472810 0.479560 0.464560
0.476630 0.481130 0.466130
0.480450 0.482700 0.467700
0.484270 0.484270 0.469270
0.488089 0.485839 0.470839
0.491909 0.487409 0.472409
0.495729 0.488979 0.473979
0.499548 0.490548 0.475548
0.503368 0.492118 0.477118
0.507188 0.493688 0.478688
0.511008 0.495258 0.480258
0.514827 0.496827 0.481827
0.518647 0.498397 0.483397
0.522467 0.499967 0.484967
0.526287 0.501537 0.486537
0.468253 0.481753 0.464503
0.472072 0.483322 0.466072
0.475892 0.484892 0.467642
0.479712 0.486462 0.469212
0.483531 0.488031 0.470781
0.487351 0.489601 0.472351
0.491171 0.491171 0.473921
0.494991 0.492741 0.475491
0.498810 0.494310 0.477060
0.502630 0.495880 0.478630
0.506450 0.497450 0.480200
0.510270 0.499020 0.481770
0.514089 0.500590 0.483340
0.517909 0.502159 0.484909
0.521729 0.503729 0.486479
0.525549 0.505299 0.488049
0.529369 0.506869 0.489619
0.471334 0.487084 0.467584
0.475154 0.488654 0.469154
0.478974 0.490224 0.470724
0.482793 0.491793 0.472293
0.486613 0.493363 0.473863
0.490433 0.494933 0.475433
0.494253 0.496503 0.477003
0.498072 0.498072 0.478572
0.501892 0.499642 0.480142
0.505712 0.501212 0.481712
0.509532 0.502782 0.483282
0.513351 0.504351 0.484851
0.517171 0.505921 0.486421
0.520991 0.507491 0.487991
0.524811 0.509061 0.489561
0.528631 0.510630 0.491130
0.532450 0.512200 0.492700
0.474416 0.492416 0.470666
0.478236 0.493986 0.472236
0.482056 0.495556 0.473806
0.485875 0.497125 0.475375
0.489695 0.498695 0.476945
0.493515 0.500265 0.478515
0.497334 0.501835 0.480084
0.501154 0.503404 0.481654
0.504974 0.504974 0.483224
0.508794 0.506544 0.484794
0.512614 0.508114 0.486364
0.516433 0.509683 0.487933
0.520253 0.511253 0.489503
0.524073 0.512823 0.491073
0.527892 0.514393 0.492643
0.531712 0.515962 0.494212
0.535532 0.517532 0.495782
0.477498 0.497748 0.473748
0.481318 0.499318 0.475318
0.485137 0.500887 0.476887
0.488957 0.502457 0.478457
0.492777 0.504027 0.480027
0.496596 0.505597 0.481597
0.500416 0.507166 0.483166
0.504236 0.508736 0.484736
0.508056 0.510306 0.486306
0.511875 0.511876 0.487875
0.515695 0.513445 0.489445
0.519515 0.515015 0.491015
0.523335 0.516585 0.492585
0.527154 0.518155 0.494154
0.530974 0.519724 0.495724
0.534794 0.521294 0.497294
0.538614 0.522864 0.498864
0.480580 0.503080 0.476830
0.484399 0.504649 0.478399
0.488219 0.506219 0.479969
0.492039 0.507789 0.481539
0.495858 0.509359 0.483108
0.499678 0.510928 0.484678
0.503498 0.512498 0.486248
0.507318 0.514068 0.487818
0.511138 0.515638 0.489387
0.514957 0.517207 0.490957
0.518777 0.518777 0.492527
0.522597 0.520347 0.494097
0.526417 0.521917 0.495667
0.530236 0.523486 0.497236
0.534056 0.525056 0.498806
0.537876 0.526626 0.500376
0.541696 0.528196 0.501946
0.483661 0.508411 0.479911
0.487481 0.509981 0.481481
0.491301 0.511551 0.483051
0.495121 0.513121 0.484621
0.498940 0.514690 0.486190
0.502760 0.516260 0.487760
0.506580 0.517830 0.489330
0.510400 0.519400 0.490899
0.514219 0.520969 0.492469
0.518039 0.522539 0.494039
0.521859 0.524109 0.495609
0.525678 0.525679 0.497178
0.529498 0.527248 0.498748
0.533318 0.528818 0.500318
0.537138 0.530388 0.501888
0.540957 0.531958 0.503458
0.544777 0.533527 0.505027
0.486743 0.513743 0.482993
0.490563 0.515313 0.484563
0.494383 0.516883 0.486133
0.498202 0.518452 0.487702
0.502022 0.520022 0.489272
0.505842 0.521592 0.490842
0.509661 0.523162 0.492412
0.513481 0.524731 0.493981
0.517301 0.526301 0.495551
0.521121 0.527871 0.497121
0.524941 0.529441 0.498691
0.528760 0.531010 0.500260
0.532580 0.532580 0.501830
0.536400 0.534150 0.503400
0.540220 0.535720 0.504970
0.544039 0.537289 0.506539
0.547859 0.538859 0.508109
0.489825 0.519075 0.486075
0.493644 0.520645 0.487644
0.497464 0.522214 0.489214
0.501284 0.523784 0.490784
0.505104 0.525354 0.492354
0.508923 0.526924 0.493924
0.512743 0.528493 0.495493
0.516563 0.530063 0.497063
0.520383 0.531633 0.498633
0.524203 0.533203 0.500202
0.528022 0.534772 0.501772
0.531842 0.536342 0.503342
0.535662 0.537912 0.504912
0.539481 0.539482 0.506482
0.543301 0.541051 0.508051
0.547121 0.542621 0.509621
0.550941 0.544191 0.511191
0.492907 0.524407 0.489157
0.496726 0.525976 0.490726
0.500546 0.527546 0.492296
0.504366 0.529116 0.493866
0.508185 0.530686 0.495435
0.512005 0.532255 0.497005
0.515825 0.533825 0.498575
0.519645 0.535395 0.500145
0.523464 0.536965 0.501714
0.527284 0.538534 0.503284
0.531104 0.540104 0.504854
0.534924 0.541674 0.506424
0.538744 0.543244 0.507993
0.542563 0.544813 0.509563
0.546383 0.546383 0.511133
0.550203 0.547953 0.512703
0.554023 0.549523 0.514273
0.444197 0.439697 0.442697
0.448017 0.441267 0.444267
0.451837 0.442837 0.445837
0.455656 0.444406 0.447406
0.459476 0.445976 0.448976
0.463296 0.447546 0.450546
0.467116 0.449116 0.452116
0.470935 0.450685 0.453685
0.474755 0.452255 0.455255
0.478575 0.453825 0.456825
0.482395 0.455395 0.458395
0.486214 0.456964 0.459964
0.490034 0.458534 0.461534
0.493854 0.460104 0.463104
0.497674 0.461674 0.464674
0.501493 0.463243 0.466243
0.505313 0.464813 0.467813
0.447279 0.445029 0.445779
0.451099 0.446599 0.447348
0.454918 0.448168 0.448918
0.458738 0.449738 0.450488
0.462558 0.451308 0.452058
0.466378 0.452878 0.453628
0.470197 0.454447 0.455197
0.474017 0.456017 0.456767
0.477837 0.457587 0.458337
0.481656 0.459156 0.459906
0.485476 0.460726 0.461476
0.489296 0.462296 0.463046
0.493116 0.463866 0.464616
0.496935 0.465436 0.466185
0.500755 0.467005 0.467755
0.504575 0.468575 0.469325
0.508395 0.470145 0.470895
0.450361 0.450361 0.448861
0.454180 0.451930 0.450430
0.458000 0.453500 0.452000
0.461820 0.455070 0.453570
0.465640 0.456640 0.455140
0.469459 0.458209 0.456709
0.473279 0.459779 0.458279
0.477099 0.461349 0.459849
0.480919 0.462919 0.461419
0.484738 0.464488 0.462988
0.488558 0.466058 0.464558
0.492378 0.467628 0.466128
0.496198 0.469198 0.467698
0.500017 0.470767 0.469267
0.503837 0.472337 0.470837
0.507657 0.473907 0.472407
0.511477 0.475477 0.473977
0.453442 0.455692 0.451942
0.457262 0.457262 0.453512
0.461082 0.458832 0.455082
0.464902 0.460402 0.456652
0.468721 0.461971 0.458221
0.472541 0.463541 0.459791
0.476361 0.465111 0.461361
0.480181 0.466680 0.462931
0.484000 0.468250 0.464500
0.487820 0.469820 0.466070
0.491640 0.471390 0.467640
0.495459 0.472959 0.469210
0.499279 0.474529 0.470779
0.503099 0.476099 0.472349
0.506919 0.477669 0.473919
0.510738 0.479239 0.475489
0.514558 0.480808 0.477058
0.456524 0.461024 0.455024
0.460344 0.462594 0.456594
0.464164 0.464163 0.458164
0.467983 0.465733 0.459733
0.471803 0.467303 0.461303
0.475623 0.468873 0.462873
0.479442 0.470442 0.464442
0.483262 0.472012 0.466012
0.487082 0.473582 0.467582
0.490902 0.475152 0.469152
0.494722 0.476722 0.470722
0.498541 0.478291 0.472291
0.502361 0.479861 0.473861
0.506181 0.481431 0.475431
0.510000 0.483000 0.477000
0.513820 0.484570 0.478570
0.517640 0.486140 0.480140
0.459606 0.466356 0.458106
0.463425 0.467925 0.459675
0.467245 0.469495 0.461245
0.471065 0.471065 0.462815
0.474885 0.472635 0.464385
0.478704 0.474204 0.465954
0.482524 0.475774 0.467524
0.486344 0.477344 0.469094
0.490164 0.478914 0.470664
0.493983 0.480483 0.472233
0.497803 0.482053 0.473803
0.501623 0.483623 0.475373
0.505443 0.485193 0.476943
0.509262 0.486762 0.478512
0.513082 0.488332 0.480082
0.516902 0.489902 0.481652
0.520722 0.491472 0.483222
0.462687 0.471687 0.461187
0.466507 0.473257 0.462757
0.470327 0.474827 0.464327
0.474147 0.476397 0.465897
0.477966 0.477967 0.467467
0.481786 0.479536 0.469036
0.485606 0.481106 0.470606
0.489426 0.482676 0.472176
0.493246 0.484245 0.473746
0.497065 0.485815 0.475315
0.500885 0.487385 0.476885
0.504705 0.488955 0.478455
0.508525 0.490524 0.480025
0.512344 0.492094 0.481594
0.516164 0.493664 0.483164
0.519984 0.495234 0.484734
0.523803 0.496803 0.486303
0.465769 0.477019 0.464269
0.469589 0.478589 0.465839
0.473409 0.480159 0.467409
0.477228 0.481729 0.468978
0.481048 0.483298 0.470548
0.484868 0.484868 0.472118
0.488688 0.486438 0.473688
0.492507 0.488007 0.475257
0.496327 0.489577 0.476827
0.500147 0.491147 0.478397
0.503967 0.492717 0.479967
0.507787 0.494287 0.481536
0.511606 0.495856 0.483106
0.515426 0.497426 0.484676
0.519246 0.498996 0.486246
0.523065 0.500565 0.487815
0.526885 0.502135 0.489385
0.468851 0.482351 0.467351
0.472671 0.483921 0.468921
0.476490 0.485490 0.470490
0.480310 0.487060 0.472060
0.484130 0.488630 0.473630
0.487950 0.490200 0.475200
0.491770 0.491770 0.476770
0.495589 0.493339 0.478339
0.499409 0.494909 0.479909
0.503229 0.496479 0.481479
0.507049 0.498049 0.483049
0.510868 0.499618 0.484618
0.514688 0.501188 0.486188
0.518508 0.502758 0.487758
0.522328 0.504328 0.489328
0.526147 0.505897 0.490897
0.529967 0.507467 0.492467
0.471933 0.487683 0.470433
0.475752 0.489252 0.472002
0.479572 0.490822 0.473572
0.483392 0.492392 0.475142
0.487212 0.493962 0.476712
0.491031 0.495531 0.478281
0.494851 0.497101 0.479851
0.498671 0.498671 0.481421
0.502491 0.500241 0.482991
0.506310 0.501811 0.484560
0.510130 0.503380 0.486130
0.513950 0.504950 0.487700
0.517770 0.506520 0.489270
0.521589 0.508089 0.490839
0.525409 0.509659 0.492409
0.529229 0.511229 0.493979
0.533049 0.512799 0.495549
0.475015 0.493014 0.473515
0.478834 0.494584 0.475084
0.482654 0.496154 0.476654
0.486474 0.497724 0.478224
0.490293 0.499294 0.479793
0.494113 0.500863 0.481363
0.497933 0.502433 0.482933
0.501753 0.504003 0.484503
0.505572 0.505573 0.486073
0.509392 0.507142 0.487642
0.513212 0.508712 0.489212
0.517032 0.510282 0.490782
0.520852 0.511852 0.492351
0.524671 0.513421 0.493921
0.528491 0.514991 0.495491
0.532311 0.516561 0.497061
0.536130 0.518131 0.498630
0.478096 0.498346 0.476596
0.481916 0.499916 0.478166
0.485736 0.501486 0.479736
0.489556 0.503055 0.481305
0.493375 0.504625 0.482875
0.497195 0.506195 0.484445
0.501015 0.507765 0.486015
0.504834 0.509335 0.487584
0.508654 0.510904 0.489154
0.512474 0.512474 0.490724
0.516294 0.514044 0.492294
0.520114 0.515614 0.493863
0.523933 0.517183 0.495433
0.527753 0.518753 0.497003
0.531573 0.520323 0.498573
0.535393 0.521892 0.500143
0.539212 0.523462 0.501712
0.481178 0.503678 0.479678
0.484998 0.505248 0.481248
0.488818 0.506818 0.482818
0.492637 0.508387 0.484387
0.496457 0.509957 0.485957
0.500277 0.511527 0.487527
0.504096 0.513097 0.489096
0.507916 0.514666 0.490666
0.511736 0.516236 0.492236
0.515556 0.517806 0.493806
0.519375 0.519376 0.495376
0.523195 0.520945 0.496945
0.527015 0.522515 0.498515
0.530835 0.524085 0.500085
0.534655 0.525655 0.501655
0.538474 0.527224 0.503224
0.542294 0.528794 0.504794
0.484260 0.509010 0.482760
0.488079 0.510580 0.484329
0.491899 0.512149 0.485899
0.495719 0.513719 0.487469
0.499539 0.515289 0.489039
0.503358 0.516858 0.490608
0.507178 0.518428 0.492178
0.510998 0.519998 0.493748
0.514818 0.521568 0.495318
0.518637 0.523138 0.496887
0.522457 0.524707 0.498457
0.526277 0.526277 0.500027
0.530097 0.527847 0.501597
0.533917 0.529417 0.503166
0.537736 0.530986 0.504736
0.541556 0.532556 0.506306
0.545376 0.534126 0.507876
0.487341 0.514342 0.485841
0.491161 0.515911 0.487411
0.494981 0.517481 0.488981
0.498801 0.519051 0.490551
0.502620 0.520621 0.492120
0.506440 0.522190 0.493690
0.510260 0.523760 0.495260
0.514080 0.525330 0.496830
0.517899 0.526900 0.498399
0.521719 0.528469 0.499969
0.525539 0.530039 0.501539
0.529359 0.531609 0.503109
0.533178 0.533179 0.504679
0.536998 0.534748 0.506248
0.540818 0.536318 0.507818
0.544638 0.537888 0.509388
0.548457 0.539458 0.510957
0.490423 0.519673 0.488923
0.494243 0.521243 0.490493
0.498063 0.522813 0.492063
0.501883 0.524383 0.493633
0.505702 0.525952 0.495202
0.509522 0.527522 0.496772
0.513342 0.529092 0.498342
0.517161 0.530662 0.499911
0.520981 0.532231 0.501481
0.524801 0.533801 0.503051
0.528621 0.535371 0.504621
0.532440 0.536941 0.506190
0.536260 0.538510 0.507760
0.540080 0.540080 0.509330
0.543900 0.541650 0.510900
0.547720 0.543220 0.512470
0.551539 0.544789 0.514039
0.493505 0.525005 0.492005
0.497325 0.526575 0.493575
0.501144 0.528145 0.495144
0.504964 0.529714 0.496714
0.508784 0.531284 0.498284
0.512604 0.532854 0.499854
0.516424 0.534424 0.501424
0.520243 0.535993 0.502993
0.524063 0.537563 0.504563
0.527883 0.539133 0.506133
0.531703 0.540703 0.507703
0.535522 0.542272 0.509272
0.539342 0.543842 0.510842
0.543162 0.545412 0.512412
0.546982 0.546982 0.513982
0.550801 0.548551 0.515551
0.554621 0.550121 0.517121
0.444796 0.440296 0.445545
0.448615 0.441865 0.447115
0.452435 0.443435 0.448685
0.456255 0.445005 0.450255
0.460074 0.446575 0.451825
0.463894 0.448144 0.453394
0.467714 0.449714 0.454964
0.471534 0.451284 0.456534
0.475354 0.452854 0.458104
0.479173 0.454423 0.459673
0.482993 0.455993 0.461243
0.486813 0.457563 0.462813
0.490633 0.459132 0.464383
0.494452 0.460702 0.465952
0.498272 0.462272 0.467522
0.502092 0.463842 0.469092
0.505912 0.465412 0.470662
0.447877 0.445627 0.448627
