shared/src/main/assets/luts/drama_plastic_primary.cube
TITLE "DALUR Plastic Primary"
LUT_3D_SIZE 9
DOMAIN_MIN 0.0 0.0 0.0
DOMAIN_MAX 1.0 1.0 1.0
0.420000 0.418000 0.420000
0.431750 0.421638 0.423638
0.443500 0.425276 0.427276
0.455249 0.428914 0.430914
0.466999 0.432552 0.434552
0.478749 0.436190 0.438190
0.490499 0.439829 0.441829
0.502248 0.443467 0.445467
0.513998 0.447105 0.449105
0.427142 0.433254 0.427142
0.438892 0.436892 0.430780
0.450642 0.440530 0.434419
0.462392 0.444168 0.438057
0.474141 0.447806 0.441695
0.485891 0.451444 0.445333
0.497641 0.455083 0.448971
0.509391 0.458721 0.452609
0.521140 0.462359 0.456247
0.434285 0.448508 0.434285
0.446034 0.452146 0.437923
0.457784 0.455784 0.441561
0.469534 0.459422 0.445199
0.481284 0.463060 0.448837
0.493033 0.466698 0.452475
0.504783 0.470337 0.456113
0.516533 0.473975 0.459751
0.528283 0.477613 0.463389
0.441427 0.463762 0.441427
0.453177 0.467400 0.445065
0.464927 0.471038 0.448703
0.476676 0.474676 0.452341
0.488426 0.478314 0.455979
0.500176 0.481952 0.459617
0.511926 0.485591 0.463256
0.523675 0.489229 0.466894
0.535425 0.492867 0.470532
0.448569 0.479016 0.448569
0.460319 0.482654 0.452207
0.472069 0.486292 0.455845
0.483819 0.489930 0.459484
0.495568 0.493568 0.463122
0.507318 0.497206 0.466760
0.519068 0.500845 0.470398
0.530818 0.504483 0.474036
0.542567 0.508121 0.477674
0.455712 0.494270 0.455712
0.467461 0.497908 0.459350
0.479211 0.501546 0.462988
0.490961 0.505184 0.466626
0.502711 0.508822 0.470264
0.514460 0.512460 0.473902
0.526210 0.516099 0.477540
0.537960 0.519737 0.481178
0.549710 0.523375 0.484816
0.462854 0.509524 0.462854
0.474604 0.513162 0.466492
0.486354 0.516800 0.470130
0.498103 0.520438 0.473768
0.509853 0.524076 0.477406
0.521603 0.527714 0.481044
0.533353 0.531353 0.484683
0.545102 0.534991 0.488321
0.556852 0.538629 0.491959
0.469996 0.524778 0.469996
0.481746 0.528416 0.473634
0.493496 0.532054 0.477272
0.505246 0.535692 0.480911
0.516995 0.539330 0.484549
0.528745 0.542968 0.488187
0.540495 0.546607 0.491825
0.552245 0.550245 0.495463
0.563994 0.553883 0.499101
0.477139 0.540032 0.477139
0.488888 0.543670 0.480777
0.500638 0.547308 0.484415
0.512388 0.550946 0.488053
0.524138 0.554584 0.491691
0.535887 0.558222 0.495329
0.547637 0.561861 0.498967
0.559387 0.565499 0.502605
0.571137 0.569137 0.506243
0.421387 0.419387 0.429499
0.433137 0.423025 0.433137
0.444887 0.426663 0.436775
0.456636 0.430301 0.440413
0.468386 0.433939 0.444051
0.480136 0.437578 0.447689
0.491886 0.441216 0.451327
0.503635 0.444854 0.454965
0.515385 0.448492 0.458603
0.428529 0.434641 0.436641
0.440279 0.438279 0.440279
0.452029 0.441917 0.443917
0.463779 0.445555 0.447555
0.475528 0.449193 0.451193
0.487278 0.452832 0.454832
0.499028 0.456470 0.458470
0.510778 0.460108 0.462108
0.522528 0.463746 0.465746
0.435672 0.449895 0.443783
0.447422 0.453533 0.447422
0.459171 0.457171 0.451060
0.470921 0.460809 0.454698
0.482671 0.464447 0.458336
0.494421 0.468086 0.461974
0.506170 0.471724 0.465612
0.517920 0.475362 0.469250
0.529670 0.479000 0.472888
0.442814 0.465149 0.450926
0.454564 0.468787 0.454564
0.466314 0.472425 0.458202
0.478063 0.476063 0.461840
0.489813 0.479701 0.465478
0.501563 0.483340 0.469116
0.513313 0.486978 0.472754
0.525062 0.490616 0.476392
0.536812 0.494254 0.480030
0.449956 0.480403 0.458068
0.461706 0.484041 0.461706
0.473456 0.487679 0.465344
0.485206 0.491317 0.468982
0.496955 0.494955 0.472620
0.508705 0.498594 0.476259
0.520455 0.502232 0.479897
0.532205 0.505870 0.483535
0.543955 0.509508 0.487173
0.457099 0.495657 0.465210
0.468849 0.499295 0.468849
0.480598 0.502933 0.472487
0.492348 0.506571 0.476125
0.504098 0.510209 0.479763
0.515848 0.513848 0.483401
0.527597 0.517486 0.487039
0.539347 0.521124 0.490677
0.551097 0.524762 0.494315
0.464241 0.510911 0.472353
0.475991 0.514549 0.475991
0.487741 0.518187 0.479629
0.499490 0.521825 0.483267
0.511240 0.525463 0.486905
0.522990 0.529102 0.490543
0.534740 0.532740 0.494181
0.546489 0.536378 0.497819
0.558239 0.540016 0.501457
0.471383 0.526165 0.479495
0.483133 0.529803 0.483133
0.494883 0.533441 0.486771
0.506633 0.537079 0.490409
0.518382 0.540717 0.494047
0.530132 0.544356 0.497686
0.541882 0.547994 0.501324
0.553632 0.551632 0.504962
0.565382 0.555270 0.508600
0.478526 0.541419 0.486637
0.490276 0.545057 0.490276
0.502025 0.548695 0.493914
0.513775 0.552333 0.497552
0.525525 0.555971 0.501190
0.537275 0.559610 0.504828
0.549024 0.563248 0.508466
0.560774 0.566886 0.512104
0.572524 0.570524 0.515742
0.422774 0.420774 0.438998
0.434524 0.424412 0.442636
0.446274 0.428050 0.446274
0.458023 0.431688 0.449912
0.469773 0.435327 0.453550
0.481523 0.438965 0.457188
0.493273 0.442603 0.460826
0.505023 0.446241 0.464464
0.516772 0.449879 0.468102
0.429917 0.436028 0.446140
0.441666 0.439666 0.449778
0.453416 0.443304 0.453416
0.465166 0.446942 0.457054
0.476916 0.450581 0.460692
0.488665 0.454219 0.464330
0.500415 0.457857 0.467968
0.512165 0.461495 0.471606
0.523915 0.465133 0.475245
0.437059 0.451282 0.453282
0.448809 0.454920 0.456920
0.460558 0.458558 0.460558
0.472308 0.462196 0.464196
0.484058 0.465835 0.467835
0.495808 0.469473 0.471473
0.507557 0.473111 0.475111
0.519307 0.476749 0.478749
0.531057 0.480387 0.482387
0.444201 0.466536 0.460425
0.455951 0.470174 0.464063
0.467701 0.473812 0.467701
0.479450 0.477450 0.471339
0.491200 0.481089 0.474977
0.502950 0.484727 0.478615
0.514700 0.488365 0.482253
0.526450 0.492003 0.485891
0.538199 0.495641 0.489529
0.451344 0.481790 0.467567
0.463093 0.485428 0.471205
0.474843 0.489066 0.474843
0.486593 0.492704 0.478481
0.498343 0.496343 0.482119
0.510092 0.499981 0.485757
0.521842 0.503619 0.489395
0.533592 0.507257 0.493033
0.545342 0.510895 0.496672
0.458486 0.497044 0.474709
0.470236 0.500682 0.478347
0.481985 0.504320 0.481985
0.493735 0.507958 0.485623
0.505485 0.511597 0.489262
0.517235 0.515235 0.492900
0.528984 0.518873 0.496538
0.540734 0.522511 0.500176
0.552484 0.526149 0.503814
0.465628 0.512298 0.481852
0.477378 0.515936 0.485490
0.489128 0.519574 0.489128
0.500877 0.523212 0.492766
0.512627 0.526851 0.496404
0.524377 0.530489 0.500042
0.536127 0.534127 0.503680
0.547877 0.537765 0.507318
0.559626 0.541403 0.510956
0.472771 0.527552 0.488994
0.484520 0.531190 0.492632
0.496270 0.534828 0.496270
0.508020 0.538466 0.499908
0.519770 0.542105 0.503546
0.531519 0.545743 0.507184
0.543269 0.549381 0.510822
0.555019 0.553019 0.514460
0.566769 0.556657 0.518099
0.479913 0.542806 0.496136
0.491663 0.546444 0.499774
0.503412 0.550082 0.503412
0.515162 0.553721 0.507050
0.526912 0.557359 0.510689
0.538662 0.560997 0.514327
0.550411 0.564635 0.517965
0.562161 0.568273 0.521603
0.573911 0.571911 0.525241
0.424161 0.422161 0.448496
0.435911 0.425799 0.452134
0.447661 0.429437 0.455772
0.459411 0.433076 0.459411
0.471160 0.436714 0.463049
0.482910 0.440352 0.466687
0.494660 0.443990 0.470325
0.506410 0.447628 0.473963
0.518159 0.451266 0.477601
0.431304 0.437415 0.455639
0.443053 0.441053 0.459277
0.454803 0.444691 0.462915
0.466553 0.448330 0.466553
0.478303 0.451968 0.470191
0.490052 0.455606 0.473829
0.501802 0.459244 0.477467
0.513552 0.462882 0.481105
0.525302 0.466520 0.484743
0.438446 0.452669 0.462781
0.450196 0.456307 0.466419
0.461945 0.459945 0.470057
0.473695 0.463584 0.473695
0.485445 0.467222 0.477333
0.497195 0.470860 0.480971
0.508945 0.474498 0.484609
0.520694 0.478136 0.488248
0.532444 0.481774 0.491886
0.445588 0.467923 0.469923
0.457338 0.471561 0.473561
0.469088 0.475199 0.477199
0.480838 0.478838 0.480838
0.492587 0.482476 0.484476
0.504337 0.486114 0.488114
0.516087 0.489752 0.491752
0.527837 0.493390 0.495390
0.539586 0.497028 0.499028
0.452731 0.483177 0.477066
0.464480 0.486815 0.480704
0.476230 0.490453 0.484342
0.487980 0.494092 0.487980
0.499730 0.497730 0.491618
0.511479 0.501368 0.495256
0.523229 0.505006 0.498894
0.534979 0.508644 0.502532
0.546729 0.512282 0.506170
0.459873 0.498431 0.484208
0.471623 0.502069 0.487846
0.483372 0.505707 0.491484
0.495122 0.509346 0.495122
0.506872 0.512984 0.498760
0.518622 0.516622 0.502398
0.530372 0.520260 0.506036
0.542121 0.523898 0.509675
0.553871 0.527536 0.513313
0.467015 0.513685 0.491350
0.478765 0.517323 0.494988
0.490515 0.520962 0.498626
0.502265 0.524600 0.502265
0.514014 0.528238 0.505903
0.525764 0.531876 0.509541
0.537514 0.535514 0.513179
0.549264 0.539152 0.516817
0.561013 0.542790 0.520455
0.474158 0.528939 0.498493
0.485907 0.532577 0.502131
0.497657 0.536216 0.505769
0.509407 0.539854 0.509407
0.521157 0.543492 0.513045
0.532906 0.547130 0.516683
0.544656 0.550768 0.520321
0.556406 0.554406 0.523959
0.568156 0.558044 0.527597
0.481300 0.544193 0.505635
0.493050 0.547831 0.509273
0.504799 0.551470 0.512911
0.516549 0.555108 0.516549
0.528299 0.558746 0.520187
0.540049 0.562384 0.523825
0.551799 0.566022 0.527463
0.563548 0.569660 0.531102
0.575298 0.573298 0.534740
0.425548 0.423548 0.457995
0.437298 0.427186 0.461633
0.449048 0.430825 0.465271
0.460798 0.434463 0.468909
0.472547 0.438101 0.472547
0.484297 0.441739 0.476186
0.496047 0.445377 0.479824
0.507797 0.449015 0.483462
0.519546 0.452653 0.487100
0.432691 0.438802 0.465137
0.444440 0.442440 0.468776
0.456190 0.446079 0.472414
0.467940 0.449717 0.476052
0.479690 0.453355 0.479690
0.491440 0.456993 0.483328
0.503189 0.460631 0.486966
0.514939 0.464269 0.490604
0.526689 0.467907 0.494242
0.439833 0.454056 0.472280
0.451583 0.457694 0.475918
0.463333 0.461333 0.479556
0.475082 0.464971 0.483194
0.486832 0.468609 0.486832
0.498582 0.472247 0.490470
0.510332 0.475885 0.494108
0.522081 0.479523 0.497746
0.533831 0.483161 0.501384
0.446975 0.469310 0.479422
0.458725 0.472948 0.483060
0.470475 0.476587 0.486698
0.482225 0.480225 0.490336
0.493974 0.483863 0.493974
0.505724 0.487501 0.497613
0.517474 0.491139 0.501251
0.529224 0.494777 0.504889
0.540973 0.498415 0.508527
0.454118 0.484564 0.486564
0.465867 0.488202 0.490202
0.477617 0.491841 0.493841
0.489367 0.495479 0.497479
0.501117 0.499117 0.501117
0.512867 0.502755 0.504755
0.524616 0.506393 0.508393
0.536366 0.510031 0.512031
0.548116 0.513669 0.515669
0.461260 0.499818 0.493707
0.473010 0.503457 0.497345
0.484760 0.507095 0.500983
0.496509 0.510733 0.504621
0.508259 0.514371 0.508259
0.520009 0.518009 0.511897
0.531759 0.521647 0.515535
0.543508 0.525285 0.519173
0.555258 0.528923 0.522811
0.468402 0.515072 0.500849
0.480152 0.518711 0.504487
0.491902 0.522349 0.508125
0.503652 0.525987 0.511763
0.515401 0.529625 0.515401
0.527151 0.533263 0.519040
0.538901 0.536901 0.522678
0.550651 0.540539 0.526316
0.562400 0.544177 0.529954
0.475545 0.530326 0.507991
0.487294 0.533965 0.511629
0.499044 0.537603 0.515268
0.510794 0.541241 0.518906
0.522544 0.544879 0.522544
0.534294 0.548517 0.526182
0.546043 0.552155 0.529820
0.557793 0.555793 0.533458
0.569543 0.559431 0.537096
0.482687 0.545580 0.515134
0.494437 0.549219 0.518772
0.506187 0.552857 0.522410
0.517936 0.556495 0.526048
0.529686 0.560133 0.529686
0.541436 0.563771 0.533324
0.553186 0.567409 0.536962
0.564935 0.571047 0.540600
0.576685 0.574685 0.544238
0.426935 0.424935 0.467494
0.438685 0.428574 0.471132
0.450435 0.432212 0.474770
0.462185 0.435850 0.478408
0.473935 0.439488 0.482046
0.485684 0.443126 0.485684
0.497434 0.446764 0.489322
0.509184 0.450402 0.492960
0.520934 0.454040 0.496599
0.434078 0.440189 0.474636
0.445828 0.443828 0.478274
0.457577 0.447466 0.481912
0.469327 0.451104 0.485550
0.481077 0.454742 0.489189
0.492827 0.458380 0.492827
0.504576 0.462018 0.496465
0.516326 0.465656 0.500103
0.528076 0.469294 0.503741
0.441220 0.455443 0.481779
0.452970 0.459082 0.485417
0.464720 0.462720 0.489055
0.476469 0.466358 0.492693
0.488219 0.469996 0.496331
0.499969 0.473634 0.499969
0.511719 0.477272 0.503607
0.523468 0.480910 0.507245
0.535218 0.484548 0.510883
0.448362 0.470698 0.488921
0.460112 0.474336 0.492559
0.471862 0.477974 0.496197
0.483612 0.481612 0.499835
0.495362 0.485250 0.503473
0.507111 0.488888 0.507111
0.518861 0.492526 0.510749
0.530611 0.496164 0.514387
0.542361 0.499802 0.518026
0.455505 0.485952 0.496063
0.467255 0.489590 0.499701
0.479004 0.493228 0.503339
0.490754 0.496866 0.506977
0.502504 0.500504 0.510616
0.514254 0.504142 0.514254
0.526003 0.507780 0.517892
0.537753 0.511418 0.521530
0.549503 0.515056 0.525168
0.462647 0.501206 0.503206
0.474397 0.504844 0.506844
0.486147 0.508482 0.510482
0.497896 0.512120 0.514120
0.509646 0.515758 0.517758
0.521396 0.519396 0.521396
0.533146 0.523034 0.525034
0.544895 0.526672 0.528672
0.556645 0.530310 0.532310
0.469789 0.516460 0.510348
0.481539 0.520098 0.513986
0.493289 0.523736 0.517624
0.505039 0.527374 0.521262
0.516789 0.531012 0.524900
0.528538 0.534650 0.528538
0.540288 0.538288 0.532176
0.552038 0.541926 0.535814
0.563788 0.545564 0.539453
0.476932 0.531714 0.517490
0.488682 0.535352 0.521128
0.500431 0.538990 0.524766
0.512181 0.542628 0.528404
0.523931 0.546266 0.532043
0.535681 0.549904 0.535681
0.547430 0.553542 0.539319
0.559180 0.557180 0.542957
0.570930 0.560818 0.546595
0.484074 0.546968 0.524633
0.495824 0.550606 0.528271
0.507574 0.554244 0.531909
0.519323 0.557882 0.535547
0.531073 0.561520 0.539185
0.542823 0.565158 0.542823
0.554573 0.568796 0.546461
0.566322 0.572434 0.550099
0.578072 0.576072 0.553737
0.428323 0.426323 0.476993
0.440072 0.429961 0.480631
0.451822 0.433599 0.484269
0.463572 0.437237 0.487907
0.475322 0.440875 0.491545
0.487071 0.444513 0.495183
0.498821 0.448151 0.498821
0.510571 0.451789 0.502459
0.522321 0.455427 0.506097
0.435465 0.441577 0.484135
0.447215 0.445215 0.487773
0.458964 0.448853 0.491411
0.470714 0.452491 0.495049
0.482464 0.456129 0.498687
0.494214 0.459767 0.502325
0.505963 0.463405 0.505963
0.517713 0.467043 0.509602
0.529463 0.470681 0.513240
0.442607 0.456831 0.491277
0.454357 0.460469 0.494915
0.466107 0.464107 0.498553
0.477857 0.467745 0.502192
0.489606 0.471383 0.505830
0.501356 0.475021 0.509468
0.513106 0.478659 0.513106
0.524856 0.482297 0.516744
0.536605 0.485935 0.520382
0.449750 0.472085 0.498420
0.461499 0.475723 0.502058
0.473249 0.479361 0.505696
0.484999 0.482999 0.509334
0.496749 0.486637 0.512972
0.508498 0.490275 0.516610
0.520248 0.493913 0.520248
0.531998 0.497551 0.523886
0.543748 0.501189 0.527524
0.456892 0.487339 0.505562
0.468642 0.490977 0.509200
0.480391 0.494615 0.512838
0.492141 0.498253 0.516476
0.503891 0.501891 0.520114
0.515641 0.505529 0.523752
0.527390 0.509167 0.527390
0.539140 0.512805 0.531029
0.550890 0.516443 0.534667
0.464034 0.502593 0.512704
0.475784 0.506231 0.516342
0.487534 0.509869 0.519980
0.499284 0.513507 0.523619
0.511033 0.517145 0.527257
0.522783 0.520783 0.530895
0.534533 0.524421 0.534533
0.546283 0.528059 0.538171
0.558032 0.531697 0.541809
0.471177 0.517847 0.519847
0.482926 0.521485 0.523485
0.494676 0.525123 0.527123
0.506426 0.528761 0.530761
0.518176 0.532399 0.534399
0.529925 0.536037 0.538037
0.541675 0.539675 0.541675
0.553425 0.543313 0.545313
0.565175 0.546951 0.548951
0.478319 0.533101 0.526989
0.490069 0.536739 0.530627
0.501818 0.540377 0.534265
0.513568 0.544015 0.537903
0.525318 0.547653 0.541541
0.537068 0.551291 0.545179
0.548817 0.554929 0.548817
0.560567 0.558567 0.552456
0.572317 0.562205 0.556094
0.485461 0.548355 0.534131
0.497211 0.551993 0.537769
0.508961 0.555631 0.541407
0.520711 0.559269 0.545046
0.532460 0.562907 0.548684
0.544210 0.566545 0.552322
0.555960 0.570183 0.555960
0.567710 0.573821 0.559598
0.579459 0.577459 0.563236
0.429710 0.427710 0.486491
0.441459 0.431348 0.490129
0.453209 0.434986 0.493768
0.464959 0.438624 0.497406
0.476709 0.442262 0.501044
0.488458 0.445900 0.504682
0.500208 0.449538 0.508320
0.511958 0.453176 0.511958
0.523708 0.456814 0.515596
0.436852 0.442964 0.493634
0.448602 0.446602 0.497272
0.460352 0.450240 0.500910
0.472101 0.453878 0.504548
0.483851 0.457516 0.508186
0.495601 0.461154 0.511824
0.507351 0.464792 0.515462
0.519100 0.468430 0.519100
0.530850 0.472068 0.522738
0.443994 0.458218 0.500776
0.455744 0.461856 0.504414
0.467494 0.465494 0.508052
0.479244 0.469132 0.511690
0.490993 0.472770 0.515328
0.502743 0.476408 0.518967
0.514493 0.480046 0.522605
0.526243 0.483684 0.526243
0.537992 0.487322 0.529881
0.451137 0.473472 0.507918
0.462886 0.477110 0.511556
0.474636 0.480748 0.515195
0.486386 0.484386 0.518833
0.498136 0.488024 0.522471
0.509885 0.491662 0.526109
0.521635 0.495300 0.529747
0.533385 0.498938 0.533385
0.545135 0.502576 0.537023
0.458279 0.488726 0.515061
0.470029 0.492364 0.518699
0.481779 0.496002 0.522337
0.493528 0.499640 0.525975
0.505278 0.503278 0.529613
0.517028 0.506916 0.533251
0.528778 0.510554 0.536889
0.540527 0.514192 0.540527
0.552277 0.517830 0.544165
0.465421 0.503980 0.522203
0.477171 0.507618 0.525841
0.488921 0.511256 0.529479
0.500671 0.514894 0.533117
0.512420 0.518532 0.536755
0.524170 0.522170 0.540393
0.535920 0.525808 0.544032
0.547670 0.529446 0.547670
0.559419 0.533084 0.551308
0.472564 0.519234 0.529345
0.484313 0.522872 0.532983
0.496063 0.526510 0.536622
0.507813 0.530148 0.540260
0.519563 0.533786 0.543898
0.531312 0.537424 0.547536
0.543062 0.541062 0.551174
0.554812 0.544700 0.554812
0.566562 0.548338 0.558450
0.479706 0.534488 0.536488
0.491456 0.538126 0.540126
0.503206 0.541764 0.543764
0.514955 0.545402 0.547402
0.526705 0.549040 0.551040
0.538455 0.552678 0.554678
0.550205 0.556316 0.558316
0.561954 0.559954 0.561954
0.573704 0.563592 0.565592
0.486848 0.549742 0.543630
0.498598 0.553380 0.547268
0.510348 0.557018 0.550906
0.522098 0.560656 0.554544
0.533847 0.564294 0.558182
0.545597 0.567932 0.561820
0.557347 0.571570 0.565459
0.569097 0.575208 0.569097
0.580846 0.578846 0.572735
0.431097 0.429097 0.495990
0.442847 0.432735 0.499628
0.454596 0.436373 0.503266
0.466346 0.440011 0.506904
0.478096 0.443649 0.510543
0.489846 0.447287 0.514181
0.501595 0.450925 0.517819
0.513345 0.454563 0.521457
0.525095 0.458201 0.525095
0.438239 0.444351 0.503133
0.449989 0.447989 0.506771
0.461739 0.451627 0.510409
0.473488 0.455265 0.514047
0.485238 0.458903 0.517685
0.496988 0.462541 0.521323
0.508738 0.466179 0.524961
0.520487 0.469817 0.528599
0.532237 0.473455 0.532237
0.445381 0.459605 0.510275
0.457131 0.463243 0.513913
0.468881 0.466881 0.517551
0.480631 0.470519 0.521189
0.492380 0.474157 0.524827
0.504130 0.477795 0.528465
0.515880 0.481433 0.532103
0.527630 0.485071 0.535741
0.539380 0.488709 0.539380
0.452524 0.474859 0.517417
0.464274 0.478497 0.521055
0.476023 0.482135 0.524693
0.487773 0.485773 0.528331
0.499523 0.489411 0.531970
0.511273 0.493049 0.535608
0.523022 0.496687 0.539246
0.534772 0.500325 0.542884
0.546522 0.503963 0.546522
0.459666 0.490113 0.524560
0.471416 0.493751 0.528198
0.483166 0.497389 0.531836
0.494915 0.501027 0.535474
0.506665 0.504665 0.539112
0.518415 0.508303 0.542750
0.530165 0.511941 0.546388
0.541914 0.515579 0.550026
0.553664 0.519217 0.553664
0.466808 0.505367 0.531702
0.478558 0.509005 0.535340
0.490308 0.512643 0.538978
0.502058 0.516281 0.542616
0.513807 0.519919 0.546254
0.525557 0.523557 0.549892
0.537307 0.527195 0.553530
0.549057 0.530833 0.557168
0.560807 0.534471 0.560807
0.473951 0.520621 0.538844
0.485701 0.524259 0.542482
0.497450 0.527897 0.546120
0.509200 0.531535 0.549758
0.520950 0.535173 0.553397
0.532700 0.538811 0.557035
0.544449 0.542449 0.560673
0.556199 0.546087 0.564311
0.567949 0.549726 0.567949
0.481093 0.535875 0.545986
0.492843 0.539513 0.549625
0.504593 0.543151 0.553263
0.516342 0.546789 0.556901
0.528092 0.550427 0.560539
0.539842 0.554065 0.564177
0.551592 0.557703 0.567815
0.563341 0.561341 0.571453
0.575091 0.564980 0.575091
0.488235 0.551129 0.553129
0.499985 0.554767 0.556767
0.511735 0.558405 0.560405
0.523485 0.562043 0.564043
0.535234 0.565681 0.567681
0.546984 0.569319 0.571319
0.558734 0.572957 0.574957
0.570484 0.576595 0.578595
0.582234 0.580234 0.582234
