shared/src/main/assets/luts/drama_muted_crime.cube
TITLE "DALUR Muted Crime"
LUT_3D_SIZE 17
DOMAIN_MIN 0.0 0.0 0.0
DOMAIN_MAX 1.0 1.0 1.0
0.453000 0.452000 0.447000
0.453317 0.454387 0.449387
0.453634 0.456773 0.451773
0.453952 0.459160 0.454160
0.454269 0.461547 0.456547
0.454586 0.463934 0.458934
0.454903 0.466320 0.461320
0.455221 0.468707 0.463707
0.455538 0.471094 0.466094
0.455855 0.473481 0.468481
0.456172 0.475867 0.470867
0.456489 0.478254 0.473254
0.456807 0.480641 0.475641
0.457124 0.483027 0.478027
0.457441 0.485414 0.480414
0.457758 0.487801 0.482801
0.458076 0.490188 0.485188
0.457686 0.454616 0.451686
0.458003 0.457003 0.454072
0.458320 0.459390 0.456459
0.458637 0.461776 0.458846
0.458955 0.464163 0.461233
0.459272 0.466550 0.463619
0.459589 0.468937 0.466006
0.459906 0.471323 0.468393
0.460223 0.473710 0.470779
0.460541 0.476097 0.473166
0.460858 0.478483 0.475553
0.461175 0.480870 0.477940
0.461492 0.483257 0.480326
0.461810 0.485644 0.482713
0.462127 0.488030 0.485100
0.462444 0.490417 0.487487
0.462761 0.492804 0.489873
0.462371 0.457232 0.456371
0.462689 0.459619 0.458758
0.463006 0.462006 0.461145
0.463323 0.464392 0.463531
0.463640 0.466779 0.465918
0.463957 0.469166 0.468305
0.464275 0.471553 0.470692
0.464592 0.473939 0.473078
0.464909 0.476326 0.475465
0.465226 0.478713 0.477852
0.465544 0.481100 0.480239
0.465861 0.483486 0.482625
0.466178 0.485873 0.485012
0.466495 0.488260 0.487399
0.466812 0.490646 0.489785
0.467130 0.493033 0.492172
0.467447 0.495420 0.494559
0.467057 0.459848 0.461057
0.467374 0.462235 0.463444
0.467691 0.464622 0.465830
0.468009 0.467009 0.468217
0.468326 0.469395 0.470604
0.468643 0.471782 0.472991
0.468960 0.474169 0.475377
0.469278 0.476556 0.477764
0.469595 0.478942 0.480151
0.469912 0.481329 0.482537
0.470229 0.483716 0.484924
0.470546 0.486102 0.487311
0.470864 0.488489 0.489698
0.471181 0.490876 0.492084
0.471498 0.493263 0.494471
0.471815 0.495649 0.496858
0.472133 0.498036 0.499245
0.471743 0.462465 0.465743
0.472060 0.464851 0.468129
0.472377 0.467238 0.470516
0.472694 0.469625 0.472903
0.473011 0.472011 0.475289
0.473329 0.474398 0.477676
0.473646 0.476785 0.480063
0.473963 0.479172 0.482450
0.474280 0.481558 0.484836
0.474598 0.483945 0.487223
0.474915 0.486332 0.489610
0.475232 0.488719 0.491997
0.475549 0.491105 0.494383
0.475867 0.493492 0.496770
0.476184 0.495879 0.499157
0.476501 0.498265 0.501543
0.476818 0.500652 0.503930
0.476428 0.465081 0.470428
0.476745 0.467467 0.472815
0.477063 0.469854 0.475202
0.477380 0.472241 0.477588
0.477697 0.474628 0.479975
0.478014 0.477014 0.482362
0.478332 0.479401 0.484749
0.478649 0.481788 0.487135
0.478966 0.484175 0.489522
0.479283 0.486561 0.491909
0.479600 0.488948 0.494295
0.479918 0.491335 0.496682
0.480235 0.493721 0.499069
0.480552 0.496108 0.501456
0.480869 0.498495 0.503842
0.481187 0.500882 0.506229
0.481504 0.503268 0.508616
0.481114 0.467697 0.475114
0.481431 0.470084 0.477501
0.481748 0.472470 0.479887
0.482066 0.474857 0.482274
0.482383 0.477244 0.484661
0.482700 0.479631 0.487048
0.483017 0.482017 0.489434
0.483334 0.484404 0.491821
0.483652 0.486791 0.494208
0.483969 0.489177 0.496594
0.484286 0.491564 0.498981
0.484603 0.493951 0.501368
0.484921 0.496338 0.503755
0.485238 0.498724 0.506141
0.485555 0.501111 0.508528
0.485872 0.503498 0.510915
0.486189 0.505884 0.513301
0.485800 0.470313 0.479800
0.486117 0.472700 0.482186
0.486434 0.475086 0.484573
0.486751 0.477473 0.486960
0.487068 0.479860 0.489346
0.487386 0.482247 0.491733
0.487703 0.484633 0.494120
0.488020 0.487020 0.496507
0.488337 0.489407 0.498893
0.488655 0.491794 0.501280
0.488972 0.494180 0.503667
0.489289 0.496567 0.506054
0.489606 0.498954 0.508440
0.489923 0.501340 0.510827
0.490241 0.503727 0.513214
0.490558 0.506114 0.515600
0.490875 0.508501 0.517987
0.490485 0.472929 0.484485
0.490802 0.475316 0.486872
0.491120 0.477703 0.489259
0.491437 0.480089 0.491645
0.491754 0.482476 0.494032
0.492071 0.484863 0.496419
0.492389 0.487250 0.498806
0.492706 0.489636 0.501192
0.493023 0.492023 0.503579
0.493340 0.494410 0.505966
0.493657 0.496796 0.508352
0.493975 0.499183 0.510739
0.494292 0.501570 0.513126
0.494609 0.503957 0.515513
0.494926 0.506343 0.517899
0.495244 0.508730 0.520286
0.495561 0.511117 0.522673
0.495171 0.475545 0.489171
0.495488 0.477932 0.491558
0.495805 0.480319 0.493944
0.496122 0.482705 0.496331
0.496440 0.485092 0.498718
0.496757 0.487479 0.501104
0.497074 0.489866 0.503491
0.497391 0.492252 0.505878
0.497709 0.494639 0.508265
0.498026 0.497026 0.510651
0.498343 0.499413 0.513038
0.498660 0.501799 0.515425
0.498978 0.504186 0.517812
0.499295 0.506573 0.520198
0.499612 0.508959 0.522585
0.499929 0.511346 0.524972
0.500246 0.513733 0.527358
0.499856 0.478161 0.493856
0.500174 0.480548 0.496243
0.500491 0.482935 0.498630
0.500808 0.485322 0.501017
0.501125 0.487708 0.503403
0.501443 0.490095 0.505790
0.501760 0.492482 0.508177
0.502077 0.494869 0.510564
0.502394 0.497255 0.512950
0.502711 0.499642 0.515337
0.503029 0.502029 0.517724
0.503346 0.504415 0.520110
0.503663 0.506802 0.522497
0.503980 0.509189 0.524884
0.504298 0.511576 0.527271
0.504615 0.513962 0.529657
0.504932 0.516349 0.532044
0.504542 0.480778 0.498542
0.504859 0.483164 0.500929
0.505177 0.485551 0.503316
0.505494 0.487938 0.505702
0.505811 0.490324 0.508089
0.506128 0.492711 0.510476
0.506445 0.495098 0.512862
0.506763 0.497485 0.515249
0.507080 0.499871 0.517636
0.507397 0.502258 0.520023
0.507714 0.504645 0.522409
0.508032 0.507032 0.524796
0.508349 0.509418 0.527183
0.508666 0.511805 0.529570
0.508983 0.514192 0.531956
0.509300 0.516578 0.534343
0.509618 0.518965 0.536730
0.509228 0.483394 0.503228
0.509545 0.485780 0.505614
0.509862 0.488167 0.508001
0.510179 0.490554 0.510388
0.510497 0.492941 0.512775
0.510814 0.495327 0.515161
0.511131 0.497714 0.517548
0.511448 0.500101 0.519935
0.511766 0.502488 0.522322
0.512083 0.504874 0.524708
0.512400 0.507261 0.527095
0.512717 0.509648 0.529482
0.513034 0.512034 0.531868
0.513352 0.514421 0.534255
0.513669 0.516808 0.536642
0.513986 0.519195 0.539029
0.514303 0.521581 0.541415
0.513913 0.486010 0.507913
0.514231 0.488397 0.510300
0.514548 0.490783 0.512687
0.514865 0.493170 0.515074
0.515182 0.495557 0.517460
0.515500 0.497944 0.519847
0.515817 0.500330 0.522234
0.516134 0.502717 0.524620
0.516451 0.505104 0.527007
0.516768 0.507490 0.529394
0.517086 0.509877 0.531781
0.517403 0.512264 0.534167
0.517720 0.514651 0.536554
0.518037 0.517037 0.538941
0.518355 0.519424 0.541328
0.518672 0.521811 0.543714
0.518989 0.524198 0.546101
0.518599 0.488626 0.512599
0.518916 0.491013 0.514986
0.519233 0.493399 0.517372
0.519551 0.495786 0.519759
0.519868 0.498173 0.522146
0.520185 0.500560 0.524533
0.520502 0.502946 0.526919
0.520820 0.505333 0.529306
0.521137 0.507720 0.531693
0.521454 0.510107 0.534080
0.521771 0.512493 0.536466
0.522089 0.514880 0.538853
0.522406 0.517267 0.541240
0.522723 0.519653 0.543626
0.523040 0.522040 0.546013
0.523357 0.524427 0.548400
0.523675 0.526814 0.550787
0.523285 0.491242 0.517285
0.523602 0.493629 0.519671
0.523919 0.496016 0.522058
0.524236 0.498402 0.524445
0.524554 0.500789 0.526832
0.524871 0.503176 0.529218
0.525188 0.505563 0.531605
0.525505 0.507949 0.533992
0.525822 0.510336 0.536379
0.526140 0.512723 0.538765
0.526457 0.515109 0.541152
0.526774 0.517496 0.543539
0.527091 0.519883 0.545925
0.527409 0.522270 0.548312
0.527726 0.524656 0.550699
0.528043 0.527043 0.553086
0.528360 0.529430 0.555472
0.527970 0.493858 0.521970
0.528288 0.496245 0.524357
0.528605 0.498632 0.526744
0.528922 0.501018 0.529131
0.529239 0.503405 0.531517
0.529556 0.505792 0.533904
0.529874 0.508179 0.536291
0.530191 0.510565 0.538677
0.530508 0.512952 0.541064
0.530825 0.515339 0.543451
0.531143 0.517726 0.545838
0.531460 0.520112 0.548224
0.531777 0.522499 0.550611
0.532094 0.524886 0.552998
0.532411 0.527272 0.555385
0.532729 0.529659 0.557771
0.533046 0.532046 0.560158
0.453910 0.452910 0.445840
0.454227 0.455297 0.448227
0.454544 0.457683 0.450614
0.454862 0.460070 0.453001
0.455179 0.462457 0.455387
0.455496 0.464844 0.457774
0.455813 0.467230 0.460161
0.456131 0.469617 0.462548
0.456448 0.472004 0.464934
0.456765 0.474391 0.467321
0.457082 0.476777 0.469708
0.457399 0.479164 0.472094
0.457717 0.481551 0.474481
0.458034 0.483937 0.476868
0.458351 0.486324 0.479255
0.458668 0.488711 0.481641
0.458986 0.491098 0.484028
0.458596 0.455526 0.450526
0.458913 0.457913 0.452913
0.459230 0.460300 0.455300
0.459547 0.462686 0.457686
0.459865 0.465073 0.460073
0.460182 0.467460 0.462460
0.460499 0.469846 0.464846
0.460816 0.472233 0.467233
0.461133 0.474620 0.469620
0.461451 0.477007 0.472007
0.461768 0.479393 0.474393
0.462085 0.481780 0.476780
0.462402 0.484167 0.479167
0.462720 0.486554 0.481554
0.463037 0.488940 0.483940
0.463354 0.491327 0.486327
0.463671 0.493714 0.488714
0.463281 0.458142 0.455212
0.463599 0.460529 0.457599
0.463916 0.462916 0.459985
0.464233 0.465302 0.462372
0.464550 0.467689 0.464759
0.464867 0.470076 0.467145
0.465185 0.472463 0.469532
0.465502 0.474849 0.471919
0.465819 0.477236 0.474306
0.466136 0.479623 0.476692
0.466454 0.482010 0.479079
0.466771 0.484396 0.481466
0.467088 0.486783 0.483852
0.467405 0.489170 0.486239
0.467722 0.491556 0.488626
0.468040 0.493943 0.491013
0.468357 0.496330 0.493399
0.467967 0.460758 0.459897
0.468284 0.463145 0.462284
0.468601 0.465532 0.464671
0.468919 0.467919 0.467058
0.469236 0.470305 0.469444
0.469553 0.472692 0.471831
0.469870 0.475079 0.474218
0.470188 0.477466 0.476605
0.470505 0.479852 0.478991
0.470822 0.482239 0.481378
0.471139 0.484626 0.483765
0.471456 0.487012 0.486151
0.471774 0.489399 0.488538
0.472091 0.491786 0.490925
0.472408 0.494173 0.493312
0.472725 0.496559 0.495698
0.473043 0.498946 0.498085
0.472653 0.463375 0.464583
0.472970 0.465761 0.466970
0.473287 0.468148 0.469357
0.473604 0.470535 0.471743
0.473921 0.472921 0.474130
0.474239 0.475308 0.476517
0.474556 0.477695 0.478903
0.474873 0.480082 0.481290
0.475190 0.482468 0.483677
0.475508 0.484855 0.486064
0.475825 0.487242 0.488450
0.476142 0.489629 0.490837
0.476459 0.492015 0.493224
0.476776 0.494402 0.495611
0.477094 0.496789 0.497997
0.477411 0.499175 0.500384
0.477728 0.501562 0.502771
0.477338 0.465991 0.469269
0.477655 0.468377 0.471655
0.477973 0.470764 0.474042
0.478290 0.473151 0.476429
0.478607 0.475538 0.478816
0.478924 0.477924 0.481202
0.479242 0.480311 0.483589
0.479559 0.482698 0.485976
0.479876 0.485085 0.488363
0.480193 0.487471 0.490749
0.480510 0.489858 0.493136
0.480828 0.492245 0.495523
0.481145 0.494631 0.497909
0.481462 0.497018 0.500296
0.481779 0.499405 0.502683
0.482097 0.501792 0.505070
0.482414 0.504178 0.507456
0.482024 0.468607 0.473954
0.482341 0.470994 0.476341
0.482658 0.473380 0.478728
0.482976 0.475767 0.481115
0.483293 0.478154 0.483501
0.483610 0.480540 0.485888
0.483927 0.482927 0.488275
0.484244 0.485314 0.490661
0.484562 0.487701 0.493048
0.484879 0.490087 0.495435
0.485196 0.492474 0.497822
0.485513 0.494861 0.500208
0.485831 0.497248 0.502595
0.486148 0.499634 0.504982
0.486465 0.502021 0.507369
0.486782 0.504408 0.509755
0.487099 0.506794 0.512142
0.486710 0.471223 0.478640
0.487027 0.473610 0.481027
0.487344 0.475996 0.483413
0.487661 0.478383 0.485800
0.487978 0.480770 0.488187
0.488296 0.483157 0.490574
0.488613 0.485543 0.492960
0.488930 0.487930 0.495347
0.489247 0.490317 0.497734
0.489565 0.492704 0.500121
0.489882 0.495090 0.502507
0.490199 0.497477 0.504894
0.490516 0.499864 0.507281
0.490833 0.502250 0.509667
0.491151 0.504637 0.512054
0.491468 0.507024 0.514441
0.491785 0.509411 0.516828
0.491395 0.473839 0.483326
0.491712 0.476226 0.485712
0.492030 0.478613 0.488099
0.492347 0.480999 0.490486
0.492664 0.483386 0.492873
0.492981 0.485773 0.495259
0.493299 0.488160 0.497646
0.493616 0.490546 0.500033
0.493933 0.492933 0.502419
0.494250 0.495320 0.504806
0.494567 0.497706 0.507193
0.494885 0.500093 0.509580
0.495202 0.502480 0.511966
0.495519 0.504867 0.514353
0.495836 0.507253 0.516740
0.496154 0.509640 0.519127
0.496471 0.512027 0.521513
0.496081 0.476455 0.488011
0.496398 0.478842 0.490398
0.496715 0.481229 0.492785
0.497032 0.483615 0.495171
0.497350 0.486002 0.497558
0.497667 0.488389 0.499945
0.497984 0.490776 0.502332
0.498301 0.493162 0.504718
0.498619 0.495549 0.507105
0.498936 0.497936 0.509492
0.499253 0.500323 0.511879
0.499570 0.502709 0.514265
0.499888 0.505096 0.516652
0.500205 0.507483 0.519039
0.500522 0.509869 0.521425
0.500839 0.512256 0.523812
0.501156 0.514643 0.526199
0.500766 0.479071 0.492697
0.501084 0.481458 0.495084
0.501401 0.483845 0.497470
0.501718 0.486232 0.499857
0.502035 0.488618 0.502244
0.502353 0.491005 0.504631
0.502670 0.493392 0.507017
0.502987 0.495779 0.509404
0.503304 0.498165 0.511791
0.503621 0.500552 0.514177
0.503939 0.502939 0.516564
0.504256 0.505325 0.518951
0.504573 0.507712 0.521338
0.504890 0.510099 0.523724
0.505208 0.512486 0.526111
0.505525 0.514872 0.528498
0.505842 0.517259 0.530885
0.505452 0.481688 0.497383
0.505769 0.484074 0.499769
0.506087 0.486461 0.502156
0.506404 0.488848 0.504543
0.506721 0.491234 0.506929
0.507038 0.493621 0.509316
0.507355 0.496008 0.511703
0.507673 0.498395 0.514090
0.507990 0.500781 0.516476
0.508307 0.503168 0.518863
0.508624 0.505555 0.521250
0.508942 0.507942 0.523637
0.509259 0.510328 0.526023
0.509576 0.512715 0.528410
0.509893 0.515102 0.530797
0.510210 0.517488 0.533183
0.510528 0.519875 0.535570
0.510138 0.484304 0.502068
0.510455 0.486690 0.504455
0.510772 0.489077 0.506842
0.511089 0.491464 0.509228
0.511407 0.493851 0.511615
0.511724 0.496237 0.514002
0.512041 0.498624 0.516389
0.512358 0.501011 0.518775
0.512676 0.503398 0.521162
0.512993 0.505784 0.523549
0.513310 0.508171 0.525936
0.513627 0.510558 0.528322
0.513944 0.512944 0.530709
0.514262 0.515331 0.533096
0.514579 0.517718 0.535482
0.514896 0.520105 0.537869
0.515213 0.522491 0.540256
0.514823 0.486920 0.506754
0.515141 0.489307 0.509141
0.515458 0.491693 0.511527
0.515775 0.494080 0.513914
0.516092 0.496467 0.516301
0.516410 0.498854 0.518688
0.516727 0.501240 0.521074
0.517044 0.503627 0.523461
0.517361 0.506014 0.525848
0.517678 0.508400 0.528234
0.517996 0.510787 0.530621
0.518313 0.513174 0.533008
0.518630 0.515561 0.535395
0.518947 0.517947 0.537781
0.519265 0.520334 0.540168
0.519582 0.522721 0.542555
0.519899 0.525107 0.544942
0.519509 0.489536 0.511440
0.519826 0.491923 0.513826
0.520143 0.494309 0.516213
0.520461 0.496696 0.518600
0.520778 0.499083 0.520986
0.521095 0.501470 0.523373
0.521412 0.503856 0.525760
0.521730 0.506243 0.528147
0.522047 0.508630 0.530533
0.522364 0.511017 0.532920
0.522681 0.513403 0.535307
0.522999 0.515790 0.537694
0.523316 0.518177 0.540080
0.523633 0.520563 0.542467
0.523950 0.522950 0.544854
0.524267 0.525337 0.547240
0.524585 0.527724 0.549627
0.524195 0.492152 0.516125
0.524512 0.494539 0.518512
0.524829 0.496926 0.520899
0.525146 0.499312 0.523285
0.525464 0.501699 0.525672
0.525781 0.504086 0.528059
0.526098 0.506473 0.530446
0.526415 0.508859 0.532832
0.526732 0.511246 0.535219
0.527050 0.513633 0.537606
0.527367 0.516019 0.539992
0.527684 0.518406 0.542379
0.528001 0.520793 0.544766
0.528319 0.523180 0.547153
0.528636 0.525566 0.549539
0.528953 0.527953 0.551926
0.529270 0.530340 0.554313
0.528880 0.494768 0.520811
0.529198 0.497155 0.523198
0.529515 0.499542 0.525584
0.529832 0.501928 0.527971
0.530149 0.504315 0.530358
0.530466 0.506702 0.532744
0.530784 0.509089 0.535131
0.531101 0.511475 0.537518
0.531418 0.513862 0.539905
0.531735 0.516249 0.542291
0.532053 0.518636 0.544678
0.532370 0.521022 0.547065
0.532687 0.523409 0.549452
0.533004 0.525796 0.551838
0.533321 0.528182 0.554225
0.533639 0.530569 0.556612
0.533956 0.532956 0.558998
0.454820 0.453820 0.444681
0.455137 0.456207 0.447068
0.455454 0.458593 0.449454
0.455772 0.460980 0.451841
0.456089 0.463367 0.454228
0.456406 0.465754 0.456615
0.456723 0.468140 0.459001
0.457041 0.470527 0.461388
0.457358 0.472914 0.463775
0.457675 0.475301 0.466162
0.457992 0.477687 0.468548
0.458309 0.480074 0.470935
0.458627 0.482461 0.473322
0.458944 0.484847 0.475708
0.459261 0.487234 0.478095
0.459578 0.489621 0.480482
0.459896 0.492008 0.482869
0.459506 0.456436 0.449367
0.459823 0.458823 0.451753
0.460140 0.461210 0.454140
0.460457 0.463596 0.456527
0.460775 0.465983 0.458914
0.461092 0.468370 0.461300
0.461409 0.470756 0.463687
0.461726 0.473143 0.466074
0.462043 0.475530 0.468460
0.462361 0.477917 0.470847
0.462678 0.480303 0.473234
0.462995 0.482690 0.475621
0.463312 0.485077 0.478007
0.463630 0.487464 0.480394
0.463947 0.489850 0.482781
0.464264 0.492237 0.485168
0.464581 0.494624 0.487554
0.464191 0.459052 0.454052
0.464508 0.461439 0.456439
0.464826 0.463826 0.458826
0.465143 0.466212 0.461212
0.465460 0.468599 0.463599
0.465777 0.470986 0.465986
0.466095 0.473373 0.468373
0.466412 0.475759 0.470759
0.466729 0.478146 0.473146
0.467046 0.480533 0.475533
0.467364 0.482920 0.477920
0.467681 0.485306 0.480306
0.467998 0.487693 0.482693
0.468315 0.490080 0.485080
0.468632 0.492466 0.487466
0.468950 0.494853 0.489853
0.469267 0.497240 0.492240
0.468877 0.461668 0.458738
0.469194 0.464055 0.461125
0.469511 0.466442 0.463511
0.469829 0.468829 0.465898
0.470146 0.471215 0.468285
0.470463 0.473602 0.470672
0.470780 0.475989 0.473058
0.471097 0.478375 0.475445
0.471415 0.480762 0.477832
0.471732 0.483149 0.480218
0.472049 0.485536 0.482605
0.472366 0.487922 0.484992
0.472684 0.490309 0.487379
0.473001 0.492696 0.489765
0.473318 0.495083 0.492152
0.473635 0.497469 0.494539
0.473953 0.499856 0.496926
0.473563 0.464285 0.463424
0.473880 0.466671 0.465810
0.474197 0.469058 0.468197
0.474514 0.471445 0.470584
0.474831 0.473831 0.472970
0.475149 0.476218 0.475357
0.475466 0.478605 0.477744
0.475783 0.480992 0.480131
0.476100 0.483378 0.482517
0.476418 0.485765 0.484904
0.476735 0.488152 0.487291
0.477052 0.490539 0.489678
0.477369 0.492925 0.492064
0.477686 0.495312 0.494451
0.478004 0.497699 0.496838
0.478321 0.500085 0.499224
0.478638 0.502472 0.501611
0.478248 0.466901 0.468109
0.478565 0.469287 0.470496
0.478883 0.471674 0.472883
0.479200 0.474061 0.475269
0.479517 0.476448 0.477656
0.479834 0.478834 0.480043
0.480152 0.481221 0.482430
0.480469 0.483608 0.484816
0.480786 0.485995 0.487203
0.481103 0.488381 0.489590
0.481420 0.490768 0.491976
0.481738 0.493155 0.494363
0.482055 0.495541 0.496750
0.482372 0.497928 0.499137
0.482689 0.500315 0.501523
0.483007 0.502702 0.503910
0.483324 0.505088 0.506297
0.482934 0.469517 0.472795
0.483251 0.471904 0.475182
0.483568 0.474290 0.477568
0.483886 0.476677 0.479955
0.484203 0.479064 0.482342
0.484520 0.481450 0.484728
0.484837 0.483837 0.487115
0.485154 0.486224 0.489502
0.485472 0.488611 0.491889
0.485789 0.490997 0.494275
0.486106 0.493384 0.496662
0.486423 0.495771 0.499049
0.486741 0.498158 0.501436
0.487058 0.500544 0.503822
0.487375 0.502931 0.506209
0.487692 0.505318 0.508596
0.488009 0.507704 0.510982
0.487620 0.472133 0.477480
0.487937 0.474520 0.479867
0.488254 0.476906 0.482254
0.488571 0.479293 0.484641
0.488888 0.481680 0.487027
0.489206 0.484067 0.489414
0.489523 0.486453 0.491801
0.489840 0.488840 0.494188
0.490157 0.491227 0.496574
0.490475 0.493614 0.498961
0.490792 0.496000 0.501348
0.491109 0.498387 0.503734
0.491426 0.500774 0.506121
0.491743 0.503160 0.508508
0.492061 0.505547 0.510895
0.492378 0.507934 0.513281
0.492695 0.510321 0.515668
0.492305 0.474749 0.482166
0.492622 0.477136 0.484553
0.492940 0.479523 0.486940
0.493257 0.481909 0.489326
0.493574 0.484296 0.491713
0.493891 0.486683 0.494100
0.494208 0.489069 0.496487
0.494526 0.491456 0.498873
0.494843 0.493843 0.501260
0.495160 0.496230 0.503647
0.495477 0.498616 0.506033
0.495795 0.501003 0.508420
0.496112 0.503390 0.510807
0.496429 0.505777 0.513194
0.496746 0.508163 0.515580
0.497064 0.510550 0.517967
0.497381 0.512937 0.520354
0.496991 0.477365 0.486852
0.497308 0.479752 0.489239
0.497625 0.482139 0.491625
0.497942 0.484525 0.494012
0.498260 0.486912 0.496399
0.498577 0.489299 0.498785
0.498894 0.491686 0.501172
0.499211 0.494072 0.503559
0.499529 0.496459 0.505946
0.499846 0.498846 0.508332
0.500163 0.501233 0.510719
0.500480 0.503619 0.513106
0.500797 0.506006 0.515493
0.501115 0.508393 0.517879
0.501432 0.510779 0.520266
0.501749 0.513166 0.522653
0.502066 0.515553 0.525039
0.501676 0.479981 0.491537
0.501994 0.482368 0.493924
0.502311 0.484755 0.496311
0.502628 0.487142 0.498698
0.502945 0.489528 0.501084
0.503263 0.491915 0.503471
0.503580 0.494302 0.505858
0.503897 0.496689 0.508245
0.504214 0.499075 0.510631
0.504531 0.501462 0.513018
0.504849 0.503849 0.515405
0.505166 0.506235 0.517791
0.505483 0.508622 0.520178
0.505800 0.511009 0.522565
0.506118 0.513396 0.524952
0.506435 0.515782 0.527338
0.506752 0.518169 0.529725
0.506362 0.482598 0.496223
0.506679 0.484984 0.498610
0.506997 0.487371 0.500997
0.507314 0.489758 0.503383
0.507631 0.492144 0.505770
0.507948 0.494531 0.508157
0.508265 0.496918 0.510543
0.508583 0.499305 0.512930
0.508900 0.501691 0.515317
0.509217 0.504078 0.517704
0.509534 0.506465 0.520090
0.509852 0.508852 0.522477
0.510169 0.511238 0.524864
0.510486 0.513625 0.527251
0.510803 0.516012 0.529637
0.511120 0.518398 0.532024
0.511438 0.520785 0.534411
0.511048 0.485214 0.500909
0.511365 0.487600 0.503295
0.511682 0.489987 0.505682
0.511999 0.492374 0.508069
0.512317 0.494761 0.510456
0.512634 0.497147 0.512842
0.512951 0.499534 0.515229
0.513268 0.501921 0.517616
0.513586 0.504308 0.520003
0.513903 0.506694 0.522389
0.514220 0.509081 0.524776
0.514537 0.511468 0.527163
0.514854 0.513854 0.529549
0.515172 0.516241 0.531936
0.515489 0.518628 0.534323
0.515806 0.521015 0.536710
0.516123 0.523401 0.539096
0.515733 0.487830 0.505594
0.516051 0.490217 0.507981
0.516368 0.492603 0.510368
0.516685 0.494990 0.512755
0.517002 0.497377 0.515141
0.517320 0.499763 0.517528
0.517637 0.502150 0.519915
0.517954 0.504537 0.522301
0.518271 0.506924 0.524688
0.518588 0.509310 0.527075
0.518906 0.511697 0.529462
0.519223 0.514084 0.531848
0.519540 0.516471 0.534235
0.519857 0.518857 0.536622
0.520175 0.521244 0.539009
0.520492 0.523631 0.541395
0.520809 0.526017 0.543782
0.520419 0.490446 0.510280
0.520736 0.492833 0.512667
0.521053 0.495219 0.515053
0.521371 0.497606 0.517440
0.521688 0.499993 0.519827
0.522005 0.502380 0.522214
0.522322 0.504766 0.524600
0.522640 0.507153 0.526987
0.522957 0.509540 0.529374
0.523274 0.511927 0.531761
0.523591 0.514313 0.534147
0.523908 0.516700 0.536534
0.524226 0.519087 0.538921
0.524543 0.521473 0.541307
0.524860 0.523860 0.543694
0.525177 0.526247 0.546081
0.525495 0.528634 0.548468
0.525105 0.493062 0.514966
0.525422 0.495449 0.517352
0.525739 0.497836 0.519739
0.526056 0.500222 0.522126
0.526374 0.502609 0.524513
0.526691 0.504996 0.526899
0.527008 0.507383 0.529286
0.527325 0.509769 0.531673
0.527642 0.512156 0.534059
0.527960 0.514543 0.536446
0.528277 0.516929 0.538833
0.528594 0.519316 0.541220
0.528911 0.521703 0.543606
0.529229 0.524090 0.545993
0.529546 0.526476 0.548380
0.529863 0.528863 0.550767
0.530180 0.531250 0.553153
0.529790 0.495678 0.519651
0.530108 0.498065 0.522038
0.530425 0.500452 0.524425
0.530742 0.502838 0.526811
0.531059 0.505225 0.529198
0.531376 0.507612 0.531585
0.531694 0.509999 0.533972
0.532011 0.512385 0.536358
0.532328 0.514772 0.538745
0.532645 0.517159 0.541132
0.532963 0.519546 0.543519
0.533280 0.521932 0.545905
0.533597 0.524319 0.548292
0.533914 0.526706 0.550679
0.534231 0.529092 0.553065
0.534549 0.531479 0.555452
0.534866 0.533866 0.557839
0.455730 0.454730 0.443521
0.456047 0.457117 0.445908
0.456364 0.459503 0.448295
0.456682 0.461890 0.450682
0.456999 0.464277 0.453068
0.457316 0.466664 0.455455
0.457633 0.469050 0.457842
0.457951 0.471437 0.460229
0.458268 0.473824 0.462615
0.458585 0.476211 0.465002
0.458902 0.478597 0.467389
0.459219 0.480984 0.469775
0.459537 0.483371 0.472162
0.459854 0.485757 0.474549
0.460171 0.488144 0.476936
0.460488 0.490531 0.479322
0.460806 0.492918 0.481709
0.460416 0.457346 0.448207
