shared/src/main/assets/luts/drama_tropical_grit.cube
TITLE "DALUR Tropical Grit"
LUT_3D_SIZE 5
DOMAIN_MIN 0.0 0.0 0.0
DOMAIN_MAX 1.0 1.0 1.0
0.449000 0.442500 0.431000
0.461294 0.450231 0.438731
0.473588 0.457962 0.446462
0.485881 0.465693 0.454193
0.498175 0.473424 0.461924
0.464177 0.462240 0.446177
0.476471 0.469971 0.453908
0.488765 0.477702 0.461639
0.501059 0.485433 0.469370
0.513352 0.493164 0.477101
0.479355 0.481981 0.461355
0.491649 0.489711 0.469086
0.503942 0.497442 0.476817
0.516236 0.505173 0.484548
0.528530 0.512904 0.492279
0.494532 0.501721 0.476532
0.506826 0.509452 0.484263
0.519120 0.517183 0.491994
0.531414 0.524914 0.499725
0.543707 0.532645 0.507456
0.509710 0.521461 0.491710
0.522004 0.529192 0.499441
0.534297 0.536923 0.507172
0.546591 0.544654 0.514903
0.558885 0.552385 0.522634
0.451948 0.445448 0.438510
0.464241 0.453179 0.446241
0.476535 0.460909 0.453972
0.488829 0.468640 0.461703
0.501123 0.476371 0.469434
0.467125 0.465188 0.453688
0.479419 0.472919 0.461419
0.491713 0.480650 0.469150
0.504006 0.488381 0.476881
0.516300 0.496112 0.484612
0.482302 0.484928 0.468865
0.494596 0.492659 0.476596
0.506890 0.500390 0.484327
0.519184 0.508121 0.492058
0.531477 0.515852 0.499789
0.497480 0.504668 0.484043
0.509774 0.512399 0.491774
0.522067 0.520130 0.499505
0.534361 0.527861 0.507236
0.546655 0.535592 0.514966
0.512657 0.524409 0.499220
0.524951 0.532140 0.506951
0.537245 0.539871 0.514682
0.549539 0.547601 0.522413
0.561832 0.555332 0.530144
0.454895 0.448395 0.446021
0.467189 0.456126 0.453752
0.479483 0.463857 0.461483
0.491776 0.471588 0.469214
0.504070 0.479319 0.476945
0.470073 0.468135 0.461198
0.482366 0.475866 0.468929
0.494660 0.483597 0.476660
0.506954 0.491328 0.484391
0.519248 0.499059 0.492122
0.485250 0.487876 0.476376
0.497544 0.495607 0.484107
0.509838 0.503338 0.491838
0.522131 0.511069 0.499569
0.534425 0.518799 0.507299
0.500428 0.507616 0.491553
0.512721 0.515347 0.499284
0.525015 0.523078 0.507015
0.537309 0.530809 0.514746
0.549603 0.538540 0.522477
0.515605 0.527356 0.506731
0.527899 0.535087 0.514462
0.540192 0.542818 0.522192
0.552486 0.550549 0.529923
0.564780 0.558280 0.537654
0.457843 0.451343 0.453531
0.470136 0.459074 0.461262
0.482430 0.466805 0.468993
0.494724 0.474536 0.476724
0.507018 0.482266 0.484455
0.473020 0.471083 0.468709
0.485314 0.478814 0.476440
0.497608 0.486545 0.484171
0.509901 0.494276 0.491901
0.522195 0.502007 0.499632
0.488198 0.490823 0.483886
0.500491 0.498554 0.491617
0.512785 0.506285 0.499348
0.525079 0.514016 0.507079
0.537373 0.521747 0.514810
0.503375 0.510564 0.499064
0.515669 0.518294 0.506794
0.527963 0.526025 0.514525
0.540256 0.533756 0.522256
0.552550 0.541487 0.529987
0.518553 0.530304 0.514241
0.530846 0.538035 0.521972
0.543140 0.545766 0.529703
0.555434 0.553497 0.537434
0.567728 0.561228 0.545165
0.460790 0.454290 0.461042
0.473084 0.462021 0.468773
0.485378 0.469752 0.476503
0.497672 0.477483 0.484234
0.509965 0.485214 0.491965
0.475968 0.474031 0.476219
0.488262 0.481762 0.483950
0.500555 0.489492 0.491681
0.512849 0.497223 0.499412
0.525143 0.504954 0.507143
0.491145 0.493771 0.491396
0.503439 0.501502 0.499127
0.515733 0.509233 0.506858
0.528026 0.516964 0.514589
0.540320 0.524695 0.522320
0.506323 0.513511 0.506574
0.518616 0.521242 0.514305
0.530910 0.528973 0.522036
0.543204 0.536704 0.529767
0.555498 0.544435 0.537498
0.521500 0.533251 0.521751
0.533794 0.540982 0.529482
0.546088 0.548713 0.537213
0.558381 0.556444 0.544944
0.570675 0.564175 0.552675
