shared/src/main/assets/luts/drama_plastic_primary.cube
TITLE "DALUR Plastic Primary"
LUT_3D_SIZE 5
DOMAIN_MIN 0.0 0.0 0.0
DOMAIN_MAX 1.0 1.0 1.0
0.420000 0.418000 0.420000
0.443500 0.425276 0.427276
0.466999 0.432552 0.434552
0.490499 0.439829 0.441829
0.513998 0.447105 0.449105
0.434285 0.448508 0.434285
0.457784 0.455784 0.441561
0.481284 0.463060 0.448837
0.504783 0.470337 0.456113
0.528283 0.477613 0.463389
0.448569 0.479016 0.448569
0.472069 0.486292 0.455845
0.495568 0.493568 0.463122
0.519068 0.500845 0.470398
0.542567 0.508121 0.477674
0.462854 0.509524 0.462854
0.486354 0.516800 0.470130
0.509853 0.524076 0.477406
0.533353 0.531353 0.484683
0.556852 0.538629 0.491959
0.477139 0.540032 0.477139
0.500638 0.547308 0.484415
0.524138 0.554584 0.491691
0.547637 0.561861 0.498967
0.571137 0.569137 0.506243
0.422774 0.420774 0.438998
0.446274 0.428050 0.446274
0.469773 0.435327 0.453550
0.493273 0.442603 0.460826
0.516772 0.449879 0.468102
0.437059 0.451282 0.453282
0.460558 0.458558 0.460558
0.484058 0.465835 0.467835
0.507557 0.473111 0.475111
0.531057 0.480387 0.482387
0.451344 0.481790 0.467567
0.474843 0.489066 0.474843
0.498343 0.496343 0.482119
0.521842 0.503619 0.489395
0.545342 0.510895 0.496672
0.465628 0.512298 0.481852
0.489128 0.519574 0.489128
0.512627 0.526851 0.496404
0.536127 0.534127 0.503680
0.559626 0.541403 0.510956
0.479913 0.542806 0.496136
0.503412 0.550082 0.503412
0.526912 0.557359 0.510689
0.550411 0.564635 0.517965
0.573911 0.571911 0.525241
0.425548 0.423548 0.457995
0.449048 0.430825 0.465271
0.472547 0.438101 0.472547
0.496047 0.445377 0.479824
0.519546 0.452653 0.487100
0.439833 0.454056 0.472280
0.463333 0.461333 0.479556
0.486832 0.468609 0.486832
0.510332 0.475885 0.494108
0.533831 0.483161 0.501384
0.454118 0.484564 0.486564
0.477617 0.491841 0.493841
0.501117 0.499117 0.501117
0.524616 0.506393 0.508393
0.548116 0.513669 0.515669
0.468402 0.515072 0.500849
0.491902 0.522349 0.508125
0.515401 0.529625 0.515401
0.538901 0.536901 0.522678
0.562400 0.544177 0.529954
0.482687 0.545580 0.515134
0.506187 0.552857 0.522410
0.529686 0.560133 0.529686
0.553186 0.567409 0.536962
0.576685 0.574685 0.544238
0.428323 0.426323 0.476993
0.451822 0.433599 0.484269
0.475322 0.440875 0.491545
0.498821 0.448151 0.498821
0.522321 0.455427 0.506097
0.442607 0.456831 0.491277
0.466107 0.464107 0.498553
0.489606 0.471383 0.505830
0.513106 0.478659 0.513106
0.536605 0.485935 0.520382
0.456892 0.487339 0.505562
0.480391 0.494615 0.512838
0.503891 0.501891 0.520114
0.527390 0.509167 0.527390
0.550890 0.516443 0.534667
0.471177 0.517847 0.519847
0.494676 0.525123 0.527123
0.518176 0.532399 0.534399
0.541675 0.539675 0.541675
0.565175 0.546951 0.548951
0.485461 0.548355 0.534131
0.508961 0.555631 0.541407
0.532460 0.562907 0.548684
0.555960 0.570183 0.555960
0.579459 0.577459 0.563236
0.431097 0.429097 0.495990
0.454596 0.436373 0.503266
0.478096 0.443649 0.510543
0.501595 0.450925 0.517819
0.525095 0.458201 0.525095
0.445381 0.459605 0.510275
0.468881 0.466881 0.517551
0.492380 0.474157 0.524827
0.515880 0.481433 0.532103
0.539380 0.488709 0.539380
0.459666 0.490113 0.524560
0.483166 0.497389 0.531836
0.506665 0.504665 0.539112
0.530165 0.511941 0.546388
0.553664 0.519217 0.553664
0.473951 0.520621 0.538844
0.497450 0.527897 0.546120
0.520950 0.535173 0.553397
0.544449 0.542449 0.560673
0.567949 0.549726 0.567949
0.488235 0.551129 0.553129
0.511735 0.558405 0.560405
0.535234 0.565681 0.567681
0.558734 0.572957 0.574957
0.582234 0.580234 0.582234
