shared/src/main/assets/luts/drama_desert_chemistry.cube
TITLE "DALUR Desert Chemistry"
LUT_3D_SIZE 9
DOMAIN_MIN 0.0 0.0 0.0
DOMAIN_MAX 1.0 1.0 1.0
0.468000 0.452500 0.432000
0.472877 0.456056 0.435556
0.477754 0.459611 0.439111
0.482630 0.463167 0.442667
0.487507 0.466722 0.446222
0.492384 0.470278 0.449778
0.497261 0.473833 0.453333
0.502138 0.477389 0.456889
0.507015 0.480944 0.460444
0.474980 0.460802 0.438980
0.479857 0.464357 0.442536
0.484734 0.467913 0.446091
0.489611 0.471468 0.449647
0.494488 0.475024 0.453202
0.499364 0.478579 0.456758
0.504241 0.482135 0.460314
0.509118 0.485690 0.463869
0.513995 0.489246 0.467425
0.481961 0.469103 0.445961
0.486837 0.472659 0.449516
0.491714 0.476214 0.453072
0.496591 0.479770 0.456627
0.501468 0.483325 0.460183
0.506345 0.486881 0.463738
0.511221 0.490436 0.467294
0.516098 0.493992 0.470849
0.520975 0.497547 0.474405
0.488941 0.477405 0.452941
0.493818 0.480960 0.456496
0.498694 0.484516 0.460052
0.503571 0.488071 0.463607
0.508448 0.491627 0.467163
0.513325 0.495182 0.470719
0.518202 0.498738 0.474274
0.523079 0.502293 0.477830
0.527955 0.505849 0.481385
0.495921 0.485706 0.459921
0.500798 0.489262 0.463477
0.505675 0.492817 0.467032
0.510552 0.496373 0.470588
0.515428 0.499928 0.474143
0.520305 0.503484 0.477699
0.525182 0.507039 0.481254
0.530059 0.510595 0.484810
0.534936 0.514151 0.488365
0.502901 0.494008 0.466901
0.507778 0.497563 0.470457
0.512655 0.501119 0.474013
0.517532 0.504674 0.477568
0.522409 0.508230 0.481124
0.527285 0.511785 0.484679
0.532162 0.515341 0.488235
0.537039 0.518897 0.491790
0.541916 0.522452 0.495346
0.509882 0.502309 0.473882
0.514759 0.505865 0.477437
0.519635 0.509420 0.480993
0.524512 0.512976 0.484548
0.529389 0.516532 0.488104
0.534266 0.520087 0.491659
0.539143 0.523643 0.495215
0.544019 0.527198 0.498771
0.548896 0.530754 0.502326
0.516862 0.510611 0.480862
0.521739 0.514166 0.484418
0.526616 0.517722 0.487973
0.531492 0.521278 0.491529
0.536369 0.524833 0.495084
0.541246 0.528389 0.498640
0.546123 0.531944 0.502195
0.551000 0.535500 0.505751
0.555877 0.539055 0.509306
0.523842 0.518912 0.487842
0.528719 0.522468 0.491398
0.533596 0.526024 0.494953
0.538473 0.529579 0.498509
0.543350 0.533135 0.502064
0.548226 0.536690 0.505620
0.553103 0.540246 0.509176
0.557980 0.543801 0.512731
0.562857 0.547357 0.516287
0.469356 0.453856 0.434677
0.474232 0.457411 0.438232
0.479109 0.460967 0.441788
0.483986 0.464522 0.445344
0.488863 0.468078 0.448899
0.493740 0.471633 0.452455
0.498617 0.475189 0.456010
0.503493 0.478744 0.459566
0.508370 0.482300 0.463121
0.476336 0.462157 0.441657
0.481213 0.465713 0.445213
0.486090 0.469268 0.448768
0.490966 0.472824 0.452324
0.495843 0.476379 0.455879
0.500720 0.479935 0.459435
0.505597 0.483490 0.462990
0.510474 0.487046 0.466546
0.515350 0.490602 0.470102
0.483316 0.470459 0.448637
0.488193 0.474014 0.452193
0.493070 0.477570 0.455749
0.497947 0.481125 0.459304
0.502823 0.484681 0.462860
0.507700 0.488236 0.466415
0.512577 0.491792 0.469971
0.517454 0.495348 0.473526
0.522331 0.498903 0.477082
0.490296 0.478760 0.455618
0.495173 0.482316 0.459173
0.500050 0.485871 0.462729
0.504927 0.489427 0.466284
0.509804 0.492982 0.469840
0.514681 0.496538 0.473395
0.519557 0.500094 0.476951
0.524434 0.503649 0.480507
0.529311 0.507205 0.484062
0.497277 0.487062 0.462598
0.502154 0.490617 0.466154
0.507030 0.494173 0.469709
0.511907 0.497728 0.473265
0.516784 0.501284 0.476820
0.521661 0.504840 0.480376
0.526538 0.508395 0.483931
0.531414 0.511951 0.487487
0.536291 0.515506 0.491042
0.504257 0.495363 0.469578
0.509134 0.498919 0.473134
0.514011 0.502474 0.476689
0.518887 0.506030 0.480245
0.523764 0.509586 0.483800
0.528641 0.513141 0.487356
0.533518 0.516697 0.490912
0.538395 0.520252 0.494467
0.543272 0.523808 0.498023
0.511237 0.503665 0.476559
0.516114 0.507221 0.480114
0.520991 0.510776 0.483670
0.525868 0.514332 0.487225
0.530745 0.517887 0.490781
0.535621 0.521443 0.494336
0.540498 0.524998 0.497892
0.545375 0.528554 0.501447
0.550252 0.532109 0.505003
0.518218 0.511967 0.483539
0.523094 0.515522 0.487094
0.527971 0.519078 0.490650
0.532848 0.522633 0.494206
0.537725 0.526189 0.497761
0.542602 0.529744 0.501317
0.547479 0.533300 0.504872
0.552355 0.536855 0.508428
0.557232 0.540411 0.511983
0.525198 0.520268 0.490519
0.530075 0.523824 0.494075
0.534952 0.527379 0.497630
0.539828 0.530935 0.501186
0.544705 0.534490 0.504741
0.549582 0.538046 0.508297
0.554459 0.541601 0.511852
0.559336 0.545157 0.515408
0.564212 0.548712 0.518964
0.470711 0.455211 0.437354
0.475588 0.458767 0.440909
0.480465 0.462322 0.444465
0.485342 0.465878 0.448020
0.490219 0.469433 0.451576
0.495095 0.472989 0.455132
0.499972 0.476545 0.458687
0.504849 0.480100 0.462243
0.509726 0.483656 0.465798
0.477692 0.463513 0.444334
0.482568 0.467068 0.447890
0.487445 0.470624 0.451445
0.492322 0.474179 0.455001
0.497199 0.477735 0.458556
0.502076 0.481291 0.462112
0.506952 0.484846 0.465667
0.511829 0.488402 0.469223
0.516706 0.491957 0.472778
0.484672 0.471814 0.451314
0.489549 0.475370 0.454870
0.494425 0.478925 0.458425
0.499302 0.482481 0.461981
0.504179 0.486037 0.465537
0.509056 0.489592 0.469092
0.513933 0.493148 0.472648
0.518810 0.496703 0.476203
0.523686 0.500259 0.479759
0.491652 0.480116 0.458295
0.496529 0.483671 0.461850
0.501406 0.487227 0.465406
0.506283 0.490783 0.468961
0.511159 0.494338 0.472517
0.516036 0.497894 0.476072
0.520913 0.501449 0.479628
0.525790 0.505005 0.483183
0.530667 0.508560 0.486739
0.498632 0.488417 0.465275
0.503509 0.491973 0.468830
0.508386 0.495529 0.472386
0.513263 0.499084 0.475942
0.518140 0.502640 0.479497
0.523016 0.506195 0.483053
0.527893 0.509751 0.486608
0.532770 0.513306 0.490164
0.537647 0.516862 0.493719
0.505613 0.496719 0.472255
0.510489 0.500275 0.475811
0.515366 0.503830 0.479366
0.520243 0.507386 0.482922
0.525120 0.510941 0.486477
0.529997 0.514497 0.490033
0.534874 0.518052 0.493588
0.539750 0.521608 0.497144
0.544627 0.525163 0.500700
0.512593 0.505021 0.479235
0.517470 0.508576 0.482791
0.522347 0.512132 0.486347
0.527223 0.515687 0.489902
0.532100 0.519243 0.493458
0.536977 0.522798 0.497013
0.541854 0.526354 0.500569
0.546731 0.529909 0.504124
0.551607 0.533465 0.507680
0.519573 0.513322 0.486216
0.524450 0.516878 0.489771
0.529327 0.520433 0.493327
0.534204 0.523989 0.496882
0.539080 0.527544 0.500438
0.543957 0.531100 0.503993
0.548834 0.534655 0.507549
0.553711 0.538211 0.511105
0.558588 0.541766 0.514660
0.526554 0.521624 0.493196
0.531430 0.525179 0.496752
0.536307 0.528735 0.500307
0.541184 0.532290 0.503863
0.546061 0.535846 0.507418
0.550938 0.539401 0.510974
0.555814 0.542957 0.514529
0.560691 0.546513 0.518085
0.565568 0.550068 0.521640
0.472067 0.456567 0.440031
0.476944 0.460122 0.443586
0.481821 0.463678 0.447142
0.486697 0.467234 0.450697
0.491574 0.470789 0.454253
0.496451 0.474345 0.457808
0.501328 0.477900 0.461364
0.506205 0.481456 0.464920
0.511081 0.485011 0.468475
0.479047 0.464868 0.447011
0.483924 0.468424 0.450567
0.488801 0.471980 0.454122
0.493678 0.475535 0.457678
0.498554 0.479091 0.461233
0.503431 0.482646 0.464789
0.508308 0.486202 0.468344
0.513185 0.489757 0.471900
0.518062 0.493313 0.475455
0.486027 0.473170 0.453991
0.490904 0.476726 0.457547
0.495781 0.480281 0.461102
0.500658 0.483837 0.464658
0.505535 0.487392 0.468213
0.510412 0.490948 0.471769
0.515288 0.494503 0.475325
0.520165 0.498059 0.478880
0.525042 0.501614 0.482436
0.493008 0.481472 0.460972
0.497885 0.485027 0.464527
0.502761 0.488583 0.468083
0.507638 0.492138 0.471638
0.512515 0.495694 0.475194
0.517392 0.499249 0.478749
0.522269 0.502805 0.482305
0.527145 0.506360 0.485860
0.532022 0.509916 0.489416
0.499988 0.489773 0.467952
0.504865 0.493329 0.471507
0.509742 0.496884 0.475063
0.514618 0.500440 0.478618
0.519495 0.503995 0.482174
0.524372 0.507551 0.485730
0.529249 0.511106 0.489285
0.534126 0.514662 0.492841
0.539003 0.518217 0.496396
0.506968 0.498075 0.474932
0.511845 0.501630 0.478488
0.516722 0.505186 0.482043
0.521599 0.508741 0.485599
0.526476 0.512297 0.489154
0.531352 0.515852 0.492710
0.536229 0.519408 0.496265
0.541106 0.522963 0.499821
0.545983 0.526519 0.503376
0.513949 0.506376 0.481912
0.518825 0.509932 0.485468
0.523702 0.513487 0.489023
0.528579 0.517043 0.492579
0.533456 0.520598 0.496135
0.538333 0.524154 0.499690
0.543209 0.527709 0.503246
0.548086 0.531265 0.506801
0.552963 0.534821 0.510357
0.520929 0.514678 0.488893
0.525806 0.518233 0.492448
0.530682 0.521789 0.496004
0.535559 0.525344 0.499559
0.540436 0.528900 0.503115
0.545313 0.532455 0.506670
0.550190 0.536011 0.510226
0.555067 0.539567 0.513781
0.559943 0.543122 0.517337
0.527909 0.522979 0.495873
0.532786 0.526535 0.499429
0.537663 0.530090 0.502984
0.542540 0.533646 0.506540
0.547416 0.537201 0.510095
0.552293 0.540757 0.513651
0.557170 0.544313 0.517206
0.562047 0.547868 0.520762
0.566924 0.551424 0.524317
0.473423 0.457923 0.442708
0.478299 0.461478 0.446263
0.483176 0.465034 0.449819
0.488053 0.468589 0.453374
0.492930 0.472145 0.456930
0.497807 0.475700 0.460485
0.502683 0.479256 0.464041
0.507560 0.482811 0.467596
0.512437 0.486367 0.471152
0.480403 0.466224 0.449688
0.485280 0.469780 0.453243
0.490156 0.473335 0.456799
0.495033 0.476891 0.460355
0.499910 0.480446 0.463910
0.504787 0.484002 0.467466
0.509664 0.487557 0.471021
0.514541 0.491113 0.474577
0.519417 0.494668 0.478132
0.487383 0.474526 0.456668
0.492260 0.478081 0.460224
0.497137 0.481637 0.463779
0.502014 0.485192 0.467335
0.506890 0.488748 0.470890
0.511767 0.492303 0.474446
0.516644 0.495859 0.478001
0.521521 0.499414 0.481557
0.526398 0.502970 0.485113
0.494363 0.482827 0.463648
0.499240 0.486383 0.467204
0.504117 0.489938 0.470760
0.508994 0.493494 0.474315
0.513871 0.497049 0.477871
0.518747 0.500605 0.481426
0.523624 0.504160 0.484982
0.528501 0.507716 0.488537
0.533378 0.511272 0.492093
0.501344 0.491129 0.470629
0.506220 0.494684 0.474184
0.511097 0.498240 0.477740
0.515974 0.501795 0.481295
0.520851 0.505351 0.484851
0.525728 0.508906 0.488406
0.530605 0.512462 0.491962
0.535481 0.516018 0.495518
0.540358 0.519573 0.499073
0.508324 0.499430 0.477609
0.513201 0.502986 0.481165
0.518078 0.506541 0.484720
0.522954 0.510097 0.488276
0.527831 0.513652 0.491831
0.532708 0.517208 0.495387
0.537585 0.520764 0.498942
0.542462 0.524319 0.502498
0.547338 0.527875 0.506053
0.515304 0.507732 0.484589
0.520181 0.511287 0.488145
0.525058 0.514843 0.491700
0.529935 0.518398 0.495256
0.534811 0.521954 0.498811
0.539688 0.525510 0.502367
0.544565 0.529065 0.505923
0.549442 0.532621 0.509478
0.554319 0.536176 0.513034
0.522284 0.516033 0.491570
0.527161 0.519589 0.495125
0.532038 0.523144 0.498681
0.536915 0.526700 0.502236
0.541792 0.530256 0.505792
0.546669 0.533811 0.509347
0.551545 0.537367 0.512903
0.556422 0.540922 0.516458
0.561299 0.544478 0.520014
0.529265 0.524335 0.498550
0.534142 0.527890 0.502105
0.539018 0.531446 0.505661
0.543895 0.535002 0.509216
0.548772 0.538557 0.512772
0.553649 0.542113 0.516328
0.558526 0.545668 0.519883
0.563402 0.549224 0.523439
0.568279 0.552779 0.526994
0.474778 0.459278 0.445384
0.479655 0.462834 0.448940
0.484532 0.466389 0.452496
0.489409 0.469945 0.456051
0.494285 0.473500 0.459607
0.499162 0.477056 0.463162
0.504039 0.480611 0.466718
0.508916 0.484167 0.470273
0.513793 0.487722 0.473829
0.481758 0.467580 0.452365
0.486635 0.471135 0.455920
0.491512 0.474691 0.459476
0.496389 0.478246 0.463031
0.501266 0.481802 0.466587
0.506142 0.485357 0.470142
0.511019 0.488913 0.473698
0.515896 0.492468 0.477254
0.520773 0.496024 0.480809
0.488739 0.475881 0.459345
0.493616 0.479437 0.462901
0.498492 0.482992 0.466456
0.503369 0.486548 0.470012
0.508246 0.490103 0.473567
0.513123 0.493659 0.477123
0.518000 0.497215 0.480678
0.522876 0.500770 0.484234
0.527753 0.504326 0.487789
0.495719 0.484183 0.466325
0.500596 0.487738 0.469881
0.505473 0.491294 0.473436
0.510349 0.494849 0.476992
0.515226 0.498405 0.480548
0.520103 0.501961 0.484103
0.524980 0.505516 0.487659
0.529857 0.509072 0.491214
0.534734 0.512627 0.494770
0.502699 0.492484 0.473306
0.507576 0.496040 0.476861
0.512453 0.499595 0.480417
0.517330 0.503151 0.483972
0.522207 0.506707 0.487528
0.527083 0.510262 0.491083
0.531960 0.513818 0.494639
0.536837 0.517373 0.498194
0.541714 0.520929 0.501750
0.509680 0.500786 0.480286
0.514556 0.504341 0.483841
0.519433 0.507897 0.487397
0.524310 0.511453 0.490953
0.529187 0.515008 0.494508
0.534064 0.518564 0.498064
0.538940 0.522119 0.501619
0.543817 0.525675 0.505175
0.548694 0.529230 0.508730
0.516660 0.509087 0.487266
0.521537 0.512643 0.490822
0.526413 0.516199 0.494377
0.531290 0.519754 0.497933
0.536167 0.523310 0.501488
0.541044 0.526865 0.505044
0.545921 0.530421 0.508599
0.550798 0.533976 0.512155
0.555674 0.537532 0.515711
0.523640 0.517389 0.494246
0.528517 0.520945 0.497802
0.533394 0.524500 0.501358
0.538271 0.528056 0.504913
0.543147 0.531611 0.508469
0.548024 0.535167 0.512024
0.552901 0.538722 0.515580
0.557778 0.542278 0.519135
0.562655 0.545833 0.522691
0.530620 0.525691 0.501227
0.535497 0.529246 0.504782
0.540374 0.532802 0.508338
0.545251 0.536357 0.511893
0.550128 0.539913 0.515449
0.555004 0.543468 0.519004
0.559881 0.547024 0.522560
0.564758 0.550579 0.526116
0.569635 0.554135 0.529671
0.476134 0.460634 0.448061
0.481011 0.464189 0.451617
0.485887 0.467745 0.455172
0.490764 0.471300 0.458728
0.495641 0.474856 0.462284
0.500518 0.478411 0.465839
0.505395 0.481967 0.469395
0.510271 0.485523 0.472950
0.515148 0.489078 0.476506
0.483114 0.468935 0.455042
0.487991 0.472491 0.458597
0.492868 0.476046 0.462153
0.497744 0.479602 0.465708
0.502621 0.483157 0.469264
0.507498 0.486713 0.472819
0.512375 0.490269 0.476375
0.517252 0.493824 0.479930
0.522129 0.497380 0.483486
0.490094 0.477237 0.462022
0.494971 0.480792 0.465577
0.499848 0.484348 0.469133
0.504725 0.487903 0.472689
0.509602 0.491459 0.476244
0.514478 0.495015 0.479800
0.519355 0.498570 0.483355
0.524232 0.502126 0.486911
0.529109 0.505681 0.490466
0.497075 0.485538 0.469002
0.501951 0.489094 0.472558
0.506828 0.492650 0.476113
0.511705 0.496205 0.479669
0.516582 0.499761 0.483224
0.521459 0.503316 0.486780
0.526336 0.506872 0.490336
0.531212 0.510427 0.493891
0.536089 0.513983 0.497447
0.504055 0.493840 0.475983
0.508932 0.497396 0.479538
0.513809 0.500951 0.483094
0.518685 0.504507 0.486649
0.523562 0.508062 0.490205
0.528439 0.511618 0.493760
0.533316 0.515173 0.497316
0.538193 0.518729 0.500871
0.543069 0.522284 0.504427
0.511035 0.502142 0.482963
0.515912 0.505697 0.486518
0.520789 0.509253 0.490074
0.525666 0.512808 0.493629
0.530542 0.516364 0.497185
0.535419 0.519919 0.500741
0.540296 0.523475 0.504296
0.545173 0.527030 0.507852
0.550050 0.530586 0.511407
0.518015 0.510443 0.489943
0.522892 0.513999 0.493499
0.527769 0.517554 0.497054
0.532646 0.521110 0.500610
0.537523 0.524665 0.504165
0.542400 0.528221 0.507721
0.547276 0.531776 0.511276
0.552153 0.535332 0.514832
0.557030 0.538887 0.518387
0.524996 0.518745 0.496923
0.529873 0.522300 0.500479
0.534749 0.525856 0.504034
0.539626 0.529411 0.507590
0.544503 0.532967 0.511146
0.549380 0.536522 0.514701
0.554257 0.540078 0.518257
0.559133 0.543633 0.521812
0.564010 0.547189 0.525368
0.531976 0.527046 0.503904
0.536853 0.530602 0.507459
0.541730 0.534157 0.511015
0.546606 0.537713 0.514570
0.551483 0.541268 0.518126
0.556360 0.544824 0.521681
0.561237 0.548379 0.525237
0.566114 0.551935 0.528792
0.570991 0.555491 0.532348
0.477489 0.461989 0.450738
0.482366 0.465545 0.454294
0.487243 0.469100 0.457849
0.492120 0.472656 0.461405
0.496997 0.476212 0.464960
0.501873 0.479767 0.468516
0.506750 0.483323 0.472072
0.511627 0.486878 0.475627
0.516504 0.490434 0.479183
0.484470 0.470291 0.457719
0.489346 0.473846 0.461274
0.494223 0.477402 0.464830
0.499100 0.480958 0.468385
0.503977 0.484513 0.471941
0.508854 0.488069 0.475496
0.513731 0.491624 0.479052
0.518607 0.495180 0.482607
0.523484 0.498735 0.486163
0.491450 0.478592 0.464699
0.496327 0.482148 0.468254
0.501204 0.485704 0.471810
0.506080 0.489259 0.475365
0.510957 0.492815 0.478921
0.515834 0.496370 0.482477
0.520711 0.499926 0.486032
0.525588 0.503481 0.489588
0.530464 0.507037 0.493143
0.498430 0.486894 0.471679
0.503307 0.490450 0.475235
0.508184 0.494005 0.478790
0.513061 0.497561 0.482346
0.517937 0.501116 0.485901
0.522814 0.504672 0.489457
0.527691 0.508227 0.493012
0.532568 0.511783 0.496568
0.537445 0.515338 0.500123
0.505411 0.495196 0.478659
0.510287 0.498751 0.482215
0.515164 0.502307 0.485771
0.520041 0.505862 0.489326
0.524918 0.509418 0.492882
0.529795 0.512973 0.496437
0.534671 0.516529 0.499993
0.539548 0.520084 0.503548
0.544425 0.523640 0.507104
0.512391 0.503497 0.485640
0.517268 0.507053 0.489195
0.522144 0.510608 0.492751
0.527021 0.514164 0.496306
0.531898 0.517719 0.499862
0.536775 0.521275 0.503417
0.541652 0.524830 0.506973
0.546529 0.528386 0.510529
0.551405 0.531942 0.514084
0.519371 0.511799 0.492620
0.524248 0.515354 0.496176
0.529125 0.518910 0.499731
0.534002 0.522465 0.503287
0.538878 0.526021 0.506842
0.543755 0.529576 0.510398
0.548632 0.533132 0.513953
0.553509 0.536688 0.517509
0.558386 0.540243 0.521064
0.526351 0.520100 0.499600
0.531228 0.523656 0.503156
0.536105 0.527211 0.506711
0.540982 0.530767 0.510267
0.545859 0.534322 0.513822
0.550735 0.537878 0.517378
0.555612 0.541434 0.520934
0.560489 0.544989 0.524489
0.565366 0.548545 0.528045
0.533332 0.528402 0.506581
0.538208 0.531957 0.510136
0.543085 0.535513 0.513692
0.547962 0.539068 0.517247
0.552839 0.542624 0.520803
0.557716 0.546180 0.524358
0.562593 0.549735 0.527914
0.567469 0.553291 0.531469
0.572346 0.556846 0.535025
0.478845 0.463345 0.453415
0.483722 0.466901 0.456971
0.488599 0.470456 0.460526
0.493475 0.474012 0.464082
0.498352 0.477567 0.467637
0.503229 0.481123 0.471193
0.508106 0.484678 0.474748
0.512983 0.488234 0.478304
0.517860 0.491789 0.481860
0.485825 0.471647 0.460395
0.490702 0.475202 0.463951
0.495579 0.478758 0.467507
0.500456 0.482313 0.471062
0.505333 0.485869 0.474618
0.510209 0.489424 0.478173
0.515086 0.492980 0.481729
0.519963 0.496535 0.485284
0.524840 0.500091 0.488840
0.492806 0.479948 0.467376
0.497682 0.483504 0.470931
0.502559 0.487059 0.474487
0.507436 0.490615 0.478042
0.512313 0.494170 0.481598
0.517190 0.497726 0.485153
0.522066 0.501281 0.488709
0.526943 0.504837 0.492265
0.531820 0.508392 0.495820
0.499786 0.488250 0.474356
0.504663 0.491805 0.477912
0.509539 0.495361 0.481467
0.514416 0.498916 0.485023
0.519293 0.502472 0.488578
0.524170 0.506027 0.492134
0.529047 0.509583 0.495689
0.533924 0.513138 0.499245
0.538800 0.516694 0.502800
0.506766 0.496551 0.481336
0.511643 0.500107 0.484892
0.516520 0.503662 0.488447
0.521397 0.507218 0.492003
0.526273 0.510773 0.495558
0.531150 0.514329 0.499114
0.536027 0.517884 0.502670
0.540904 0.521440 0.506225
0.545781 0.524996 0.509781
0.513746 0.504853 0.488317
0.518623 0.508408 0.491872
0.523500 0.511964 0.495428
0.528377 0.515519 0.498983
0.533254 0.519075 0.502539
0.538131 0.522631 0.506094
0.543007 0.526186 0.509650
0.547884 0.529742 0.513205
0.552761 0.533297 0.516761
0.520727 0.513154 0.495297
0.525604 0.516710 0.498852
0.530480 0.520265 0.502408
0.535357 0.523821 0.505964
0.540234 0.527377 0.509519
0.545111 0.530932 0.513075
0.549988 0.534488 0.516630
0.554864 0.538043 0.520186
0.559741 0.541599 0.523741
0.527707 0.521456 0.502277
0.532584 0.525011 0.505833
0.537461 0.528567 0.509388
0.542337 0.532123 0.512944
0.547214 0.535678 0.516499
0.552091 0.539234 0.520055
0.556968 0.542789 0.523610
0.561845 0.546345 0.527166
0.566722 0.549900 0.530722
0.534687 0.529757 0.509257
0.539564 0.533313 0.512813
0.544441 0.536869 0.516369
0.549318 0.540424 0.519924
0.554195 0.543980 0.523480
0.559071 0.547535 0.527035
0.563948 0.551091 0.530591
0.568825 0.554646 0.534146
0.573702 0.558202 0.537702
