shared/src/main/assets/luts/drama_vintage_chess.cube
TITLE "DALUR Vintage Chess"
LUT_3D_SIZE 17
DOMAIN_MIN 0.0 0.0 0.0
DOMAIN_MAX 1.0 1.0 1.0
0.476000 0.470000 0.464000
0.477433 0.471045 0.465045
0.478866 0.472089 0.466089
0.480299 0.473134 0.467134
0.481732 0.474179 0.468179
0.483165 0.475224 0.469224
0.484598 0.476268 0.470268
0.486031 0.477313 0.471313
0.487463 0.478358 0.472358
0.488896 0.479402 0.473402
0.490329 0.480447 0.474447
0.491762 0.481492 0.475492
0.493195 0.482537 0.476537
0.494628 0.483581 0.477581
0.496061 0.484626 0.478626
0.497494 0.485671 0.479671
0.498927 0.486715 0.480715
0.478051 0.472439 0.466051
0.479484 0.473484 0.467096
0.480917 0.474529 0.468140
0.482350 0.475573 0.469185
0.483783 0.476618 0.470230
0.485216 0.477663 0.471275
0.486649 0.478707 0.472319
0.488082 0.479752 0.473364
0.489514 0.480797 0.474409
0.490947 0.481842 0.475453
0.492380 0.482886 0.476498
0.493813 0.483931 0.477543
0.495246 0.484976 0.478588
0.496679 0.486020 0.479632
0.498112 0.487065 0.480677
0.499545 0.488110 0.481722
0.500978 0.489155 0.482766
0.480102 0.474878 0.468102
0.481535 0.475923 0.469147
0.482968 0.476968 0.470191
0.484401 0.478013 0.471236
0.485834 0.479057 0.472281
0.487267 0.480102 0.473326
0.488700 0.481147 0.474370
0.490133 0.482191 0.475415
0.491565 0.483236 0.476460
0.492998 0.484281 0.477504
0.494431 0.485326 0.478549
0.495864 0.486370 0.479594
0.497297 0.487415 0.480639
0.498730 0.488460 0.481683
0.500163 0.489504 0.482728
0.501596 0.490549 0.483773
0.503029 0.491594 0.484817
0.482153 0.477318 0.470153
0.483586 0.478362 0.471198
0.485019 0.479407 0.472242
0.486452 0.480452 0.473287
0.487885 0.481496 0.474332
0.489318 0.482541 0.475377
0.490751 0.483586 0.476421
0.492184 0.484631 0.477466
0.493616 0.485675 0.478511
0.495049 0.486720 0.479555
0.496482 0.487765 0.480600
0.497915 0.488809 0.481645
0.499348 0.489854 0.482690
0.500781 0.490899 0.483734
0.502214 0.491944 0.484779
0.503647 0.492988 0.485824
0.505080 0.494033 0.486868
0.484204 0.479757 0.472204
0.485637 0.480802 0.473249
0.487070 0.481846 0.474293
0.488503 0.482891 0.475338
0.489936 0.483936 0.476383
0.491369 0.484980 0.477428
0.492802 0.486025 0.478472
0.494235 0.487070 0.479517
0.495667 0.488115 0.480562
0.497100 0.489159 0.481606
0.498533 0.490204 0.482651
0.499966 0.491249 0.483696
0.501399 0.492293 0.484740
0.502832 0.493338 0.485785
0.504265 0.494383 0.486830
0.505698 0.495428 0.487875
0.507131 0.496472 0.488919
0.486255 0.482196 0.474255
0.487688 0.483241 0.475300
0.489121 0.484285 0.476344
0.490554 0.485330 0.477389
0.491987 0.486375 0.478434
0.493420 0.487420 0.479479
0.494853 0.488464 0.480523
0.496285 0.489509 0.481568
0.497718 0.490554 0.482613
0.499151 0.491598 0.483657
0.500584 0.492643 0.484702
0.502017 0.493688 0.485747
0.503450 0.494733 0.486791
0.504883 0.495777 0.487836
0.506316 0.496822 0.488881
0.507749 0.497867 0.489926
0.509182 0.498911 0.490970
0.488306 0.484635 0.476306
0.489739 0.485680 0.477351
0.491172 0.486725 0.478395
0.492605 0.487769 0.479440
0.494038 0.488814 0.480485
0.495471 0.489859 0.481529
0.496904 0.490904 0.482574
0.498336 0.491948 0.483619
0.499769 0.492993 0.484664
0.501202 0.494038 0.485708
0.502635 0.495082 0.486753
0.504068 0.496127 0.487798
0.505501 0.497172 0.488842
0.506934 0.498217 0.489887
0.508367 0.499261 0.490932
0.509800 0.500306 0.491977
0.511233 0.501351 0.493021
0.490357 0.487074 0.478357
0.491790 0.488119 0.479402
0.493223 0.489164 0.480446
0.494656 0.490209 0.481491
0.496089 0.491253 0.482536
0.497522 0.492298 0.483580
0.498955 0.493343 0.484625
0.500387 0.494387 0.485670
0.501820 0.495432 0.486715
0.503253 0.496477 0.487759
0.504686 0.497522 0.488804
0.506119 0.498566 0.489849
0.507552 0.499611 0.490893
0.508985 0.500656 0.491938
0.510418 0.501700 0.492983
0.511851 0.502745 0.494028
0.513284 0.503790 0.495072
0.492408 0.489514 0.480408
0.493841 0.490558 0.481453
0.495274 0.491603 0.482497
0.496707 0.492648 0.483542
0.498140 0.493693 0.484587
0.499573 0.494737 0.485631
0.501006 0.495782 0.486676
0.502438 0.496827 0.487721
0.503871 0.497871 0.488766
0.505304 0.498916 0.489810
0.506737 0.499961 0.490855
0.508170 0.501006 0.491900
0.509603 0.502050 0.492944
0.511036 0.503095 0.493989
0.512469 0.504140 0.495034
0.513902 0.505184 0.496079
0.515335 0.506229 0.497123
0.494459 0.491953 0.482459
0.495892 0.492998 0.483504
0.497325 0.494042 0.484548
0.498758 0.495087 0.485593
0.500191 0.496132 0.486638
0.501624 0.497176 0.487682
0.503057 0.498221 0.488727
0.504489 0.499266 0.489772
0.505922 0.500311 0.490817
0.507355 0.501355 0.491861
0.508788 0.502400 0.492906
0.510221 0.503445 0.493951
0.511654 0.504489 0.494995
0.513087 0.505534 0.496040
0.514520 0.506579 0.497085
0.515953 0.507624 0.498130
0.517386 0.508668 0.499174
0.496510 0.494392 0.484510
0.497943 0.495437 0.485555
0.499376 0.496482 0.486599
0.500809 0.497526 0.487644
0.502242 0.498571 0.488689
0.503675 0.499616 0.489733
0.505108 0.500660 0.490778
0.506540 0.501705 0.491823
0.507973 0.502750 0.492868
0.509406 0.503795 0.493912
0.510839 0.504839 0.494957
0.512272 0.505884 0.496002
0.513705 0.506929 0.497046
0.515138 0.507973 0.498091
0.516571 0.509018 0.499136
0.518004 0.510063 0.500181
0.519437 0.511108 0.501225
0.498561 0.496831 0.486561
0.499994 0.497876 0.487606
0.501427 0.498921 0.488650
0.502860 0.499965 0.489695
0.504293 0.501010 0.490740
0.505726 0.502055 0.491784
0.507158 0.503100 0.492829
0.508591 0.504144 0.493874
0.510024 0.505189 0.494919
0.511457 0.506234 0.495963
0.512890 0.507278 0.497008
0.514323 0.508323 0.498053
0.515756 0.509368 0.499097
0.517189 0.510413 0.500142
0.518622 0.511457 0.501187
0.520055 0.512502 0.502232
0.521488 0.513547 0.503276
0.500612 0.499271 0.488612
0.502045 0.500315 0.489657
0.503478 0.501360 0.490701
0.504911 0.502405 0.491746
0.506344 0.503449 0.492791
0.507777 0.504494 0.493835
0.509209 0.505539 0.494880
0.510642 0.506584 0.495925
0.512075 0.507628 0.496970
0.513508 0.508673 0.498014
0.514941 0.509718 0.499059
0.516374 0.510762 0.500104
0.517807 0.511807 0.501148
0.519240 0.512852 0.502193
0.520673 0.513897 0.503238
0.522106 0.514941 0.504283
0.523539 0.515986 0.505327
0.502663 0.501710 0.490663
0.504096 0.502754 0.491708
0.505529 0.503799 0.492752
0.506962 0.504844 0.493797
0.508395 0.505889 0.494842
0.509828 0.506933 0.495886
0.511260 0.507978 0.496931
0.512693 0.509023 0.497976
0.514126 0.510067 0.499021
0.515559 0.511112 0.500065
0.516992 0.512157 0.501110
0.518425 0.513202 0.502155
0.519858 0.514246 0.503199
0.521291 0.515291 0.504244
0.522724 0.516336 0.505289
0.524157 0.517380 0.506334
0.525590 0.518425 0.507378
0.504714 0.504149 0.492714
0.506147 0.505194 0.493759
0.507580 0.506238 0.494803
0.509013 0.507283 0.495848
0.510446 0.508328 0.496893
0.511879 0.509373 0.497937
0.513311 0.510417 0.498982
0.514744 0.511462 0.500027
0.516177 0.512507 0.501072
0.517610 0.513551 0.502116
0.519043 0.514596 0.503161
0.520476 0.515641 0.504206
0.521909 0.516686 0.505250
0.523342 0.517730 0.506295
0.524775 0.518775 0.507340
0.526208 0.519820 0.508385
0.527641 0.520864 0.509429
0.506765 0.506588 0.494765
0.508198 0.507633 0.495810
0.509631 0.508678 0.496854
0.511064 0.509722 0.497899
0.512497 0.510767 0.498944
0.513930 0.511812 0.499988
0.515362 0.512856 0.501033
0.516795 0.513901 0.502078
0.518228 0.514946 0.503123
0.519661 0.515991 0.504167
0.521094 0.517035 0.505212
0.522527 0.518080 0.506257
0.523960 0.519125 0.507301
0.525393 0.520169 0.508346
0.526826 0.521214 0.509391
0.528259 0.522259 0.510436
0.529692 0.523304 0.511480
0.508816 0.509027 0.496816
0.510249 0.510072 0.497861
0.511682 0.511117 0.498905
0.513115 0.512162 0.499950
0.514548 0.513206 0.500995
0.515981 0.514251 0.502039
0.517413 0.515296 0.503084
0.518846 0.516340 0.504129
0.520279 0.517385 0.505174
0.521712 0.518430 0.506218
0.523145 0.519475 0.507263
0.524578 0.520519 0.508308
0.526011 0.521564 0.509352
0.527444 0.522609 0.510397
0.528877 0.523653 0.511442
0.530310 0.524698 0.512487
0.531743 0.525743 0.513531
0.476398 0.470398 0.464787
0.477831 0.471443 0.465831
0.479264 0.472488 0.466876
0.480697 0.473532 0.467921
0.482130 0.474577 0.468965
0.483563 0.475622 0.470010
0.484996 0.476667 0.471055
0.486429 0.477711 0.472100
0.487862 0.478756 0.473144
0.489295 0.479801 0.474189
0.490728 0.480845 0.475234
0.492161 0.481890 0.476278
0.493594 0.482935 0.477323
0.495026 0.483980 0.478368
0.496459 0.485024 0.479413
0.497892 0.486069 0.480457
0.499325 0.487114 0.481502
0.478449 0.472838 0.466838
0.479882 0.473882 0.467882
0.481315 0.474927 0.468927
0.482748 0.475972 0.469972
0.484181 0.477016 0.471016
0.485614 0.478061 0.472061
0.487047 0.479106 0.473106
0.488480 0.480151 0.474151
0.489913 0.481195 0.475195
0.491346 0.482240 0.476240
0.492779 0.483285 0.477285
0.494212 0.484329 0.478329
0.495645 0.485374 0.479374
0.497077 0.486419 0.480419
0.498510 0.487463 0.481463
0.499943 0.488508 0.482508
0.501376 0.489553 0.483553
0.480500 0.475277 0.468889
0.481933 0.476321 0.469933
0.483366 0.477366 0.470978
0.484799 0.478411 0.472023
0.486232 0.479456 0.473067
0.487665 0.480500 0.474112
0.489098 0.481545 0.475157
0.490531 0.482590 0.476202
0.491964 0.483634 0.477246
0.493397 0.484679 0.478291
0.494830 0.485724 0.479336
0.496263 0.486769 0.480380
0.497696 0.487813 0.481425
0.499128 0.488858 0.482470
0.500561 0.489903 0.483514
0.501994 0.490947 0.484559
0.503427 0.491992 0.485604
0.482551 0.477716 0.470940
0.483984 0.478761 0.471984
0.485417 0.479805 0.473029
0.486850 0.480850 0.474074
0.488283 0.481895 0.475118
0.489716 0.482940 0.476163
0.491149 0.483984 0.477208
0.492582 0.485029 0.478252
0.494015 0.486074 0.479297
0.495448 0.487118 0.480342
0.496881 0.488163 0.481387
0.498314 0.489208 0.482431
0.499747 0.490252 0.483476
0.501179 0.491297 0.484521
0.502612 0.492342 0.485565
0.504045 0.493387 0.486610
0.505478 0.494431 0.487655
0.484602 0.480155 0.472990
0.486035 0.481200 0.474035
0.487468 0.482245 0.475080
0.488901 0.483289 0.476125
0.490334 0.484334 0.477169
0.491767 0.485379 0.478214
0.493200 0.486423 0.479259
0.494633 0.487468 0.480303
0.496066 0.488513 0.481348
0.497499 0.489558 0.482393
0.498932 0.490602 0.483438
0.500365 0.491647 0.484482
0.501798 0.492692 0.485527
0.503230 0.493736 0.486572
0.504663 0.494781 0.487616
0.506096 0.495826 0.488661
0.507529 0.496871 0.489706
0.486653 0.482594 0.475041
0.488086 0.483639 0.476086
0.489519 0.484684 0.477131
0.490952 0.485729 0.478176
0.492385 0.486773 0.479220
0.493818 0.487818 0.480265
0.495251 0.488863 0.481310
0.496684 0.489907 0.482354
0.498117 0.490952 0.483399
0.499550 0.491997 0.484444
0.500983 0.493042 0.485489
0.502416 0.494086 0.486533
0.503848 0.495131 0.487578
0.505281 0.496176 0.488623
0.506714 0.497220 0.489667
0.508147 0.498265 0.490712
0.509580 0.499310 0.491757
0.488704 0.485034 0.477092
0.490137 0.486078 0.478137
0.491570 0.487123 0.479182
0.493003 0.488168 0.480227
0.494436 0.489212 0.481271
0.495869 0.490257 0.482316
0.497302 0.491302 0.483361
0.498735 0.492347 0.484405
0.500168 0.493391 0.485450
0.501601 0.494436 0.486495
0.503034 0.495481 0.487540
0.504467 0.496525 0.488584
0.505899 0.497570 0.489629
0.507332 0.498615 0.490674
0.508765 0.499660 0.491718
0.510198 0.500704 0.492763
0.511631 0.501749 0.493808
0.490755 0.487473 0.479143
0.492188 0.488518 0.480188
0.493621 0.489562 0.481233
0.495054 0.490607 0.482278
0.496487 0.491652 0.483322
0.497920 0.492696 0.484367
0.499353 0.493741 0.485412
0.500786 0.494786 0.486456
0.502219 0.495831 0.487501
0.503652 0.496875 0.488546
0.505085 0.497920 0.489591
0.506518 0.498965 0.490635
0.507950 0.500009 0.491680
0.509383 0.501054 0.492725
0.510816 0.502099 0.493769
0.512249 0.503143 0.494814
0.513682 0.504188 0.495859
0.492806 0.489912 0.481194
0.494239 0.490957 0.482239
0.495672 0.492001 0.483284
0.497105 0.493046 0.484329
0.498538 0.494091 0.485373
0.499971 0.495136 0.486418
0.501404 0.496180 0.487463
0.502837 0.497225 0.488507
0.504270 0.498270 0.489552
0.505703 0.499314 0.490597
0.507136 0.500359 0.491642
0.508569 0.501404 0.492686
0.510001 0.502449 0.493731
0.511434 0.503493 0.494776
0.512867 0.504538 0.495820
0.514300 0.505583 0.496865
0.515733 0.506627 0.497910
0.494857 0.492351 0.483245
0.496290 0.493396 0.484290
0.497723 0.494441 0.485335
0.499156 0.495485 0.486380
0.500589 0.496530 0.487424
0.502022 0.497575 0.488469
0.503455 0.498620 0.489514
0.504888 0.499664 0.490558
0.506321 0.500709 0.491603
0.507754 0.501754 0.492648
0.509187 0.502798 0.493693
0.510620 0.503843 0.494737
0.512052 0.504888 0.495782
0.513485 0.505932 0.496827
0.514918 0.506977 0.497871
0.516351 0.508022 0.498916
0.517784 0.509067 0.499961
0.496908 0.494790 0.485296
0.498341 0.495835 0.486341
0.499774 0.496880 0.487386
0.501207 0.497925 0.488431
0.502640 0.498969 0.489475
0.504073 0.500014 0.490520
0.505506 0.501059 0.491565
0.506939 0.502103 0.492609
0.508372 0.503148 0.493654
0.509805 0.504193 0.494699
0.511238 0.505238 0.495744
0.512671 0.506282 0.496788
0.514103 0.507327 0.497833
0.515536 0.508372 0.498878
0.516969 0.509416 0.499922
0.518402 0.510461 0.500967
0.519835 0.511506 0.502012
0.498959 0.497230 0.487347
0.500392 0.498274 0.488392
0.501825 0.499319 0.489437
0.503258 0.500364 0.490482
0.504691 0.501409 0.491526
0.506124 0.502453 0.492571
0.507557 0.503498 0.493616
0.508990 0.504543 0.494660
0.510423 0.505587 0.495705
0.511856 0.506632 0.496750
0.513289 0.507677 0.497795
0.514721 0.508721 0.498839
0.516154 0.509766 0.499884
0.517587 0.510811 0.500929
0.519020 0.511856 0.501973
0.520453 0.512900 0.503018
0.521886 0.513945 0.504063
0.501010 0.499669 0.489398
0.502443 0.500714 0.490443
0.503876 0.501758 0.491488
0.505309 0.502803 0.492533
0.506742 0.503848 0.493577
0.508175 0.504892 0.494622
0.509608 0.505937 0.495667
0.511041 0.506982 0.496711
0.512474 0.508027 0.497756
0.513907 0.509071 0.498801
0.515340 0.510116 0.499846
0.516772 0.511161 0.500890
0.518205 0.512205 0.501935
0.519638 0.513250 0.502980
0.521071 0.514295 0.504024
0.522504 0.515340 0.505069
0.523937 0.516384 0.506114
0.503061 0.502108 0.491449
0.504494 0.503153 0.492494
0.505927 0.504198 0.493539
0.507360 0.505242 0.494584
0.508793 0.506287 0.495628
0.510226 0.507332 0.496673
0.511659 0.508376 0.497718
0.513092 0.509421 0.498762
0.514525 0.510466 0.499807
0.515958 0.511511 0.500852
0.517391 0.512555 0.501897
0.518823 0.513600 0.502941
0.520256 0.514645 0.503986
0.521689 0.515689 0.505031
0.523122 0.516734 0.506075
0.524555 0.517779 0.507120
0.525988 0.518823 0.508165
0.505112 0.504547 0.493500
0.506545 0.505592 0.494545
0.507978 0.506637 0.495590
0.509411 0.507681 0.496635
0.510844 0.508726 0.497679
0.512277 0.509771 0.498724
0.513710 0.510816 0.499769
0.515143 0.511860 0.500813
0.516576 0.512905 0.501858
0.518009 0.513950 0.502903
0.519442 0.514994 0.503948
0.520874 0.516039 0.504992
0.522307 0.517084 0.506037
0.523740 0.518129 0.507082
0.525173 0.519173 0.508126
0.526606 0.520218 0.509171
0.528039 0.521263 0.510216
0.507163 0.506987 0.495551
0.508596 0.508031 0.496596
0.510029 0.509076 0.497641
0.511462 0.510121 0.498686
0.512895 0.511165 0.499730
0.514328 0.512210 0.500775
0.515761 0.513255 0.501820
0.517194 0.514300 0.502864
0.518627 0.515344 0.503909
0.520060 0.516389 0.504954
0.521493 0.517434 0.505998
0.522925 0.518478 0.507043
0.524358 0.519523 0.508088
0.525791 0.520568 0.509133
0.527224 0.521612 0.510177
0.528657 0.522657 0.511222
0.530090 0.523702 0.512267
0.509214 0.509426 0.497602
0.510647 0.510470 0.498647
0.512080 0.511515 0.499692
0.513513 0.512560 0.500737
0.514946 0.513605 0.501781
0.516379 0.514649 0.502826
0.517812 0.515694 0.503871
0.519245 0.516739 0.504915
0.520678 0.517783 0.505960
0.522111 0.518828 0.507005
0.523544 0.519873 0.508049
0.524976 0.520918 0.509094
0.526409 0.521962 0.510139
0.527842 0.523007 0.511184
0.529275 0.524052 0.512228
0.530708 0.525096 0.513273
0.532141 0.526141 0.514318
0.476797 0.470797 0.465573
0.478230 0.471841 0.466618
0.479663 0.472886 0.467663
0.481095 0.473931 0.468707
0.482528 0.474975 0.469752
0.483961 0.476020 0.470797
0.485394 0.477065 0.471841
0.486827 0.478110 0.472886
0.488260 0.479154 0.473931
0.489693 0.480199 0.474975
0.491126 0.481244 0.476020
0.492559 0.482288 0.477065
0.493992 0.483333 0.478110
0.495425 0.484378 0.479154
0.496858 0.485423 0.480199
0.498291 0.486467 0.481244
0.499724 0.487512 0.482288
0.478848 0.473236 0.467624
0.480281 0.474281 0.468669
0.481713 0.475325 0.469713
0.483146 0.476370 0.470758
0.484579 0.477415 0.471803
0.486012 0.478459 0.472848
0.487445 0.479504 0.473892
0.488878 0.480549 0.474937
0.490311 0.481594 0.475982
0.491744 0.482638 0.477026
0.493177 0.483683 0.478071
0.494610 0.484728 0.479116
0.496043 0.485772 0.480161
0.497476 0.486817 0.481205
0.498909 0.487862 0.482250
0.500342 0.488907 0.483295
0.501775 0.489951 0.484339
0.480899 0.475675 0.469675
0.482332 0.476720 0.470720
0.483764 0.477764 0.471764
0.485197 0.478809 0.472809
0.486630 0.479854 0.473854
0.488063 0.480899 0.474899
0.489496 0.481943 0.475943
0.490929 0.482988 0.476988
0.492362 0.484033 0.478033
0.493795 0.485077 0.479077
0.495228 0.486122 0.480122
0.496661 0.487167 0.481167
0.498094 0.488212 0.482212
0.499527 0.489256 0.483256
0.500960 0.490301 0.484301
0.502393 0.491346 0.485346
0.503826 0.492390 0.486390
0.482950 0.478114 0.471726
0.484383 0.479159 0.472771
0.485815 0.480204 0.473815
0.487248 0.481248 0.474860
0.488681 0.482293 0.475905
0.490114 0.483338 0.476950
0.491547 0.484383 0.477994
0.492980 0.485427 0.479039
0.494413 0.486472 0.480084
0.495846 0.487517 0.481128
0.497279 0.488561 0.482173
0.498712 0.489606 0.483218
0.500145 0.490651 0.484263
0.501578 0.491696 0.485307
0.503011 0.492740 0.486352
0.504444 0.493785 0.487397
0.505877 0.494830 0.488441
0.485001 0.480553 0.473777
0.486434 0.481598 0.474822
0.487866 0.482643 0.475866
0.489299 0.483688 0.476911
0.490732 0.484732 0.477956
0.492165 0.485777 0.479001
0.493598 0.486822 0.480045
0.495031 0.487866 0.481090
0.496464 0.488911 0.482135
0.497897 0.489956 0.483179
0.499330 0.491001 0.484224
0.500763 0.492045 0.485269
0.502196 0.493090 0.486314
0.503629 0.494135 0.487358
0.505062 0.495179 0.488403
0.506495 0.496224 0.489448
0.507928 0.497269 0.490492
0.487052 0.482993 0.475828
0.488485 0.484037 0.476873
0.489917 0.485082 0.477917
0.491350 0.486127 0.478962
0.492783 0.487172 0.480007
0.494216 0.488216 0.481052
0.495649 0.489261 0.482096
0.497082 0.490306 0.483141
0.498515 0.491350 0.484186
0.499948 0.492395 0.485230
0.501381 0.493440 0.486275
0.502814 0.494485 0.487320
0.504247 0.495529 0.488365
0.505680 0.496574 0.489409
0.507113 0.497619 0.490454
0.508546 0.498663 0.491499
0.509979 0.499708 0.492543
0.489103 0.485432 0.477879
0.490536 0.486477 0.478924
0.491968 0.487521 0.479968
0.493401 0.488566 0.481013
0.494834 0.489611 0.482058
0.496267 0.490655 0.483103
0.497700 0.491700 0.484147
0.499133 0.492745 0.485192
0.500566 0.493790 0.486237
0.501999 0.494834 0.487281
0.503432 0.495879 0.488326
0.504865 0.496924 0.489371
0.506298 0.497968 0.490416
0.507731 0.499013 0.491460
0.509164 0.500058 0.492505
0.510597 0.501103 0.493550
0.512030 0.502147 0.494594
0.491154 0.487871 0.479930
0.492586 0.488916 0.480975
0.494019 0.489961 0.482019
0.495452 0.491005 0.483064
0.496885 0.492050 0.484109
0.498318 0.493095 0.485154
0.499751 0.494139 0.486198
0.501184 0.495184 0.487243
0.502617 0.496229 0.488288
0.504050 0.497274 0.489332
0.505483 0.498318 0.490377
0.506916 0.499363 0.491422
0.508349 0.500408 0.492467
0.509782 0.501452 0.493511
0.511215 0.502497 0.494556
0.512648 0.503542 0.495601
0.514081 0.504587 0.496645
0.493205 0.490310 0.481981
0.494637 0.491355 0.483026
0.496070 0.492400 0.484070
0.497503 0.493444 0.485115
0.498936 0.494489 0.486160
0.500369 0.495534 0.487205
0.501802 0.496579 0.488249
0.503235 0.497623 0.489294
0.504668 0.498668 0.490339
0.506101 0.499713 0.491383
0.507534 0.500757 0.492428
0.508967 0.501802 0.493473
0.510400 0.502847 0.494518
0.511833 0.503892 0.495562
0.513266 0.504936 0.496607
0.514699 0.505981 0.497652
0.516132 0.507026 0.498696
0.495256 0.492750 0.484032
0.496688 0.493794 0.485077
0.498121 0.494839 0.486121
0.499554 0.495884 0.487166
0.500987 0.496928 0.488211
0.502420 0.497973 0.489256
0.503853 0.499018 0.490300
0.505286 0.500063 0.491345
0.506719 0.501107 0.492390
0.508152 0.502152 0.493434
0.509585 0.503197 0.494479
0.511018 0.504241 0.495524
0.512451 0.505286 0.496569
0.513884 0.506331 0.497613
0.515317 0.507376 0.498658
0.516750 0.508420 0.499703
0.518183 0.509465 0.500747
0.497307 0.495189 0.486083
0.498739 0.496233 0.487128
0.500172 0.497278 0.488172
0.501605 0.498323 0.489217
0.503038 0.499368 0.490262
0.504471 0.500412 0.491307
0.505904 0.501457 0.492351
0.507337 0.502502 0.493396
0.508770 0.503546 0.494441
0.510203 0.504591 0.495485
0.511636 0.505636 0.496530
0.513069 0.506681 0.497575
0.514502 0.507725 0.498620
0.515935 0.508770 0.499664
0.517368 0.509815 0.500709
0.518801 0.510859 0.501754
0.520234 0.511904 0.502798
0.499358 0.497628 0.488134
0.500790 0.498673 0.489179
0.502223 0.499717 0.490223
0.503656 0.500762 0.491268
0.505089 0.501807 0.492313
0.506522 0.502852 0.493358
0.507955 0.503896 0.494402
0.509388 0.504941 0.495447
0.510821 0.505986 0.496492
0.512254 0.507030 0.497536
0.513687 0.508075 0.498581
0.515120 0.509120 0.499626
0.516553 0.510165 0.500671
0.517986 0.511209 0.501715
0.519419 0.512254 0.502760
0.520852 0.513299 0.503805
0.522284 0.514343 0.504849
0.501409 0.500067 0.490185
0.502841 0.501112 0.491230
0.504274 0.502157 0.492274
0.505707 0.503201 0.493319
0.507140 0.504246 0.494364
0.508573 0.505291 0.495409
0.510006 0.506335 0.496453
0.511439 0.507380 0.497498
0.512872 0.508425 0.498543
0.514305 0.509470 0.499587
0.515738 0.510514 0.500632
0.517171 0.511559 0.501677
0.518604 0.512604 0.502721
0.520037 0.513648 0.503766
0.521470 0.514693 0.504811
0.522903 0.515738 0.505856
0.524335 0.516783 0.506900
0.503459 0.502506 0.492236
0.504892 0.503551 0.493281
0.506325 0.504596 0.494325
0.507758 0.505641 0.495370
0.509191 0.506685 0.496415
0.510624 0.507730 0.497460
0.512057 0.508775 0.498504
0.513490 0.509819 0.499549
0.514923 0.510864 0.500594
0.516356 0.511909 0.501638
0.517789 0.512954 0.502683
0.519222 0.513998 0.503728
0.520655 0.515043 0.504772
0.522088 0.516088 0.505817
0.523521 0.517132 0.506862
0.524954 0.518177 0.507907
0.526386 0.519222 0.508951
0.505510 0.504946 0.494287
0.506943 0.505990 0.495332
0.508376 0.507035 0.496376
0.509809 0.508080 0.497421
0.511242 0.509124 0.498466
0.512675 0.510169 0.499510
0.514108 0.511214 0.500555
0.515541 0.512259 0.501600
0.516974 0.513303 0.502645
0.518407 0.514348 0.503689
0.519840 0.515393 0.504734
0.521273 0.516437 0.505779
0.522706 0.517482 0.506823
0.524139 0.518527 0.507868
0.525572 0.519572 0.508913
0.527005 0.520616 0.509958
0.528437 0.521661 0.511002
0.507561 0.507385 0.496338
0.508994 0.508430 0.497383
0.510427 0.509474 0.498427
0.511860 0.510519 0.499472
0.513293 0.511564 0.500517
0.514726 0.512608 0.501561
0.516159 0.513653 0.502606
0.517592 0.514698 0.503651
0.519025 0.515743 0.504696
0.520458 0.516787 0.505740
0.521891 0.517832 0.506785
0.523324 0.518877 0.507830
0.524757 0.519921 0.508874
0.526190 0.520966 0.509919
0.527623 0.522011 0.510964
0.529056 0.523056 0.512009
0.530488 0.524100 0.513053
0.509612 0.509824 0.498389
0.511045 0.510869 0.499434
0.512478 0.511913 0.500478
0.513911 0.512958 0.501523
0.515344 0.514003 0.502568
0.516777 0.515048 0.503612
0.518210 0.516092 0.504657
0.519643 0.517137 0.505702
0.521076 0.518182 0.506747
0.522509 0.519226 0.507791
0.523942 0.520271 0.508836
0.525375 0.521316 0.509881
0.526808 0.522361 0.510925
0.528241 0.523405 0.511970
0.529674 0.524450 0.513015
0.531107 0.525495 0.514060
0.532539 0.526539 0.515104
0.477195 0.471195 0.466360
0.478628 0.472240 0.467404
0.480061 0.473284 0.468449
0.481494 0.474329 0.469494
0.482927 0.475374 0.470538
0.484360 0.476419 0.471583
0.485793 0.477463 0.472628
0.487226 0.478508 0.473673
0.488658 0.479553 0.474717
0.490091 0.480597 0.475762
0.491524 0.481642 0.476807
0.492957 0.482687 0.477851
0.494390 0.483731 0.478896
0.495823 0.484776 0.479941
0.497256 0.485821 0.480986
0.498689 0.486866 0.482030
0.500122 0.487910 0.483075
0.479246 0.473634 0.468411
