shared/src/main/assets/luts/drama_cold_isolation.cube
TITLE "DALUR Cold Isolation"
LUT_3D_SIZE 5
DOMAIN_MIN 0.0 0.0 0.0
DOMAIN_MAX 1.0 1.0 1.0
0.422000 0.440000 0.458000
0.424517 0.451032 0.469032
0.427035 0.462064 0.480064
0.429552 0.473096 0.491096
0.432070 0.484128 0.502128
0.443658 0.453144 0.479658
0.446176 0.464176 0.490690
0.448693 0.475208 0.501722
0.451210 0.486240 0.512754
0.453728 0.497271 0.523786
0.465316 0.466287 0.501316
0.467834 0.477319 0.512348
0.470351 0.488351 0.523380
0.472869 0.499383 0.534412
0.475386 0.510415 0.545444
0.486974 0.479431 0.522974
0.489492 0.490463 0.534006
0.492009 0.501495 0.545038
0.494527 0.512527 0.556070
0.497044 0.523559 0.567102
0.508632 0.492574 0.544632
0.511150 0.503606 0.555664
0.513667 0.514638 0.566696
0.516185 0.525670 0.577728
0.518702 0.536702 0.588760
0.426206 0.444206 0.453692
0.428724 0.455238 0.464724
0.431241 0.466270 0.475756
0.433759 0.477302 0.486788
0.436276 0.488334 0.497820
0.447864 0.457350 0.475350
0.450382 0.468382 0.486382
0.452899 0.479414 0.497414
0.455417 0.490446 0.508446
0.457934 0.501478 0.519478
0.469522 0.470493 0.497008
0.472040 0.481525 0.508040
0.474557 0.492557 0.519072
0.477075 0.503589 0.530104
0.479592 0.514621 0.541136
0.491180 0.483637 0.518666
0.493698 0.494669 0.529698
0.496215 0.505701 0.540730
0.498733 0.516733 0.551762
0.501250 0.527765 0.562794
0.512839 0.496780 0.540324
0.515356 0.507812 0.551356
0.517873 0.518844 0.562388
0.520391 0.529876 0.573420
0.522908 0.540908 0.584452
0.430412 0.448412 0.449383
0.432930 0.459444 0.460415
0.435447 0.470476 0.471447
0.437965 0.481508 0.482479
0.440482 0.492540 0.493511
0.452070 0.461556 0.471041
0.454588 0.472588 0.482073
0.457105 0.483620 0.493105
0.459623 0.494652 0.504137
0.462140 0.505684 0.515169
0.473729 0.474700 0.492700
0.476246 0.485731 0.503731
0.478763 0.496763 0.514763
0.481281 0.507795 0.525795
0.483798 0.518827 0.536827
0.495387 0.487843 0.514358
0.497904 0.498875 0.525390
0.500422 0.509907 0.536422
0.502939 0.520939 0.547454
0.505456 0.531971 0.558486
0.517045 0.500987 0.536016
0.519562 0.512019 0.547048
0.522080 0.523051 0.558080
0.524597 0.534083 0.569112
0.527115 0.545115 0.580144
0.434619 0.452619 0.445075
0.437136 0.463650 0.456107
0.439653 0.474682 0.467139
0.442171 0.485714 0.478171
0.444688 0.496746 0.489203
0.456277 0.465762 0.466733
0.458794 0.476794 0.477765
0.461312 0.487826 0.488797
0.463829 0.498858 0.499829
0.466346 0.509890 0.510861
0.477935 0.478906 0.488391
0.480452 0.489938 0.499423
0.482970 0.500970 0.510455
0.485487 0.512002 0.521487
0.488005 0.523034 0.532519
0.499593 0.492049 0.510049
0.502110 0.503081 0.521081
0.504628 0.514113 0.532113
0.507145 0.525145 0.543145
0.509663 0.536177 0.554177
0.521251 0.505193 0.531707
0.523768 0.516225 0.542739
0.526286 0.527257 0.553771
0.528803 0.538289 0.564803
0.531321 0.549321 0.575835
0.438825 0.456825 0.440767
0.441342 0.467857 0.451799
0.443860 0.478889 0.462831
0.446377 0.489921 0.473863
0.448895 0.500953 0.484895
0.460483 0.469968 0.462425
0.463000 0.481000 0.473457
0.465518 0.492032 0.484489
0.468035 0.503064 0.495521
0.470553 0.514096 0.506553
0.482141 0.483112 0.484083
0.484658 0.494144 0.495115
0.487176 0.505176 0.506147
0.489693 0.516208 0.517179
0.492211 0.527240 0.528211
0.503799 0.496255 0.505741
0.506316 0.507287 0.516773
0.508834 0.518319 0.527805
0.511351 0.529351 0.538837
0.513869 0.540383 0.549869
0.525457 0.509399 0.527399
0.527975 0.520431 0.538431
0.530492 0.531463 0.549463
0.533009 0.542495 0.560495
0.535527 0.553527 0.571527
