shared/src/main/assets/luts/drama_red_signal.cube
TITLE "DALUR Red Signal"
LUT_3D_SIZE 9
DOMAIN_MIN 0.0 0.0 0.0
DOMAIN_MAX 1.0 1.0 1.0
0.437000 0.437000 0.443000
0.442348 0.440899 0.446899
0.447696 0.444798 0.450798
0.453044 0.448697 0.454697
0.458392 0.452596 0.458596
0.463740 0.456495 0.462495
0.469087 0.460394 0.466394
0.474435 0.464293 0.470293
0.479783 0.468192 0.474192
0.444655 0.446103 0.450655
0.450002 0.450002 0.454554
0.455350 0.453901 0.458453
0.460698 0.457800 0.462352
0.466046 0.461699 0.466251
0.471394 0.465598 0.470150
0.476742 0.469497 0.474049
0.482090 0.473396 0.477948
0.487438 0.477295 0.481847
0.452309 0.455207 0.458309
0.457657 0.459106 0.462208
0.463005 0.463005 0.466107
0.468353 0.466904 0.470006
0.473701 0.470803 0.473905
0.479049 0.474702 0.477804
0.484397 0.478601 0.481703
0.489744 0.482500 0.485602
0.495092 0.486399 0.489501
0.459964 0.464310 0.465964
0.465312 0.468209 0.469863
0.470660 0.472108 0.473762
0.476007 0.476007 0.477661
0.481355 0.479906 0.481560
0.486703 0.483805 0.485459
0.492051 0.487704 0.489358
0.497399 0.491603 0.493257
0.502747 0.495502 0.497156
0.467618 0.473414 0.473618
0.472966 0.477313 0.477517
0.478314 0.481212 0.481416
0.483662 0.485111 0.485315
0.489010 0.489010 0.489214
0.494358 0.492909 0.493113
0.499706 0.496808 0.497012
0.505054 0.500707 0.500911
0.510402 0.504606 0.504810
0.475273 0.482517 0.481273
0.480621 0.486416 0.485172
0.485969 0.490315 0.489071
0.491317 0.494214 0.492970
0.496664 0.498113 0.496869
0.502012 0.502012 0.500768
0.507360 0.505911 0.504667
0.512708 0.509810 0.508566
0.518056 0.513709 0.512465
0.482927 0.491621 0.488927
0.488275 0.495520 0.492826
0.493623 0.499419 0.496725
0.498971 0.503318 0.500624
0.504319 0.507217 0.504523
0.509667 0.511116 0.508422
0.515015 0.515015 0.512321
0.520363 0.518914 0.516220
0.525711 0.522813 0.520119
0.490582 0.500724 0.496582
0.495930 0.504623 0.500481
0.501278 0.508522 0.504380
0.506626 0.512421 0.508279
0.511974 0.516320 0.512178
0.517321 0.520219 0.516077
0.522669 0.524118 0.519976
0.528017 0.528017 0.523875
0.533365 0.531916 0.527774
0.498236 0.509828 0.504236
0.503584 0.513727 0.508136
0.508932 0.517626 0.512035
0.514280 0.521525 0.515934
0.519628 0.525424 0.519833
0.524976 0.529323 0.523732
0.530324 0.533222 0.527631
0.535672 0.537121 0.531530
0.541020 0.541020 0.535429
0.438487 0.438487 0.445935
0.443834 0.442386 0.449834
0.449182 0.446285 0.453733
0.454530 0.450184 0.457632
0.459878 0.454083 0.461531
0.465226 0.457982 0.465430
0.470574 0.461881 0.469329
0.475922 0.465780 0.473228
0.481270 0.469679 0.477127
0.446141 0.447590 0.453590
0.451489 0.451489 0.457489
0.456837 0.455388 0.461388
0.462185 0.459287 0.465287
0.467533 0.463186 0.469186
0.472881 0.467085 0.473085
0.478229 0.470984 0.476984
0.483576 0.474883 0.480883
0.488924 0.478782 0.484782
0.453796 0.456694 0.461245
0.459144 0.460593 0.465144
0.464492 0.464492 0.469043
0.469839 0.468391 0.472942
0.475187 0.472290 0.476841
0.480535 0.476189 0.480740
0.485883 0.480088 0.484639
0.491231 0.483987 0.488538
0.496579 0.487886 0.492437
0.461450 0.465797 0.468899
0.466798 0.469696 0.472798
0.472146 0.473595 0.476697
0.477494 0.477494 0.480596
0.482842 0.481393 0.484495
0.488190 0.485292 0.488394
0.493538 0.489191 0.492293
0.498886 0.493090 0.496192
0.504234 0.496989 0.500091
0.469105 0.474900 0.476554
0.474453 0.478799 0.480453
0.479801 0.482698 0.484352
0.485149 0.486597 0.488251
0.490496 0.490496 0.492150
0.495844 0.494395 0.496049
0.501192 0.498294 0.499948
0.506540 0.502193 0.503847
0.511888 0.506092 0.507746
0.476759 0.484004 0.484208
0.482107 0.487903 0.488107
0.487455 0.491802 0.492006
0.492803 0.495701 0.495905
0.498151 0.499600 0.499804
0.503499 0.503499 0.503703
0.508847 0.507398 0.507602
0.514195 0.511297 0.511501
0.519543 0.515196 0.515400
0.484414 0.493107 0.491863
0.489762 0.497006 0.495762
0.495110 0.500905 0.499661
0.500458 0.504804 0.503560
0.505806 0.508703 0.507459
0.511153 0.512602 0.511358
0.516501 0.516501 0.515257
0.521849 0.520400 0.519156
0.527197 0.524299 0.523055
0.492069 0.502211 0.499517
0.497416 0.506110 0.503416
0.502764 0.510009 0.507315
0.508112 0.513908 0.511214
0.513460 0.517807 0.515113
0.518808 0.521706 0.519012
0.524156 0.525605 0.522911
0.529504 0.529504 0.526810
0.534852 0.533403 0.530709
0.499723 0.511314 0.507172
0.505071 0.515213 0.511071
0.510419 0.519112 0.514970
0.515767 0.523011 0.518869
0.521115 0.526910 0.522768
0.526463 0.530809 0.526667
0.531811 0.534708 0.530566
0.537158 0.538607 0.534465
0.542506 0.542506 0.538364
0.439973 0.439973 0.448871
0.445321 0.443872 0.452770
0.450669 0.447771 0.456669
0.456017 0.451670 0.460568
0.461365 0.455569 0.464467
0.466713 0.459468 0.468366
0.472061 0.463367 0.472265
0.477408 0.467266 0.476164
0.482756 0.471165 0.480063
0.447628 0.449077 0.456526
0.452976 0.452976 0.460425
0.458324 0.456875 0.464324
0.463671 0.460774 0.468223
0.469019 0.464673 0.472122
0.474367 0.468572 0.476021
0.479715 0.472471 0.479920
0.485063 0.476370 0.483819
0.490411 0.480269 0.487718
0.455282 0.458180 0.464180
0.460630 0.462079 0.468079
0.465978 0.465978 0.471978
0.471326 0.469877 0.475877
0.476674 0.473776 0.479776
0.482022 0.477675 0.483675
0.487370 0.481574 0.487574
0.492718 0.485473 0.491473
0.498066 0.489372 0.495372
0.462937 0.467284 0.471835
0.468285 0.471183 0.475734
0.473633 0.475082 0.479633
0.478981 0.478981 0.483532
0.484328 0.482880 0.487431
0.489676 0.486779 0.491330
0.495024 0.490678 0.495229
0.500372 0.494577 0.499128
0.505720 0.498476 0.503027
0.470591 0.476387 0.479489
0.475939 0.480286 0.483388
0.481287 0.484185 0.487287
0.486635 0.488084 0.491186
0.491983 0.491983 0.495085
0.497331 0.495882 0.498984
0.502679 0.499781 0.502883
0.508027 0.503680 0.506782
0.513375 0.507579 0.510681
0.478246 0.485490 0.487144
0.483594 0.489389 0.491043
0.488942 0.493288 0.494942
0.494290 0.497187 0.498841
0.499638 0.501086 0.502740
0.504985 0.504985 0.506639
0.510333 0.508884 0.510538
0.515681 0.512784 0.514437
0.521029 0.516683 0.518336
0.485901 0.494594 0.494798
0.491248 0.498493 0.498697
0.496596 0.502392 0.502596
0.501944 0.506291 0.506495
0.507292 0.510190 0.510394
0.512640 0.514089 0.514293
0.517988 0.517988 0.518192
0.523336 0.521887 0.522091
0.528684 0.525786 0.525990
0.493555 0.503697 0.502453
0.498903 0.507596 0.506352
0.504251 0.511495 0.510251
0.509599 0.515394 0.514150
0.514947 0.519293 0.518049
0.520295 0.523192 0.521948
0.525643 0.527091 0.525847
0.530990 0.530990 0.529746
0.536338 0.534889 0.533645
0.501210 0.512801 0.510107
0.506558 0.516700 0.514006
0.511905 0.520599 0.517905
0.517253 0.524498 0.521804
0.522601 0.528397 0.525703
0.527949 0.532296 0.529602
0.533297 0.536195 0.533501
0.538645 0.540094 0.537400
0.543993 0.543993 0.541299
0.441460 0.441460 0.451806
0.446808 0.445359 0.455705
0.452156 0.449258 0.459604
0.457503 0.453157 0.463503
0.462851 0.457056 0.467402
0.468199 0.460955 0.471301
0.473547 0.464854 0.475200
0.478895 0.468753 0.479099
0.484243 0.472652 0.482998
0.449114 0.450563 0.459461
0.454462 0.454462 0.463360
0.459810 0.458361 0.467259
0.465158 0.462260 0.471158
0.470506 0.466159 0.475057
0.475854 0.470058 0.478956
0.481202 0.473957 0.482855
0.486550 0.477856 0.486754
0.491898 0.481755 0.490653
0.456769 0.459667 0.467116
0.462117 0.463566 0.471015
0.467465 0.467465 0.474914
0.472813 0.471364 0.478813
0.478160 0.475263 0.482712
0.483508 0.479162 0.486611
0.488856 0.483061 0.490510
0.494204 0.486960 0.494409
0.499552 0.490859 0.498308
0.464423 0.468770 0.474770
0.469771 0.472669 0.478669
0.475119 0.476568 0.482568
0.480467 0.480467 0.486467
0.485815 0.484366 0.490366
0.491163 0.488265 0.494265
0.496511 0.492164 0.498164
0.501859 0.496063 0.502063
0.507207 0.499962 0.505962
0.472078 0.477874 0.482425
0.477426 0.481773 0.486324
0.482774 0.485672 0.490223
0.488122 0.489571 0.494122
0.493470 0.493470 0.498021
0.498818 0.497369 0.501920
0.504165 0.501268 0.505819
0.509513 0.505167 0.509718
0.514861 0.509066 0.513617
0.479733 0.486977 0.490079
0.485080 0.490876 0.493978
0.490428 0.494775 0.497877
0.495776 0.498674 0.501776
0.501124 0.502573 0.505675
0.506472 0.506472 0.509574
0.511820 0.510371 0.513473
0.517168 0.514270 0.517372
0.522516 0.518169 0.521271
0.487387 0.496081 0.497734
0.492735 0.499980 0.501633
0.498083 0.503879 0.505532
0.503431 0.507778 0.509431
0.508779 0.511677 0.513330
0.514127 0.515576 0.517229
0.519475 0.519475 0.521128
0.524822 0.523374 0.525027
0.530170 0.527273 0.528926
0.495042 0.505184 0.505388
0.500390 0.509083 0.509287
0.505737 0.512982 0.513186
0.511085 0.516881 0.517085
0.516433 0.520780 0.520984
0.521781 0.524679 0.524883
0.527129 0.528578 0.528782
0.532477 0.532477 0.532681
0.537825 0.536376 0.536580
0.502696 0.514287 0.513043
0.508044 0.518186 0.516942
0.513392 0.522085 0.520841
0.518740 0.525984 0.524740
0.524088 0.529883 0.528639
0.529436 0.533782 0.532538
0.534784 0.537681 0.536437
0.540132 0.541580 0.540336
0.545479 0.545479 0.544235
0.442946 0.442946 0.454742
0.448294 0.446845 0.458641
0.453642 0.450744 0.462540
0.458990 0.454643 0.466439
0.464338 0.458542 0.470338
0.469686 0.462441 0.474237
0.475034 0.466340 0.478136
0.480382 0.470239 0.482035
0.485730 0.474138 0.485934
0.450601 0.452050 0.462396
0.455949 0.455949 0.466295
0.461297 0.459848 0.470194
0.466645 0.463747 0.474093
0.471992 0.467646 0.477992
0.477340 0.471545 0.481891
0.482688 0.475444 0.485790
0.488036 0.479343 0.489689
0.493384 0.483242 0.493589
0.458255 0.461153 0.470051
0.463603 0.465052 0.473950
0.468951 0.468951 0.477849
0.474299 0.472850 0.481748
0.479647 0.476749 0.485647
0.484995 0.480648 0.489546
0.490343 0.484547 0.493445
0.495691 0.488446 0.497344
0.501039 0.492345 0.501243
0.465910 0.470257 0.477706
0.471258 0.474156 0.481605
0.476606 0.478055 0.485504
0.481954 0.481954 0.489403
0.487302 0.485853 0.493302
0.492650 0.489752 0.497201
0.497997 0.493651 0.501100
0.503345 0.497550 0.504999
0.508693 0.501449 0.508898
0.473565 0.479360 0.485360
0.478912 0.483259 0.489259
0.484260 0.487158 0.493158
0.489608 0.491057 0.497057
0.494956 0.494956 0.500956
0.500304 0.498855 0.504855
0.505652 0.502754 0.508754
0.511000 0.506653 0.512653
0.516348 0.510552 0.516552
0.481219 0.488464 0.493015
0.486567 0.492363 0.496914
0.491915 0.496262 0.500813
0.497263 0.500161 0.504712
0.502611 0.504060 0.508611
0.507959 0.507959 0.512510
0.513307 0.511858 0.516409
0.518654 0.515757 0.520308
0.524002 0.519656 0.524207
0.488874 0.497567 0.500669
0.494222 0.501466 0.504568
0.499569 0.505365 0.508467
0.504917 0.509264 0.512366
0.510265 0.513163 0.516265
0.515613 0.517062 0.520164
0.520961 0.520961 0.524063
0.526309 0.524860 0.527962
0.531657 0.528759 0.531861
0.496528 0.506671 0.508324
0.501876 0.510570 0.512223
0.507224 0.514469 0.516122
0.512572 0.518368 0.520021
0.517920 0.522267 0.523920
0.523268 0.526166 0.527819
0.528616 0.530065 0.531718
0.533964 0.533964 0.535617
0.539311 0.537863 0.539516
0.504183 0.515774 0.515978
0.509531 0.519673 0.519877
0.514879 0.523572 0.523776
0.520227 0.527471 0.527675
0.525574 0.531370 0.531574
0.530922 0.535269 0.535473
0.536270 0.539168 0.539372
0.541618 0.543067 0.543271
0.546966 0.546966 0.547170
0.444433 0.444433 0.457677
0.449781 0.448332 0.461576
0.455129 0.452231 0.465475
0.460477 0.456130 0.469374
0.465825 0.460029 0.473273
0.471172 0.463928 0.477172
0.476520 0.467827 0.481071
0.481868 0.471726 0.484970
0.487216 0.475625 0.488869
0.452087 0.453536 0.465332
0.457435 0.457435 0.469231
0.462783 0.461334 0.473130
0.468131 0.465233 0.477029
0.473479 0.469132 0.480928
0.478827 0.473031 0.484827
0.484175 0.476930 0.488726
0.489523 0.480829 0.492625
0.494871 0.484728 0.496524
0.459742 0.462640 0.472987
0.465090 0.466539 0.476886
0.470438 0.470438 0.480785
0.475786 0.474337 0.484684
0.481134 0.478236 0.488583
0.486482 0.482135 0.492482
0.491829 0.486034 0.496381
0.497177 0.489933 0.500280
0.502525 0.493832 0.504179
0.467397 0.471743 0.480641
0.472744 0.475642 0.484540
0.478092 0.479541 0.488439
0.483440 0.483440 0.492338
0.488788 0.487339 0.496237
0.494136 0.491238 0.500136
0.499484 0.495137 0.504035
0.504832 0.499036 0.507934
0.510180 0.502935 0.511833
0.475051 0.480847 0.488296
0.480399 0.484746 0.492195
0.485747 0.488645 0.496094
0.491095 0.492544 0.499993
0.496443 0.496443 0.503892
0.501791 0.500342 0.507791
0.507139 0.504241 0.511690
0.512486 0.508140 0.515589
0.517834 0.512039 0.519488
0.482706 0.489950 0.495950
0.488054 0.493849 0.499849
0.493402 0.497748 0.503748
0.498749 0.501647 0.507647
0.504097 0.505546 0.511546
0.509445 0.509445 0.515445
0.514793 0.513344 0.519344
0.520141 0.517243 0.523243
0.525489 0.521142 0.527142
0.490360 0.499054 0.503605
0.495708 0.502953 0.507504
0.501056 0.506852 0.511403
0.506404 0.510751 0.515302
0.511752 0.514650 0.519201
0.517100 0.518549 0.523100
0.522448 0.522448 0.526999
0.527796 0.526347 0.530898
0.533144 0.530246 0.534797
0.498015 0.508157 0.511259
0.503363 0.512056 0.515158
0.508711 0.515955 0.519057
0.514059 0.519854 0.522956
0.519406 0.523753 0.526855
0.524754 0.527652 0.530754
0.530102 0.531551 0.534653
0.535450 0.535450 0.538552
0.540798 0.539349 0.542451
0.505669 0.517261 0.518914
0.511017 0.521160 0.522813
0.516365 0.525059 0.526712
0.521713 0.528958 0.530611
0.527061 0.532857 0.534510
0.532409 0.536756 0.538409
0.537757 0.540655 0.542308
0.543105 0.544554 0.546207
0.548453 0.548453 0.550106
0.445919 0.445919 0.460613
0.451267 0.449818 0.464512
0.456615 0.453717 0.468411
0.461963 0.457616 0.472310
0.467311 0.461515 0.476209
0.472659 0.465414 0.480108
0.478007 0.469313 0.484007
0.483355 0.473212 0.487906
0.488703 0.477111 0.491805
0.453574 0.455023 0.468267
0.458922 0.458922 0.472166
0.464270 0.462821 0.476065
0.469618 0.466720 0.479964
0.474966 0.470619 0.483863
0.480314 0.474518 0.487762
0.485661 0.478417 0.491661
0.491009 0.482316 0.495560
0.496357 0.486215 0.499459
0.461229 0.464126 0.475922
0.466576 0.468025 0.479821
0.471924 0.471924 0.483720
0.477272 0.475823 0.487619
0.482620 0.479722 0.491518
0.487968 0.483621 0.495417
0.493316 0.487520 0.499316
0.498664 0.491419 0.503215
0.504012 0.495318 0.507114
0.468883 0.473230 0.483577
0.474231 0.477129 0.487476
0.479579 0.481028 0.491375
0.484927 0.484927 0.495274
0.490275 0.488826 0.499173
0.495623 0.492725 0.503072
0.500971 0.496624 0.506971
0.506318 0.500523 0.510870
0.511666 0.504422 0.514769
0.476538 0.482333 0.491231
0.481886 0.486232 0.495130
0.487234 0.490131 0.499029
0.492581 0.494030 0.502928
0.497929 0.497929 0.506827
0.503277 0.501828 0.510726
0.508625 0.505727 0.514625
0.513973 0.509626 0.518524
0.519321 0.513525 0.522423
0.484192 0.491437 0.498886
0.489540 0.495336 0.502785
0.494888 0.499235 0.506684
0.500236 0.503134 0.510583
0.505584 0.507033 0.514482
0.510932 0.510932 0.518381
0.516280 0.514831 0.522280
0.521628 0.518730 0.526179
0.526976 0.522629 0.530078
0.491847 0.500540 0.506540
0.497195 0.504439 0.510439
0.502543 0.508338 0.514338
0.507891 0.512237 0.518237
0.513238 0.516136 0.522136
0.518586 0.520035 0.526035
0.523934 0.523934 0.529934
0.529282 0.527833 0.533833
0.534630 0.531732 0.537732
0.499501 0.509644 0.514195
0.504849 0.513543 0.518094
0.510197 0.517442 0.521993
0.515545 0.521341 0.525892
0.520893 0.525240 0.529791
0.526241 0.529139 0.533690
0.531589 0.533038 0.537589
0.536937 0.536937 0.541488
0.542285 0.540836 0.545387
0.507156 0.518747 0.521849
0.512504 0.522646 0.525748
0.517852 0.526545 0.529647
0.523200 0.530444 0.533546
0.528548 0.534343 0.537445
0.533895 0.538242 0.541344
0.539243 0.542141 0.545243
0.544591 0.546040 0.549142
0.549939 0.549939 0.553041
0.447406 0.447406 0.463548
0.452754 0.451305 0.467447
0.458102 0.455204 0.471346
0.463450 0.459103 0.475245
0.468798 0.463002 0.479144
0.474146 0.466901 0.483043
0.479493 0.470800 0.486942
0.484841 0.474699 0.490841
0.490189 0.478598 0.494740
0.455061 0.456509 0.471203
0.460409 0.460409 0.475102
0.465756 0.464308 0.479001
0.471104 0.468207 0.482900
0.476452 0.472106 0.486799
0.481800 0.476005 0.490698
0.487148 0.479904 0.494597
0.492496 0.483803 0.498496
0.497844 0.487702 0.502395
0.462715 0.465613 0.478857
0.468063 0.469512 0.482756
0.473411 0.473411 0.486655
0.478759 0.477310 0.490554
0.484107 0.481209 0.494453
0.489455 0.485108 0.498352
0.494803 0.489007 0.502252
0.500151 0.492906 0.506151
0.505498 0.496805 0.510050
0.470370 0.474716 0.486512
0.475718 0.478615 0.490411
0.481066 0.482514 0.494310
0.486413 0.486413 0.498209
0.491761 0.490312 0.502108
0.497109 0.494211 0.506007
0.502457 0.498110 0.509906
0.507805 0.502009 0.513805
0.513153 0.505908 0.517704
0.478024 0.483820 0.494167
0.483372 0.487719 0.498066
0.488720 0.491618 0.501965
0.494068 0.495517 0.505864
0.499416 0.499416 0.509763
0.504764 0.503315 0.513662
0.510112 0.507214 0.517561
0.515460 0.511113 0.521460
0.520808 0.515012 0.525359
0.485679 0.492923 0.501821
0.491027 0.496822 0.505720
0.496375 0.500721 0.509619
0.501723 0.504620 0.513518
0.507070 0.508519 0.517417
0.512418 0.512418 0.521316
0.517766 0.516317 0.525215
0.523114 0.520216 0.529114
0.528462 0.524115 0.533013
0.493333 0.502027 0.509476
0.498681 0.505926 0.513375
0.504029 0.509825 0.517274
0.509377 0.513724 0.521173
0.514725 0.517623 0.525072
0.520073 0.521522 0.528971
0.525421 0.525421 0.532870
0.530769 0.529320 0.536769
0.536117 0.533219 0.540668
0.500988 0.511130 0.517130
0.506336 0.515029 0.521029
0.511684 0.518928 0.524928
0.517032 0.522827 0.528827
0.522380 0.526726 0.532726
0.527728 0.530625 0.536625
0.533075 0.534524 0.540524
0.538423 0.538423 0.544423
0.543771 0.542322 0.548322
0.508643 0.520234 0.524785
0.513990 0.524133 0.528684
0.519338 0.528032 0.532583
0.524686 0.531931 0.536482
0.530034 0.535830 0.540381
0.535382 0.539729 0.544280
0.540730 0.543628 0.548179
0.546078 0.547527 0.552078
0.551426 0.551426 0.555977
0.448893 0.448893 0.466484
0.454241 0.452792 0.470383
0.459588 0.456691 0.474282
0.464936 0.460590 0.478181
0.470284 0.464489 0.482080
0.475632 0.468388 0.485979
0.480980 0.472287 0.489878
0.486328 0.476186 0.493777
0.491676 0.480085 0.497676
0.456547 0.457996 0.474138
0.461895 0.461895 0.478037
0.467243 0.465794 0.481936
0.472591 0.469693 0.485835
0.477939 0.473592 0.489734
0.483287 0.477491 0.493633
0.488635 0.481390 0.497532
0.493983 0.485289 0.501431
0.499330 0.489188 0.505330
0.464202 0.467100 0.481793
0.469550 0.470999 0.485692
0.474898 0.474898 0.489591
0.480245 0.478797 0.493490
0.485593 0.482696 0.497389
0.490941 0.486595 0.501288
0.496289 0.490494 0.505187
0.501637 0.494393 0.509086
0.506985 0.498292 0.512985
0.471856 0.476203 0.489448
0.477204 0.480102 0.493347
0.482552 0.484001 0.497246
0.487900 0.487900 0.501145
0.493248 0.491799 0.505044
0.498596 0.495698 0.508943
0.503944 0.499597 0.512842
0.509292 0.503496 0.516741
0.514640 0.507395 0.520640
0.479511 0.485306 0.497102
0.484859 0.489205 0.501001
0.490207 0.493104 0.504900
0.495555 0.497003 0.508799
0.500902 0.500902 0.512698
0.506250 0.504801 0.516597
0.511598 0.508700 0.520496
0.516946 0.512599 0.524395
0.522294 0.516498 0.528294
0.487165 0.494410 0.504757
0.492513 0.498309 0.508656
0.497861 0.502208 0.512555
0.503209 0.506107 0.516454
0.508557 0.510006 0.520353
0.513905 0.513905 0.524252
0.519253 0.517804 0.528151
0.524601 0.521703 0.532050
0.529949 0.525602 0.535949
0.494820 0.503513 0.512411
0.500168 0.507412 0.516310
0.505516 0.511311 0.520209
0.510864 0.515210 0.524108
0.516212 0.519109 0.528007
0.521560 0.523008 0.531906
0.526907 0.526907 0.535805
0.532255 0.530806 0.539704
0.537603 0.534705 0.543603
0.502475 0.512617 0.520066
0.507822 0.516516 0.523965
0.513170 0.520415 0.527864
0.518518 0.524314 0.531763
0.523866 0.528213 0.535662
0.529214 0.532112 0.539561
0.534562 0.536011 0.543460
0.539910 0.539910 0.547359
0.545258 0.543809 0.551258
0.510129 0.521720 0.527720
0.515477 0.525619 0.531619
0.520825 0.529518 0.535518
0.526173 0.533417 0.539417
0.531521 0.537316 0.543316
0.536869 0.541215 0.547215
0.542217 0.545114 0.551114
0.547564 0.549013 0.555013
0.552912 0.552912 0.558912
