shared/src/main/assets/luts/drama_european_pop.cube
TITLE "DALUR European Pop"
LUT_3D_SIZE 5
DOMAIN_MIN 0.0 0.0 0.0
DOMAIN_MAX 1.0 1.0 1.0
0.443000 0.438500 0.437000
0.458279 0.444779 0.443279
0.473558 0.451058 0.449558
0.488837 0.457337 0.455837
0.504116 0.463616 0.462116
0.455327 0.459827 0.449327
0.470606 0.466106 0.455606
0.485885 0.472385 0.461885
0.501164 0.478664 0.468164
0.516443 0.484943 0.474443
0.467654 0.481154 0.461654
0.482933 0.487433 0.467933
0.498212 0.493712 0.474212
0.513491 0.499991 0.480491
0.528770 0.506270 0.486770
0.479981 0.502481 0.473981
0.495260 0.508760 0.480260
0.510539 0.515039 0.486539
0.525818 0.521318 0.492818
0.541097 0.527597 0.499097
0.492308 0.523808 0.486308
0.507587 0.530087 0.492587
0.522866 0.536366 0.498866
0.538145 0.542645 0.505145
0.553424 0.548924 0.511424
0.445394 0.440894 0.448394
0.460673 0.447173 0.454673
0.475952 0.453452 0.460952
0.491231 0.459731 0.467231
0.506510 0.466010 0.473510
0.457721 0.462221 0.460721
0.473000 0.468500 0.467000
0.488279 0.474779 0.473279
0.503558 0.481058 0.479558
0.518837 0.487337 0.485837
0.470048 0.483548 0.473048
0.485327 0.489827 0.479327
0.500606 0.496106 0.485606
0.515885 0.502385 0.491885
0.531164 0.508664 0.498164
0.482375 0.504875 0.485375
0.497654 0.511154 0.491654
0.512933 0.517433 0.497933
0.528212 0.523712 0.504212
0.543491 0.529991 0.510491
0.494702 0.526202 0.497702
0.509981 0.532481 0.503981
0.525260 0.538760 0.510260
0.540539 0.545039 0.516539
0.555818 0.551318 0.522818
0.447788 0.443288 0.459788
0.463067 0.449567 0.466067
0.478346 0.455846 0.472346
0.493625 0.462125 0.478625
0.508904 0.468404 0.484904
0.460115 0.464615 0.472115
0.475394 0.470894 0.478394
0.490673 0.477173 0.484673
0.505952 0.483452 0.490952
0.521231 0.489731 0.497231
0.472442 0.485942 0.484442
0.487721 0.492221 0.490721
0.503000 0.498500 0.497000
0.518279 0.504779 0.503279
0.533558 0.511058 0.509558
0.484769 0.507269 0.496769
0.500048 0.513548 0.503048
0.515327 0.519827 0.509327
0.530606 0.526106 0.515606
0.545885 0.532385 0.521885
0.497096 0.528596 0.509096
0.512375 0.534875 0.515375
0.527654 0.541154 0.521654
0.542933 0.547433 0.527933
0.558212 0.553712 0.534212
0.450182 0.445682 0.471182
0.465461 0.451961 0.477461
0.480740 0.458240 0.483740
0.496019 0.464519 0.490019
0.511298 0.470798 0.496298
0.462509 0.467009 0.483509
0.477788 0.473288 0.489788
0.493067 0.479567 0.496067
0.508346 0.485846 0.502346
0.523625 0.492125 0.508625
0.474836 0.488336 0.495836
0.490115 0.494615 0.502115
0.505394 0.500894 0.508394
0.520673 0.507173 0.514673
0.535952 0.513452 0.520952
0.487163 0.509663 0.508163
0.502442 0.515942 0.514442
0.517721 0.522221 0.520721
0.533000 0.528500 0.527000
0.548279 0.534779 0.533279
0.499490 0.530990 0.520490
0.514769 0.537269 0.526769
0.530048 0.543548 0.533048
0.545327 0.549827 0.539327
0.560606 0.556106 0.545606
0.452576 0.448076 0.482576
0.467855 0.454355 0.488855
0.483134 0.460634 0.495134
0.498413 0.466913 0.501413
0.513692 0.473192 0.507692
0.464903 0.469403 0.494903
0.480182 0.475682 0.501182
0.495461 0.481961 0.507461
0.510740 0.488240 0.513740
0.526019 0.494519 0.520019
0.477230 0.490730 0.507230
0.492509 0.497009 0.513509
0.507788 0.503288 0.519788
0.523067 0.509567 0.526067
0.538346 0.515846 0.532346
0.489557 0.512057 0.519557
0.504836 0.518336 0.525836
0.520115 0.524615 0.532115
0.535394 0.530894 0.538394
0.550673 0.537173 0.544673
0.501884 0.533384 0.531884
0.517163 0.539663 0.538163
0.532442 0.545942 0.544442
0.547721 0.552221 0.550721
0.563000 0.558500 0.557000
