shared/src/main/assets/luts/drama_royal_gold.cube
TITLE "DALUR Royal Gold"
LUT_3D_SIZE 5
DOMAIN_MIN 0.0 0.0 0.0
DOMAIN_MAX 1.0 1.0 1.0
0.470800 0.460000 0.449200
0.477717 0.465881 0.455081
0.484633 0.471763 0.460963
0.491550 0.477644 0.466844
0.498466 0.483525 0.472725
0.482346 0.472582 0.460746
0.489263 0.478463 0.466628
0.496180 0.484344 0.472509
0.503096 0.490226 0.478390
0.510013 0.496107 0.484272
0.493893 0.485163 0.472293
0.500809 0.491044 0.478174
0.507726 0.496926 0.484055
0.514642 0.502807 0.489937
0.521559 0.508689 0.495818
0.505439 0.497745 0.483839
0.512356 0.503626 0.489720
0.519272 0.509507 0.495602
0.526189 0.515389 0.501483
0.533105 0.521270 0.507364
0.516985 0.510326 0.495385
0.523902 0.516208 0.501267
0.530818 0.522089 0.507148
0.537735 0.527970 0.513029
0.544652 0.533852 0.518911
0.473042 0.462242 0.452478
0.479959 0.468124 0.458359
0.486876 0.474005 0.464240
0.493792 0.479886 0.470122
0.500709 0.485768 0.476003
0.484589 0.474824 0.464024
0.491505 0.480705 0.469905
0.498422 0.486587 0.475787
0.505339 0.492468 0.481668
0.512255 0.498349 0.487549
0.496135 0.487406 0.475570
0.503052 0.493287 0.481452
0.509968 0.499168 0.487333
0.516885 0.505050 0.493214
0.523801 0.510931 0.499096
0.507681 0.499987 0.487117
0.514598 0.505868 0.492998
0.521515 0.511750 0.498879
0.528431 0.517631 0.504761
0.535348 0.523512 0.510642
0.519228 0.512569 0.498663
0.526144 0.518450 0.504544
0.533061 0.524331 0.510426
0.539977 0.530213 0.516307
0.546894 0.536094 0.522188
0.475285 0.464485 0.455755
0.482201 0.470366 0.461637
0.489118 0.476247 0.467518
0.496035 0.482129 0.473399
0.502951 0.488010 0.479281
0.486831 0.477066 0.467302
0.493748 0.482948 0.473183
0.500664 0.488829 0.479064
0.507581 0.494710 0.484946
0.514497 0.500592 0.490827
0.498377 0.489648 0.478848
0.505294 0.495529 0.484729
0.512211 0.501411 0.490611
0.519127 0.507292 0.496492
0.526044 0.513173 0.502373
0.509924 0.502229 0.490394
0.516840 0.508111 0.496276
0.523757 0.513992 0.502157
0.530674 0.519874 0.508038
0.537590 0.525755 0.513920
0.521470 0.514811 0.501941
0.528387 0.520692 0.507822
0.535303 0.526574 0.513703
0.542220 0.532455 0.519585
0.549136 0.538336 0.525466
0.477527 0.466727 0.459033
0.484444 0.472608 0.464914
0.491360 0.478490 0.470796
0.498277 0.484371 0.476677
0.505194 0.490253 0.482558
0.489073 0.479309 0.470579
0.495990 0.485190 0.476461
0.502907 0.491071 0.482342
0.509823 0.496953 0.488223
0.516740 0.502834 0.494105
0.500620 0.491890 0.482126
0.507536 0.497772 0.488007
0.514453 0.503653 0.493888
0.521370 0.509534 0.499770
0.528286 0.515416 0.505651
0.512166 0.504472 0.493672
0.519083 0.510353 0.499553
0.525999 0.516235 0.505435
0.532916 0.522116 0.511316
0.539833 0.527997 0.517197
0.523712 0.517053 0.505218
0.530629 0.522935 0.511100
0.537546 0.528816 0.516981
0.544462 0.534697 0.522862
0.551379 0.540579 0.528744
0.479770 0.468970 0.462311
0.486686 0.474851 0.468192
0.493603 0.480732 0.474073
0.500519 0.486614 0.479955
0.507436 0.492495 0.485836
0.491316 0.481551 0.473857
0.498232 0.487432 0.479738
0.505149 0.493314 0.485620
0.512066 0.499195 0.491501
0.518982 0.505076 0.497382
0.502862 0.494133 0.485403
0.509779 0.500014 0.491285
0.516695 0.505895 0.497166
0.523612 0.511777 0.503047
0.530529 0.517658 0.508929
0.514408 0.506714 0.496950
0.521325 0.512596 0.502831
0.528242 0.518477 0.508712
0.535158 0.524358 0.514594
0.542075 0.530240 0.520475
0.525955 0.519296 0.508496
0.532871 0.525177 0.514377
0.539788 0.531059 0.520259
0.546705 0.536940 0.526140
0.553621 0.542821 0.532021
