shared/src/main/assets/luts/drama_winter_steel.cube
TITLE "DALUR Winter Steel"
LUT_3D_SIZE 9
DOMAIN_MIN 0.0 0.0 0.0
DOMAIN_MAX 1.0 1.0 1.0
0.410800 0.430000 0.449200
0.412269 0.436435 0.455635
0.413737 0.442871 0.462071
0.415206 0.449306 0.468506
0.416674 0.455741 0.474941
0.418143 0.462177 0.481377
0.419611 0.468612 0.487812
0.421080 0.475047 0.494247
0.422548 0.481483 0.500683
0.423434 0.437667 0.461834
0.424902 0.444102 0.468269
0.426371 0.450538 0.474705
0.427839 0.456973 0.481140
0.429308 0.463408 0.487575
0.430776 0.469844 0.494010
0.432245 0.476279 0.500446
0.433714 0.482714 0.506881
0.435182 0.489150 0.513316
0.436068 0.445334 0.474468
0.437536 0.451769 0.480903
0.439005 0.458205 0.487338
0.440473 0.464640 0.493774
0.441942 0.471075 0.500209
0.443410 0.477511 0.506644
0.444879 0.483946 0.513080
0.446347 0.490381 0.519515
0.447816 0.496817 0.525950
0.448702 0.453001 0.487102
0.450170 0.459437 0.493537
0.451639 0.465872 0.499972
0.453107 0.472307 0.506408
0.454576 0.478743 0.512843
0.456044 0.485178 0.519278
0.457513 0.491613 0.525714
0.458981 0.498049 0.532149
0.460450 0.504484 0.538584
0.461336 0.460668 0.499736
0.462804 0.467104 0.506171
0.464273 0.473539 0.512606
0.465741 0.479974 0.519042
0.467210 0.486410 0.525477
0.468678 0.492845 0.531912
0.470147 0.499280 0.538347
0.471615 0.505716 0.544783
0.473084 0.512151 0.551218
0.473969 0.468335 0.512369
0.475438 0.474771 0.518805
0.476906 0.481206 0.525240
0.478375 0.487641 0.531675
0.479844 0.494077 0.538111
0.481312 0.500512 0.544546
0.482781 0.506947 0.550981
0.484249 0.513383 0.557417
0.485718 0.519818 0.563852
0.486603 0.476003 0.525003
0.488072 0.482438 0.531439
0.489540 0.488873 0.537874
0.491009 0.495308 0.544309
0.492477 0.501744 0.550745
0.493946 0.508179 0.557180
0.495414 0.514614 0.563615
0.496883 0.521050 0.570051
0.498351 0.527485 0.576486
0.499237 0.483670 0.537637
0.500706 0.490105 0.544073
0.502174 0.496540 0.550508
0.503643 0.502976 0.556943
0.505111 0.509411 0.563379
0.506580 0.515846 0.569814
0.508048 0.522282 0.576249
0.509517 0.528717 0.582684
0.510985 0.535152 0.589120
0.511871 0.491337 0.550271
0.513340 0.497772 0.556706
0.514808 0.504207 0.563142
0.516277 0.510643 0.569577
0.517745 0.517078 0.576012
0.519214 0.523513 0.582448
0.520682 0.529949 0.588883
0.522151 0.536384 0.595318
0.523619 0.542819 0.601754
0.413254 0.432454 0.446687
0.414722 0.438889 0.453122
0.416191 0.445324 0.459557
0.417659 0.451760 0.465993
0.419128 0.458195 0.472428
0.420596 0.464630 0.478863
0.422065 0.471066 0.485299
0.423533 0.477501 0.491734
0.425002 0.483936 0.498169
0.425887 0.440121 0.459321
0.427356 0.446556 0.465756
0.428825 0.452991 0.472191
0.430293 0.459427 0.478627
0.431762 0.465862 0.485062
0.433230 0.472297 0.491497
0.434699 0.478733 0.497933
0.436167 0.485168 0.504368
0.437636 0.491603 0.510803
0.438521 0.447788 0.471955
0.439990 0.454223 0.478390
0.441458 0.460658 0.484825
0.442927 0.467094 0.491261
0.444395 0.473529 0.497696
0.445864 0.479964 0.504131
0.447332 0.486400 0.510567
0.448801 0.492835 0.517002
0.450270 0.499270 0.523437
0.451155 0.455455 0.484588
0.452624 0.461890 0.491024
0.454092 0.468326 0.497459
0.455561 0.474761 0.503894
0.457029 0.481196 0.510330
0.458498 0.487631 0.516765
0.459966 0.494067 0.523200
0.461435 0.500502 0.529636
0.462903 0.506937 0.536071
0.463789 0.463122 0.497222
0.465258 0.469557 0.503658
0.466726 0.475993 0.510093
0.468195 0.482428 0.516528
0.469663 0.488863 0.522964
0.471132 0.495299 0.529399
0.472600 0.501734 0.535834
0.474069 0.508169 0.542270
0.475537 0.514605 0.548705
0.476423 0.470789 0.509856
0.477892 0.477224 0.516292
0.479360 0.483660 0.522727
0.480829 0.490095 0.529162
0.482297 0.496530 0.535598
0.483766 0.502966 0.542033
0.485234 0.509401 0.548468
0.486703 0.515836 0.554903
0.488171 0.522272 0.561339
0.489057 0.478456 0.522490
0.490525 0.484891 0.528925
0.491994 0.491327 0.535361
0.493462 0.497762 0.541796
0.494931 0.504197 0.548231
0.496400 0.510633 0.554667
0.497868 0.517068 0.561102
0.499337 0.523503 0.567537
0.500805 0.529939 0.573973
0.501691 0.486123 0.535124
0.503159 0.492559 0.541559
0.504628 0.498994 0.547995
0.506096 0.505429 0.554430
0.507565 0.511864 0.560865
0.509033 0.518300 0.567301
0.510502 0.524735 0.573736
0.511970 0.531170 0.580171
0.513439 0.537606 0.586607
0.514325 0.493790 0.547758
0.515793 0.500226 0.554193
0.517262 0.506661 0.560629
0.518730 0.513096 0.567064
0.520199 0.519532 0.573499
0.521667 0.525967 0.579935
0.523136 0.532402 0.586370
0.524604 0.538838 0.592805
0.526073 0.545273 0.599240
0.415707 0.434907 0.444174
0.417176 0.441343 0.450609
0.418644 0.447778 0.457044
0.420113 0.454213 0.463480
0.421581 0.460648 0.469915
0.423050 0.467084 0.476350
0.424518 0.473519 0.482786
0.425987 0.479954 0.489221
0.427455 0.486390 0.495656
0.428341 0.442574 0.456807
0.429810 0.449010 0.463243
0.431278 0.455445 0.469678
0.432747 0.461880 0.476113
0.434215 0.468316 0.482549
0.435684 0.474751 0.488984
0.437152 0.481186 0.495419
0.438621 0.487622 0.501855
0.440089 0.494057 0.508290
0.440975 0.450241 0.469441
0.442443 0.456677 0.475877
0.443912 0.463112 0.482312
0.445381 0.469547 0.488747
0.446849 0.475983 0.495183
0.448318 0.482418 0.501618
0.449786 0.488853 0.508053
0.451255 0.495289 0.514489
0.452723 0.501724 0.520924
0.453609 0.457908 0.482075
0.455077 0.464344 0.488511
0.456546 0.470779 0.494946
0.458014 0.477214 0.501381
0.459483 0.483650 0.507817
0.460951 0.490085 0.514252
0.462420 0.496520 0.520687
0.463888 0.502956 0.527123
0.465357 0.509391 0.533558
0.466243 0.465576 0.494709
0.467711 0.472011 0.501144
0.469180 0.478446 0.507580
0.470648 0.484882 0.514015
0.472117 0.491317 0.520450
0.473585 0.497752 0.526886
0.475054 0.504187 0.533321
0.476522 0.510623 0.539756
0.477991 0.517058 0.546192
0.478877 0.473243 0.507343
0.480345 0.479678 0.513778
0.481814 0.486113 0.520214
0.483282 0.492549 0.526649
0.484751 0.498984 0.533084
0.486219 0.505419 0.539520
0.487688 0.511855 0.545955
0.489156 0.518290 0.552390
0.490625 0.524725 0.558826
0.491511 0.480910 0.519977
0.492979 0.487345 0.526412
0.494448 0.493780 0.532848
0.495916 0.500216 0.539283
0.497385 0.506651 0.545718
0.498853 0.513086 0.552154
0.500322 0.519522 0.558589
0.501790 0.525957 0.565024
0.503259 0.532392 0.571460
0.504144 0.488577 0.532611
0.505613 0.495012 0.539046
0.507081 0.501447 0.545481
0.508550 0.507883 0.551917
0.510019 0.514318 0.558352
0.511487 0.520753 0.564787
0.512956 0.527189 0.571223
0.514424 0.533624 0.577658
0.515893 0.540059 0.584093
0.516778 0.496244 0.545245
0.518247 0.502679 0.551680
0.519715 0.509115 0.558115
0.521184 0.515550 0.564551
0.522652 0.521985 0.570986
0.524121 0.528421 0.577421
0.525589 0.534856 0.583857
0.527058 0.541291 0.590292
0.528526 0.547726 0.596727
0.418161 0.437361 0.441660
0.419629 0.443796 0.448096
0.421098 0.450231 0.454531
0.422566 0.456667 0.460966
0.424035 0.463102 0.467402
0.425503 0.469537 0.473837
0.426972 0.475973 0.480272
0.428440 0.482408 0.486708
0.429909 0.488843 0.493143
0.430795 0.445028 0.454294
0.432263 0.451463 0.460730
0.433732 0.457899 0.467165
0.435200 0.464334 0.473600
0.436669 0.470769 0.480036
0.438137 0.477204 0.486471
0.439606 0.483640 0.492906
0.441074 0.490075 0.499342
0.442543 0.496510 0.505777
0.443429 0.452695 0.466928
0.444897 0.459130 0.473363
0.446366 0.465566 0.479799
0.447834 0.472001 0.486234
0.449303 0.478436 0.492669
0.450771 0.484872 0.499105
0.452240 0.491307 0.505540
0.453708 0.497742 0.511975
0.455177 0.504178 0.518411
0.456062 0.460362 0.479562
0.457531 0.466797 0.485997
0.459000 0.473233 0.492433
0.460468 0.479668 0.498868
0.461937 0.486103 0.505303
0.463405 0.492539 0.511739
0.464874 0.498974 0.518174
0.466342 0.505409 0.524609
0.467811 0.511845 0.531045
0.468696 0.468029 0.492196
0.470165 0.474464 0.498631
0.471633 0.480900 0.505067
0.473102 0.487335 0.511502
0.474570 0.493770 0.517937
0.476039 0.500206 0.524373
0.477507 0.506641 0.530808
0.478976 0.513076 0.537243
0.480445 0.519512 0.543679
0.481330 0.475696 0.504830
0.482799 0.482132 0.511265
0.484267 0.488567 0.517700
0.485736 0.495002 0.524136
0.487204 0.501438 0.530571
0.488673 0.507873 0.537006
0.490141 0.514308 0.543442
0.491610 0.520743 0.549877
0.493078 0.527179 0.556312
0.493964 0.483363 0.517464
0.495433 0.489799 0.523899
0.496901 0.496234 0.530334
0.498370 0.502669 0.536770
0.499838 0.509105 0.543205
0.501307 0.515540 0.549640
0.502775 0.521975 0.556076
0.504244 0.528411 0.562511
0.505712 0.534846 0.568946
0.506598 0.491030 0.530098
0.508067 0.497466 0.536533
0.509535 0.503901 0.542968
0.511004 0.510336 0.549404
0.512472 0.516772 0.555839
0.513941 0.523207 0.562274
0.515409 0.529642 0.568710
0.516878 0.536078 0.575145
0.518346 0.542513 0.581580
0.519232 0.498698 0.542732
0.520700 0.505133 0.549167
0.522169 0.511568 0.555602
0.523637 0.518003 0.562037
0.525106 0.524439 0.568473
0.526575 0.530874 0.574908
0.528043 0.537309 0.581343
0.529512 0.543745 0.587779
0.530980 0.550180 0.594214
0.420614 0.439814 0.439147
0.422083 0.446250 0.445583
0.423551 0.452685 0.452018
0.425020 0.459120 0.458453
0.426488 0.465556 0.464888
0.427957 0.471991 0.471324
0.429426 0.478426 0.477759
0.430894 0.484862 0.484194
0.432363 0.491297 0.490630
0.433248 0.447481 0.451781
0.434717 0.453917 0.458216
0.436185 0.460352 0.464652
0.437654 0.466787 0.471087
0.439122 0.473223 0.477522
0.440591 0.479658 0.483958
0.442059 0.486093 0.490393
0.443528 0.492529 0.496828
0.444996 0.498964 0.503264
0.445882 0.455149 0.464415
0.447351 0.461584 0.470850
0.448819 0.468019 0.477286
0.450288 0.474455 0.483721
0.451756 0.480890 0.490156
0.453225 0.487325 0.496592
0.454693 0.493761 0.503027
0.456162 0.500196 0.509462
0.457630 0.506631 0.515898
0.458516 0.462816 0.477049
0.459985 0.469251 0.483484
0.461453 0.475686 0.489920
0.462922 0.482122 0.496355
0.464390 0.488557 0.502790
0.465859 0.494992 0.509225
0.467327 0.501428 0.515661
0.468796 0.507863 0.522096
0.470264 0.514298 0.528531
0.471150 0.470483 0.489683
0.472618 0.476918 0.496118
0.474087 0.483353 0.502553
0.475556 0.489789 0.508989
0.477024 0.496224 0.515424
0.478493 0.502659 0.521859
0.479961 0.509095 0.528295
0.481430 0.515530 0.534730
0.482898 0.521965 0.541165
0.483784 0.478150 0.502317
0.485252 0.484585 0.508752
0.486721 0.491020 0.515187
0.488189 0.497456 0.521623
0.489658 0.503891 0.528058
0.491126 0.510326 0.534493
0.492595 0.516762 0.540929
0.494063 0.523197 0.547364
0.495532 0.529632 0.553799
0.496418 0.485817 0.514951
0.497886 0.492252 0.521386
0.499355 0.498688 0.527821
0.500823 0.505123 0.534256
0.502292 0.511558 0.540692
0.503760 0.517994 0.547127
0.505229 0.524429 0.553562
0.506697 0.530864 0.559998
0.508166 0.537299 0.566433
0.509052 0.493484 0.527584
0.510520 0.499919 0.534020
0.511989 0.506355 0.540455
0.513457 0.512790 0.546890
0.514926 0.519225 0.553326
0.516394 0.525661 0.559761
0.517863 0.532096 0.566196
0.519331 0.538531 0.572632
0.520800 0.544967 0.579067
0.521686 0.501151 0.540218
0.523154 0.507586 0.546654
0.524623 0.514022 0.553089
0.526091 0.520457 0.559524
0.527560 0.526892 0.565960
0.529028 0.533328 0.572395
0.530497 0.539763 0.578830
0.531965 0.546198 0.585266
0.533434 0.552634 0.591701
0.423068 0.442268 0.436634
0.424537 0.448703 0.443069
0.426005 0.455139 0.449505
0.427474 0.461574 0.455940
0.428942 0.468009 0.462375
0.430411 0.474445 0.468811
0.431879 0.480880 0.475246
0.433348 0.487315 0.481681
0.434816 0.493751 0.488117
0.435702 0.449935 0.449268
0.437170 0.456370 0.455703
0.438639 0.462806 0.462139
0.440107 0.469241 0.468574
0.441576 0.475676 0.475009
0.443044 0.482112 0.481444
0.444513 0.488547 0.487880
0.445982 0.494982 0.494315
0.447450 0.501418 0.500750
0.448336 0.457602 0.461902
0.449804 0.464037 0.468337
0.451273 0.470473 0.474772
0.452741 0.476908 0.481208
0.454210 0.483343 0.487643
0.455678 0.489779 0.494078
0.457147 0.496214 0.500514
0.458615 0.502649 0.506949
0.460084 0.509085 0.513384
0.460970 0.465269 0.474536
0.462438 0.471705 0.480971
0.463907 0.478140 0.487406
0.465375 0.484575 0.493842
0.466844 0.491011 0.500277
0.468312 0.497446 0.506712
0.469781 0.503881 0.513148
0.471249 0.510317 0.519583
0.472718 0.516752 0.526018
0.473604 0.472936 0.487170
0.475072 0.479372 0.493605
0.476541 0.485807 0.500040
0.478009 0.492242 0.506476
0.479478 0.498678 0.512911
0.480946 0.505113 0.519346
0.482415 0.511548 0.525781
0.483883 0.517984 0.532217
0.485352 0.524419 0.538652
0.486237 0.480603 0.499803
0.487706 0.487039 0.506239
0.489174 0.493474 0.512674
0.490643 0.499909 0.519109
0.492112 0.506345 0.525545
0.493580 0.512780 0.531980
0.495049 0.519215 0.538415
0.496517 0.525651 0.544851
0.497986 0.532086 0.551286
0.498871 0.488271 0.512437
0.500340 0.494706 0.518873
0.501808 0.501141 0.525308
0.503277 0.507576 0.531743
0.504745 0.514012 0.538179
0.506214 0.520447 0.544614
0.507682 0.526882 0.551049
0.509151 0.533318 0.557485
0.510619 0.539753 0.563920
0.511505 0.495938 0.525071
0.512974 0.502373 0.531507
0.514442 0.508808 0.537942
0.515911 0.515244 0.544377
0.517379 0.521679 0.550813
0.518848 0.528114 0.557248
0.520316 0.534550 0.563683
0.521785 0.540985 0.570118
0.523253 0.547420 0.576554
0.524139 0.503605 0.537705
0.525608 0.510040 0.544140
0.527076 0.516475 0.550576
0.528545 0.522911 0.557011
0.530013 0.529346 0.563446
0.531482 0.535781 0.569882
0.532950 0.542217 0.576317
0.534419 0.548652 0.582752
0.535887 0.555087 0.589188
0.425522 0.444722 0.434121
0.426990 0.451157 0.440556
0.428459 0.457592 0.446991
0.429927 0.464028 0.453427
0.431396 0.470463 0.459862
0.432864 0.476898 0.466297
0.434333 0.483334 0.472733
0.435801 0.489769 0.479168
0.437270 0.496204 0.485603
0.438155 0.452389 0.446755
0.439624 0.458824 0.453190
0.441093 0.465259 0.459625
0.442561 0.471695 0.466061
0.444030 0.478130 0.472496
0.445498 0.484565 0.478931
0.446967 0.491001 0.485367
0.448435 0.497436 0.491802
0.449904 0.503871 0.498237
0.450789 0.460056 0.459389
0.452258 0.466491 0.465824
0.453726 0.472926 0.472259
0.455195 0.479362 0.478695
0.456663 0.485797 0.485130
0.458132 0.492232 0.491565
0.459600 0.498668 0.498000
0.461069 0.505103 0.504436
0.462538 0.511538 0.510871
0.463423 0.467723 0.472022
0.464892 0.474158 0.478458
0.466360 0.480594 0.484893
0.467829 0.487029 0.491328
0.469297 0.493464 0.497764
0.470766 0.499899 0.504199
0.472234 0.506335 0.510634
0.473703 0.512770 0.517070
0.475171 0.519205 0.523505
0.476057 0.475390 0.484656
0.477526 0.481825 0.491092
0.478994 0.488261 0.497527
0.480463 0.494696 0.503962
0.481931 0.501131 0.510398
0.483400 0.507567 0.516833
0.484868 0.514002 0.523268
0.486337 0.520437 0.529704
0.487805 0.526873 0.536139
0.488691 0.483057 0.497290
0.490160 0.489492 0.503726
0.491628 0.495928 0.510161
0.493097 0.502363 0.516596
0.494565 0.508798 0.523032
0.496034 0.515234 0.529467
0.497502 0.521669 0.535902
0.498971 0.528104 0.542337
0.500439 0.534540 0.548773
0.501325 0.490724 0.509924
0.502793 0.497159 0.516359
0.504262 0.503595 0.522795
0.505730 0.510030 0.529230
0.507199 0.516465 0.535665
0.508668 0.522901 0.542101
0.510136 0.529336 0.548536
0.511605 0.535771 0.554971
0.513073 0.542207 0.561407
0.513959 0.498391 0.522558
0.515427 0.504827 0.528993
0.516896 0.511262 0.535429
0.518364 0.517697 0.541864
0.519833 0.524132 0.548299
0.521301 0.530568 0.554735
0.522770 0.537003 0.561170
0.524238 0.543438 0.567605
0.525707 0.549874 0.574041
0.526593 0.506058 0.535192
0.528061 0.512494 0.541627
0.529530 0.518929 0.548063
0.530998 0.525364 0.554498
0.532467 0.531800 0.560933
0.533935 0.538235 0.567369
0.535404 0.544670 0.573804
0.536872 0.551106 0.580239
0.538341 0.557541 0.586674
0.427975 0.447175 0.431608
0.429444 0.453611 0.438043
0.430912 0.460046 0.444478
0.432381 0.466481 0.450914
0.433849 0.472916 0.457349
0.435318 0.479352 0.463784
0.436786 0.485787 0.470220
0.438255 0.492222 0.476655
0.439723 0.498658 0.483090
0.440609 0.454842 0.444241
0.442078 0.461278 0.450677
0.443546 0.467713 0.457112
0.445015 0.474148 0.463547
0.446483 0.480584 0.469983
0.447952 0.487019 0.476418
0.449420 0.493454 0.482853
0.450889 0.499890 0.489289
0.452357 0.506325 0.495724
0.453243 0.462509 0.456875
0.454712 0.468945 0.463311
0.456180 0.475380 0.469746
0.457649 0.481815 0.476181
0.459117 0.488251 0.482617
0.460586 0.494686 0.489052
0.462054 0.501121 0.495487
0.463523 0.507557 0.501923
0.464991 0.513992 0.508358
0.465877 0.470176 0.469509
0.467345 0.476612 0.475945
0.468814 0.483047 0.482380
0.470282 0.489482 0.488815
0.471751 0.495918 0.495251
0.473219 0.502353 0.501686
0.474688 0.508788 0.508121
0.476157 0.515224 0.514557
0.477625 0.521659 0.520992
0.478511 0.477844 0.482143
0.479979 0.484279 0.488578
0.481448 0.490714 0.495014
0.482916 0.497150 0.501449
0.484385 0.503585 0.507884
0.485853 0.510020 0.514320
0.487322 0.516455 0.520755
0.488790 0.522891 0.527190
0.490259 0.529326 0.533626
0.491145 0.485511 0.494777
0.492613 0.491946 0.501212
0.494082 0.498381 0.507648
0.495550 0.504817 0.514083
0.497019 0.511252 0.520518
0.498487 0.517687 0.526954
0.499956 0.524123 0.533389
0.501424 0.530558 0.539824
0.502893 0.536993 0.546260
0.503779 0.493178 0.507411
0.505247 0.499613 0.513846
0.506716 0.506048 0.520282
0.508184 0.512484 0.526717
0.509653 0.518919 0.533152
0.511121 0.525354 0.539588
0.512590 0.531790 0.546023
0.514058 0.538225 0.552458
0.515527 0.544660 0.558893
0.516412 0.500845 0.520045
0.517881 0.507280 0.526480
0.519349 0.513715 0.532915
0.520818 0.520151 0.539351
0.522287 0.526586 0.545786
0.523755 0.533021 0.552221
0.525224 0.539457 0.558657
0.526692 0.545892 0.565092
0.528161 0.552327 0.571527
0.529046 0.508512 0.532679
0.530515 0.514947 0.539114
0.531983 0.521383 0.545549
0.533452 0.527818 0.551985
0.534920 0.534253 0.558420
0.536389 0.540689 0.564855
0.537857 0.547124 0.571291
0.539326 0.553559 0.577726
0.540794 0.559994 0.584161
0.430429 0.449629 0.429094
0.431897 0.456064 0.435530
0.433366 0.462499 0.441965
0.434834 0.468935 0.448400
0.436303 0.475370 0.454836
0.437771 0.481805 0.461271
0.439240 0.488241 0.467706
0.440708 0.494676 0.474142
0.442177 0.501111 0.480577
0.443063 0.457296 0.441728
0.444531 0.463731 0.448164
0.446000 0.470167 0.454599
0.447468 0.476602 0.461034
0.448937 0.483037 0.467470
0.450405 0.489472 0.473905
0.451874 0.495908 0.480340
0.453342 0.502343 0.486776
0.454811 0.508778 0.493211
0.455697 0.464963 0.454362
0.457165 0.471398 0.460797
0.458634 0.477834 0.467233
0.460102 0.484269 0.473668
0.461571 0.490704 0.480103
0.463039 0.497140 0.486539
0.464508 0.503575 0.492974
0.465976 0.510010 0.499409
0.467445 0.516446 0.505845
0.468330 0.472630 0.466996
0.469799 0.479065 0.473431
0.471268 0.485501 0.479867
0.472736 0.491936 0.486302
0.474205 0.498371 0.492737
0.475673 0.504807 0.499173
0.477142 0.511242 0.505608
0.478610 0.517677 0.512043
0.480079 0.524113 0.518479
0.480964 0.480297 0.479630
0.482433 0.486732 0.486065
0.483901 0.493168 0.492501
0.485370 0.499603 0.498936
0.486838 0.506038 0.505371
0.488307 0.512474 0.511807
0.489775 0.518909 0.518242
0.491244 0.525344 0.524677
0.492713 0.531780 0.531113
0.493598 0.487964 0.492264
0.495067 0.494400 0.498699
0.496535 0.500835 0.505134
0.498004 0.507270 0.511570
0.499472 0.513706 0.518005
0.500941 0.520141 0.524440
0.502409 0.526576 0.530876
0.503878 0.533011 0.537311
0.505346 0.539447 0.543746
0.506232 0.495631 0.504898
0.507701 0.502067 0.511333
0.509169 0.508502 0.517768
0.510638 0.514937 0.524204
0.512106 0.521373 0.530639
0.513575 0.527808 0.537074
0.515043 0.534243 0.543510
0.516512 0.540679 0.549945
0.517980 0.547114 0.556380
0.518866 0.503298 0.517532
0.520335 0.509734 0.523967
0.521803 0.516169 0.530402
0.523272 0.522604 0.536838
0.524740 0.529040 0.543273
0.526209 0.535475 0.549708
0.527677 0.541910 0.556144
0.529146 0.548346 0.562579
0.530614 0.554781 0.569014
0.531500 0.510966 0.530166
0.532968 0.517401 0.536601
0.534437 0.523836 0.543036
0.535905 0.530271 0.549471
0.537374 0.536707 0.555907
0.538843 0.543142 0.562342
0.540311 0.549577 0.568777
0.541780 0.556013 0.575213
0.543248 0.562448 0.581648
