shared/src/main/assets/luts/drama_albuquerque_sun.cube
TITLE "DALUR Albuquerque Sun"
LUT_3D_SIZE 5
DOMAIN_MIN 0.0 0.0 0.0
DOMAIN_MAX 1.0 1.0 1.0
0.475000 0.460000 0.445000
0.484414 0.465127 0.450127
0.493829 0.470255 0.455255
0.503243 0.475382 0.460382
0.512658 0.480509 0.465509
0.485066 0.474353 0.455066
0.494481 0.479481 0.460193
0.503895 0.484608 0.465321
0.513309 0.489735 0.470448
0.522724 0.494863 0.475576
0.495132 0.488706 0.465132
0.504547 0.493834 0.470260
0.513961 0.498961 0.475387
0.523376 0.504088 0.480514
0.532790 0.509216 0.485642
0.505198 0.503060 0.475198
0.514613 0.508187 0.480326
0.524027 0.513314 0.485453
0.533442 0.518442 0.490580
0.542856 0.523569 0.495708
0.515264 0.517413 0.485264
0.524679 0.522540 0.490392
0.534093 0.527667 0.495519
0.543508 0.532795 0.500646
0.552922 0.537922 0.505774
0.476955 0.461955 0.451242
0.486369 0.467082 0.456369
0.495784 0.472210 0.461497
0.505198 0.477337 0.466624
0.514613 0.482464 0.471751
0.487021 0.476308 0.461308
0.496435 0.481435 0.466435
0.505850 0.486563 0.471563
0.515264 0.491690 0.476690
0.524679 0.496818 0.481818
0.497087 0.490661 0.471374
0.506502 0.495789 0.476502
0.515916 0.500916 0.481629
0.525330 0.506043 0.486756
0.534745 0.511171 0.491884
0.507153 0.505014 0.481440
0.516568 0.510142 0.486568
0.525982 0.515269 0.491695
0.535397 0.520397 0.496822
0.544811 0.525524 0.501950
0.517219 0.519368 0.491506
0.526634 0.524495 0.496634
0.536048 0.529622 0.501761
0.545463 0.534750 0.506888
0.554877 0.539877 0.512016
0.478910 0.463910 0.457484
0.488324 0.469037 0.462611
0.497739 0.474165 0.467739
0.507153 0.479292 0.472866
0.516568 0.484419 0.477993
0.488976 0.478263 0.467550
0.498390 0.483390 0.472677
0.507805 0.488518 0.477805
0.517219 0.493645 0.482932
0.526634 0.498772 0.488060
0.499042 0.492616 0.477616
0.508456 0.497744 0.482744
0.517871 0.502871 0.487871
0.527285 0.507998 0.492998
0.536700 0.513126 0.498126
0.509108 0.506969 0.487682
0.518523 0.512097 0.492810
0.527937 0.517224 0.497937
0.537351 0.522351 0.503064
0.546766 0.527479 0.508192
0.519174 0.521323 0.497748
0.528589 0.526450 0.502876
0.538003 0.531577 0.508003
0.547418 0.536705 0.513130
0.556832 0.541832 0.518258
0.480865 0.465865 0.463726
0.490279 0.470992 0.468853
0.499694 0.476119 0.473981
0.509108 0.481247 0.479108
0.518523 0.486374 0.484235
0.490931 0.480218 0.473792
0.500345 0.485345 0.478919
0.509760 0.490473 0.484047
0.519174 0.495600 0.489174
0.528589 0.500727 0.494302
0.500997 0.494571 0.483858
0.510411 0.499698 0.488986
0.519826 0.504826 0.494113
0.529240 0.509953 0.499240
0.538655 0.515081 0.504368
0.511063 0.508924 0.493924
0.520477 0.514052 0.499052
0.529892 0.519179 0.504179
0.539306 0.524306 0.509306
0.548721 0.529434 0.514434
0.521129 0.523278 0.503990
0.530544 0.528405 0.509118
0.539958 0.533532 0.514245
0.549373 0.538660 0.519373
0.558787 0.543787 0.524500
0.482820 0.467820 0.469968
0.492234 0.472947 0.475095
0.501649 0.478074 0.480223
0.511063 0.483202 0.485350
0.520477 0.488329 0.490477
0.492886 0.482173 0.480034
0.502300 0.487300 0.485161
0.511715 0.492428 0.490289
0.521129 0.497555 0.495416
0.530544 0.502682 0.500544
0.502952 0.496526 0.490100
0.512366 0.501653 0.495228
0.521781 0.506781 0.500355
0.531195 0.511908 0.505482
0.540610 0.517035 0.510610
0.513018 0.510879 0.500166
0.522432 0.516007 0.505294
0.531847 0.521134 0.510421
0.541261 0.526261 0.515548
0.550676 0.531389 0.520676
0.523084 0.525232 0.510232
0.532499 0.530360 0.515360
0.541913 0.535487 0.520487
0.551327 0.540615 0.525615
0.560742 0.545742 0.530742
