shared/src/main/assets/luts/drama_corporate_neutral.cube
TITLE "DALUR Corporate Neutral"
LUT_3D_SIZE 5
DOMAIN_MIN 0.0 0.0 0.0
DOMAIN_MAX 1.0 1.0 1.0
0.483000 0.480000 0.477000
0.483189 0.484244 0.481244
0.483377 0.488489 0.485489
0.483566 0.492733 0.489733
0.483754 0.496978 0.493978
0.491333 0.484277 0.485333
0.491521 0.488521 0.489577
0.491710 0.492766 0.493822
0.491899 0.497010 0.498066
0.492087 0.501255 0.502310
0.499665 0.488554 0.493665
0.499854 0.492798 0.497910
0.500043 0.497043 0.502154
0.500231 0.501287 0.506399
0.500420 0.505531 0.510643
0.507998 0.492831 0.501998
0.508187 0.497075 0.506243
0.508375 0.501320 0.510487
0.508564 0.505564 0.514731
0.508753 0.509808 0.518976
0.516331 0.497108 0.510331
0.516519 0.501352 0.514575
0.516708 0.505596 0.518820
0.516897 0.509841 0.523064
0.517085 0.514085 0.527309
0.484618 0.481618 0.474562
0.484807 0.485863 0.478807
0.484995 0.490107 0.483051
0.485184 0.494352 0.487296
0.485373 0.498596 0.491540
0.492951 0.485895 0.482895
0.493140 0.490140 0.487140
0.493328 0.494384 0.491384
0.493517 0.498628 0.495628
0.493705 0.502873 0.499873
0.501284 0.490172 0.491228
0.501472 0.494416 0.495472
0.501661 0.498661 0.499717
0.501850 0.502905 0.503961
0.502038 0.507150 0.508206
0.509616 0.494449 0.499561
0.509805 0.498693 0.503805
0.509994 0.502938 0.508049
0.510182 0.507182 0.512294
0.510371 0.511427 0.516538
0.517949 0.498726 0.507893
0.518138 0.502970 0.512138
0.518326 0.507215 0.516382
0.518515 0.511459 0.520627
0.518704 0.515704 0.524871
0.486237 0.483237 0.472125
0.486425 0.487481 0.476369
0.486614 0.491725 0.480614
0.486802 0.495970 0.484858
0.486991 0.500214 0.489103
0.494569 0.487513 0.480458
0.494758 0.491758 0.484702
0.494946 0.496002 0.488946
0.495135 0.500247 0.493191
0.495324 0.504491 0.497435
0.502902 0.491790 0.488790
0.503091 0.496035 0.493035
0.503279 0.500279 0.497279
0.503468 0.504524 0.501524
0.503656 0.508768 0.505768
0.511235 0.496067 0.497123
0.511423 0.500312 0.501367
0.511612 0.504556 0.505612
0.511801 0.508801 0.509856
0.511989 0.513045 0.514101
0.519567 0.500344 0.505456
0.519756 0.504589 0.509700
0.519945 0.508833 0.513945
0.520133 0.513077 0.518189
0.520322 0.517322 0.522433
0.487855 0.484855 0.469687
0.488043 0.489099 0.473932
0.488232 0.493344 0.478176
0.488421 0.497588 0.482421
0.488609 0.501833 0.486665
0.496188 0.489132 0.478020
0.496376 0.493376 0.482264
0.496565 0.497621 0.486509
0.496753 0.501865 0.490753
0.496942 0.506109 0.494998
0.504520 0.493409 0.486353
0.504709 0.497653 0.490597
0.504897 0.501897 0.494842
0.505086 0.506142 0.499086
0.505275 0.510386 0.503330
0.512853 0.497685 0.494685
0.513042 0.501930 0.498930
0.513230 0.506174 0.503174
0.513419 0.510419 0.507419
0.513607 0.514663 0.511663
0.521186 0.501962 0.503018
0.521374 0.506207 0.507263
0.521563 0.510451 0.511507
0.521752 0.514696 0.515752
0.521940 0.518940 0.519996
0.489473 0.486473 0.467250
0.489662 0.490718 0.471494
0.489850 0.494962 0.475739
0.490039 0.499206 0.479983
0.490228 0.503451 0.484228
0.497806 0.490750 0.475582
0.497994 0.494994 0.479827
0.498183 0.499239 0.484071
0.498372 0.503483 0.488316
0.498560 0.507728 0.492560
0.506139 0.495027 0.483915
0.506327 0.499271 0.488160
0.506516 0.503516 0.492404
0.506704 0.507760 0.496649
0.506893 0.512005 0.500893
0.514471 0.499304 0.492248
0.514660 0.503548 0.496492
0.514848 0.507793 0.500737
0.515037 0.512037 0.504981
0.515226 0.516281 0.509226
0.522804 0.503581 0.500581
0.522993 0.507825 0.504825
0.523181 0.512070 0.509070
0.523370 0.516314 0.513314
0.523558 0.520558 0.517558
