shared/src/main/assets/luts/drama_tropical_grit.cube
TITLE "DALUR Tropical Grit"
LUT_3D_SIZE 17
DOMAIN_MIN 0.0 0.0 0.0
DOMAIN_MAX 1.0 1.0 1.0
0.449000 0.442500 0.431000
0.452073 0.444433 0.432933
0.455147 0.446365 0.434865
0.458220 0.448298 0.436798
0.461294 0.450231 0.438731
0.464367 0.452164 0.440664
0.467441 0.454096 0.442596
0.470514 0.456029 0.444529
0.473588 0.457962 0.446462
0.476661 0.459895 0.448395
0.479734 0.461827 0.450327
0.482808 0.463760 0.452260
0.485881 0.465693 0.454193
0.488955 0.467626 0.456126
0.492028 0.469558 0.458058
0.495102 0.471491 0.459991
0.498175 0.473424 0.461924
0.452794 0.447435 0.434794
0.455868 0.449368 0.436727
0.458941 0.451301 0.438660
0.462015 0.453233 0.440593
0.465088 0.455166 0.442525
0.468162 0.457099 0.444458
0.471235 0.459031 0.446391
0.474308 0.460964 0.448323
0.477382 0.462897 0.450256
0.480455 0.464830 0.452189
0.483529 0.466762 0.454122
0.486602 0.468695 0.456054
0.489676 0.470628 0.457987
0.492749 0.472561 0.459920
0.495822 0.474493 0.461853
0.498896 0.476426 0.463785
0.501969 0.478359 0.465718
0.456589 0.452370 0.438589
0.459662 0.454303 0.440521
0.462736 0.456236 0.442454
0.465809 0.458168 0.444387
0.468882 0.460101 0.446320
0.471956 0.462034 0.448252
0.475029 0.463967 0.450185
0.478103 0.465899 0.452118
0.481176 0.467832 0.454051
0.484250 0.469765 0.455983
0.487323 0.471697 0.457916
0.490397 0.473630 0.459849
0.493470 0.475563 0.461782
0.496543 0.477496 0.463714
0.499617 0.479428 0.465647
0.502690 0.481361 0.467580
0.505764 0.483294 0.469512
0.460383 0.457305 0.442383
0.463457 0.459238 0.444316
0.466530 0.461171 0.446249
0.469603 0.463103 0.448181
0.472677 0.465036 0.450114
0.475750 0.466969 0.452047
0.478824 0.468902 0.453979
0.481897 0.470834 0.455912
0.484971 0.472767 0.457845
0.488044 0.474700 0.459778
0.491117 0.476633 0.461710
0.494191 0.478565 0.463643
0.497264 0.480498 0.465576
0.500338 0.482431 0.467509
0.503411 0.484363 0.469441
0.506485 0.486296 0.471374
0.509558 0.488229 0.473307
0.464177 0.462240 0.446177
0.467251 0.464173 0.448110
0.470324 0.466106 0.450043
0.473398 0.468038 0.451976
0.476471 0.469971 0.453908
0.479545 0.471904 0.455841
0.482618 0.473837 0.457774
0.485692 0.475769 0.459707
0.488765 0.477702 0.461639
0.491838 0.479635 0.463572
0.494912 0.481568 0.465505
0.497985 0.483500 0.467438
0.501059 0.485433 0.469370
0.504132 0.487366 0.471303
0.507206 0.489299 0.473236
0.510279 0.491231 0.475168
0.513352 0.493164 0.477101
0.467972 0.467175 0.449972
0.471045 0.469108 0.451905
0.474119 0.471041 0.453837
0.477192 0.472974 0.455770
0.480266 0.474906 0.457703
0.483339 0.476839 0.459635
0.486412 0.478772 0.461568
0.489486 0.480704 0.463501
0.492559 0.482637 0.465434
0.495633 0.484570 0.467366
0.498706 0.486503 0.469299
0.501780 0.488435 0.471232
0.504853 0.490368 0.473165
0.507927 0.492301 0.475097
0.511000 0.494234 0.477030
0.514073 0.496166 0.478963
0.517147 0.498099 0.480896
0.471766 0.472110 0.453766
0.474840 0.474043 0.455699
0.477913 0.475976 0.457632
0.480986 0.477909 0.459564
0.484060 0.479841 0.461497
0.487133 0.481774 0.463430
0.490207 0.483707 0.465363
0.493280 0.485640 0.467295
0.496354 0.487572 0.469228
0.499427 0.489505 0.471161
0.502501 0.491438 0.473094
0.505574 0.493370 0.475026
0.508647 0.495303 0.476959
0.511721 0.497236 0.478892
0.514794 0.499169 0.480824
0.517868 0.501101 0.482757
0.520941 0.503034 0.484690
0.475561 0.477045 0.457561
0.478634 0.478978 0.459493
0.481707 0.480911 0.461426
0.484781 0.482844 0.463359
0.487854 0.484776 0.465291
0.490928 0.486709 0.467224
0.494001 0.488642 0.469157
0.497075 0.490575 0.471090
0.500148 0.492507 0.473022
0.503221 0.494440 0.474955
0.506295 0.496373 0.476888
0.509368 0.498306 0.478821
0.512442 0.500238 0.480753
0.515515 0.502171 0.482686
0.518589 0.504104 0.484619
0.521662 0.506036 0.486552
0.524736 0.507969 0.488484
0.479355 0.481981 0.461355
0.482428 0.483913 0.463288
0.485502 0.485846 0.465220
0.488575 0.487779 0.467153
0.491649 0.489711 0.469086
0.494722 0.491644 0.471019
0.497796 0.493577 0.472951
0.500869 0.495510 0.474884
0.503942 0.497442 0.476817
0.507016 0.499375 0.478750
0.510089 0.501308 0.480682
0.513163 0.503241 0.482615
0.516236 0.505173 0.484548
0.519310 0.507106 0.486480
0.522383 0.509039 0.488413
0.525456 0.510972 0.490346
0.528530 0.512904 0.492279
0.483149 0.486916 0.465149
0.486223 0.488848 0.467082
0.489296 0.490781 0.469015
0.492370 0.492714 0.470947
0.495443 0.494647 0.472880
0.498516 0.496579 0.474813
0.501590 0.498512 0.476746
0.504663 0.500445 0.478678
0.507737 0.502377 0.480611
0.510810 0.504310 0.482544
0.513884 0.506243 0.484477
0.516957 0.508176 0.486409
0.520031 0.510108 0.488342
0.523104 0.512041 0.490275
0.526177 0.513974 0.492208
0.529251 0.515907 0.494140
0.532324 0.517839 0.496073
0.486944 0.491851 0.468944
0.490017 0.493783 0.470876
0.493091 0.495716 0.472809
0.496164 0.497649 0.474742
0.499237 0.499582 0.476675
0.502311 0.501514 0.478607
0.505384 0.503447 0.480540
0.508458 0.505380 0.482473
0.511531 0.507313 0.484405
0.514605 0.509245 0.486338
0.517678 0.511178 0.488271
0.520751 0.513111 0.490204
0.523825 0.515043 0.492136
0.526898 0.516976 0.494069
0.529972 0.518909 0.496002
0.533045 0.520842 0.497935
0.536119 0.522774 0.499867
0.490738 0.496786 0.472738
0.493811 0.498718 0.474671
0.496885 0.500651 0.476603
0.499958 0.502584 0.478536
0.503032 0.504517 0.480469
0.506105 0.506449 0.482402
0.509179 0.508382 0.484334
0.512252 0.510315 0.486267
0.515325 0.512248 0.488200
0.518399 0.514180 0.490133
0.521472 0.516113 0.492065
0.524546 0.518046 0.493998
0.527619 0.519979 0.495931
0.530693 0.521911 0.497864
0.533766 0.523844 0.499796
0.536840 0.525777 0.501729
0.539913 0.527709 0.503662
0.494532 0.501721 0.476532
0.497606 0.503654 0.478465
0.500679 0.505586 0.480398
0.503753 0.507519 0.482331
0.506826 0.509452 0.484263
0.509900 0.511384 0.486196
0.512973 0.513317 0.488129
0.516046 0.515250 0.490061
0.519120 0.517183 0.491994
0.522193 0.519115 0.493927
0.525267 0.521048 0.495860
0.528340 0.522981 0.497792
0.531414 0.524914 0.499725
0.534487 0.526846 0.501658
0.537560 0.528779 0.503591
0.540634 0.530712 0.505523
0.543707 0.532645 0.507456
0.498327 0.506656 0.480327
0.501400 0.508589 0.482259
0.504474 0.510521 0.484192
0.507547 0.512454 0.486125
0.510620 0.514387 0.488058
0.513694 0.516320 0.489990
0.516767 0.518252 0.491923
0.519841 0.520185 0.493856
0.522914 0.522118 0.495789
0.525988 0.524050 0.497721
0.529061 0.525983 0.499654
0.532135 0.527916 0.501587
0.535208 0.529849 0.503520
0.538281 0.531781 0.505452
0.541355 0.533714 0.507385
0.544428 0.535647 0.509318
0.547502 0.537580 0.511250
0.502121 0.511591 0.484121
0.505195 0.513524 0.486054
0.508268 0.515456 0.487987
0.511341 0.517389 0.489919
0.514415 0.519322 0.491852
0.517488 0.521255 0.493785
0.520562 0.523187 0.495717
0.523635 0.525120 0.497650
0.526709 0.527053 0.499583
0.529782 0.528986 0.501516
0.532855 0.530918 0.503448
0.535929 0.532851 0.505381
0.539002 0.534784 0.507314
0.542076 0.536716 0.509247
0.545149 0.538649 0.511179
0.548223 0.540582 0.513112
0.551296 0.542515 0.515045
0.505915 0.516526 0.487915
0.508989 0.518459 0.489848
0.512062 0.520391 0.491781
0.515136 0.522324 0.493714
0.518209 0.524257 0.495646
0.521283 0.526190 0.497579
0.524356 0.528122 0.499512
0.527430 0.530055 0.501445
0.530503 0.531988 0.503377
0.533576 0.533921 0.505310
0.536650 0.535853 0.507243
0.539723 0.537786 0.509176
0.542797 0.539719 0.511108
0.545870 0.541652 0.513041
0.548944 0.543584 0.514974
0.552017 0.545517 0.516906
0.555090 0.547450 0.518839
0.509710 0.521461 0.491710
0.512783 0.523394 0.493643
0.515857 0.525327 0.495575
0.518930 0.527259 0.497508
0.522004 0.529192 0.499441
0.525077 0.531125 0.501373
0.528150 0.533057 0.503306
0.531224 0.534990 0.505239
0.534297 0.536923 0.507172
0.537371 0.538856 0.509104
0.540444 0.540788 0.511037
0.543518 0.542721 0.512970
0.546591 0.544654 0.514903
0.549665 0.546587 0.516835
0.552738 0.548519 0.518768
0.555811 0.550452 0.520701
0.558885 0.552385 0.522634
0.449737 0.443237 0.432878
0.452810 0.445170 0.434810
0.455884 0.447102 0.436743
0.458957 0.449035 0.438676
0.462031 0.450968 0.440609
0.465104 0.452901 0.442541
0.468178 0.454833 0.444474
0.471251 0.456766 0.446407
0.474324 0.458699 0.448339
0.477398 0.460631 0.450272
0.480471 0.462564 0.452205
0.483545 0.464497 0.454138
0.486618 0.466430 0.456070
0.489692 0.468362 0.458003
0.492765 0.470295 0.459936
0.495838 0.472228 0.461869
0.498912 0.474161 0.463801
0.453531 0.448172 0.436672
0.456605 0.450105 0.438605
0.459678 0.452037 0.440537
0.462752 0.453970 0.442470
0.465825 0.455903 0.444403
0.468898 0.457836 0.446336
0.471972 0.459768 0.448268
0.475045 0.461701 0.450201
0.478119 0.463634 0.452134
0.481192 0.465567 0.454067
0.484266 0.467499 0.455999
0.487339 0.469432 0.457932
0.490413 0.471365 0.459865
0.493486 0.473297 0.461797
0.496559 0.475230 0.463730
0.499633 0.477163 0.465663
0.502706 0.479096 0.467596
0.457326 0.453107 0.440466
0.460399 0.455040 0.442399
0.463472 0.456972 0.444332
0.466546 0.458905 0.446265
0.469619 0.460838 0.448197
0.472693 0.462771 0.450130
0.475766 0.464703 0.452063
0.478840 0.466636 0.453995
0.481913 0.468569 0.455928
0.484987 0.470502 0.457861
0.488060 0.472434 0.459794
0.491133 0.474367 0.461726
0.494207 0.476300 0.463659
0.497280 0.478233 0.465592
0.500354 0.480165 0.467525
0.503427 0.482098 0.469457
0.506501 0.484031 0.471390
0.461120 0.458042 0.444261
0.464193 0.459975 0.446193
0.467267 0.461908 0.448126
0.470340 0.463840 0.450059
0.473414 0.465773 0.451992
0.476487 0.467706 0.453924
0.479561 0.469638 0.455857
0.482634 0.471571 0.457790
0.485707 0.473504 0.459723
0.488781 0.475437 0.461655
0.491854 0.477369 0.463588
0.494928 0.479302 0.465521
0.498001 0.481235 0.467453
0.501075 0.483168 0.469386
0.504148 0.485100 0.471319
0.507222 0.487033 0.473252
0.510295 0.488966 0.475184
0.464914 0.462977 0.448055
0.467988 0.464910 0.449988
0.471061 0.466843 0.451921
0.474135 0.468775 0.453853
0.477208 0.470708 0.455786
0.480282 0.472641 0.457719
0.483355 0.474574 0.459651
0.486428 0.476506 0.461584
0.489502 0.478439 0.463517
0.492575 0.480372 0.465450
0.495649 0.482305 0.467382
0.498722 0.484237 0.469315
0.501796 0.486170 0.471248
0.504869 0.488103 0.473181
0.507942 0.490035 0.475113
0.511016 0.491968 0.477046
0.514089 0.493901 0.478979
0.468709 0.467912 0.451849
0.471782 0.469845 0.453782
0.474856 0.471778 0.455715
0.477929 0.473710 0.457648
0.481002 0.475643 0.459580
0.484076 0.477576 0.461513
0.487149 0.479509 0.463446
0.490223 0.481441 0.465379
0.493296 0.483374 0.467311
0.496370 0.485307 0.469244
0.499443 0.487240 0.471177
0.502517 0.489172 0.473109
0.505590 0.491105 0.475042
0.508663 0.493038 0.476975
0.511737 0.494971 0.478908
0.514810 0.496903 0.480840
0.517884 0.498836 0.482773
0.472503 0.472847 0.455644
0.475577 0.474780 0.457577
0.478650 0.476713 0.459509
0.481723 0.478646 0.461442
0.484797 0.480578 0.463375
0.487870 0.482511 0.465307
0.490944 0.484444 0.467240
0.494017 0.486376 0.469173
0.497091 0.488309 0.471106
0.500164 0.490242 0.473038
0.503237 0.492175 0.474971
0.506311 0.494107 0.476904
0.509384 0.496040 0.478837
0.512458 0.497973 0.480769
0.515531 0.499906 0.482702
0.518605 0.501838 0.484635
0.521678 0.503771 0.486568
0.476297 0.477782 0.459438
0.479371 0.479715 0.461371
0.482444 0.481648 0.463304
0.485518 0.483581 0.465236
0.488591 0.485513 0.467169
0.491665 0.487446 0.469102
0.494738 0.489379 0.471035
0.497812 0.491312 0.472967
0.500885 0.493244 0.474900
0.503958 0.495177 0.476833
0.507032 0.497110 0.478765
0.510105 0.499042 0.480698
0.513179 0.500975 0.482631
0.516252 0.502908 0.484564
0.519326 0.504841 0.486496
0.522399 0.506773 0.488429
0.525472 0.508706 0.490362
0.480092 0.482717 0.463233
0.483165 0.484650 0.465165
0.486239 0.486583 0.467098
0.489312 0.488516 0.469031
0.492386 0.490448 0.470963
0.495459 0.492381 0.472896
0.498532 0.494314 0.474829
0.501606 0.496247 0.476762
0.504679 0.498179 0.478694
0.507753 0.500112 0.480627
0.510826 0.502045 0.482560
0.513900 0.503978 0.484493
0.516973 0.505910 0.486425
0.520046 0.507843 0.488358
0.523120 0.509776 0.490291
0.526193 0.511708 0.492224
0.529267 0.513641 0.494156
0.483886 0.487653 0.467027
0.486960 0.489585 0.468960
0.490033 0.491518 0.470892
0.493106 0.493451 0.472825
0.496180 0.495383 0.474758
0.499253 0.497316 0.476691
0.502327 0.499249 0.478623
0.505400 0.501182 0.480556
0.508474 0.503114 0.482489
0.511547 0.505047 0.484421
0.514621 0.506980 0.486354
0.517694 0.508913 0.488287
0.520767 0.510845 0.490220
0.523841 0.512778 0.492152
0.526914 0.514711 0.494085
0.529988 0.516644 0.496018
0.533061 0.518576 0.497951
0.487681 0.492588 0.470821
0.490754 0.494520 0.472754
0.493827 0.496453 0.474687
0.496901 0.498386 0.476619
0.499974 0.500319 0.478552
0.503048 0.502251 0.480485
0.506121 0.504184 0.482418
0.509195 0.506117 0.484350
0.512268 0.508049 0.486283
0.515341 0.509982 0.488216
0.518415 0.511915 0.490149
0.521488 0.513848 0.492081
0.524562 0.515780 0.494014
0.527635 0.517713 0.495947
0.530709 0.519646 0.497879
0.533782 0.521579 0.499812
0.536856 0.523511 0.501745
0.491475 0.497523 0.474616
0.494548 0.499455 0.476548
0.497622 0.501388 0.478481
0.500695 0.503321 0.480414
0.503769 0.505254 0.482347
0.506842 0.507186 0.484279
0.509916 0.509119 0.486212
0.512989 0.511052 0.488145
0.516062 0.512985 0.490077
0.519136 0.514917 0.492010
0.522209 0.516850 0.493943
0.525283 0.518783 0.495876
0.528356 0.520715 0.497808
0.531430 0.522648 0.499741
0.534503 0.524581 0.501674
0.537576 0.526514 0.503607
0.540650 0.528446 0.505539
0.495269 0.502458 0.478410
0.498343 0.504390 0.480343
0.501416 0.506323 0.482275
0.504490 0.508256 0.484208
0.507563 0.510189 0.486141
0.510636 0.512121 0.488074
0.513710 0.514054 0.490006
0.516783 0.515987 0.491939
0.519857 0.517920 0.493872
0.522930 0.519852 0.495805
0.526004 0.521785 0.497737
0.529077 0.523718 0.499670
0.532151 0.525651 0.501603
0.535224 0.527583 0.503535
0.538297 0.529516 0.505468
0.541371 0.531449 0.507401
0.544444 0.533381 0.509334
0.499064 0.507393 0.482204
0.502137 0.509326 0.484137
0.505210 0.511258 0.486070
0.508284 0.513191 0.488003
0.511357 0.515124 0.489935
0.514431 0.517056 0.491868
0.517504 0.518989 0.493801
0.520578 0.520922 0.495733
0.523651 0.522855 0.497666
0.526725 0.524787 0.499599
0.529798 0.526720 0.501532
0.532871 0.528653 0.503464
0.535945 0.530586 0.505397
0.539018 0.532518 0.507330
0.542092 0.534451 0.509263
0.545165 0.536384 0.511195
0.548239 0.538317 0.513128
0.502858 0.512328 0.485999
0.505931 0.514261 0.487931
0.509005 0.516193 0.489864
0.512078 0.518126 0.491797
0.515152 0.520059 0.493730
0.518225 0.521992 0.495662
0.521299 0.523924 0.497595
0.524372 0.525857 0.499528
0.527445 0.527790 0.501461
0.530519 0.529722 0.503393
0.533592 0.531655 0.505326
0.536666 0.533588 0.507259
0.539739 0.535521 0.509191
0.542813 0.537453 0.511124
0.545886 0.539386 0.513057
0.548960 0.541319 0.514990
0.552033 0.543252 0.516922
0.506652 0.517263 0.489793
0.509726 0.519196 0.491726
0.512799 0.521128 0.493659
0.515873 0.523061 0.495591
0.518946 0.524994 0.497524
0.522020 0.526927 0.499457
0.525093 0.528859 0.501389
0.528166 0.530792 0.503322
0.531240 0.532725 0.505255
0.534313 0.534658 0.507188
0.537387 0.536590 0.509120
0.540460 0.538523 0.511053
0.543534 0.540456 0.512986
0.546607 0.542388 0.514919
0.549680 0.544321 0.516851
0.552754 0.546254 0.518784
0.555827 0.548187 0.520717
0.510447 0.522198 0.493587
0.513520 0.524131 0.495520
0.516594 0.526063 0.497453
0.519667 0.527996 0.499386
0.522740 0.529929 0.501318
0.525814 0.531862 0.503251
0.528887 0.533794 0.505184
0.531961 0.535727 0.507117
0.535034 0.537660 0.509049
0.538108 0.539593 0.510982
0.541181 0.541525 0.512915
0.544255 0.543458 0.514847
0.547328 0.545391 0.516780
0.550401 0.547324 0.518713
0.553475 0.549256 0.520646
0.556548 0.551189 0.522578
0.559622 0.553122 0.524511
0.450474 0.443974 0.434755
0.453547 0.445907 0.436688
0.456621 0.447839 0.438621
0.459694 0.449772 0.440553
0.462768 0.451705 0.442486
0.465841 0.453637 0.444419
0.468914 0.455570 0.446352
0.471988 0.457503 0.448284
0.475061 0.459436 0.450217
0.478135 0.461368 0.452150
0.481208 0.463301 0.454083
0.484282 0.465234 0.456015
0.487355 0.467167 0.457948
0.490428 0.469099 0.459881
0.493502 0.471032 0.461813
0.496575 0.472965 0.463746
0.499649 0.474898 0.465679
0.454268 0.448909 0.438550
0.457342 0.450842 0.440482
0.460415 0.452774 0.442415
0.463488 0.454707 0.444348
0.466562 0.456640 0.446280
0.469635 0.458573 0.448213
0.472709 0.460505 0.450146
0.475782 0.462438 0.452079
0.478856 0.464371 0.454011
0.481929 0.466303 0.455944
0.485003 0.468236 0.457877
0.488076 0.470169 0.459810
0.491149 0.472102 0.461742
0.494223 0.474034 0.463675
0.497296 0.475967 0.465608
0.500370 0.477900 0.467541
0.503443 0.479833 0.469473
0.458063 0.453844 0.442344
0.461136 0.455777 0.444277
0.464209 0.457709 0.446209
0.467283 0.459642 0.448142
0.470356 0.461575 0.450075
0.473430 0.463508 0.452008
0.476503 0.465440 0.453940
0.479577 0.467373 0.455873
0.482650 0.469306 0.457806
0.485723 0.471239 0.459739
0.488797 0.473171 0.461671
0.491870 0.475104 0.463604
0.494944 0.477037 0.465537
0.498017 0.478969 0.467469
0.501091 0.480902 0.469402
0.504164 0.482835 0.471335
0.507238 0.484768 0.473268
0.461857 0.458779 0.446138
0.464930 0.460712 0.448071
0.468004 0.462644 0.450004
0.471077 0.464577 0.451936
0.474151 0.466510 0.453869
0.477224 0.468443 0.455802
0.480298 0.470375 0.457735
0.483371 0.472308 0.459667
0.486444 0.474241 0.461600
0.489518 0.476174 0.463533
0.492591 0.478106 0.465466
0.495665 0.480039 0.467398
0.498738 0.481972 0.469331
0.501812 0.483905 0.471264
0.504885 0.485837 0.473197
0.507958 0.487770 0.475129
0.511032 0.489703 0.477062
0.465651 0.463714 0.449933
0.468725 0.465647 0.451865
0.471798 0.467580 0.453798
0.474872 0.469512 0.455731
0.477945 0.471445 0.457664
0.481018 0.473378 0.459596
0.484092 0.475310 0.461529
0.487165 0.477243 0.463462
0.490239 0.479176 0.465395
0.493312 0.481109 0.467327
0.496386 0.483041 0.469260
0.499459 0.484974 0.471193
0.502532 0.486907 0.473125
0.505606 0.488840 0.475058
0.508679 0.490772 0.476991
0.511753 0.492705 0.478924
0.514826 0.494638 0.480856
0.469446 0.468649 0.453727
0.472519 0.470582 0.455660
0.475592 0.472515 0.457592
0.478666 0.474447 0.459525
0.481739 0.476380 0.461458
0.484813 0.478313 0.463391
0.487886 0.480246 0.465323
0.490960 0.482178 0.467256
0.494033 0.484111 0.469189
0.497107 0.486044 0.471122
0.500180 0.487976 0.473054
0.503253 0.489909 0.474987
0.506327 0.491842 0.476920
0.509400 0.493775 0.478853
0.512474 0.495707 0.480785
0.515547 0.497640 0.482718
0.518621 0.499573 0.484651
0.473240 0.473584 0.457521
0.476313 0.475517 0.459454
0.479387 0.477450 0.461387
0.482460 0.479382 0.463320
0.485534 0.481315 0.465252
0.488607 0.483248 0.467185
0.491681 0.485181 0.469118
0.494754 0.487113 0.471051
0.497827 0.489046 0.472983
0.500901 0.490979 0.474916
0.503974 0.492912 0.476849
0.507048 0.494844 0.478781
0.510121 0.496777 0.480714
0.513195 0.498710 0.482647
0.516268 0.500642 0.484580
0.519342 0.502575 0.486512
0.522415 0.504508 0.488445
0.477034 0.478519 0.461316
0.480108 0.480452 0.463248
0.483181 0.482385 0.465181
0.486255 0.484317 0.467114
0.489328 0.486250 0.469047
0.492402 0.488183 0.470979
0.495475 0.490116 0.472912
0.498548 0.492048 0.474845
0.501622 0.493981 0.476778
0.504695 0.495914 0.478710
0.507769 0.497847 0.480643
0.510842 0.499779 0.482576
0.513916 0.501712 0.484509
0.516989 0.503645 0.486441
0.520062 0.505578 0.488374
0.523136 0.507510 0.490307
0.526209 0.509443 0.492239
0.480829 0.483454 0.465110
0.483902 0.485387 0.467043
0.486976 0.487320 0.468976
0.490049 0.489253 0.470908
0.493122 0.491185 0.472841
0.496196 0.493118 0.474774
0.499269 0.495051 0.476707
0.502343 0.496983 0.478639
0.505416 0.498916 0.480572
0.508490 0.500849 0.482505
0.511563 0.502782 0.484437
0.514637 0.504714 0.486370
0.517710 0.506647 0.488303
0.520783 0.508580 0.490236
0.523857 0.510513 0.492168
0.526930 0.512445 0.494101
0.530004 0.514378 0.496034
0.484623 0.488389 0.468904
0.487696 0.490322 0.470837
0.490770 0.492255 0.472770
0.493843 0.494188 0.474703
0.496917 0.496120 0.476635
0.499990 0.498053 0.478568
0.503064 0.499986 0.480501
0.506137 0.501919 0.482434
0.509211 0.503851 0.484366
0.512284 0.505784 0.486299
0.515357 0.507717 0.488232
0.518431 0.509649 0.490165
0.521504 0.511582 0.492097
0.524578 0.513515 0.494030
0.527651 0.515448 0.495963
0.530725 0.517380 0.497895
0.533798 0.519313 0.499828
0.488417 0.493324 0.472699
0.491491 0.495257 0.474632
0.494564 0.497190 0.476564
0.497638 0.499123 0.478497
0.500711 0.501055 0.480430
0.503785 0.502988 0.482362
0.506858 0.504921 0.484295
0.509931 0.506854 0.486228
0.513005 0.508786 0.488161
0.516078 0.510719 0.490093
0.519152 0.512652 0.492026
0.522225 0.514585 0.493959
0.525299 0.516517 0.495892
0.528372 0.518450 0.497824
0.531446 0.520383 0.499757
0.534519 0.522315 0.501690
0.537592 0.524248 0.503623
0.492212 0.498260 0.476493
0.495285 0.500192 0.478426
0.498359 0.502125 0.480359
0.501432 0.504058 0.482291
0.504506 0.505990 0.484224
0.507579 0.507923 0.486157
0.510652 0.509856 0.488090
0.513726 0.511789 0.490022
0.516799 0.513721 0.491955
0.519873 0.515654 0.493888
0.522946 0.517587 0.495821
0.526020 0.519520 0.497753
0.529093 0.521452 0.499686
0.532166 0.523385 0.501619
0.535240 0.525318 0.503551
0.538313 0.527251 0.505484
0.541387 0.529183 0.507417
0.496006 0.503195 0.480288
0.499080 0.505127 0.482220
0.502153 0.507060 0.484153
0.505226 0.508993 0.486086
0.508300 0.510926 0.488018
0.511373 0.512858 0.489951
0.514447 0.514791 0.491884
0.517520 0.516724 0.493817
0.520594 0.518656 0.495749
0.523667 0.520589 0.497682
0.526741 0.522522 0.499615
0.529814 0.524455 0.501548
0.532887 0.526387 0.503480
0.535961 0.528320 0.505413
0.539034 0.530253 0.507346
0.542108 0.532186 0.509279
0.545181 0.534118 0.511211
0.499801 0.508130 0.484082
0.502874 0.510062 0.486015
0.505947 0.511995 0.487947
0.509021 0.513928 0.489880
0.512094 0.515861 0.491813
0.515168 0.517793 0.493746
0.518241 0.519726 0.495678
0.521315 0.521659 0.497611
0.524388 0.523592 0.499544
0.527461 0.525524 0.501477
0.530535 0.527457 0.503409
0.533608 0.529390 0.505342
0.536682 0.531322 0.507275
0.539755 0.533255 0.509207
0.542829 0.535188 0.511140
0.545902 0.537121 0.513073
0.548976 0.539053 0.515006
0.503595 0.513065 0.487876
0.506668 0.514997 0.489809
0.509742 0.516930 0.491742
0.512815 0.518863 0.493674
0.515889 0.520796 0.495607
0.518962 0.522728 0.497540
0.522036 0.524661 0.499473
0.525109 0.526594 0.501405
0.528182 0.528527 0.503338
0.531256 0.530459 0.505271
0.534329 0.532392 0.507204
0.537403 0.534325 0.509136
0.540476 0.536258 0.511069
0.543550 0.538190 0.513002
0.546623 0.540123 0.514935
0.549696 0.542056 0.516867
0.552770 0.543988 0.518800
0.507389 0.518000 0.491671
0.510463 0.519933 0.493603
0.513536 0.521865 0.495536
0.516610 0.523798 0.497469
0.519683 0.525731 0.499402
0.522756 0.527663 0.501334
0.525830 0.529596 0.503267
0.528903 0.531529 0.505200
0.531977 0.533462 0.507133
0.535050 0.535394 0.509065
0.538124 0.537327 0.510998
0.541197 0.539260 0.512931
0.544270 0.541193 0.514863
0.547344 0.543125 0.516796
0.550417 0.545058 0.518729
0.553491 0.546991 0.520662
0.556564 0.548924 0.522594
0.511184 0.522935 0.495465
0.514257 0.524868 0.497398
0.517330 0.526800 0.499330
0.520404 0.528733 0.501263
0.523477 0.530666 0.503196
0.526551 0.532599 0.505129
0.529624 0.534531 0.507061
0.532698 0.536464 0.508994
0.535771 0.538397 0.510927
0.538845 0.540329 0.512860
0.541918 0.542262 0.514792
0.544991 0.544195 0.516725
0.548065 0.546128 0.518658
0.551138 0.548060 0.520591
0.554212 0.549993 0.522523
0.557285 0.551926 0.524456
0.560359 0.553859 0.526389
0.451211 0.444711 0.436633
0.454284 0.446643 0.438566
0.457358 0.448576 0.440498
0.460431 0.450509 0.442431
0.463504 0.452442 0.444364
0.466578 0.454374 0.446296
0.469651 0.456307 0.448229
0.472725 0.458240 0.450162
0.475798 0.460173 0.452095
0.478872 0.462105 0.454027
0.481945 0.464038 0.455960
0.485019 0.465971 0.457893
0.488092 0.467903 0.459826
0.491165 0.469836 0.461758
0.494239 0.471769 0.463691
0.497312 0.473702 0.465624
0.500386 0.475634 0.467557
0.455005 0.449646 0.440427
