shared/src/main/assets/luts/drama_southern_analog.cube
TITLE "DALUR Southern Analog"
LUT_3D_SIZE 5
DOMAIN_MIN 0.0 0.0 0.0
DOMAIN_MAX 1.0 1.0 1.0
0.472000 0.461000 0.448000
0.477279 0.467279 0.454279
0.482558 0.473558 0.460558
0.487837 0.479837 0.466837
0.493116 0.486116 0.473116
0.484327 0.472327 0.460327
0.489606 0.478606 0.466606
0.494885 0.484885 0.472885
0.500164 0.491164 0.479164
0.505443 0.497443 0.485443
0.496654 0.483654 0.472654
0.501933 0.489933 0.478933
0.507212 0.496212 0.485212
0.512491 0.502491 0.491491
0.517770 0.508770 0.497770
0.508981 0.494981 0.484981
0.514260 0.501260 0.491260
0.519539 0.507539 0.497539
0.524818 0.513818 0.503818
0.530097 0.520097 0.510097
0.521308 0.506308 0.497308
0.526587 0.512587 0.503587
0.531866 0.518866 0.509866
0.537145 0.525145 0.516145
0.542424 0.531424 0.522424
0.474394 0.463394 0.449394
0.479673 0.469673 0.455673
0.484952 0.475952 0.461952
0.490231 0.482231 0.468231
0.495510 0.488510 0.474510
0.486721 0.474721 0.461721
0.492000 0.481000 0.468000
0.497279 0.487279 0.474279
0.502558 0.493558 0.480558
0.507837 0.499837 0.486837
0.499048 0.486048 0.474048
0.504327 0.492327 0.480327
0.509606 0.498606 0.486606
0.514885 0.504885 0.492885
0.520164 0.511164 0.499164
0.511375 0.497375 0.486375
0.516654 0.503654 0.492654
0.521933 0.509933 0.498933
0.527212 0.516212 0.505212
0.532491 0.522491 0.511491
0.523702 0.508702 0.498702
0.528981 0.514981 0.504981
0.534260 0.521260 0.511260
0.539539 0.527539 0.517539
0.544818 0.533818 0.523818
0.476788 0.465788 0.450788
0.482067 0.472067 0.457067
0.487346 0.478346 0.463346
0.492625 0.484625 0.469625
0.497904 0.490904 0.475904
0.489115 0.477115 0.463115
0.494394 0.483394 0.469394
0.499673 0.489673 0.475673
0.504952 0.495952 0.481952
0.510231 0.502231 0.488231
0.501442 0.488442 0.475442
0.506721 0.494721 0.481721
0.512000 0.501000 0.488000
0.517279 0.507279 0.494279
0.522558 0.513558 0.500558
0.513769 0.499769 0.487769
0.519048 0.506048 0.494048
0.524327 0.512327 0.500327
0.529606 0.518606 0.506606
0.534885 0.524885 0.512885
0.526096 0.511096 0.500096
0.531375 0.517375 0.506375
0.536654 0.523654 0.512654
0.541933 0.529933 0.518933
0.547212 0.536212 0.525212
0.479182 0.468182 0.452182
0.484461 0.474461 0.458461
0.489740 0.480740 0.464740
0.495019 0.487019 0.471019
0.500298 0.493298 0.477298
0.491509 0.479509 0.464509
0.496788 0.485788 0.470788
0.502067 0.492067 0.477067
0.507346 0.498346 0.483346
0.512625 0.504625 0.489625
0.503836 0.490836 0.476836
0.509115 0.497115 0.483115
0.514394 0.503394 0.489394
0.519673 0.509673 0.495673
0.524952 0.515952 0.501952
0.516163 0.502163 0.489163
0.521442 0.508442 0.495442
0.526721 0.514721 0.501721
0.532000 0.521000 0.508000
0.537279 0.527279 0.514279
0.528490 0.513490 0.501490
0.533769 0.519769 0.507769
0.539048 0.526048 0.514048
0.544327 0.532327 0.520327
0.549606 0.538606 0.526606
0.481576 0.470576 0.453576
0.486855 0.476855 0.459855
0.492134 0.483134 0.466134
0.497413 0.489413 0.472413
0.502692 0.495692 0.478692
0.493903 0.481903 0.465903
0.499182 0.488182 0.472182
0.504461 0.494461 0.478461
0.509740 0.500740 0.484740
0.515019 0.507019 0.491019
0.506230 0.493230 0.478230
0.511509 0.499509 0.484509
0.516788 0.505788 0.490788
0.522067 0.512067 0.497067
0.527346 0.518346 0.503346
0.518557 0.504557 0.490557
0.523836 0.510836 0.496836
0.529115 0.517115 0.503115
0.534394 0.523394 0.509394
0.539673 0.529673 0.515673
0.530884 0.515884 0.502884
0.536163 0.522163 0.509163
0.541442 0.528442 0.515442
0.546721 0.534721 0.521721
0.552000 0.541000 0.528000
