shared/src/main/assets/luts/drama_purple_fever.cube
TITLE "DALUR Purple Fever"
LUT_3D_SIZE 17
DOMAIN_MIN 0.0 0.0 0.0
DOMAIN_MAX 1.0 1.0 1.0
0.416000 0.418000 0.434000
0.420929 0.419760 0.435760
0.425859 0.421520 0.437520
0.430788 0.423280 0.439280
0.435718 0.425040 0.441040
0.440647 0.426800 0.442800
0.445577 0.428560 0.444560
0.450506 0.430320 0.446320
0.455436 0.432080 0.448080
0.460365 0.433840 0.449840
0.465294 0.435600 0.451600
0.470224 0.437360 0.453360
0.475153 0.439120 0.455120
0.480083 0.440880 0.456880
0.485012 0.442640 0.458640
0.489942 0.444399 0.460399
0.494871 0.446159 0.462159
0.419455 0.424625 0.437455
0.424385 0.426385 0.439215
0.429314 0.428145 0.440975
0.434244 0.429905 0.442735
0.439173 0.431665 0.444495
0.444102 0.433424 0.446255
0.449032 0.435184 0.448015
0.453961 0.436944 0.449775
0.458891 0.438704 0.451535
0.463820 0.440464 0.453295
0.468750 0.442224 0.455055
0.473679 0.443984 0.456815
0.478609 0.445744 0.458575
0.483538 0.447504 0.460335
0.488467 0.449264 0.462095
0.493397 0.451024 0.463855
0.498326 0.452784 0.465615
0.422910 0.431249 0.440910
0.427840 0.433009 0.442670
0.432769 0.434769 0.444430
0.437699 0.436529 0.446190
0.442628 0.438289 0.447950
0.447558 0.440049 0.449710
0.452487 0.441809 0.451470
0.457416 0.443569 0.453230
0.462346 0.445329 0.454990
0.467275 0.447089 0.456750
0.472205 0.448849 0.458510
0.477134 0.450609 0.460270
0.482064 0.452369 0.462030
0.486993 0.454129 0.463790
0.491923 0.455889 0.465550
0.496852 0.457649 0.467310
0.501781 0.459409 0.469070
0.426366 0.437874 0.444366
0.431295 0.439634 0.446126
0.436224 0.441394 0.447885
0.441154 0.443154 0.449645
0.446083 0.444914 0.451405
0.451013 0.446674 0.453165
0.455942 0.448434 0.454925
0.460872 0.450194 0.456685
0.465801 0.451954 0.458445
0.470731 0.453714 0.460205
0.475660 0.455474 0.461965
0.480589 0.457234 0.463725
0.485519 0.458994 0.465485
0.490448 0.460754 0.467245
0.495378 0.462514 0.469005
0.500307 0.464273 0.470765
0.505237 0.466033 0.472525
0.429821 0.444499 0.447821
0.434750 0.446259 0.449581
0.439680 0.448019 0.451341
0.444609 0.449779 0.453101
0.449539 0.451539 0.454861
0.454468 0.453298 0.456621
0.459397 0.455058 0.458381
0.464327 0.456818 0.460141
0.469256 0.458578 0.461900
0.474186 0.460338 0.463660
0.479115 0.462098 0.465420
0.484045 0.463858 0.467180
0.488974 0.465618 0.468940
0.493904 0.467378 0.470700
0.498833 0.469138 0.472460
0.503762 0.470898 0.474220
0.508692 0.472658 0.475980
0.433276 0.451123 0.451276
0.438205 0.452883 0.453036
0.443135 0.454643 0.454796
0.448064 0.456403 0.456556
0.452994 0.458163 0.458316
0.457923 0.459923 0.460076
0.462853 0.461683 0.461836
0.467782 0.463443 0.463596
0.472711 0.465203 0.465356
0.477641 0.466963 0.467116
0.482570 0.468723 0.468876
0.487500 0.470483 0.470636
0.492429 0.472243 0.472396
0.497359 0.474003 0.474155
0.502288 0.475763 0.475915
0.507218 0.477523 0.477675
0.512147 0.479283 0.479435
0.436731 0.457748 0.454731
0.441661 0.459508 0.456491
0.446590 0.461268 0.458251
0.451519 0.463028 0.460011
0.456449 0.464788 0.461771
0.461378 0.466548 0.463531
0.466308 0.468308 0.465291
0.471237 0.470068 0.467051
0.476167 0.471828 0.468811
0.481096 0.473588 0.470571
0.486026 0.475348 0.472331
0.490955 0.477108 0.474091
0.495884 0.478868 0.475851
0.500814 0.480628 0.477611
0.505743 0.482388 0.479371
0.510673 0.484147 0.481131
0.515602 0.485907 0.482891
0.440186 0.464373 0.458186
0.445116 0.466133 0.459946
0.450045 0.467893 0.461706
0.454975 0.469653 0.463466
0.459904 0.471413 0.465226
0.464834 0.473172 0.466986
0.469763 0.474932 0.468746
0.474692 0.476692 0.470506
0.479622 0.478452 0.472266
0.484551 0.480212 0.474026
0.489481 0.481972 0.475786
0.494410 0.483732 0.477546
0.499340 0.485492 0.479306
0.504269 0.487252 0.481066
0.509199 0.489012 0.482826
0.514128 0.490772 0.484586
0.519057 0.492532 0.486346
0.443641 0.470997 0.461641
0.448571 0.472757 0.463401
0.453500 0.474517 0.465161
0.458430 0.476277 0.466921
0.463359 0.478037 0.468681
0.468289 0.479797 0.470441
0.473218 0.481557 0.472201
0.478148 0.483317 0.473961
0.483077 0.485077 0.475721
0.488006 0.486837 0.477481
0.492936 0.488597 0.479241
0.497865 0.490357 0.481001
0.502795 0.492117 0.482761
0.507724 0.493877 0.484521
0.512654 0.495637 0.486281
0.517583 0.497397 0.488041
0.522513 0.499157 0.489801
0.447097 0.477622 0.465097
0.452026 0.479382 0.466857
0.456956 0.481142 0.468617
0.461885 0.482902 0.470377
0.466814 0.484662 0.472137
0.471744 0.486422 0.473896
0.476673 0.488182 0.475656
0.481603 0.489942 0.477416
0.486532 0.491702 0.479176
0.491462 0.493462 0.480936
0.496391 0.495222 0.482696
0.501321 0.496982 0.484456
0.506250 0.498742 0.486216
0.511179 0.500502 0.487976
0.516109 0.502261 0.489736
0.521038 0.504021 0.491496
0.525968 0.505781 0.493256
0.450552 0.484247 0.468552
0.455481 0.486007 0.470312
0.460411 0.487767 0.472072
0.465340 0.489527 0.473832
0.470270 0.491286 0.475592
0.475199 0.493046 0.477352
0.480129 0.494806 0.479112
0.485058 0.496566 0.480872
0.489987 0.498326 0.482632
0.494917 0.500086 0.484392
0.499846 0.501846 0.486152
0.504776 0.503606 0.487911
0.509705 0.505366 0.489671
0.514635 0.507126 0.491431
0.519564 0.508886 0.493191
0.524494 0.510646 0.494951
0.529423 0.512406 0.496711
0.454007 0.490871 0.472007
0.458936 0.492631 0.473767
0.463866 0.494391 0.475527
0.468795 0.496151 0.477287
0.473725 0.497911 0.479047
0.478654 0.499671 0.480807
0.483584 0.501431 0.482567
0.488513 0.503191 0.484327
0.493443 0.504951 0.486087
0.498372 0.506711 0.487847
0.503301 0.508471 0.489607
0.508231 0.510231 0.491367
0.513160 0.511991 0.493127
0.518090 0.513751 0.494887
0.523019 0.515511 0.496647
0.527949 0.517271 0.498407
0.532878 0.519031 0.500166
0.457462 0.497496 0.475462
0.462392 0.499256 0.477222
0.467321 0.501016 0.478982
0.472251 0.502776 0.480742
0.477180 0.504536 0.482502
0.482109 0.506296 0.484262
0.487039 0.508056 0.486022
0.491968 0.509816 0.487782
0.496898 0.511576 0.489542
0.501827 0.513336 0.491302
0.506757 0.515096 0.493062
0.511686 0.516856 0.494822
0.516616 0.518616 0.496582
0.521545 0.520376 0.498342
0.526474 0.522135 0.500102
0.531404 0.523895 0.501862
0.536333 0.525655 0.503622
0.460917 0.504121 0.478917
0.465847 0.505881 0.480677
0.470776 0.507641 0.482437
0.475706 0.509401 0.484197
0.480635 0.511160 0.485957
0.485565 0.512920 0.487717
0.490494 0.514680 0.489477
0.495424 0.516440 0.491237
0.500353 0.518200 0.492997
0.505282 0.519960 0.494757
0.510212 0.521720 0.496517
0.515141 0.523480 0.498277
0.520071 0.525240 0.500037
0.525000 0.527000 0.501797
0.529930 0.528760 0.503557
0.534859 0.530520 0.505317
0.539789 0.532280 0.507077
0.464373 0.510745 0.482373
0.469302 0.512505 0.484133
0.474231 0.514265 0.485893
0.479161 0.516025 0.487652
0.484090 0.517785 0.489412
0.489020 0.519545 0.491172
0.493949 0.521305 0.492932
0.498879 0.523065 0.494692
0.503808 0.524825 0.496452
0.508738 0.526585 0.498212
0.513667 0.528345 0.499972
0.518596 0.530105 0.501732
0.523526 0.531865 0.503492
0.528455 0.533625 0.505252
0.533385 0.535385 0.507012
0.538314 0.537145 0.508772
0.543244 0.538905 0.510532
0.467828 0.517370 0.485828
0.472757 0.519130 0.487588
0.477687 0.520890 0.489348
0.482616 0.522650 0.491108
0.487546 0.524410 0.492868
0.492475 0.526170 0.494628
0.497404 0.527930 0.496388
0.502334 0.529690 0.498148
0.507263 0.531450 0.499907
0.512193 0.533210 0.501667
0.517122 0.534970 0.503427
0.522052 0.536730 0.505187
0.526981 0.538490 0.506947
0.531911 0.540250 0.508707
0.536840 0.542009 0.510467
0.541769 0.543769 0.512227
0.546699 0.545529 0.513987
0.471283 0.523995 0.489283
0.476212 0.525755 0.491043
0.481142 0.527515 0.492803
0.486071 0.529275 0.494563
0.491001 0.531034 0.496323
0.495930 0.532794 0.498083
0.500860 0.534554 0.499843
0.505789 0.536314 0.501603
0.510719 0.538074 0.503363
0.515648 0.539834 0.505123
0.520577 0.541594 0.506883
0.525507 0.543354 0.508643
0.530436 0.545114 0.510403
0.535366 0.546874 0.512163
0.540295 0.548634 0.513922
0.545225 0.550394 0.515682
0.550154 0.552154 0.517442
0.416671 0.418671 0.437841
0.421600 0.420431 0.439600
0.426530 0.422191 0.441360
0.431459 0.423951 0.443120
0.436389 0.425711 0.444880
0.441318 0.427471 0.446640
0.446248 0.429231 0.448400
0.451177 0.430991 0.450160
0.456107 0.432751 0.451920
0.461036 0.434511 0.453680
0.465965 0.436271 0.455440
0.470895 0.438031 0.457200
0.475824 0.439791 0.458960
0.480754 0.441551 0.460720
0.485683 0.443311 0.462480
0.490613 0.445071 0.464240
0.495542 0.446830 0.466000
0.420126 0.425296 0.441296
0.425056 0.427056 0.443056
0.429985 0.428816 0.444816
0.434915 0.430576 0.446576
0.439844 0.432336 0.448336
0.444773 0.434096 0.450096
0.449703 0.435855 0.451855
0.454632 0.437615 0.453615
0.459562 0.439375 0.455375
0.464491 0.441135 0.457135
0.469421 0.442895 0.458895
0.474350 0.444655 0.460655
0.479280 0.446415 0.462415
0.484209 0.448175 0.464175
0.489138 0.449935 0.465935
0.494068 0.451695 0.467695
0.498997 0.453455 0.469455
0.423581 0.431920 0.444751
0.428511 0.433680 0.446511
0.433440 0.435440 0.448271
0.438370 0.437200 0.450031
0.443299 0.438960 0.451791
0.448229 0.440720 0.453551
0.453158 0.442480 0.455311
0.458088 0.444240 0.457071
0.463017 0.446000 0.458831
0.467946 0.447760 0.460591
0.472876 0.449520 0.462351
0.477805 0.451280 0.464110
0.482735 0.453040 0.465870
0.487664 0.454800 0.467630
0.492594 0.456560 0.469390
0.497523 0.458320 0.471150
0.502453 0.460080 0.472910
0.427037 0.438545 0.448206
0.431966 0.440305 0.449966
0.436895 0.442065 0.451726
0.441825 0.443825 0.453486
0.446754 0.445585 0.455246
0.451684 0.447345 0.457006
0.456613 0.449105 0.458766
0.461543 0.450865 0.460526
0.466472 0.452625 0.462286
0.471402 0.454385 0.464046
0.476331 0.456145 0.465806
0.481260 0.457905 0.467566
0.486190 0.459665 0.469326
0.491119 0.461425 0.471086
0.496049 0.463185 0.472846
0.500978 0.464945 0.474606
0.505908 0.466704 0.476366
0.430492 0.445170 0.451661
0.435421 0.446930 0.453421
0.440351 0.448690 0.455181
0.445280 0.450450 0.456941
0.450210 0.452210 0.458701
0.455139 0.453970 0.460461
0.460068 0.455729 0.462221
0.464998 0.457489 0.463981
0.469927 0.459249 0.465741
0.474857 0.461009 0.467501
0.479786 0.462769 0.469261
0.484716 0.464529 0.471021
0.489645 0.466289 0.472781
0.494575 0.468049 0.474541
0.499504 0.469809 0.476301
0.504433 0.471569 0.478061
0.509363 0.473329 0.479821
0.433947 0.451794 0.455116
0.438876 0.453554 0.456876
0.443806 0.455314 0.458636
0.448735 0.457074 0.460396
0.453665 0.458834 0.462156
0.458594 0.460594 0.463916
0.463524 0.462354 0.465676
0.468453 0.464114 0.467436
0.473383 0.465874 0.469196
0.478312 0.467634 0.470956
0.483241 0.469394 0.472716
0.488171 0.471154 0.474476
0.493100 0.472914 0.476236
0.498030 0.474674 0.477996
0.502959 0.476434 0.479756
0.507889 0.478194 0.481516
0.512818 0.479954 0.483276
0.437402 0.458419 0.458572
0.442332 0.460179 0.460332
0.447261 0.461939 0.462092
0.452190 0.463699 0.463852
0.457120 0.465459 0.465611
0.462049 0.467219 0.467371
0.466979 0.468979 0.469131
0.471908 0.470739 0.470891
0.476838 0.472499 0.472651
0.481767 0.474259 0.474411
0.486697 0.476019 0.476171
0.491626 0.477779 0.477931
0.496555 0.479539 0.479691
0.501485 0.481299 0.481451
0.506414 0.483059 0.483211
0.511344 0.484818 0.484971
0.516273 0.486578 0.486731
0.440857 0.465044 0.462027
0.445787 0.466804 0.463787
0.450716 0.468564 0.465547
0.455646 0.470324 0.467307
0.460575 0.472084 0.469067
0.465505 0.473843 0.470827
0.470434 0.475603 0.472587
0.475363 0.477363 0.474347
0.480293 0.479123 0.476107
0.485222 0.480883 0.477866
0.490152 0.482643 0.479626
0.495081 0.484403 0.481386
0.500011 0.486163 0.483146
0.504940 0.487923 0.484906
0.509870 0.489683 0.486666
0.514799 0.491443 0.488426
0.519728 0.493203 0.490186
0.444312 0.471668 0.465482
0.449242 0.473428 0.467242
0.454171 0.475188 0.469002
0.459101 0.476948 0.470762
0.464030 0.478708 0.472522
0.468960 0.480468 0.474282
0.473889 0.482228 0.476042
0.478819 0.483988 0.477802
0.483748 0.485748 0.479562
0.488678 0.487508 0.481322
0.493607 0.489268 0.483082
0.498536 0.491028 0.484842
0.503466 0.492788 0.486602
0.508395 0.494548 0.488362
0.513325 0.496308 0.490122
0.518254 0.498068 0.491881
0.523184 0.499828 0.493641
0.447768 0.478293 0.468937
0.452697 0.480053 0.470697
0.457627 0.481813 0.472457
0.462556 0.483573 0.474217
0.467485 0.485333 0.475977
0.472415 0.487093 0.477737
0.477344 0.488853 0.479497
0.482274 0.490613 0.481257
0.487203 0.492373 0.483017
0.492133 0.494133 0.484777
0.497062 0.495893 0.486537
0.501992 0.497653 0.488297
0.506921 0.499413 0.490057
0.511850 0.501173 0.491817
0.516780 0.502933 0.493577
0.521709 0.504692 0.495337
0.526639 0.506452 0.497097
0.451223 0.484918 0.472392
0.456152 0.486678 0.474152
0.461082 0.488438 0.475912
0.466011 0.490198 0.477672
0.470941 0.491958 0.479432
0.475870 0.493717 0.481192
0.480800 0.495477 0.482952
0.485729 0.497237 0.484712
0.490658 0.498997 0.486472
0.495588 0.500757 0.488232
0.500517 0.502517 0.489992
0.505447 0.504277 0.491752
0.510376 0.506037 0.493512
0.515306 0.507797 0.495272
0.520235 0.509557 0.497032
0.525165 0.511317 0.498792
0.530094 0.513077 0.500552
0.454678 0.491542 0.475848
0.459607 0.493302 0.477607
0.464537 0.495062 0.479367
0.469466 0.496822 0.481127
0.474396 0.498582 0.482887
0.479325 0.500342 0.484647
0.484255 0.502102 0.486407
0.489184 0.503862 0.488167
0.494114 0.505622 0.489927
0.499043 0.507382 0.491687
0.503973 0.509142 0.493447
0.508902 0.510902 0.495207
0.513831 0.512662 0.496967
0.518761 0.514422 0.498727
0.523690 0.516182 0.500487
0.528620 0.517942 0.502247
0.533549 0.519702 0.504007
0.458133 0.498167 0.479303
0.463063 0.499927 0.481063
0.467992 0.501687 0.482823
0.472922 0.503447 0.484583
0.477851 0.505207 0.486343
0.482780 0.506967 0.488103
0.487710 0.508727 0.489863
0.492639 0.510487 0.491622
0.497569 0.512247 0.493382
0.502498 0.514007 0.495142
0.507428 0.515767 0.496902
0.512357 0.517527 0.498662
0.517287 0.519287 0.500422
0.522216 0.521047 0.502182
0.527145 0.522807 0.503942
0.532075 0.524566 0.505702
0.537004 0.526326 0.507462
0.461588 0.504792 0.482758
0.466518 0.506552 0.484518
0.471447 0.508312 0.486278
0.476377 0.510072 0.488038
0.481306 0.511832 0.489798
0.486236 0.513591 0.491558
0.491165 0.515351 0.493318
0.496095 0.517111 0.495078
0.501024 0.518871 0.496838
0.505953 0.520631 0.498598
0.510883 0.522391 0.500358
0.515812 0.524151 0.502118
0.520742 0.525911 0.503877
0.525671 0.527671 0.505637
0.530601 0.529431 0.507397
0.535530 0.531191 0.509157
0.540460 0.532951 0.510917
0.465044 0.511416 0.486213
0.469973 0.513176 0.487973
0.474902 0.514936 0.489733
0.479832 0.516696 0.491493
0.484761 0.518456 0.493253
0.489691 0.520216 0.495013
0.494620 0.521976 0.496773
0.499550 0.523736 0.498533
0.504479 0.525496 0.500293
0.509409 0.527256 0.502053
0.514338 0.529016 0.503813
0.519267 0.530776 0.505573
0.524197 0.532536 0.507333
0.529126 0.534296 0.509093
0.534056 0.536056 0.510853
0.538985 0.537816 0.512613
0.543915 0.539576 0.514373
0.468499 0.518041 0.489668
0.473428 0.519801 0.491428
0.478358 0.521561 0.493188
0.483287 0.523321 0.494948
0.488217 0.525081 0.496708
0.493146 0.526841 0.498468
0.498075 0.528601 0.500228
0.503005 0.530361 0.501988
0.507934 0.532121 0.503748
0.512864 0.533881 0.505508
0.517793 0.535641 0.507268
0.522723 0.537401 0.509028
0.527652 0.539161 0.510788
0.532582 0.540921 0.512548
0.537511 0.542680 0.514308
0.542440 0.544440 0.516068
0.547370 0.546200 0.517828
0.471954 0.524666 0.493123
0.476883 0.526426 0.494883
0.481813 0.528186 0.496643
0.486742 0.529946 0.498403
0.491672 0.531705 0.500163
0.496601 0.533465 0.501923
0.501531 0.535225 0.503683
0.506460 0.536985 0.505443
0.511390 0.538745 0.507203
0.516319 0.540505 0.508963
0.521248 0.542265 0.510723
0.526178 0.544025 0.512483
0.531107 0.545785 0.514243
0.536037 0.547545 0.516003
0.540966 0.549305 0.517763
0.545896 0.551065 0.519523
0.550825 0.552825 0.521283
0.417342 0.419342 0.441681
0.422271 0.421102 0.443441
0.427201 0.422862 0.445201
0.432130 0.424622 0.446961
0.437060 0.426382 0.448721
0.441989 0.428142 0.450481
0.446919 0.429902 0.452241
0.451848 0.431662 0.454001
0.456778 0.433422 0.455761
0.461707 0.435182 0.457521
0.466636 0.436942 0.459281
0.471566 0.438702 0.461041
0.476495 0.440462 0.462801
0.481425 0.442222 0.464561
0.486354 0.443982 0.466321
0.491284 0.445742 0.468080
0.496213 0.447502 0.469840
0.420797 0.425967 0.445136
0.425727 0.427727 0.446896
0.430656 0.429487 0.448656
0.435586 0.431247 0.450416
0.440515 0.433007 0.452176
0.445444 0.434767 0.453936
0.450374 0.436527 0.455696
0.455303 0.438286 0.457456
0.460233 0.440046 0.459216
0.465162 0.441806 0.460976
0.470092 0.443566 0.462736
0.475021 0.445326 0.464496
0.479951 0.447086 0.466256
0.484880 0.448846 0.468016
0.489809 0.450606 0.469776
0.494739 0.452366 0.471536
0.499668 0.454126 0.473296
0.424252 0.432591 0.448591
0.429182 0.434351 0.450351
0.434111 0.436111 0.452111
0.439041 0.437871 0.453871
0.443970 0.439631 0.455631
0.448900 0.441391 0.457391
0.453829 0.443151 0.459151
0.458759 0.444911 0.460911
0.463688 0.446671 0.462671
0.468617 0.448431 0.464431
0.473547 0.450191 0.466191
0.478476 0.451951 0.467951
0.483406 0.453711 0.469711
0.488335 0.455471 0.471471
0.493265 0.457231 0.473231
0.498194 0.458991 0.474991
0.503124 0.460751 0.476751
0.427708 0.439216 0.452047
0.432637 0.440976 0.453807
0.437566 0.442736 0.455566
0.442496 0.444496 0.457326
0.447425 0.446256 0.459086
0.452355 0.448016 0.460846
0.457284 0.449776 0.462606
0.462214 0.451536 0.464366
0.467143 0.453296 0.466126
0.472073 0.455056 0.467886
0.477002 0.456816 0.469646
0.481931 0.458576 0.471406
0.486861 0.460336 0.473166
0.491790 0.462096 0.474926
0.496720 0.463856 0.476686
0.501649 0.465616 0.478446
0.506579 0.467375 0.480206
0.431163 0.445841 0.455502
0.436092 0.447601 0.457262
0.441022 0.449361 0.459022
0.445951 0.451121 0.460782
0.450881 0.452881 0.462542
0.455810 0.454641 0.464302
0.460739 0.456400 0.466062
0.465669 0.458160 0.467822
0.470598 0.459920 0.469581
0.475528 0.461680 0.471341
0.480457 0.463440 0.473101
0.485387 0.465200 0.474861
0.490316 0.466960 0.476621
0.495246 0.468720 0.478381
0.500175 0.470480 0.480141
0.505104 0.472240 0.481901
0.510034 0.474000 0.483661
0.434618 0.452465 0.458957
0.439547 0.454225 0.460717
0.444477 0.455985 0.462477
0.449406 0.457745 0.464237
0.454336 0.459505 0.465997
0.459265 0.461265 0.467757
0.464195 0.463025 0.469517
0.469124 0.464785 0.471277
0.474054 0.466545 0.473037
0.478983 0.468305 0.474797
0.483912 0.470065 0.476557
0.488842 0.471825 0.478317
0.493771 0.473585 0.480077
0.498701 0.475345 0.481836
0.503630 0.477105 0.483596
0.508560 0.478865 0.485356
0.513489 0.480625 0.487116
0.438073 0.459090 0.462412
0.443003 0.460850 0.464172
0.447932 0.462610 0.465932
0.452861 0.464370 0.467692
0.457791 0.466130 0.469452
0.462720 0.467890 0.471212
0.467650 0.469650 0.472972
0.472579 0.471410 0.474732
0.477509 0.473170 0.476492
0.482438 0.474930 0.478252
0.487368 0.476690 0.480012
0.492297 0.478450 0.481772
0.497226 0.480210 0.483532
0.502156 0.481970 0.485292
0.507085 0.483730 0.487052
0.512015 0.485490 0.488812
0.516944 0.487249 0.490572
0.441528 0.465715 0.465867
0.446458 0.467475 0.467627
0.451387 0.469235 0.469387
0.456317 0.470995 0.471147
0.461246 0.472755 0.472907
0.466176 0.474515 0.474667
0.471105 0.476274 0.476427
0.476034 0.478034 0.478187
0.480964 0.479794 0.479947
0.485893 0.481554 0.481707
0.490823 0.483314 0.483467
0.495752 0.485074 0.485227
0.500682 0.486834 0.486987
0.505611 0.488594 0.488747
0.510541 0.490354 0.490507
0.515470 0.492114 0.492267
0.520399 0.493874 0.494027
0.444984 0.472339 0.469322
0.449913 0.474099 0.471082
0.454842 0.475859 0.472842
0.459772 0.477619 0.474602
0.464701 0.479379 0.476362
0.469631 0.481139 0.478122
0.474560 0.482899 0.479882
0.479490 0.484659 0.481642
0.484419 0.486419 0.483402
0.489349 0.488179 0.485162
0.494278 0.489939 0.486922
0.499207 0.491699 0.488682
0.504137 0.493459 0.490442
0.509066 0.495219 0.492202
0.513996 0.496979 0.493962
0.518925 0.498739 0.495722
0.523855 0.500499 0.497482
0.448439 0.478964 0.472778
0.453368 0.480724 0.474538
0.458298 0.482484 0.476298
0.463227 0.484244 0.478058
0.468156 0.486004 0.479818
0.473086 0.487764 0.481577
0.478015 0.489524 0.483337
0.482945 0.491284 0.485097
0.487874 0.493044 0.486857
0.492804 0.494804 0.488617
0.497733 0.496564 0.490377
0.502663 0.498324 0.492137
0.507592 0.500084 0.493897
0.512521 0.501844 0.495657
0.517451 0.503604 0.497417
0.522380 0.505364 0.499177
0.527310 0.507123 0.500937
0.451894 0.485589 0.476233
0.456823 0.487349 0.477993
0.461753 0.489109 0.479753
0.466682 0.490869 0.481513
0.471612 0.492629 0.483273
0.476541 0.494389 0.485033
0.481471 0.496148 0.486793
0.486400 0.497908 0.488553
0.491329 0.499668 0.490313
0.496259 0.501428 0.492073
0.501188 0.503188 0.493833
0.506118 0.504948 0.495592
0.511047 0.506708 0.497352
0.515977 0.508468 0.499112
0.520906 0.510228 0.500872
0.525836 0.511988 0.502632
0.530765 0.513748 0.504392
0.455349 0.492213 0.479688
0.460279 0.493973 0.481448
0.465208 0.495733 0.483208
0.470137 0.497493 0.484968
0.475067 0.499253 0.486728
0.479996 0.501013 0.488488
0.484926 0.502773 0.490248
0.489855 0.504533 0.492008
0.494785 0.506293 0.493768
0.499714 0.508053 0.495528
0.504644 0.509813 0.497288
0.509573 0.511573 0.499048
0.514502 0.513333 0.500808
0.519432 0.515093 0.502568
0.524361 0.516853 0.504328
0.529291 0.518613 0.506088
0.534220 0.520373 0.507847
0.458804 0.498838 0.483143
0.463734 0.500598 0.484903
0.468663 0.502358 0.486663
0.473593 0.504118 0.488423
0.478522 0.505878 0.490183
0.483451 0.507638 0.491943
0.488381 0.509398 0.493703
0.493310 0.511158 0.495463
0.498240 0.512918 0.497223
0.503169 0.514678 0.498983
0.508099 0.516438 0.500743
0.513028 0.518198 0.502503
0.517958 0.519958 0.504263
0.522887 0.521718 0.506023
0.527816 0.523478 0.507783
0.532746 0.525237 0.509543
0.537675 0.526997 0.511303
0.462259 0.505463 0.486598
0.467189 0.507223 0.488358
0.472118 0.508983 0.490118
0.477048 0.510743 0.491878
0.481977 0.512503 0.493638
0.486907 0.514262 0.495398
0.491836 0.516022 0.497158
0.496766 0.517782 0.498918
0.501695 0.519542 0.500678
0.506624 0.521302 0.502438
0.511554 0.523062 0.504198
0.516483 0.524822 0.505958
0.521413 0.526582 0.507718
0.526342 0.528342 0.509478
0.531272 0.530102 0.511238
0.536201 0.531862 0.512998
0.541131 0.533622 0.514758
0.465715 0.512087 0.490054
0.470644 0.513847 0.491814
0.475574 0.515607 0.493574
0.480503 0.517367 0.495333
0.485432 0.519127 0.497093
0.490362 0.520887 0.498853
0.495291 0.522647 0.500613
0.500221 0.524407 0.502373
0.505150 0.526167 0.504133
0.510080 0.527927 0.505893
0.515009 0.529687 0.507653
0.519939 0.531447 0.509413
0.524868 0.533207 0.511173
0.529797 0.534967 0.512933
0.534727 0.536727 0.514693
0.539656 0.538487 0.516453
0.544586 0.540247 0.518213
0.469170 0.518712 0.493509
0.474099 0.520472 0.495269
0.479029 0.522232 0.497029
0.483958 0.523992 0.498789
0.488888 0.525752 0.500549
0.493817 0.527512 0.502309
0.498746 0.529272 0.504069
0.503676 0.531032 0.505829
0.508605 0.532792 0.507589
0.513535 0.534552 0.509348
0.518464 0.536312 0.511108
0.523394 0.538072 0.512868
0.528323 0.539832 0.514628
0.533253 0.541592 0.516388
0.538182 0.543352 0.518148
0.543111 0.545111 0.519908
0.548041 0.546871 0.521668
0.472625 0.525337 0.496964
0.477554 0.527097 0.498724
0.482484 0.528857 0.500484
0.487413 0.530617 0.502244
0.492343 0.532377 0.504004
0.497272 0.534136 0.505764
0.502202 0.535896 0.507524
0.507131 0.537656 0.509284
0.512061 0.539416 0.511044
0.516990 0.541176 0.512804
0.521919 0.542936 0.514564
0.526849 0.544696 0.516324
0.531778 0.546456 0.518084
0.536708 0.548216 0.519844
0.541637 0.549976 0.521603
0.546567 0.551736 0.523363
0.551496 0.553496 0.525123
0.418013 0.420013 0.445522
0.422943 0.421773 0.447281
0.427872 0.423533 0.449041
0.432801 0.425293 0.450801
0.437731 0.427053 0.452561
0.442660 0.428813 0.454321
0.447590 0.430573 0.456081
0.452519 0.432333 0.457841
0.457449 0.434093 0.459601
0.462378 0.435853 0.461361
0.467308 0.437613 0.463121
0.472237 0.439373 0.464881
0.477166 0.441133 0.466641
0.482096 0.442893 0.468401
0.487025 0.444653 0.470161
0.491955 0.446413 0.471921
0.496884 0.448173 0.473681
0.421468 0.426638 0.448977
