shared/src/main/assets/luts/drama_sterile_office.cube
TITLE "DALUR Sterile Office"
LUT_3D_SIZE 17
DOMAIN_MIN 0.0 0.0 0.0
DOMAIN_MAX 1.0 1.0 1.0
0.485200 0.491000 0.494800
0.485456 0.491454 0.495254
0.485712 0.491909 0.495709
0.485968 0.492363 0.496163
0.486225 0.492817 0.496617
0.486481 0.493272 0.497072
0.486737 0.493726 0.497526
0.486993 0.494180 0.497980
0.487249 0.494635 0.498435
0.487505 0.495089 0.498889
0.487761 0.495543 0.499343
0.488017 0.495998 0.499798
0.488274 0.496452 0.500252
0.488530 0.496906 0.500706
0.488786 0.497360 0.501160
0.489042 0.497815 0.501615
0.489298 0.498269 0.502069
0.486092 0.491694 0.495692
0.486348 0.492148 0.496146
0.486604 0.492602 0.496601
0.486860 0.493057 0.497055
0.487116 0.493511 0.497509
0.487373 0.493965 0.497964
0.487629 0.494420 0.498418
0.487885 0.494874 0.498872
0.488141 0.495328 0.499326
0.488397 0.495783 0.499781
0.488653 0.496237 0.500235
0.488909 0.496691 0.500689
0.489165 0.497146 0.501144
0.489422 0.497600 0.501598
0.489678 0.498054 0.502052
0.489934 0.498509 0.502507
0.490190 0.498963 0.502961
0.486984 0.492387 0.496584
0.487240 0.492842 0.497038
0.487496 0.493296 0.497492
0.487752 0.493750 0.497947
0.488008 0.494205 0.498401
0.488264 0.494659 0.498855
0.488521 0.495113 0.499310
0.488777 0.495568 0.499764
0.489033 0.496022 0.500218
0.489289 0.496476 0.500673
0.489545 0.496931 0.501127
0.489801 0.497385 0.501581
0.490057 0.497839 0.502036
0.490314 0.498294 0.502490
0.490570 0.498748 0.502944
0.490826 0.499202 0.503399
0.491082 0.499657 0.503853
0.487876 0.493081 0.497476
0.488132 0.493536 0.497930
0.488388 0.493990 0.498384
0.488644 0.494444 0.498839
0.488900 0.494898 0.499293
0.489156 0.495353 0.499747
0.489413 0.495807 0.500202
0.489669 0.496261 0.500656
0.489925 0.496716 0.501110
0.490181 0.497170 0.501565
0.490437 0.497624 0.502019
0.490693 0.498079 0.502473
0.490949 0.498533 0.502928
0.491205 0.498987 0.503382
0.491462 0.499442 0.503836
0.491718 0.499896 0.504291
0.491974 0.500350 0.504745
0.488768 0.493775 0.498368
0.489024 0.494229 0.498822
0.489280 0.494684 0.499276
0.489536 0.495138 0.499731
0.489792 0.495592 0.500185
0.490048 0.496047 0.500639
0.490304 0.496501 0.501094
0.490561 0.496955 0.501548
0.490817 0.497409 0.502002
0.491073 0.497864 0.502457
0.491329 0.498318 0.502911
0.491585 0.498772 0.503365
0.491841 0.499227 0.503820
0.492097 0.499681 0.504274
0.492354 0.500135 0.504728
0.492610 0.500590 0.505182
0.492866 0.501044 0.505637
0.489660 0.494469 0.499260
0.489916 0.494923 0.499714
0.490172 0.495377 0.500168
0.490428 0.495832 0.500623
0.490684 0.496286 0.501077
0.490940 0.496740 0.501531
0.491196 0.497195 0.501986
0.491453 0.497649 0.502440
0.491709 0.498103 0.502894
0.491965 0.498558 0.503349
0.492221 0.499012 0.503803
0.492477 0.499466 0.504257
0.492733 0.499921 0.504711
0.492989 0.500375 0.505166
0.493245 0.500829 0.505620
0.493502 0.501283 0.506074
0.493758 0.501738 0.506529
0.490552 0.495162 0.500152
0.490808 0.495617 0.500606
0.491064 0.496071 0.501060
0.491320 0.496525 0.501515
0.491576 0.496980 0.501969
0.491832 0.497434 0.502423
0.492088 0.497888 0.502877
0.492344 0.498343 0.503332
0.492601 0.498797 0.503786
0.492857 0.499251 0.504240
0.493113 0.499706 0.504695
0.493369 0.500160 0.505149
0.493625 0.500614 0.505603
0.493881 0.501069 0.506058
0.494137 0.501523 0.506512
0.494393 0.501977 0.506966
0.494650 0.502432 0.507421
0.491443 0.495856 0.501043
0.491700 0.496310 0.501498
0.491956 0.496765 0.501952
0.492212 0.497219 0.502406
0.492468 0.497673 0.502861
0.492724 0.498128 0.503315
0.492980 0.498582 0.503769
0.493236 0.499036 0.504224
0.493493 0.499491 0.504678
0.493749 0.499945 0.505132
0.494005 0.500399 0.505587
0.494261 0.500854 0.506041
0.494517 0.501308 0.506495
0.494773 0.501762 0.506950
0.495029 0.502217 0.507404
0.495285 0.502671 0.507858
0.495542 0.503125 0.508313
0.492335 0.496550 0.501935
0.492592 0.497004 0.502390
0.492848 0.497459 0.502844
0.493104 0.497913 0.503298
0.493360 0.498367 0.503753
0.493616 0.498821 0.504207
0.493872 0.499276 0.504661
0.494128 0.499730 0.505116
0.494384 0.500184 0.505570
0.494641 0.500639 0.506024
0.494897 0.501093 0.506479
0.495153 0.501547 0.506933
0.495409 0.502002 0.507387
0.495665 0.502456 0.507842
0.495921 0.502910 0.508296
0.496177 0.503365 0.508750
0.496433 0.503819 0.509205
0.493227 0.497244 0.502827
0.493483 0.497698 0.503282
0.493740 0.498152 0.503736
0.493996 0.498607 0.504190
0.494252 0.499061 0.504645
0.494508 0.499515 0.505099
0.494764 0.499970 0.505553
0.495020 0.500424 0.506008
0.495276 0.500878 0.506462
0.495532 0.501332 0.506916
0.495789 0.501787 0.507371
0.496045 0.502241 0.507825
0.496301 0.502695 0.508279
0.496557 0.503150 0.508733
0.496813 0.503604 0.509188
0.497069 0.504058 0.509642
0.497325 0.504513 0.510096
0.494119 0.497937 0.503719
0.494375 0.498392 0.504174
0.494632 0.498846 0.504628
0.494888 0.499300 0.505082
0.495144 0.499755 0.505537
0.495400 0.500209 0.505991
0.495656 0.500663 0.506445
0.495912 0.501118 0.506899
0.496168 0.501572 0.507354
0.496424 0.502026 0.507808
0.496681 0.502481 0.508262
0.496937 0.502935 0.508717
0.497193 0.503389 0.509171
0.497449 0.503843 0.509625
0.497705 0.504298 0.510080
0.497961 0.504752 0.510534
0.498217 0.505206 0.510988
0.495011 0.498631 0.504611
0.495267 0.499085 0.505065
0.495523 0.499540 0.505520
0.495780 0.499994 0.505974
0.496036 0.500448 0.506428
0.496292 0.500903 0.506883
0.496548 0.501357 0.507337
0.496804 0.501811 0.507791
0.497060 0.502266 0.508246
0.497316 0.502720 0.508700
0.497572 0.503174 0.509154
0.497829 0.503629 0.509609
0.498085 0.504083 0.510063
0.498341 0.504537 0.510517
0.498597 0.504992 0.510972
0.498853 0.505446 0.511426
0.499109 0.505900 0.511880
0.495903 0.499325 0.505503
0.496159 0.499779 0.505957
0.496415 0.500233 0.506412
0.496671 0.500688 0.506866
0.496928 0.501142 0.507320
0.497184 0.501596 0.507775
0.497440 0.502051 0.508229
0.497696 0.502505 0.508683
0.497952 0.502959 0.509138
0.498208 0.503414 0.509592
0.498464 0.503868 0.510046
0.498721 0.504322 0.510501
0.498977 0.504777 0.510955
0.499233 0.505231 0.511409
0.499489 0.505685 0.511864
0.499745 0.506140 0.512318
0.500001 0.506594 0.512772
0.496795 0.500019 0.506395
0.497051 0.500473 0.506849
0.497307 0.500927 0.507304
0.497563 0.501382 0.507758
0.497820 0.501836 0.508212
0.498076 0.502290 0.508667
0.498332 0.502744 0.509121
0.498588 0.503199 0.509575
0.498844 0.503653 0.510030
0.499100 0.504107 0.510484
0.499356 0.504562 0.510938
0.499612 0.505016 0.511393
0.499869 0.505470 0.511847
0.500125 0.505925 0.512301
0.500381 0.506379 0.512755
0.500637 0.506833 0.513210
0.500893 0.507288 0.513664
0.497687 0.500712 0.507287
0.497943 0.501167 0.507741
0.498199 0.501621 0.508196
0.498455 0.502075 0.508650
0.498711 0.502530 0.509104
0.498968 0.502984 0.509559
0.499224 0.503438 0.510013
0.499480 0.503893 0.510467
0.499736 0.504347 0.510922
0.499992 0.504801 0.511376
0.500248 0.505255 0.511830
0.500504 0.505710 0.512284
0.500760 0.506164 0.512739
0.501017 0.506618 0.513193
0.501273 0.507073 0.513647
0.501529 0.507527 0.514102
0.501785 0.507981 0.514556
0.498579 0.501406 0.508179
0.498835 0.501860 0.508633
0.499091 0.502315 0.509088
0.499347 0.502769 0.509542
0.499603 0.503223 0.509996
0.499860 0.503678 0.510450
0.500116 0.504132 0.510905
0.500372 0.504586 0.511359
0.500628 0.505041 0.511813
0.500884 0.505495 0.512268
0.501140 0.505949 0.512722
0.501396 0.506404 0.513176
0.501652 0.506858 0.513631
0.501909 0.507312 0.514085
0.502165 0.507766 0.514539
0.502421 0.508221 0.514994
0.502677 0.508675 0.515448
0.499471 0.502100 0.509071
0.499727 0.502554 0.509525
0.499983 0.503008 0.509979
0.500239 0.503463 0.510434
0.500495 0.503917 0.510888
0.500751 0.504371 0.511342
0.501008 0.504826 0.511797
0.501264 0.505280 0.512251
0.501520 0.505734 0.512705
0.501776 0.506189 0.513160
0.502032 0.506643 0.513614
0.502288 0.507097 0.514068
0.502544 0.507552 0.514523
0.502800 0.508006 0.514977
0.503057 0.508460 0.515431
0.503313 0.508915 0.515886
0.503569 0.509369 0.516340
0.485373 0.491173 0.494775
0.485629 0.491628 0.495229
0.485885 0.492082 0.495684
0.486142 0.492536 0.496138
0.486398 0.492990 0.496592
0.486654 0.493445 0.497047
0.486910 0.493899 0.497501
0.487166 0.494353 0.497955
0.487422 0.494808 0.498410
0.487678 0.495262 0.498864
0.487935 0.495716 0.499318
0.488191 0.496171 0.499773
0.488447 0.496625 0.500227
0.488703 0.497079 0.500681
0.488959 0.497534 0.501136
0.489215 0.497988 0.501590
0.489471 0.498442 0.502044
0.486265 0.491867 0.495667
0.486521 0.492321 0.496121
0.486777 0.492776 0.496576
0.487034 0.493230 0.497030
0.487290 0.493684 0.497484
0.487546 0.494139 0.497939
0.487802 0.494593 0.498393
0.488058 0.495047 0.498847
0.488314 0.495502 0.499302
0.488570 0.495956 0.499756
0.488826 0.496410 0.500210
0.489083 0.496864 0.500664
0.489339 0.497319 0.501119
0.489595 0.497773 0.501573
0.489851 0.498227 0.502027
0.490107 0.498682 0.502482
0.490363 0.499136 0.502936
0.487157 0.492561 0.496559
0.487413 0.493015 0.497013
0.487669 0.493469 0.497468
0.487925 0.493924 0.497922
0.488182 0.494378 0.498376
0.488438 0.494832 0.498830
0.488694 0.495287 0.499285
0.488950 0.495741 0.499739
0.489206 0.496195 0.500193
0.489462 0.496650 0.500648
0.489718 0.497104 0.501102
0.489974 0.497558 0.501556
0.490231 0.498013 0.502011
0.490487 0.498467 0.502465
0.490743 0.498921 0.502919
0.490999 0.499375 0.503374
0.491255 0.499830 0.503828
0.488049 0.493254 0.497451
0.488305 0.493709 0.497905
0.488561 0.494163 0.498359
0.488817 0.494617 0.498814
0.489074 0.495072 0.499268
0.489330 0.495526 0.499722
0.489586 0.495980 0.500177
0.489842 0.496435 0.500631
0.490098 0.496889 0.501085
0.490354 0.497343 0.501540
0.490610 0.497798 0.501994
0.490866 0.498252 0.502448
0.491123 0.498706 0.502903
0.491379 0.499161 0.503357
0.491635 0.499615 0.503811
0.491891 0.500069 0.504266
0.492147 0.500524 0.504720
0.488941 0.493948 0.498343
0.489197 0.494402 0.498797
0.489453 0.494857 0.499251
0.489709 0.495311 0.499706
0.489965 0.495765 0.500160
0.490222 0.496220 0.500614
0.490478 0.496674 0.501069
0.490734 0.497128 0.501523
0.490990 0.497583 0.501977
0.491246 0.498037 0.502432
0.491502 0.498491 0.502886
0.491758 0.498946 0.503340
0.492014 0.499400 0.503795
0.492271 0.499854 0.504249
0.492527 0.500309 0.504703
0.492783 0.500763 0.505158
0.493039 0.501217 0.505612
0.489833 0.494642 0.499235
0.490089 0.495096 0.499689
0.490345 0.495551 0.500143
0.490601 0.496005 0.500598
0.490857 0.496459 0.501052
0.491113 0.496913 0.501506
0.491370 0.497368 0.501961
0.491626 0.497822 0.502415
0.491882 0.498276 0.502869
0.492138 0.498731 0.503324
0.492394 0.499185 0.503778
0.492650 0.499639 0.504232
0.492906 0.500094 0.504686
0.493163 0.500548 0.505141
0.493419 0.501002 0.505595
0.493675 0.501457 0.506049
0.493931 0.501911 0.506504
0.490725 0.495336 0.500127
0.490981 0.495790 0.500581
0.491237 0.496244 0.501035
0.491493 0.496699 0.501490
0.491749 0.497153 0.501944
0.492005 0.497607 0.502398
0.492262 0.498062 0.502852
0.492518 0.498516 0.503307
0.492774 0.498970 0.503761
0.493030 0.499424 0.504215
0.493286 0.499879 0.504670
0.493542 0.500333 0.505124
0.493798 0.500787 0.505578
0.494054 0.501242 0.506033
0.494311 0.501696 0.506487
0.494567 0.502150 0.506941
0.494823 0.502605 0.507396
0.491617 0.496029 0.501019
0.491873 0.496484 0.501473
0.492129 0.496938 0.501927
0.492385 0.497392 0.502381
0.492641 0.497847 0.502836
0.492897 0.498301 0.503290
0.493153 0.498755 0.503744
0.493410 0.499210 0.504199
0.493666 0.499664 0.504653
0.493922 0.500118 0.505107
0.494178 0.500573 0.505562
0.494434 0.501027 0.506016
0.494690 0.501481 0.506470
0.494946 0.501936 0.506925
0.495202 0.502390 0.507379
0.495459 0.502844 0.507833
0.495715 0.503298 0.508288
0.492509 0.496723 0.501910
0.492765 0.497177 0.502365
0.493021 0.497632 0.502819
0.493277 0.498086 0.503273
0.493533 0.498540 0.503728
0.493789 0.498995 0.504182
0.494045 0.499449 0.504636
0.494302 0.499903 0.505091
0.494558 0.500358 0.505545
0.494814 0.500812 0.505999
0.495070 0.501266 0.506454
0.495326 0.501721 0.506908
0.495582 0.502175 0.507362
0.495838 0.502629 0.507817
0.496094 0.503084 0.508271
0.496351 0.503538 0.508725
0.496607 0.503992 0.509180
0.493401 0.497417 0.502802
0.493657 0.497871 0.503257
0.493913 0.498325 0.503711
0.494169 0.498780 0.504165
0.494425 0.499234 0.504620
0.494681 0.499688 0.505074
0.494937 0.500143 0.505528
0.495193 0.500597 0.505983
0.495450 0.501051 0.506437
0.495706 0.501506 0.506891
0.495962 0.501960 0.507346
0.496218 0.502414 0.507800
0.496474 0.502869 0.508254
0.496730 0.503323 0.508709
0.496986 0.503777 0.509163
0.497242 0.504232 0.509617
0.497499 0.504686 0.510071
0.494292 0.498111 0.503694
0.494549 0.498565 0.504149
0.494805 0.499019 0.504603
0.495061 0.499474 0.505057
0.495317 0.499928 0.505512
0.495573 0.500382 0.505966
0.495829 0.500836 0.506420
0.496085 0.501291 0.506875
0.496341 0.501745 0.507329
0.496598 0.502199 0.507783
0.496854 0.502654 0.508237
0.497110 0.503108 0.508692
0.497366 0.503562 0.509146
0.497622 0.504017 0.509600
0.497878 0.504471 0.510055
0.498134 0.504925 0.510509
0.498391 0.505380 0.510963
0.495184 0.498804 0.504586
0.495441 0.499259 0.505041
0.495697 0.499713 0.505495
0.495953 0.500167 0.505949
0.496209 0.500622 0.506403
0.496465 0.501076 0.506858
0.496721 0.501530 0.507312
0.496977 0.501985 0.507766
0.497233 0.502439 0.508221
0.497490 0.502893 0.508675
0.497746 0.503347 0.509129
0.498002 0.503802 0.509584
0.498258 0.504256 0.510038
0.498514 0.504710 0.510492
0.498770 0.505165 0.510947
0.499026 0.505619 0.511401
0.499282 0.506073 0.511855
0.496076 0.499498 0.505478
0.496332 0.499952 0.505932
0.496589 0.500407 0.506387
0.496845 0.500861 0.506841
0.497101 0.501315 0.507295
0.497357 0.501770 0.507750
0.497613 0.502224 0.508204
0.497869 0.502678 0.508658
0.498125 0.503133 0.509113
0.498381 0.503587 0.509567
0.498638 0.504041 0.510021
0.498894 0.504496 0.510476
0.499150 0.504950 0.510930
0.499406 0.505404 0.511384
0.499662 0.505859 0.511839
0.499918 0.506313 0.512293
0.500174 0.506767 0.512747
0.496968 0.500192 0.506370
0.497224 0.500646 0.506824
0.497481 0.501100 0.507279
0.497737 0.501555 0.507733
0.497993 0.502009 0.508187
0.498249 0.502463 0.508642
0.498505 0.502918 0.509096
0.498761 0.503372 0.509550
0.499017 0.503826 0.510005
0.499273 0.504281 0.510459
0.499530 0.504735 0.510913
0.499786 0.505189 0.511368
0.500042 0.505644 0.511822
0.500298 0.506098 0.512276
0.500554 0.506552 0.512731
0.500810 0.507007 0.513185
0.501066 0.507461 0.513639
0.497860 0.500885 0.507262
0.498116 0.501340 0.507716
0.498372 0.501794 0.508171
0.498629 0.502248 0.508625
0.498885 0.502703 0.509079
0.499141 0.503157 0.509534
0.499397 0.503611 0.509988
0.499653 0.504066 0.510442
0.499909 0.504520 0.510897
0.500165 0.504974 0.511351
0.500421 0.505429 0.511805
0.500678 0.505883 0.512259
0.500934 0.506337 0.512714
0.501190 0.506792 0.513168
0.501446 0.507246 0.513622
0.501702 0.507700 0.514077
0.501958 0.508155 0.514531
0.498752 0.501579 0.508154
0.499008 0.502034 0.508608
0.499264 0.502488 0.509063
0.499520 0.502942 0.509517
0.499777 0.503397 0.509971
0.500033 0.503851 0.510426
0.500289 0.504305 0.510880
0.500545 0.504759 0.511334
0.500801 0.505214 0.511788
0.501057 0.505668 0.512243
0.501313 0.506122 0.512697
0.501570 0.506577 0.513151
0.501826 0.507031 0.513606
0.502082 0.507485 0.514060
0.502338 0.507940 0.514514
0.502594 0.508394 0.514969
0.502850 0.508848 0.515423
0.499644 0.502273 0.509046
0.499900 0.502727 0.509500
0.500156 0.503182 0.509954
0.500412 0.503636 0.510409
0.500669 0.504090 0.510863
0.500925 0.504545 0.511317
0.501181 0.504999 0.511772
0.501437 0.505453 0.512226
0.501693 0.505908 0.512680
0.501949 0.506362 0.513135
0.502205 0.506816 0.513589
0.502461 0.507270 0.514043
0.502718 0.507725 0.514498
0.502974 0.508179 0.514952
0.503230 0.508633 0.515406
0.503486 0.509088 0.515861
0.503742 0.509542 0.516315
0.485546 0.491346 0.494750
0.485803 0.491801 0.495204
0.486059 0.492255 0.495659
0.486315 0.492709 0.496113
0.486571 0.493164 0.496567
0.486827 0.493618 0.497022
0.487083 0.494072 0.497476
0.487339 0.494527 0.497930
0.487595 0.494981 0.498385
0.487852 0.495435 0.498839
0.488108 0.495890 0.499293
0.488364 0.496344 0.499748
0.488620 0.496798 0.500202
0.488876 0.497253 0.500656
0.489132 0.497707 0.501111
0.489388 0.498161 0.501565
0.489644 0.498616 0.502019
0.486438 0.492040 0.495642
0.486694 0.492494 0.496096
0.486951 0.492949 0.496551
0.487207 0.493403 0.497005
0.487463 0.493857 0.497459
0.487719 0.494312 0.497914
0.487975 0.494766 0.498368
0.488231 0.495220 0.498822
0.488487 0.495675 0.499277
0.488744 0.496129 0.499731
0.489000 0.496583 0.500185
0.489256 0.497038 0.500639
0.489512 0.497492 0.501094
0.489768 0.497946 0.501548
0.490024 0.498401 0.502002
0.490280 0.498855 0.502457
0.490536 0.499309 0.502911
0.487330 0.492734 0.496534
0.487586 0.493188 0.496988
0.487843 0.493643 0.497443
0.488099 0.494097 0.497897
0.488355 0.494551 0.498351
0.488611 0.495006 0.498806
0.488867 0.495460 0.499260
0.489123 0.495914 0.499714
0.489379 0.496368 0.500168
0.489635 0.496823 0.500623
0.489892 0.497277 0.501077
0.490148 0.497731 0.501531
0.490404 0.498186 0.501986
0.490660 0.498640 0.502440
0.490916 0.499094 0.502894
0.491172 0.499549 0.503349
0.491428 0.500003 0.503803
0.488222 0.493428 0.497426
0.488478 0.493882 0.497880
0.488734 0.494336 0.498334
0.488991 0.494791 0.498789
0.489247 0.495245 0.499243
0.489503 0.495699 0.499697
0.489759 0.496154 0.500152
0.490015 0.496608 0.500606
0.490271 0.497062 0.501060
0.490527 0.497517 0.501515
0.490783 0.497971 0.501969
0.491040 0.498425 0.502423
0.491296 0.498879 0.502878
0.491552 0.499334 0.503332
0.491808 0.499788 0.503786
0.492064 0.500242 0.504241
0.492320 0.500697 0.504695
0.489114 0.494121 0.498318
0.489370 0.494576 0.498772
0.489626 0.495030 0.499226
0.489883 0.495484 0.499681
0.490139 0.495939 0.500135
0.490395 0.496393 0.500589
0.490651 0.496847 0.501044
0.490907 0.497302 0.501498
0.491163 0.497756 0.501952
0.491419 0.498210 0.502407
0.491675 0.498665 0.502861
0.491932 0.499119 0.503315
0.492188 0.499573 0.503770
0.492444 0.500028 0.504224
0.492700 0.500482 0.504678
0.492956 0.500936 0.505133
0.493212 0.501390 0.505587
0.490006 0.494815 0.499210
0.490262 0.495269 0.499664
0.490518 0.495724 0.500118
0.490774 0.496178 0.500573
0.491031 0.496632 0.501027
0.491287 0.497087 0.501481
0.491543 0.497541 0.501936
0.491799 0.497995 0.502390
0.492055 0.498450 0.502844
0.492311 0.498904 0.503299
0.492567 0.499358 0.503753
0.492823 0.499813 0.504207
0.493080 0.500267 0.504662
0.493336 0.500721 0.505116
0.493592 0.501176 0.505570
0.493848 0.501630 0.506024
0.494104 0.502084 0.506479
0.490898 0.495509 0.500102
0.491154 0.495963 0.500556
0.491410 0.496417 0.501010
0.491666 0.496872 0.501465
0.491923 0.497326 0.501919
0.492179 0.497780 0.502373
0.492435 0.498235 0.502828
0.492691 0.498689 0.503282
0.492947 0.499143 0.503736
0.493203 0.499598 0.504190
0.493459 0.500052 0.504645
0.493715 0.500506 0.505099
0.493972 0.500961 0.505553
0.494228 0.501415 0.506008
0.494484 0.501869 0.506462
0.494740 0.502324 0.506916
0.494996 0.502778 0.507371
0.491790 0.496203 0.500994
0.492046 0.496657 0.501448
0.492302 0.497111 0.501902
0.492558 0.497566 0.502356
0.492814 0.498020 0.502811
0.493071 0.498474 0.503265
0.493327 0.498928 0.503719
0.493583 0.499383 0.504174
0.493839 0.499837 0.504628
0.494095 0.500291 0.505082
0.494351 0.500746 0.505537
0.494607 0.501200 0.505991
0.494863 0.501654 0.506445
0.495120 0.502109 0.506900
0.495376 0.502563 0.507354
0.495632 0.503017 0.507808
0.495888 0.503472 0.508263
0.492682 0.496896 0.501885
0.492938 0.497351 0.502340
0.493194 0.497805 0.502794
0.493450 0.498259 0.503248
0.493706 0.498714 0.503703
0.493962 0.499168 0.504157
0.494219 0.499622 0.504611
0.494475 0.500077 0.505066
0.494731 0.500531 0.505520
0.494987 0.500985 0.505974
0.495243 0.501440 0.506429
0.495499 0.501894 0.506883
0.495755 0.502348 0.507337
0.496012 0.502802 0.507792
0.496268 0.503257 0.508246
0.496524 0.503711 0.508700
0.496780 0.504165 0.509155
0.493574 0.497590 0.502777
0.493830 0.498044 0.503232
0.494086 0.498499 0.503686
0.494342 0.498953 0.504140
0.494598 0.499407 0.504595
0.494854 0.499862 0.505049
0.495111 0.500316 0.505503
0.495367 0.500770 0.505958
0.495623 0.501225 0.506412
0.495879 0.501679 0.506866
0.496135 0.502133 0.507321
0.496391 0.502588 0.507775
0.496647 0.503042 0.508229
0.496903 0.503496 0.508684
0.497160 0.503951 0.509138
0.497416 0.504405 0.509592
0.497672 0.504859 0.510046
0.494466 0.498284 0.503669
0.494722 0.498738 0.504124
0.494978 0.499192 0.504578
0.495234 0.499647 0.505032
0.495490 0.500101 0.505487
0.495746 0.500555 0.505941
0.496002 0.501010 0.506395
0.496259 0.501464 0.506850
0.496515 0.501918 0.507304
0.496771 0.502373 0.507758
0.497027 0.502827 0.508213
0.497283 0.503281 0.508667
0.497539 0.503736 0.509121
0.497795 0.504190 0.509575
0.498051 0.504644 0.510030
0.498308 0.505099 0.510484
0.498564 0.505553 0.510938
0.495358 0.498978 0.504561
0.495614 0.499432 0.505016
0.495870 0.499886 0.505470
0.496126 0.500340 0.505924
0.496382 0.500795 0.506379
0.496638 0.501249 0.506833
0.496894 0.501703 0.507287
0.497151 0.502158 0.507741
0.497407 0.502612 0.508196
0.497663 0.503066 0.508650
0.497919 0.503521 0.509104
0.498175 0.503975 0.509559
0.498431 0.504429 0.510013
0.498687 0.504884 0.510467
0.498943 0.505338 0.510922
0.499200 0.505792 0.511376
0.499456 0.506247 0.511830
0.496250 0.499671 0.505453
0.496506 0.500126 0.505907
0.496762 0.500580 0.506362
0.497018 0.501034 0.506816
0.497274 0.501489 0.507270
0.497530 0.501943 0.507725
0.497786 0.502397 0.508179
0.498042 0.502851 0.508633
0.498299 0.503306 0.509088
0.498555 0.503760 0.509542
0.498811 0.504214 0.509996
0.499067 0.504669 0.510451
0.499323 0.505123 0.510905
0.499579 0.505577 0.511359
0.499835 0.506032 0.511814
0.500091 0.506486 0.512268
0.500348 0.506940 0.512722
0.497141 0.500365 0.506345
0.497398 0.500819 0.506799
0.497654 0.501274 0.507254
0.497910 0.501728 0.507708
0.498166 0.502182 0.508162
0.498422 0.502637 0.508617
0.498678 0.503091 0.509071
0.498934 0.503545 0.509525
0.499190 0.504000 0.509980
0.499447 0.504454 0.510434
0.499703 0.504908 0.510888
0.499959 0.505362 0.511343
0.500215 0.505817 0.511797
0.500471 0.506271 0.512251
0.500727 0.506725 0.512706
0.500983 0.507180 0.513160
0.501240 0.507634 0.513614
0.498033 0.501059 0.507237
0.498290 0.501513 0.507691
0.498546 0.501967 0.508146
0.498802 0.502422 0.508600
0.499058 0.502876 0.509054
0.499314 0.503330 0.509509
0.499570 0.503785 0.509963
0.499826 0.504239 0.510417
0.500082 0.504693 0.510872
0.500339 0.505148 0.511326
0.500595 0.505602 0.511780
0.500851 0.506056 0.512235
0.501107 0.506511 0.512689
0.501363 0.506965 0.513143
0.501619 0.507419 0.513597
0.501875 0.507874 0.514052
0.502131 0.508328 0.514506
0.498925 0.501752 0.508129
0.499181 0.502207 0.508583
0.499438 0.502661 0.509038
0.499694 0.503115 0.509492
0.499950 0.503570 0.509946
0.500206 0.504024 0.510401
0.500462 0.504478 0.510855
0.500718 0.504933 0.511309
0.500974 0.505387 0.511763
0.501230 0.505841 0.512218
0.501487 0.506296 0.512672
0.501743 0.506750 0.513126
0.501999 0.507204 0.513581
0.502255 0.507659 0.514035
0.502511 0.508113 0.514489
0.502767 0.508567 0.514944
0.503023 0.509022 0.515398
0.499817 0.502446 0.509021
0.500073 0.502901 0.509475
0.500329 0.503355 0.509929
0.500586 0.503809 0.510384
0.500842 0.504263 0.510838
0.501098 0.504718 0.511292
0.501354 0.505172 0.511747
0.501610 0.505626 0.512201
0.501866 0.506081 0.512655
0.502122 0.506535 0.513110
0.502379 0.506989 0.513564
0.502635 0.507444 0.514018
0.502891 0.507898 0.514473
0.503147 0.508352 0.514927
0.503403 0.508807 0.515381
0.503659 0.509261 0.515836
0.503915 0.509715 0.516290
0.485720 0.491520 0.494725
0.485976 0.491974 0.495179
0.486232 0.492428 0.495634
0.486488 0.492883 0.496088
0.486744 0.493337 0.496542
0.487000 0.493791 0.496997
0.487256 0.494246 0.497451
0.487513 0.494700 0.497905
0.487769 0.495154 0.498360
0.488025 0.495609 0.498814
0.488281 0.496063 0.499268
0.488537 0.496517 0.499723
0.488793 0.496971 0.500177
0.489049 0.497426 0.500631
0.489305 0.497880 0.501086
0.489562 0.498334 0.501540
0.489818 0.498789 0.501994
0.486612 0.492213 0.495617
