shared/src/main/assets/luts/drama_southern_dust.cube
TITLE "DALUR Southern Dust"
LUT_3D_SIZE 17
DOMAIN_MIN 0.0 0.0 0.0
DOMAIN_MAX 1.0 1.0 1.0
0.446000 0.443000 0.434000
0.447150 0.445599 0.436599
0.448301 0.448199 0.439199
0.449451 0.450798 0.441798
0.450602 0.453397 0.444397
0.451752 0.455997 0.446997
0.452903 0.458596 0.449596
0.454053 0.461195 0.452195
0.455203 0.463795 0.454795
0.456354 0.466394 0.457394
0.457504 0.468993 0.459993
0.458655 0.471593 0.462593
0.459805 0.474192 0.465192
0.460956 0.476791 0.467791
0.462106 0.479391 0.470391
0.463256 0.481990 0.472990
0.464407 0.484589 0.475589
0.451103 0.446654 0.439103
0.452253 0.449253 0.441702
0.453404 0.451853 0.444302
0.454554 0.454452 0.446901
0.455705 0.457051 0.449500
0.456855 0.459651 0.452100
0.458006 0.462250 0.454699
0.459156 0.464849 0.457298
0.460306 0.467449 0.459898
0.461457 0.470048 0.462497
0.462607 0.472647 0.465096
0.463758 0.475247 0.467696
0.464908 0.477846 0.470295
0.466059 0.480445 0.472894
0.467209 0.483045 0.475494
0.468359 0.485644 0.478093
0.469510 0.488243 0.480692
0.456206 0.450308 0.444206
0.457357 0.452908 0.446805
0.458507 0.455507 0.449405
0.459657 0.458106 0.452004
0.460808 0.460706 0.454603
0.461958 0.463305 0.457203
0.463109 0.465904 0.459802
0.464259 0.468504 0.462401
0.465410 0.471103 0.465001
0.466560 0.473702 0.467600
0.467710 0.476302 0.470199
0.468861 0.478901 0.472799
0.470011 0.481500 0.475398
0.471162 0.484100 0.477997
0.472312 0.486699 0.480597
0.473463 0.489298 0.483196
0.474613 0.491898 0.485795
0.461309 0.453962 0.449309
0.462460 0.456562 0.451908
0.463610 0.459161 0.454508
0.464760 0.461760 0.457107
0.465911 0.464360 0.459706
0.467061 0.466959 0.462306
0.468212 0.469558 0.464905
0.469362 0.472158 0.467504
0.470513 0.474757 0.470104
0.471663 0.477356 0.472703
0.472813 0.479956 0.475302
0.473964 0.482555 0.477902
0.475114 0.485154 0.480501
0.476265 0.487754 0.483100
0.477415 0.490353 0.485700
0.478566 0.492952 0.488299
0.479716 0.495552 0.490898
0.466412 0.457617 0.454412
0.467563 0.460216 0.457012
0.468713 0.462815 0.459611
0.469863 0.465415 0.462210
0.471014 0.468014 0.464810
0.472164 0.470613 0.467409
0.473315 0.473213 0.470008
0.474465 0.475812 0.472608
0.475616 0.478411 0.475207
0.476766 0.481011 0.477806
0.477916 0.483610 0.480406
0.479067 0.486209 0.483005
0.480217 0.488809 0.485604
0.481368 0.491408 0.488204
0.482518 0.494007 0.490803
0.483669 0.496607 0.493402
0.484819 0.499206 0.496002
0.471515 0.461271 0.459515
0.472666 0.463870 0.462115
0.473816 0.466469 0.464714
0.474966 0.469069 0.467313
0.476117 0.471668 0.469913
0.477267 0.474267 0.472512
0.478418 0.476867 0.475111
0.479568 0.479466 0.477711
0.480719 0.482065 0.480310
0.481869 0.484665 0.482909
0.483020 0.487264 0.485509
0.484170 0.489863 0.488108
0.485320 0.492463 0.490707
0.486471 0.495062 0.493307
0.487621 0.497661 0.495906
0.488772 0.500261 0.498505
0.489922 0.502860 0.501105
0.476618 0.464925 0.464618
0.477769 0.467524 0.467218
0.478919 0.470123 0.469817
0.480070 0.472723 0.472416
0.481220 0.475322 0.475016
0.482370 0.477921 0.477615
0.483521 0.480521 0.480214
0.484671 0.483120 0.482814
0.485822 0.485720 0.485413
0.486972 0.488319 0.488012
0.488123 0.490918 0.490612
0.489273 0.493518 0.493211
0.490423 0.496117 0.495810
0.491574 0.498716 0.498410
0.492724 0.501316 0.501009
0.493875 0.503915 0.503608
0.495025 0.506514 0.506208
0.481721 0.468579 0.469721
0.482872 0.471178 0.472321
0.484022 0.473778 0.474920
0.485173 0.476377 0.477519
0.486323 0.478976 0.480119
0.487473 0.481576 0.482718
0.488624 0.484175 0.485317
0.489774 0.486774 0.487917
0.490925 0.489374 0.490516
0.492075 0.491973 0.493115
0.493226 0.494572 0.495715
0.494376 0.497172 0.498314
0.495526 0.499771 0.500913
0.496677 0.502370 0.503513
0.497827 0.504970 0.506112
0.498978 0.507569 0.508711
0.500128 0.510168 0.511311
0.486824 0.472233 0.474824
0.487975 0.474832 0.477424
0.489125 0.477432 0.480023
0.490276 0.480031 0.482622
0.491426 0.482630 0.485222
0.492576 0.485230 0.487821
0.493727 0.487829 0.490420
0.494877 0.490428 0.493020
0.496028 0.493028 0.495619
0.497178 0.495627 0.498218
0.498329 0.498226 0.500818
0.499479 0.500826 0.503417
0.500629 0.503425 0.506016
0.501780 0.506024 0.508616
0.502930 0.508624 0.511215
0.504081 0.511223 0.513814
0.505231 0.513822 0.516414
0.491927 0.475887 0.479927
0.493078 0.478487 0.482527
0.494228 0.481086 0.485126
0.495379 0.483685 0.487725
0.496529 0.486285 0.490325
0.497680 0.488884 0.492924
0.498830 0.491483 0.495523
0.499980 0.494083 0.498123
0.501131 0.496682 0.500722
0.502281 0.499281 0.503321
0.503432 0.501881 0.505921
0.504582 0.504480 0.508520
0.505733 0.507079 0.511119
0.506883 0.509679 0.513719
0.508033 0.512278 0.516318
0.509184 0.514877 0.518917
0.510334 0.517477 0.521517
0.497030 0.479541 0.485030
0.498181 0.482141 0.487630
0.499331 0.484740 0.490229
0.500482 0.487339 0.492828
0.501632 0.489939 0.495428
0.502783 0.492538 0.498027
0.503933 0.495137 0.500626
0.505083 0.497737 0.503226
0.506234 0.500336 0.505825
0.507384 0.502935 0.508424
0.508535 0.505535 0.511024
0.509685 0.508134 0.513623
0.510836 0.510733 0.516222
0.511986 0.513333 0.518822
0.513136 0.515932 0.521421
0.514287 0.518531 0.524020
0.515437 0.521131 0.526620
0.502133 0.483196 0.490133
0.503284 0.485795 0.492733
0.504434 0.488394 0.495332
0.505585 0.490994 0.497931
0.506735 0.493593 0.500531
0.507886 0.496192 0.503130
0.509036 0.498792 0.505729
0.510186 0.501391 0.508329
0.511337 0.503990 0.510928
0.512487 0.506590 0.513527
0.513638 0.509189 0.516127
0.514788 0.511788 0.518726
0.515939 0.514388 0.521325
0.517089 0.516987 0.523925
0.518239 0.519586 0.526524
0.519390 0.522186 0.529123
0.520540 0.524785 0.531723
0.507236 0.486850 0.495236
0.508387 0.489449 0.497836
0.509537 0.492048 0.500435
0.510688 0.494648 0.503035
0.511838 0.497247 0.505634
0.512989 0.499846 0.508233
0.514139 0.502446 0.510833
0.515290 0.505045 0.513432
0.516440 0.507644 0.516031
0.517590 0.510244 0.518631
0.518741 0.512843 0.521230
0.519891 0.515442 0.523829
0.521042 0.518042 0.526429
0.522192 0.520641 0.529028
0.523343 0.523240 0.531627
0.524493 0.525840 0.534227
0.525643 0.528439 0.536826
0.512340 0.490504 0.500340
0.513490 0.493103 0.502939
0.514640 0.495702 0.505538
0.515791 0.498302 0.508138
0.516941 0.500901 0.510737
0.518092 0.503500 0.513336
0.519242 0.506100 0.515936
0.520393 0.508699 0.518535
0.521543 0.511298 0.521134
0.522693 0.513898 0.523734
0.523844 0.516497 0.526333
0.524994 0.519096 0.528932
0.526145 0.521696 0.531532
0.527295 0.524295 0.534131
0.528446 0.526894 0.536730
0.529596 0.529494 0.539330
0.530746 0.532093 0.541929
0.517443 0.494158 0.505443
0.518593 0.496757 0.508042
0.519743 0.499357 0.510641
0.520894 0.501956 0.513241
0.522044 0.504555 0.515840
0.523195 0.507155 0.518439
0.524345 0.509754 0.521039
0.525496 0.512353 0.523638
0.526646 0.514953 0.526237
0.527796 0.517552 0.528837
0.528947 0.520151 0.531436
0.530097 0.522751 0.534035
0.531248 0.525350 0.536635
0.532398 0.527949 0.539234
0.533549 0.530549 0.541833
0.534699 0.533148 0.544433
0.535849 0.535747 0.547032
0.522546 0.497812 0.510546
0.523696 0.500411 0.513145
0.524846 0.503011 0.515744
0.525997 0.505610 0.518344
0.527147 0.508209 0.520943
0.528298 0.510809 0.523542
0.529448 0.513408 0.526142
0.530599 0.516007 0.528741
0.531749 0.518607 0.531340
0.532899 0.521206 0.533940
0.534050 0.523805 0.536539
0.535200 0.526405 0.539138
0.536351 0.529004 0.541738
0.537501 0.531603 0.544337
0.538652 0.534203 0.546936
0.539802 0.536802 0.549536
0.540953 0.539401 0.552135
0.527649 0.501466 0.515649
0.528799 0.504066 0.518248
0.529950 0.506665 0.520847
0.531100 0.509264 0.523447
0.532250 0.511864 0.526046
0.533401 0.514463 0.528645
0.534551 0.517062 0.531245
0.535702 0.519662 0.533844
0.536852 0.522261 0.536443
0.538003 0.524860 0.539043
0.539153 0.527460 0.541642
0.540303 0.530059 0.544241
0.541454 0.532658 0.546841
0.542604 0.535258 0.549440
0.543755 0.537857 0.552039
0.544905 0.540456 0.554639
0.546056 0.543056 0.557238
0.446991 0.443991 0.433542
0.448141 0.446590 0.436141
0.449292 0.449190 0.438741
0.450442 0.451789 0.441340
0.451593 0.454388 0.443939
0.452743 0.456988 0.446539
0.453894 0.459587 0.449138
0.455044 0.462186 0.451737
0.456194 0.464786 0.454337
0.457345 0.467385 0.456936
0.458495 0.469984 0.459535
0.459646 0.472584 0.462135
0.460796 0.475183 0.464734
0.461947 0.477782 0.467333
0.463097 0.480382 0.469933
0.464248 0.482981 0.472532
0.465398 0.485580 0.475132
0.452094 0.447645 0.438645
0.453245 0.450245 0.441245
0.454395 0.452844 0.443844
0.455545 0.455443 0.446443
0.456696 0.458043 0.449043
0.457846 0.460642 0.451642
0.458997 0.463241 0.454241
0.460147 0.465841 0.456841
0.461298 0.468440 0.459440
0.462448 0.471039 0.462039
0.463598 0.473639 0.464639
0.464749 0.476238 0.467238
0.465899 0.478837 0.469837
0.467050 0.481437 0.472437
0.468200 0.484036 0.475036
0.469351 0.486635 0.477635
0.470501 0.489235 0.480235
0.457197 0.451299 0.443748
0.458348 0.453899 0.446348
0.459498 0.456498 0.448947
0.460648 0.459097 0.451546
0.461799 0.461697 0.454146
0.462949 0.464296 0.456745
0.464100 0.466895 0.459344
0.465250 0.469495 0.461944
0.466401 0.472094 0.464543
0.467551 0.474693 0.467142
0.468701 0.477293 0.469742
0.469852 0.479892 0.472341
0.471002 0.482491 0.474940
0.472153 0.485091 0.477540
0.473303 0.487690 0.480139
0.474454 0.490289 0.482738
0.475604 0.492889 0.485338
0.462300 0.454953 0.448851
0.463451 0.457553 0.451451
0.464601 0.460152 0.454050
0.465751 0.462751 0.456649
0.466902 0.465351 0.459249
0.468052 0.467950 0.461848
0.469203 0.470549 0.464447
0.470353 0.473149 0.467047
0.471504 0.475748 0.469646
0.472654 0.478347 0.472245
0.473804 0.480947 0.474845
0.474955 0.483546 0.477444
0.476105 0.486145 0.480043
0.477256 0.488745 0.482643
0.478406 0.491344 0.485242
0.479557 0.493943 0.487841
0.480707 0.496543 0.490441
0.467403 0.458608 0.453954
0.468554 0.461207 0.456554
0.469704 0.463806 0.459153
0.470855 0.466406 0.461752
0.472005 0.469005 0.464352
0.473155 0.471604 0.466951
0.474306 0.474204 0.469550
0.475456 0.476803 0.472150
0.476607 0.479402 0.474749
0.477757 0.482002 0.477348
0.478908 0.484601 0.479948
0.480058 0.487200 0.482547
0.481208 0.489800 0.485146
0.482359 0.492399 0.487746
0.483509 0.494998 0.490345
0.484660 0.497598 0.492944
0.485810 0.500197 0.495544
0.472506 0.462262 0.459057
0.473657 0.464861 0.461657
0.474807 0.467460 0.464256
0.475958 0.470060 0.466855
0.477108 0.472659 0.469455
0.478258 0.475258 0.472054
0.479409 0.477858 0.474653
0.480559 0.480457 0.477253
0.481710 0.483056 0.479852
0.482860 0.485656 0.482451
0.484011 0.488255 0.485051
0.485161 0.490854 0.487650
0.486311 0.493454 0.490249
0.487462 0.496053 0.492849
0.488612 0.498652 0.495448
0.489763 0.501252 0.498047
0.490913 0.503851 0.500647
0.477609 0.465916 0.464160
0.478760 0.468515 0.466760
0.479910 0.471115 0.469359
0.481061 0.473714 0.471958
0.482211 0.476313 0.474558
0.483361 0.478913 0.477157
0.484512 0.481512 0.479756
0.485662 0.484111 0.482356
0.486813 0.486711 0.484955
0.487963 0.489310 0.487554
0.489114 0.491909 0.490154
0.490264 0.494509 0.492753
0.491414 0.497108 0.495352
0.492565 0.499707 0.497952
0.493715 0.502307 0.500551
0.494866 0.504906 0.503150
0.496016 0.507505 0.505750
0.482712 0.469570 0.469263
0.483863 0.472169 0.471863
0.485013 0.474769 0.474462
0.486164 0.477368 0.477061
0.487314 0.479967 0.479661
0.488464 0.482567 0.482260
0.489615 0.485166 0.484859
0.490765 0.487765 0.487459
0.491916 0.490365 0.490058
0.493066 0.492964 0.492657
0.494217 0.495563 0.495257
0.495367 0.498163 0.497856
0.496518 0.500762 0.500455
0.497668 0.503361 0.503055
0.498818 0.505961 0.505654
0.499969 0.508560 0.508253
0.501119 0.511159 0.510853
0.487815 0.473224 0.474366
0.488966 0.475823 0.476966
0.490116 0.478423 0.479565
0.491267 0.481022 0.482164
0.492417 0.483621 0.484764
0.493568 0.486221 0.487363
0.494718 0.488820 0.489962
0.495868 0.491419 0.492562
0.497019 0.494019 0.495161
0.498169 0.496618 0.497760
0.499320 0.499217 0.500360
0.500470 0.501817 0.502959
0.501621 0.504416 0.505558
0.502771 0.507015 0.508158
0.503921 0.509615 0.510757
0.505072 0.512214 0.513356
0.506222 0.514814 0.515956
0.492918 0.476878 0.479470
0.494069 0.479478 0.482069
0.495219 0.482077 0.484668
0.496370 0.484676 0.487268
0.497520 0.487276 0.489867
0.498671 0.489875 0.492466
0.499821 0.492474 0.495066
0.500971 0.495074 0.497665
0.502122 0.497673 0.500264
0.503272 0.500272 0.502864
0.504423 0.502872 0.505463
0.505573 0.505471 0.508062
0.506724 0.508070 0.510662
0.507874 0.510670 0.513261
0.509024 0.513269 0.515860
0.510175 0.515868 0.518460
0.511325 0.518468 0.521059
0.498021 0.480532 0.484573
0.499172 0.483132 0.487172
0.500322 0.485731 0.489771
0.501473 0.488330 0.492371
0.502623 0.490930 0.494970
0.503774 0.493529 0.497569
0.504924 0.496128 0.500169
0.506074 0.498728 0.502768
0.507225 0.501327 0.505367
0.508375 0.503926 0.507967
0.509526 0.506526 0.510566
0.510676 0.509125 0.513165
0.511827 0.511724 0.515765
0.512977 0.514324 0.518364
0.514127 0.516923 0.520963
0.515278 0.519522 0.523563
0.516428 0.522122 0.526162
0.503125 0.484187 0.489676
0.504275 0.486786 0.492275
0.505425 0.489385 0.494874
0.506576 0.491985 0.497474
0.507726 0.494584 0.500073
0.508877 0.497183 0.502672
0.510027 0.499783 0.505272
0.511178 0.502382 0.507871
0.512328 0.504981 0.510470
0.513478 0.507581 0.513070
0.514629 0.510180 0.515669
0.515779 0.512779 0.518268
0.516930 0.515379 0.520868
0.518080 0.517978 0.523467
0.519231 0.520577 0.526066
0.520381 0.523177 0.528666
0.521531 0.525776 0.531265
0.508228 0.487841 0.494779
0.509378 0.490440 0.497378
0.510528 0.493039 0.499977
0.511679 0.495639 0.502577
0.512829 0.498238 0.505176
0.513980 0.500837 0.507775
0.515130 0.503437 0.510375
0.516281 0.506036 0.512974
0.517431 0.508635 0.515573
0.518581 0.511235 0.518173
0.519732 0.513834 0.520772
0.520882 0.516433 0.523371
0.522033 0.519033 0.525971
0.523183 0.521632 0.528570
0.524334 0.524231 0.531169
0.525484 0.526831 0.533769
0.526634 0.529430 0.536368
0.513331 0.491495 0.499882
0.514481 0.494094 0.502481
0.515631 0.496694 0.505080
0.516782 0.499293 0.507680
0.517932 0.501892 0.510279
0.519083 0.504492 0.512878
0.520233 0.507091 0.515478
0.521384 0.509690 0.518077
0.522534 0.512290 0.520676
0.523684 0.514889 0.523276
0.524835 0.517488 0.525875
0.525985 0.520088 0.528474
0.527136 0.522687 0.531074
0.528286 0.525286 0.533673
0.529437 0.527886 0.536272
0.530587 0.530485 0.538872
0.531737 0.533084 0.541471
0.518434 0.495149 0.504985
0.519584 0.497748 0.507584
0.520734 0.500348 0.510183
0.521885 0.502947 0.512783
0.523035 0.505546 0.515382
0.524186 0.508146 0.517981
0.525336 0.510745 0.520581
0.526487 0.513344 0.523180
0.527637 0.515944 0.525779
0.528788 0.518543 0.528379
0.529938 0.521142 0.530978
0.531088 0.523742 0.533577
0.532239 0.526341 0.536177
0.533389 0.528940 0.538776
0.534540 0.531540 0.541375
0.535690 0.534139 0.543975
0.536841 0.536738 0.546574
0.523537 0.498803 0.510088
0.524687 0.501402 0.512687
0.525838 0.504002 0.515286
0.526988 0.506601 0.517886
0.528138 0.509200 0.520485
0.529289 0.511800 0.523084
0.530439 0.514399 0.525684
0.531590 0.516998 0.528283
0.532740 0.519598 0.530882
0.533891 0.522197 0.533482
0.535041 0.524796 0.536081
0.536191 0.527396 0.538680
0.537342 0.529995 0.541280
0.538492 0.532594 0.543879
0.539643 0.535194 0.546478
0.540793 0.537793 0.549078
0.541944 0.540392 0.551677
0.528640 0.502457 0.515191
0.529790 0.505057 0.517790
0.530941 0.507656 0.520389
0.532091 0.510255 0.522989
0.533241 0.512855 0.525588
0.534392 0.515454 0.528187
0.535542 0.518053 0.530787
0.536693 0.520653 0.533386
0.537843 0.523252 0.535985
0.538994 0.525851 0.538585
0.540144 0.528451 0.541184
0.541294 0.531050 0.543783
0.542445 0.533649 0.546383
0.543595 0.536249 0.548982
0.544746 0.538848 0.551581
0.545896 0.541447 0.554181
0.547047 0.544047 0.556780
0.447982 0.444982 0.433084
0.449133 0.447581 0.435684
0.450283 0.450181 0.438283
0.451433 0.452780 0.440882
0.452584 0.455379 0.443482
0.453734 0.457979 0.446081
0.454885 0.460578 0.448680
0.456035 0.463177 0.451280
0.457186 0.465777 0.453879
0.458336 0.468376 0.456478
0.459486 0.470975 0.459078
0.460637 0.473575 0.461677
0.461787 0.476174 0.464276
0.462938 0.478773 0.466876
0.464088 0.481373 0.469475
0.465239 0.483972 0.472074
0.466389 0.486571 0.474674
0.453085 0.448636 0.438187
0.454236 0.451236 0.440787
0.455386 0.453835 0.443386
0.456536 0.456434 0.445985
0.457687 0.459034 0.448585
0.458837 0.461633 0.451184
0.459988 0.464232 0.453783
0.461138 0.466832 0.456383
0.462289 0.469431 0.458982
0.463439 0.472030 0.461581
0.464589 0.474630 0.464181
0.465740 0.477229 0.466780
0.466890 0.479828 0.469379
0.468041 0.482428 0.471979
0.469191 0.485027 0.474578
0.470342 0.487626 0.477177
0.471492 0.490226 0.479777
0.458188 0.452290 0.443290
0.459339 0.454890 0.445890
0.460489 0.457489 0.448489
0.461639 0.460088 0.451088
0.462790 0.462688 0.453688
0.463940 0.465287 0.456287
0.465091 0.467886 0.458886
0.466241 0.470486 0.461486
0.467392 0.473085 0.464085
0.468542 0.475684 0.466684
0.469692 0.478284 0.469284
0.470843 0.480883 0.471883
0.471993 0.483482 0.474482
0.473144 0.486082 0.477082
0.474294 0.488681 0.479681
0.475445 0.491280 0.482280
0.476595 0.493880 0.484880
0.463291 0.455945 0.448393
0.464442 0.458544 0.450993
0.465592 0.461143 0.453592
0.466743 0.463743 0.456191
0.467893 0.466342 0.458791
0.469043 0.468941 0.461390
0.470194 0.471541 0.463989
0.471344 0.474140 0.466589
0.472495 0.476739 0.469188
0.473645 0.479339 0.471787
0.474796 0.481938 0.474387
0.475946 0.484537 0.476986
0.477096 0.487137 0.479585
0.478247 0.489736 0.482185
0.479397 0.492335 0.484784
0.480548 0.494935 0.487383
0.481698 0.497534 0.489983
0.468394 0.459599 0.453496
0.469545 0.462198 0.456096
0.470695 0.464797 0.458695
0.471846 0.467397 0.461294
0.472996 0.469996 0.463894
0.474146 0.472595 0.466493
0.475297 0.475195 0.469092
0.476447 0.477794 0.471692
0.477598 0.480393 0.474291
0.478748 0.482993 0.476890
0.479899 0.485592 0.479490
0.481049 0.488191 0.482089
0.482199 0.490791 0.484688
0.483350 0.493390 0.487288
0.484500 0.495989 0.489887
0.485651 0.498589 0.492486
0.486801 0.501188 0.495086
0.473497 0.463253 0.458600
0.474648 0.465852 0.461199
0.475798 0.468451 0.463798
0.476949 0.471051 0.466398
0.478099 0.473650 0.468997
0.479249 0.476249 0.471596
0.480400 0.478849 0.474196
0.481550 0.481448 0.476795
0.482701 0.484047 0.479394
0.483851 0.486647 0.481994
0.485002 0.489246 0.484593
0.486152 0.491845 0.487192
0.487302 0.494445 0.489792
0.488453 0.497044 0.492391
0.489603 0.499643 0.494990
0.490754 0.502243 0.497590
0.491904 0.504842 0.500189
0.478600 0.466907 0.463703
0.479751 0.469506 0.466302
0.480901 0.472106 0.468901
0.482052 0.474705 0.471501
0.483202 0.477304 0.474100
0.484353 0.479904 0.476699
0.485503 0.482503 0.479299
0.486653 0.485102 0.481898
0.487804 0.487702 0.484497
0.488954 0.490301 0.487097
0.490105 0.492900 0.489696
0.491255 0.495500 0.492295
0.492406 0.498099 0.494895
0.493556 0.500698 0.497494
0.494706 0.503298 0.500093
0.495857 0.505897 0.502693
0.497007 0.508496 0.505292
0.483703 0.470561 0.468806
0.484854 0.473160 0.471405
0.486004 0.475760 0.474004
0.487155 0.478359 0.476604
0.488305 0.480958 0.479203
0.489456 0.483558 0.481802
0.490606 0.486157 0.484402
0.491756 0.488756 0.487001
0.492907 0.491356 0.489600
0.494057 0.493955 0.492200
0.495208 0.496554 0.494799
0.496358 0.499154 0.497398
0.497509 0.501753 0.499998
0.498659 0.504352 0.502597
0.499809 0.506952 0.505196
0.500960 0.509551 0.507796
0.502110 0.512150 0.510395
0.488806 0.474215 0.473909
0.489957 0.476815 0.476508
0.491107 0.479414 0.479107
0.492258 0.482013 0.481707
0.493408 0.484613 0.484306
0.494559 0.487212 0.486905
0.495709 0.489811 0.489505
0.496859 0.492411 0.492104
0.498010 0.495010 0.494703
0.499160 0.497609 0.497303
0.500311 0.500209 0.499902
0.501461 0.502808 0.502501
0.502612 0.505407 0.505101
0.503762 0.508007 0.507700
0.504912 0.510606 0.510299
0.506063 0.513205 0.512899
0.507213 0.515805 0.515498
0.493909 0.477869 0.479012
0.495060 0.480469 0.481611
0.496210 0.483068 0.484210
0.497361 0.485667 0.486810
0.498511 0.488267 0.489409
0.499662 0.490866 0.492008
0.500812 0.493465 0.494608
0.501962 0.496065 0.497207
0.503113 0.498664 0.499806
0.504263 0.501263 0.502406
0.505414 0.503863 0.505005
0.506564 0.506462 0.507604
0.507715 0.509061 0.510204
0.508865 0.511661 0.512803
0.510015 0.514260 0.515402
0.511166 0.516859 0.518002
0.512316 0.519459 0.520601
0.499013 0.481523 0.484115
0.500163 0.484123 0.486714
0.501313 0.486722 0.489313
0.502464 0.489321 0.491913
0.503614 0.491921 0.494512
0.504765 0.494520 0.497111
0.505915 0.497119 0.499711
0.507066 0.499719 0.502310
0.508216 0.502318 0.504909
0.509366 0.504917 0.507509
0.510517 0.507517 0.510108
0.511667 0.510116 0.512707
0.512818 0.512715 0.515307
0.513968 0.515315 0.517906
0.515119 0.517914 0.520505
0.516269 0.520513 0.523105
0.517419 0.523113 0.525704
0.504116 0.485178 0.489218
0.505266 0.487777 0.491817
0.506416 0.490376 0.494416
0.507567 0.492976 0.497016
0.508717 0.495575 0.499615
0.509868 0.498174 0.502214
0.511018 0.500774 0.504814
0.512169 0.503373 0.507413
0.513319 0.505972 0.510012
0.514469 0.508572 0.512612
0.515620 0.511171 0.515211
0.516770 0.513770 0.517810
0.517921 0.516370 0.520410
0.519071 0.518969 0.523009
0.520222 0.521568 0.525608
0.521372 0.524168 0.528208
0.522522 0.526767 0.530807
0.509219 0.488832 0.494321
0.510369 0.491431 0.496920
0.511519 0.494030 0.499519
0.512670 0.496630 0.502119
0.513820 0.499229 0.504718
0.514971 0.501828 0.507317
0.516121 0.504428 0.509917
0.517272 0.507027 0.512516
0.518422 0.509626 0.515115
0.519572 0.512226 0.517715
0.520723 0.514825 0.520314
0.521873 0.517424 0.522913
0.523024 0.520024 0.525513
0.524174 0.522623 0.528112
0.525325 0.525222 0.530711
0.526475 0.527822 0.533311
0.527625 0.530421 0.535910
0.514322 0.492486 0.499424
0.515472 0.495085 0.502023
0.516623 0.497685 0.504623
0.517773 0.500284 0.507222
0.518923 0.502883 0.509821
0.520074 0.505483 0.512421
0.521224 0.508082 0.515020
0.522375 0.510681 0.517619
0.523525 0.513281 0.520219
0.524676 0.515880 0.522818
0.525826 0.518479 0.525417
0.526976 0.521079 0.528017
0.528127 0.523678 0.530616
0.529277 0.526277 0.533215
0.530428 0.528877 0.535815
0.531578 0.531476 0.538414
0.532729 0.534075 0.541013
0.519425 0.496140 0.504527
0.520575 0.498739 0.507126
0.521726 0.501339 0.509726
0.522876 0.503938 0.512325
0.524026 0.506537 0.514924
0.525177 0.509137 0.517524
0.526327 0.511736 0.520123
0.527478 0.514335 0.522722
0.528628 0.516935 0.525322
0.529779 0.519534 0.527921
0.530929 0.522133 0.530520
0.532079 0.524733 0.533120
0.533230 0.527332 0.535719
0.534380 0.529931 0.538318
0.535531 0.532531 0.540918
0.536681 0.535130 0.543517
0.537832 0.537729 0.546116
0.524528 0.499794 0.509630
0.525678 0.502393 0.512229
0.526829 0.504993 0.514829
0.527979 0.507592 0.517428
0.529129 0.510191 0.520027
0.530280 0.512791 0.522627
0.531430 0.515390 0.525226
0.532581 0.517990 0.527825
0.533731 0.520589 0.530425
0.534882 0.523188 0.533024
0.536032 0.525788 0.535623
0.537182 0.528387 0.538223
0.538333 0.530986 0.540822
0.539483 0.533586 0.543421
0.540634 0.536185 0.546021
0.541784 0.538784 0.548620
0.542935 0.541384 0.551219
0.529631 0.503448 0.514733
0.530781 0.506048 0.517332
0.531932 0.508647 0.519932
0.533082 0.511246 0.522531
0.534232 0.513846 0.525130
0.535383 0.516445 0.527730
0.536533 0.519044 0.530329
0.537684 0.521644 0.532928
0.538834 0.524243 0.535528
0.539985 0.526842 0.538127
0.541135 0.529442 0.540726
0.542285 0.532041 0.543326
0.543436 0.534640 0.545925
0.544586 0.537240 0.548524
0.545737 0.539839 0.551124
0.546887 0.542438 0.553723
0.548038 0.545038 0.556322
0.448973 0.445973 0.432626
0.450124 0.448572 0.435226
0.451274 0.451172 0.437825
0.452424 0.453771 0.440424
0.453575 0.456370 0.443024
0.454725 0.458970 0.445623
0.455876 0.461569 0.448222
0.457026 0.464168 0.450822
0.458177 0.466768 0.453421
0.459327 0.469367 0.456020
0.460477 0.471966 0.458620
0.461628 0.474566 0.461219
0.462778 0.477165 0.463818
0.463929 0.479765 0.466418
0.465079 0.482364 0.469017
0.466230 0.484963 0.471616
0.467380 0.487563 0.474216
0.454076 0.449627 0.437729
