shared/src/main/assets/luts/drama_muted_crime.cube
TITLE "DALUR Muted Crime"
LUT_3D_SIZE 9
DOMAIN_MIN 0.0 0.0 0.0
DOMAIN_MAX 1.0 1.0 1.0
0.453000 0.452000 0.447000
0.453634 0.456773 0.451773
0.454269 0.461547 0.456547
0.454903 0.466320 0.461320
0.455538 0.471094 0.466094
0.456172 0.475867 0.470867
0.456807 0.480641 0.475641
0.457441 0.485414 0.480414
0.458076 0.490188 0.485188
0.462371 0.457232 0.456371
0.463006 0.462006 0.461145
0.463640 0.466779 0.465918
0.464275 0.471553 0.470692
0.464909 0.476326 0.475465
0.465544 0.481100 0.480239
0.466178 0.485873 0.485012
0.466812 0.490646 0.489785
0.467447 0.495420 0.494559
0.471743 0.462465 0.465743
0.472377 0.467238 0.470516
0.473011 0.472011 0.475289
0.473646 0.476785 0.480063
0.474280 0.481558 0.484836
0.474915 0.486332 0.489610
0.475549 0.491105 0.494383
0.476184 0.495879 0.499157
0.476818 0.500652 0.503930
0.481114 0.467697 0.475114
0.481748 0.472470 0.479887
0.482383 0.477244 0.484661
0.483017 0.482017 0.489434
0.483652 0.486791 0.494208
0.484286 0.491564 0.498981
0.484921 0.496338 0.503755
0.485555 0.501111 0.508528
0.486189 0.505884 0.513301
0.490485 0.472929 0.484485
0.491120 0.477703 0.489259
0.491754 0.482476 0.494032
0.492389 0.487250 0.498806
0.493023 0.492023 0.503579
0.493657 0.496796 0.508352
0.494292 0.501570 0.513126
0.494926 0.506343 0.517899
0.495561 0.511117 0.522673
0.499856 0.478161 0.493856
0.500491 0.482935 0.498630
0.501125 0.487708 0.503403
0.501760 0.492482 0.508177
0.502394 0.497255 0.512950
0.503029 0.502029 0.517724
0.503663 0.506802 0.522497
0.504298 0.511576 0.527271
0.504932 0.516349 0.532044
0.509228 0.483394 0.503228
0.509862 0.488167 0.508001
0.510497 0.492941 0.512775
0.511131 0.497714 0.517548
0.511766 0.502488 0.522322
0.512400 0.507261 0.527095
0.513034 0.512034 0.531868
0.513669 0.516808 0.536642
0.514303 0.521581 0.541415
0.518599 0.488626 0.512599
0.519233 0.493399 0.517372
0.519868 0.498173 0.522146
0.520502 0.502946 0.526919
0.521137 0.507720 0.531693
0.521771 0.512493 0.536466
0.522406 0.517267 0.541240
0.523040 0.522040 0.546013
0.523675 0.526814 0.550787
0.527970 0.493858 0.521970
0.528605 0.498632 0.526744
0.529239 0.503405 0.531517
0.529874 0.508179 0.536291
0.530508 0.512952 0.541064
0.531143 0.517726 0.545838
0.531777 0.522499 0.550611
0.532411 0.527272 0.555385
0.533046 0.532046 0.560158
0.454820 0.453820 0.444681
0.455454 0.458593 0.449454
0.456089 0.463367 0.454228
0.456723 0.468140 0.459001
0.457358 0.472914 0.463775
0.457992 0.477687 0.468548
0.458627 0.482461 0.473322
0.459261 0.487234 0.478095
0.459896 0.492008 0.482869
0.464191 0.459052 0.454052
0.464826 0.463826 0.458826
0.465460 0.468599 0.463599
0.466095 0.473373 0.468373
0.466729 0.478146 0.473146
0.467364 0.482920 0.477920
0.467998 0.487693 0.482693
0.468632 0.492466 0.487466
0.469267 0.497240 0.492240
0.473563 0.464285 0.463424
0.474197 0.469058 0.468197
0.474831 0.473831 0.472970
0.475466 0.478605 0.477744
0.476100 0.483378 0.482517
0.476735 0.488152 0.487291
0.477369 0.492925 0.492064
0.478004 0.497699 0.496838
0.478638 0.502472 0.501611
0.482934 0.469517 0.472795
0.483568 0.474290 0.477568
0.484203 0.479064 0.482342
0.484837 0.483837 0.487115
0.485472 0.488611 0.491889
0.486106 0.493384 0.496662
0.486741 0.498158 0.501436
0.487375 0.502931 0.506209
0.488009 0.507704 0.510982
0.492305 0.474749 0.482166
0.492940 0.479523 0.486940
0.493574 0.484296 0.491713
0.494208 0.489069 0.496487
0.494843 0.493843 0.501260
0.495477 0.498616 0.506033
0.496112 0.503390 0.510807
0.496746 0.508163 0.515580
0.497381 0.512937 0.520354
0.501676 0.479981 0.491537
0.502311 0.484755 0.496311
0.502945 0.489528 0.501084
0.503580 0.494302 0.505858
0.504214 0.499075 0.510631
0.504849 0.503849 0.515405
0.505483 0.508622 0.520178
0.506118 0.513396 0.524952
0.506752 0.518169 0.529725
0.511048 0.485214 0.500909
0.511682 0.489987 0.505682
0.512317 0.494761 0.510456
0.512951 0.499534 0.515229
0.513586 0.504308 0.520003
0.514220 0.509081 0.524776
0.514854 0.513854 0.529549
0.515489 0.518628 0.534323
0.516123 0.523401 0.539096
0.520419 0.490446 0.510280
0.521053 0.495219 0.515053
0.521688 0.499993 0.519827
0.522322 0.504766 0.524600
0.522957 0.509540 0.529374
0.523591 0.514313 0.534147
0.524226 0.519087 0.538921
0.524860 0.523860 0.543694
0.525495 0.528634 0.548468
0.529790 0.495678 0.519651
0.530425 0.500452 0.524425
0.531059 0.505225 0.529198
0.531694 0.509999 0.533972
0.532328 0.514772 0.538745
0.532963 0.519546 0.543519
0.533597 0.524319 0.548292
0.534231 0.529092 0.553065
0.534866 0.533866 0.557839
0.456640 0.455640 0.442362
0.457274 0.460413 0.447135
0.457909 0.465187 0.451909
0.458543 0.469960 0.456682
0.459178 0.474734 0.461456
0.459812 0.479507 0.466229
0.460447 0.484281 0.471003
0.461081 0.489054 0.475776
0.461716 0.493828 0.480550
0.466011 0.460872 0.451733
0.466646 0.465646 0.456507
0.467280 0.470419 0.461280
0.467915 0.475193 0.466054
0.468549 0.479966 0.470827
0.469183 0.484740 0.475601
0.469818 0.489513 0.480374
0.470452 0.494286 0.485147
0.471087 0.499060 0.489921
0.475383 0.466105 0.461105
0.476017 0.470878 0.465878
0.476651 0.475651 0.470651
0.477286 0.480425 0.475425
0.477920 0.485198 0.480198
0.478555 0.489972 0.484972
0.479189 0.494745 0.489745
0.479824 0.499519 0.494519
0.480458 0.504292 0.499292
0.484754 0.471337 0.470476
0.485388 0.476110 0.475249
0.486023 0.480884 0.480023
0.486657 0.485657 0.484796
0.487292 0.490431 0.489570
0.487926 0.495204 0.494343
0.488561 0.499978 0.499117
0.489195 0.504751 0.503890
0.489829 0.509524 0.508663
0.494125 0.476569 0.479847
0.494760 0.481343 0.484621
0.495394 0.486116 0.489394
0.496028 0.490889 0.494167
0.496663 0.495663 0.498941
0.497297 0.500436 0.503714
0.497932 0.505210 0.508488
0.498566 0.509983 0.513261
0.499201 0.514757 0.518035
0.503496 0.481801 0.489218
0.504131 0.486575 0.493992
0.504765 0.491348 0.498765
0.505400 0.496122 0.503539
0.506034 0.500895 0.508312
0.506669 0.505669 0.513086
0.507303 0.510442 0.517859
0.507938 0.515216 0.522633
0.508572 0.519989 0.527406
0.512868 0.487034 0.498590
0.513502 0.491807 0.503363
0.514137 0.496581 0.508137
0.514771 0.501354 0.512910
0.515406 0.506128 0.517684
0.516040 0.510901 0.522457
0.516674 0.515674 0.527230
0.517309 0.520448 0.532004
0.517943 0.525221 0.536777
0.522239 0.492266 0.507961
0.522873 0.497039 0.512734
0.523508 0.501813 0.517508
0.524142 0.506586 0.522281
0.524777 0.511360 0.527055
0.525411 0.516133 0.531828
0.526046 0.520907 0.536602
0.526680 0.525680 0.541375
0.527315 0.530454 0.546149
0.531610 0.497498 0.517332
0.532245 0.502272 0.522106
0.532879 0.507045 0.526879
0.533514 0.511819 0.531653
0.534148 0.516592 0.536426
0.534783 0.521366 0.541200
0.535417 0.526139 0.545973
0.536051 0.530912 0.550746
0.536686 0.535686 0.555520
0.458460 0.457460 0.440043
0.459094 0.462233 0.444816
0.459729 0.467007 0.449590
0.460363 0.471780 0.454363
0.460998 0.476554 0.459137
0.461632 0.481327 0.463910
0.462267 0.486101 0.468684
0.462901 0.490874 0.473457
0.463536 0.495648 0.478231
0.467831 0.462692 0.449414
0.468466 0.467466 0.454188
0.469100 0.472239 0.458961
0.469735 0.477013 0.463735
0.470369 0.481786 0.468508
0.471003 0.486559 0.473281
0.471638 0.491333 0.478055
0.472272 0.496106 0.482828
0.472907 0.500880 0.487602
0.477203 0.467925 0.458786
0.477837 0.472698 0.463559
0.478471 0.477471 0.468332
0.479106 0.482245 0.473106
0.479740 0.487018 0.477879
0.480375 0.491792 0.482653
0.481009 0.496565 0.487426
0.481644 0.501339 0.492200
0.482278 0.506112 0.496973
0.486574 0.473157 0.468157
0.487208 0.477930 0.472930
0.487843 0.482704 0.477704
0.488477 0.487477 0.482477
0.489112 0.492251 0.487251
0.489746 0.497024 0.492024
0.490381 0.501798 0.496798
0.491015 0.506571 0.501571
0.491649 0.511344 0.506344
0.495945 0.478389 0.477528
0.496580 0.483163 0.482302
0.497214 0.487936 0.487075
0.497848 0.492709 0.491848
0.498483 0.497483 0.496622
0.499117 0.502256 0.501395
0.499752 0.507030 0.506169
0.500386 0.511803 0.510942
0.501021 0.516577 0.515716
0.505316 0.483621 0.486899
0.505951 0.488395 0.491673
0.506585 0.493168 0.496446
0.507220 0.497942 0.501220
0.507854 0.502715 0.505993
0.508489 0.507489 0.510767
0.509123 0.512262 0.515540
0.509758 0.517036 0.520314
0.510392 0.521809 0.525087
0.514688 0.488854 0.496271
0.515322 0.493627 0.501044
0.515957 0.498401 0.505818
0.516591 0.503174 0.510591
0.517225 0.507947 0.515364
0.517860 0.512721 0.520138
0.518494 0.517494 0.524911
0.519129 0.522268 0.529685
0.519763 0.527041 0.534458
0.524059 0.494086 0.505642
0.524693 0.498859 0.510415
0.525328 0.503633 0.515189
0.525962 0.508406 0.519962
0.526597 0.513180 0.524736
0.527231 0.517953 0.529509
0.527866 0.522727 0.534283
0.528500 0.527500 0.539056
0.529135 0.532274 0.543830
0.533430 0.499318 0.515013
0.534065 0.504092 0.519787
0.534699 0.508865 0.524560
0.535334 0.513639 0.529334
0.535968 0.518412 0.534107
0.536603 0.523186 0.538881
0.537237 0.527959 0.543654
0.537871 0.532732 0.548427
0.538506 0.537506 0.553201
0.460280 0.459280 0.437724
0.460914 0.464053 0.442497
0.461549 0.468827 0.447271
0.462183 0.473600 0.452044
0.462818 0.478374 0.456818
0.463452 0.483147 0.461591
0.464087 0.487921 0.466365
0.464721 0.492694 0.471138
0.465356 0.497468 0.475912
0.469651 0.464512 0.447095
0.470286 0.469286 0.451869
0.470920 0.474059 0.456642
0.471555 0.478833 0.461416
0.472189 0.483606 0.466189
0.472823 0.488379 0.470962
0.473458 0.493153 0.475736
0.474092 0.497926 0.480509
0.474727 0.502700 0.485283
0.479022 0.469744 0.456466
0.479657 0.474518 0.461240
0.480291 0.479291 0.466013
0.480926 0.484065 0.470787
0.481560 0.488838 0.475560
0.482195 0.493612 0.480334
0.482829 0.498385 0.485107
0.483464 0.503159 0.489881
0.484098 0.507932 0.494654
0.488394 0.474977 0.465838
0.489028 0.479750 0.470611
0.489663 0.484524 0.475385
0.490297 0.489297 0.480158
0.490932 0.494071 0.484932
0.491566 0.498844 0.489705
0.492200 0.503617 0.494478
0.492835 0.508391 0.499252
0.493469 0.513164 0.504025
0.497765 0.480209 0.475209
0.498400 0.484983 0.479983
0.499034 0.489756 0.484756
0.499668 0.494529 0.489529
0.500303 0.499303 0.494303
0.500937 0.504076 0.499076
0.501572 0.508850 0.503850
0.502206 0.513623 0.508623
0.502841 0.518397 0.513397
0.507136 0.485441 0.484580
0.507771 0.490215 0.489354
0.508405 0.494988 0.494127
0.509040 0.499762 0.498901
0.509674 0.504535 0.503674
0.510309 0.509309 0.508448
0.510943 0.514082 0.513221
0.511578 0.518856 0.517995
0.512212 0.523629 0.522768
0.516508 0.490674 0.493952
0.517142 0.495447 0.498725
0.517777 0.500221 0.503499
0.518411 0.504994 0.508272
0.519045 0.509767 0.513045
0.519680 0.514541 0.517819
0.520314 0.519314 0.522592
0.520949 0.524088 0.527366
0.521583 0.528861 0.532139
0.525879 0.495906 0.503323
0.526513 0.500679 0.508096
0.527148 0.505453 0.512870
0.527782 0.510226 0.517643
0.528417 0.515000 0.522417
0.529051 0.519773 0.527190
0.529686 0.524547 0.531964
0.530320 0.529320 0.536737
0.530955 0.534094 0.541511
0.535250 0.501138 0.512694
0.535885 0.505912 0.517468
0.536519 0.510685 0.522241
0.537154 0.515459 0.527015
0.537788 0.520232 0.531788
0.538423 0.525005 0.536562
0.539057 0.529779 0.541335
0.539691 0.534552 0.546108
0.540326 0.539326 0.550882
0.462100 0.461100 0.435405
0.462734 0.465873 0.440178
0.463369 0.470647 0.444952
0.464003 0.475420 0.449725
0.464638 0.480194 0.454499
0.465272 0.484967 0.459272
0.465907 0.489741 0.464046
0.466541 0.494514 0.468819
0.467175 0.499288 0.473592
0.471471 0.466332 0.444776
0.472106 0.471106 0.449550
0.472740 0.475879 0.454323
0.473375 0.480653 0.459097
0.474009 0.485426 0.463870
0.474643 0.490199 0.468643
0.475278 0.494973 0.473417
0.475912 0.499746 0.478190
0.476547 0.504520 0.482964
0.480842 0.471564 0.454147
0.481477 0.476338 0.458921
0.482111 0.481111 0.463694
0.482746 0.485885 0.468468
0.483380 0.490658 0.473241
0.484015 0.495432 0.478015
0.484649 0.500205 0.482788
0.485284 0.504979 0.487562
0.485918 0.509752 0.492335
0.490214 0.476797 0.463519
0.490848 0.481570 0.468292
0.491483 0.486344 0.473066
0.492117 0.491117 0.477839
0.492752 0.495891 0.482613
0.493386 0.500664 0.487386
0.494020 0.505437 0.492159
0.494655 0.510211 0.496933
0.495289 0.514984 0.501706
0.499585 0.482029 0.472890
0.500220 0.486803 0.477664
0.500854 0.491576 0.482437
0.501488 0.496349 0.487210
0.502123 0.501123 0.491984
0.502757 0.505896 0.496757
0.503392 0.510670 0.501531
0.504026 0.515443 0.506304
0.504661 0.520217 0.511078
0.508956 0.487261 0.482261
0.509591 0.492035 0.487035
0.510225 0.496808 0.491808
0.510860 0.501582 0.496582
0.511494 0.506355 0.501355
0.512129 0.511129 0.506129
0.512763 0.515902 0.510902
0.513398 0.520676 0.515676
0.514032 0.525449 0.520449
0.518328 0.492494 0.491633
0.518962 0.497267 0.496406
0.519597 0.502041 0.501180
0.520231 0.506814 0.505953
0.520865 0.511587 0.510726
0.521500 0.516361 0.515500
0.522134 0.521134 0.520273
0.522769 0.525908 0.525047
0.523403 0.530681 0.529820
0.527699 0.497726 0.501004
0.528333 0.502499 0.505777
0.528968 0.507273 0.510551
0.529602 0.512046 0.515324
0.530237 0.516820 0.520098
0.530871 0.521593 0.524871
0.531506 0.526367 0.529645
0.532140 0.531140 0.534418
0.532775 0.535914 0.539192
0.537070 0.502958 0.510375
0.537705 0.507732 0.515149
0.538339 0.512505 0.519922
0.538974 0.517279 0.524696
0.539608 0.522052 0.529469
0.540242 0.526825 0.534242
0.540877 0.531599 0.539016
0.541511 0.536372 0.543789
0.542146 0.541146 0.548563
0.463920 0.462920 0.433086
0.464554 0.467693 0.437859
0.465189 0.472467 0.442633
0.465823 0.477240 0.447406
0.466458 0.482014 0.452180
0.467092 0.486787 0.456953
0.467727 0.491561 0.461727
0.468361 0.496334 0.466500
0.468995 0.501107 0.471273
0.473291 0.468152 0.442457
0.473926 0.472926 0.447231
0.474560 0.477699 0.452004
0.475195 0.482473 0.456778
0.475829 0.487246 0.461551
0.476463 0.492019 0.466324
0.477098 0.496793 0.471098
0.477732 0.501566 0.475871
0.478367 0.506340 0.480645
0.482662 0.473384 0.451828
0.483297 0.478158 0.456602
0.483931 0.482931 0.461375
0.484566 0.487705 0.466149
0.485200 0.492478 0.470922
0.485835 0.497252 0.475696
0.486469 0.502025 0.480469
0.487104 0.506799 0.485243
0.487738 0.511572 0.490016
0.492034 0.478617 0.461200
0.492668 0.483390 0.465973
0.493303 0.488164 0.470747
0.493937 0.492937 0.475520
0.494572 0.497711 0.480294
0.495206 0.502484 0.485067
0.495840 0.507257 0.489840
0.496475 0.512031 0.494614
0.497109 0.516804 0.499387
0.501405 0.483849 0.470571
0.502039 0.488622 0.475344
0.502674 0.493396 0.480118
0.503308 0.498169 0.484891
0.503943 0.502943 0.489665
0.504577 0.507716 0.494438
0.505212 0.512490 0.499212
0.505846 0.517263 0.503985
0.506481 0.522037 0.508759
0.510776 0.489081 0.479942
0.511411 0.493855 0.484716
0.512045 0.498628 0.489489
0.512680 0.503402 0.494263
0.513314 0.508175 0.499036
0.513949 0.512949 0.503810
0.514583 0.517722 0.508583
0.515217 0.522495 0.513356
0.515852 0.527269 0.518130
0.520148 0.494314 0.489314
0.520782 0.499087 0.494087
0.521417 0.503861 0.498861
0.522051 0.508634 0.503634
0.522685 0.513407 0.508407
0.523320 0.518181 0.513181
0.523954 0.522954 0.517954
0.524589 0.527728 0.522728
0.525223 0.532501 0.527501
0.529519 0.499546 0.498685
0.530153 0.504319 0.503458
0.530788 0.509093 0.508232
0.531422 0.513866 0.513005
0.532057 0.518640 0.517779
0.532691 0.523413 0.522552
0.533326 0.528187 0.527326
0.533960 0.532960 0.532099
0.534595 0.537734 0.536873
0.538890 0.504778 0.508056
0.539525 0.509552 0.512830
0.540159 0.514325 0.517603
0.540794 0.519099 0.522377
0.541428 0.523872 0.527150
0.542062 0.528645 0.531923
0.542697 0.533419 0.536697
0.543331 0.538192 0.541470
0.543966 0.542966 0.546244
0.465740 0.464740 0.430767
0.466374 0.469513 0.435540
0.467009 0.474287 0.440314
0.467643 0.479060 0.445087
0.468278 0.483834 0.449861
0.468912 0.488607 0.454634
0.469547 0.493381 0.459408
0.470181 0.498154 0.464181
0.470815 0.502927 0.468954
0.475111 0.469972 0.440138
0.475746 0.474746 0.444912
0.476380 0.479519 0.449685
0.477014 0.484292 0.454458
0.477649 0.489066 0.459232
0.478283 0.493839 0.464005
0.478918 0.498613 0.468779
0.479552 0.503386 0.473552
0.480187 0.508160 0.478326
0.484482 0.475204 0.449509
0.485117 0.479978 0.454283
0.485751 0.484751 0.459056
0.486386 0.489525 0.463830
0.487020 0.494298 0.468603
0.487655 0.499072 0.473377
0.488289 0.503845 0.478150
0.488924 0.508619 0.482924
0.489558 0.513392 0.487697
0.493854 0.480437 0.458881
0.494488 0.485210 0.463654
0.495123 0.489984 0.468428
0.495757 0.494757 0.473201
0.496392 0.499531 0.477975
0.497026 0.504304 0.482748
0.497660 0.509077 0.487521
0.498295 0.513851 0.492295
0.498929 0.518624 0.497068
0.503225 0.485669 0.468252
0.503859 0.490442 0.473025
0.504494 0.495216 0.477799
0.505128 0.499989 0.482572
0.505763 0.504763 0.487346
0.506397 0.509536 0.492119
0.507032 0.514310 0.496893
0.507666 0.519083 0.501666
0.508301 0.523857 0.506440
0.512596 0.490901 0.477623
0.513231 0.495675 0.482397
0.513865 0.500448 0.487170
0.514500 0.505222 0.491944
0.515134 0.509995 0.496717
0.515769 0.514769 0.501491
0.516403 0.519542 0.506264
0.517037 0.524315 0.511037
0.517672 0.529089 0.515811
0.521968 0.496134 0.486995
0.522602 0.500907 0.491768
0.523237 0.505680 0.496541
0.523871 0.510454 0.501315
0.524505 0.515227 0.506088
0.525140 0.520001 0.510862
0.525774 0.524774 0.515635
0.526409 0.529548 0.520409
0.527043 0.534321 0.525182
0.531339 0.501366 0.496366
0.531973 0.506139 0.501139
0.532608 0.510913 0.505913
0.533242 0.515686 0.510686
0.533877 0.520460 0.515460
0.534511 0.525233 0.520233
0.535146 0.530007 0.525007
0.535780 0.534780 0.529780
0.536414 0.539553 0.534553
0.540710 0.506598 0.505737
0.541345 0.511372 0.510511
0.541979 0.516145 0.515284
0.542614 0.520919 0.520058
0.543248 0.525692 0.524831
0.543882 0.530465 0.529604
0.544517 0.535239 0.534378
0.545151 0.540012 0.539151
0.545786 0.544786 0.543925
0.467560 0.466560 0.428448
0.468194 0.471333 0.433221
0.468829 0.476107 0.437995
0.469463 0.480880 0.442768
0.470098 0.485654 0.447542
0.470732 0.490427 0.452315
0.471367 0.495201 0.457089
0.472001 0.499974 0.461862
0.472635 0.504747 0.466635
0.476931 0.471792 0.437819
0.477566 0.476566 0.442593
0.478200 0.481339 0.447366
0.478834 0.486112 0.452139
0.479469 0.490886 0.456913
0.480103 0.495659 0.461686
0.480738 0.500433 0.466460
0.481372 0.505206 0.471233
0.482007 0.509980 0.476007
0.486302 0.477024 0.447190
0.486937 0.481798 0.451964
0.487571 0.486571 0.456737
0.488206 0.491345 0.461511
0.488840 0.496118 0.466284
0.489475 0.500892 0.471058
0.490109 0.505665 0.475831
0.490744 0.510439 0.480605
0.491378 0.515212 0.485378
0.495674 0.482257 0.456562
0.496308 0.487030 0.461335
0.496943 0.491804 0.466109
0.497577 0.496577 0.470882
0.498212 0.501351 0.475655
0.498846 0.506124 0.480429
0.499480 0.510897 0.485202
0.500115 0.515671 0.489976
0.500749 0.520444 0.494749
0.505045 0.487489 0.465933
0.505679 0.492262 0.470706
0.506314 0.497036 0.475480
0.506948 0.501809 0.480253
0.507583 0.506583 0.485027
0.508217 0.511356 0.489800
0.508852 0.516130 0.494574
0.509486 0.520903 0.499347
0.510121 0.525677 0.504121
0.514416 0.492721 0.475304
0.515051 0.497495 0.480078
0.515685 0.502268 0.484851
0.516320 0.507042 0.489625
0.516954 0.511815 0.494398
0.517589 0.516589 0.499172
0.518223 0.521362 0.503945
0.518857 0.526135 0.508718
0.519492 0.530909 0.513492
0.523788 0.497954 0.484676
0.524422 0.502727 0.489449
0.525056 0.507500 0.494222
0.525691 0.512274 0.498996
0.526325 0.517047 0.503769
0.526960 0.521821 0.508543
0.527594 0.526594 0.513316
0.528229 0.531368 0.518090
0.528863 0.536141 0.522863
0.533159 0.503186 0.494047
0.533793 0.507959 0.498820
0.534428 0.512733 0.503594
0.535062 0.517506 0.508367
0.535697 0.522280 0.513141
0.536331 0.527053 0.517914
0.536966 0.531827 0.522688
0.537600 0.536600 0.527461
0.538234 0.541373 0.532234
0.542530 0.508418 0.503418
0.543165 0.513192 0.508192
0.543799 0.517965 0.512965
0.544434 0.522739 0.517739
0.545068 0.527512 0.522512
0.545702 0.532285 0.527285
0.546337 0.537059 0.532059
0.546971 0.541832 0.536832
0.547606 0.546606 0.541606
