shared/src/main/assets/luts/drama_vintage_chess.cube
TITLE "DALUR Vintage Chess"
LUT_3D_SIZE 5
DOMAIN_MIN 0.0 0.0 0.0
DOMAIN_MAX 1.0 1.0 1.0
0.476000 0.470000 0.464000
0.481732 0.474179 0.468179
0.487463 0.478358 0.472358
0.493195 0.482537 0.476537
0.498927 0.486715 0.480715
0.484204 0.479757 0.472204
0.489936 0.483936 0.476383
0.495667 0.488115 0.480562
0.501399 0.492293 0.484740
0.507131 0.496472 0.488919
0.492408 0.489514 0.480408
0.498140 0.493693 0.484587
0.503871 0.497871 0.488766
0.509603 0.502050 0.492944
0.515335 0.506229 0.497123
0.500612 0.499271 0.488612
0.506344 0.503449 0.492791
0.512075 0.507628 0.496970
0.517807 0.511807 0.501148
0.523539 0.515986 0.505327
0.508816 0.509027 0.496816
0.514548 0.513206 0.500995
0.520279 0.517385 0.505174
0.526011 0.521564 0.509352
0.531743 0.525743 0.513531
0.477593 0.471593 0.467146
0.483325 0.475772 0.471325
0.489057 0.479951 0.475504
0.494789 0.484130 0.479683
0.500520 0.488309 0.483862
0.485797 0.481350 0.475350
0.491529 0.485529 0.479529
0.497261 0.489708 0.483708
0.502992 0.493887 0.487887
0.508724 0.498066 0.492066
0.494001 0.491107 0.483554
0.499733 0.495286 0.487733
0.505465 0.499465 0.491912
0.511196 0.503644 0.496091
0.516928 0.507822 0.500269
0.502205 0.500864 0.491758
0.507937 0.505043 0.495937
0.513669 0.509222 0.500116
0.519400 0.513400 0.504295
0.525132 0.517579 0.508473
0.510409 0.510621 0.499962
0.516141 0.514800 0.504141
0.521873 0.518978 0.508320
0.527604 0.523157 0.512499
0.533336 0.527336 0.516677
0.479187 0.473187 0.470292
0.484918 0.477365 0.474471
0.490650 0.481544 0.478650
0.496382 0.485723 0.482829
0.502114 0.489902 0.487008
0.487391 0.482943 0.478496
0.493122 0.487122 0.482675
0.498854 0.491301 0.486854
0.504586 0.495480 0.491033
0.510317 0.499659 0.495212
0.495594 0.492700 0.486700
0.501326 0.496879 0.490879
0.507058 0.501058 0.495058
0.512790 0.505237 0.499237
0.518521 0.509416 0.503416
0.503798 0.502457 0.494904
0.509530 0.506636 0.499083
0.515262 0.510815 0.503262
0.520994 0.514994 0.507441
0.526725 0.519172 0.511620
0.512002 0.512214 0.503108
0.517734 0.516393 0.507287
0.523466 0.520572 0.511466
0.529198 0.524751 0.515645
0.534929 0.528929 0.519824
0.480780 0.474780 0.473439
0.486512 0.478959 0.477617
0.492243 0.483138 0.481796
0.497975 0.487316 0.485975
0.503707 0.491495 0.490154
0.488984 0.484537 0.481642
0.494716 0.488716 0.485821
0.500447 0.492894 0.490000
0.506179 0.497073 0.494179
0.511911 0.501252 0.498358
0.497188 0.494294 0.489846
0.502919 0.498472 0.494025
0.508651 0.502651 0.498204
0.514383 0.506830 0.502383
0.520115 0.511009 0.506562
0.505392 0.504050 0.498050
0.511123 0.508229 0.502229
0.516855 0.512408 0.506408
0.522587 0.516587 0.510587
0.528319 0.520766 0.514766
0.513596 0.513807 0.506254
0.519327 0.517986 0.510433
0.525059 0.522165 0.514612
0.530791 0.526344 0.518791
0.536523 0.530523 0.522970
0.482373 0.476373 0.476585
0.488105 0.480552 0.480764
0.493837 0.484731 0.484942
0.499568 0.488910 0.489121
0.505300 0.493088 0.493300
0.490577 0.486130 0.484789
0.496309 0.490309 0.488967
0.502041 0.494488 0.493146
0.507772 0.498666 0.497325
0.513504 0.502845 0.501504
0.498781 0.495887 0.492993
0.504513 0.500066 0.497171
0.510244 0.504244 0.501350
0.515976 0.508423 0.505529
0.521708 0.512602 0.509708
0.506985 0.505644 0.501197
0.512717 0.509823 0.505375
0.518448 0.514001 0.509554
0.524180 0.518180 0.513733
0.529912 0.522359 0.517912
0.515189 0.515401 0.509401
0.520921 0.519579 0.513579
0.526652 0.523758 0.517758
0.532384 0.527937 0.521937
0.538116 0.532116 0.526116
