shared/src/main/assets/luts/drama_corporate_neutral.cube
TITLE "DALUR Corporate Neutral"
LUT_3D_SIZE 17
DOMAIN_MIN 0.0 0.0 0.0
DOMAIN_MAX 1.0 1.0 1.0
0.483000 0.480000 0.477000
0.483047 0.481061 0.478061
0.483094 0.482122 0.479122
0.483141 0.483183 0.480183
0.483189 0.484244 0.481244
0.483236 0.485306 0.482306
0.483283 0.486367 0.483367
0.483330 0.487428 0.484428
0.483377 0.488489 0.485489
0.483424 0.489550 0.486550
0.483471 0.490611 0.487611
0.483519 0.491672 0.488672
0.483566 0.492733 0.489733
0.483613 0.493794 0.490794
0.483660 0.494856 0.491856
0.483707 0.495917 0.492917
0.483754 0.496978 0.493978
0.485083 0.481069 0.479083
0.485130 0.482130 0.480144
0.485177 0.483191 0.481205
0.485225 0.484253 0.482267
0.485272 0.485314 0.483328
0.485319 0.486375 0.484389
0.485366 0.487436 0.485450
0.485413 0.488497 0.486511
0.485460 0.489558 0.487572
0.485508 0.490619 0.488633
0.485555 0.491680 0.489694
0.485602 0.492741 0.490755
0.485649 0.493803 0.491816
0.485696 0.494864 0.492878
0.485743 0.495925 0.493939
0.485790 0.496986 0.495000
0.485838 0.498047 0.496061
0.487166 0.482138 0.481166
0.487214 0.483200 0.482227
0.487261 0.484261 0.483289
0.487308 0.485322 0.484350
0.487355 0.486383 0.485411
0.487402 0.487444 0.486472
0.487449 0.488505 0.487533
0.487496 0.489566 0.488594
0.487544 0.490627 0.489655
0.487591 0.491688 0.490716
0.487638 0.492750 0.491777
0.487685 0.493811 0.492839
0.487732 0.494872 0.493900
0.487779 0.495933 0.494961
0.487826 0.496994 0.496022
0.487874 0.498055 0.497083
0.487921 0.499116 0.498144
0.489250 0.483208 0.483250
0.489297 0.484269 0.484311
0.489344 0.485330 0.485372
0.489391 0.486391 0.486433
0.489438 0.487452 0.487494
0.489485 0.488513 0.488555
0.489532 0.489574 0.489616
0.489580 0.490635 0.490677
0.489627 0.491697 0.491738
0.489674 0.492758 0.492800
0.489721 0.493819 0.493861
0.489768 0.494880 0.494922
0.489815 0.495941 0.495983
0.489862 0.497002 0.497044
0.489910 0.498063 0.498105
0.489957 0.499124 0.499166
0.490004 0.500185 0.500227
0.491333 0.484277 0.485333
0.491380 0.485338 0.486394
0.491427 0.486399 0.487455
0.491474 0.487460 0.488516
0.491521 0.488521 0.489577
0.491568 0.489582 0.490638
0.491616 0.490644 0.491699
0.491663 0.491705 0.492760
0.491710 0.492766 0.493822
0.491757 0.493827 0.494883
0.491804 0.494888 0.495944
0.491851 0.495949 0.497005
0.491899 0.497010 0.498066
0.491946 0.498071 0.499127
0.491993 0.499132 0.500188
0.492040 0.500194 0.501249
0.492087 0.501255 0.502310
0.493416 0.485346 0.487416
0.493463 0.486407 0.488477
0.493510 0.487468 0.489538
0.493557 0.488529 0.490599
0.493604 0.489591 0.491660
0.493652 0.490652 0.492721
0.493699 0.491713 0.493783
0.493746 0.492774 0.494844
0.493793 0.493835 0.495905
0.493840 0.494896 0.496966
0.493887 0.495957 0.498027
0.493935 0.497018 0.499088
0.493982 0.498079 0.500149
0.494029 0.499141 0.501210
0.494076 0.500202 0.502271
0.494123 0.501263 0.503333
0.494170 0.502324 0.504394
0.495499 0.486415 0.489499
0.495546 0.487476 0.490560
0.495593 0.488538 0.491621
0.495641 0.489599 0.492682
0.495688 0.490660 0.493744
0.495735 0.491721 0.494805
0.495782 0.492782 0.495866
0.495829 0.493843 0.496927
0.495876 0.494904 0.497988
0.495923 0.495965 0.499049
0.495971 0.497026 0.500110
0.496018 0.498088 0.501171
0.496065 0.499149 0.502232
0.496112 0.500210 0.503293
0.496159 0.501271 0.504355
0.496206 0.502332 0.505416
0.496253 0.503393 0.506477
0.497582 0.487485 0.491582
0.497629 0.488546 0.492643
0.497677 0.489607 0.493704
0.497724 0.490668 0.494766
0.497771 0.491729 0.495827
0.497818 0.492790 0.496888
0.497865 0.493851 0.497949
0.497912 0.494912 0.499010
0.497959 0.495973 0.500071
0.498007 0.497035 0.501132
0.498054 0.498096 0.502193
0.498101 0.499157 0.503254
0.498148 0.500218 0.504316
0.498195 0.501279 0.505377
0.498242 0.502340 0.506438
0.498289 0.503401 0.507499
0.498337 0.504462 0.508560
0.499665 0.488554 0.493665
0.499713 0.489615 0.494727
0.499760 0.490676 0.495788
0.499807 0.491737 0.496849
0.499854 0.492798 0.497910
0.499901 0.493859 0.498971
0.499948 0.494920 0.500032
0.499995 0.495982 0.501093
0.500043 0.497043 0.502154
0.500090 0.498104 0.503215
0.500137 0.499165 0.504277
0.500184 0.500226 0.505338
0.500231 0.501287 0.506399
0.500278 0.502348 0.507460
0.500326 0.503409 0.508521
0.500373 0.504470 0.509582
0.500420 0.505531 0.510643
0.501749 0.489623 0.495749
0.501796 0.490684 0.496810
0.501843 0.491745 0.497871
0.501890 0.492806 0.498932
0.501937 0.493867 0.499993
0.501984 0.494929 0.501054
0.502032 0.495990 0.502115
0.502079 0.497051 0.503176
0.502126 0.498112 0.504237
0.502173 0.499173 0.505299
0.502220 0.500234 0.506360
0.502267 0.501295 0.507421
0.502314 0.502356 0.508482
0.502362 0.503417 0.509543
0.502409 0.504479 0.510604
0.502456 0.505540 0.511665
0.502503 0.506601 0.512726
0.503832 0.490692 0.497832
0.503879 0.491753 0.498893
0.503926 0.492814 0.499954
0.503973 0.493876 0.501015
0.504020 0.494937 0.502076
0.504068 0.495998 0.503137
0.504115 0.497059 0.504198
0.504162 0.498120 0.505260
0.504209 0.499181 0.506321
0.504256 0.500242 0.507382
0.504303 0.501303 0.508443
0.504350 0.502364 0.509504
0.504398 0.503426 0.510565
0.504445 0.504487 0.511626
0.504492 0.505548 0.512687
0.504539 0.506609 0.513748
0.504586 0.507670 0.514810
0.505915 0.491761 0.499915
0.505962 0.492823 0.500976
0.506009 0.493884 0.502037
0.506056 0.494945 0.503098
0.506104 0.496006 0.504159
0.506151 0.497067 0.505221
0.506198 0.498128 0.506282
0.506245 0.499189 0.507343
0.506292 0.500250 0.508404
0.506339 0.501311 0.509465
0.506386 0.502373 0.510526
0.506434 0.503434 0.511587
0.506481 0.504495 0.512648
0.506528 0.505556 0.513709
0.506575 0.506617 0.514770
0.506622 0.507678 0.515832
0.506669 0.508739 0.516893
0.507998 0.492831 0.501998
0.508045 0.493892 0.503059
0.508092 0.494953 0.504120
0.508140 0.496014 0.505181
0.508187 0.497075 0.506243
0.508234 0.498136 0.507304
0.508281 0.499197 0.508365
0.508328 0.500258 0.509426
0.508375 0.501320 0.510487
0.508422 0.502381 0.511548
0.508470 0.503442 0.512609
0.508517 0.504503 0.513670
0.508564 0.505564 0.514731
0.508611 0.506625 0.515793
0.508658 0.507686 0.516854
0.508705 0.508747 0.517915
0.508753 0.509808 0.518976
0.510081 0.493900 0.504081
0.510128 0.494961 0.505142
0.510176 0.496022 0.506204
0.510223 0.497083 0.507265
0.510270 0.498144 0.508326
0.510317 0.499205 0.509387
0.510364 0.500267 0.510448
0.510411 0.501328 0.511509
0.510459 0.502389 0.512570
0.510506 0.503450 0.513631
0.510553 0.504511 0.514692
0.510600 0.505572 0.515754
0.510647 0.506633 0.516815
0.510694 0.507694 0.517876
0.510741 0.508755 0.518937
0.510789 0.509816 0.519998
0.510836 0.510878 0.521059
0.512165 0.494969 0.506165
0.512212 0.496030 0.507226
0.512259 0.497091 0.508287
0.512306 0.498152 0.509348
0.512353 0.499214 0.510409
0.512400 0.500275 0.511470
0.512447 0.501336 0.512531
0.512495 0.502397 0.513592
0.512542 0.503458 0.514653
0.512589 0.504519 0.515714
0.512636 0.505580 0.516776
0.512683 0.506641 0.517837
0.512730 0.507702 0.518898
0.512777 0.508763 0.519959
0.512825 0.509825 0.521020
0.512872 0.510886 0.522081
0.512919 0.511947 0.523142
0.514248 0.496038 0.508248
0.514295 0.497099 0.509309
0.514342 0.498161 0.510370
0.514389 0.499222 0.511431
0.514436 0.500283 0.512492
0.514483 0.501344 0.513553
0.514531 0.502405 0.514614
0.514578 0.503466 0.515675
0.514625 0.504527 0.516737
0.514672 0.505588 0.517798
0.514719 0.506649 0.518859
0.514766 0.507710 0.519920
0.514813 0.508772 0.520981
0.514861 0.509833 0.522042
0.514908 0.510894 0.523103
0.514955 0.511955 0.524164
0.515002 0.513016 0.525225
0.516331 0.497108 0.510331
0.516378 0.498169 0.511392
0.516425 0.499230 0.512453
0.516472 0.500291 0.513514
0.516519 0.501352 0.514575
0.516567 0.502413 0.515636
0.516614 0.503474 0.516698
0.516661 0.504535 0.517759
0.516708 0.505596 0.518820
0.516755 0.506658 0.519881
0.516802 0.507719 0.520942
0.516850 0.508780 0.522003
0.516897 0.509841 0.523064
0.516944 0.510902 0.524125
0.516991 0.511963 0.525186
0.517038 0.513024 0.526248
0.517085 0.514085 0.527309
0.483405 0.480405 0.476391
0.483452 0.481466 0.477452
0.483499 0.482527 0.478513
0.483546 0.483588 0.479574
0.483593 0.484649 0.480635
0.483640 0.485710 0.481696
0.483687 0.486771 0.482757
0.483735 0.487832 0.483818
0.483782 0.488893 0.484879
0.483829 0.489955 0.485941
0.483876 0.491016 0.487002
0.483923 0.492077 0.488063
0.483970 0.493138 0.489124
0.484018 0.494199 0.490185
0.484065 0.495260 0.491246
0.484112 0.496321 0.492307
0.484159 0.497382 0.493368
0.485488 0.481474 0.478474
0.485535 0.482535 0.479535
0.485582 0.483596 0.480596
0.485629 0.484657 0.481657
0.485676 0.485718 0.482718
0.485723 0.486779 0.483779
0.485771 0.487840 0.484840
0.485818 0.488902 0.485902
0.485865 0.489963 0.486963
0.485912 0.491024 0.488024
0.485959 0.492085 0.489085
0.486006 0.493146 0.490146
0.486054 0.494207 0.491207
0.486101 0.495268 0.492268
0.486148 0.496329 0.493329
0.486195 0.497390 0.494390
0.486242 0.498452 0.495452
0.487571 0.482543 0.480557
0.487618 0.483604 0.481618
0.487665 0.484665 0.482679
0.487712 0.485726 0.483740
0.487760 0.486787 0.484801
0.487807 0.487849 0.485863
0.487854 0.488910 0.486924
0.487901 0.489971 0.487985
0.487948 0.491032 0.489046
0.487995 0.492093 0.490107
0.488042 0.493154 0.491168
0.488090 0.494215 0.492229
0.488137 0.495276 0.493290
0.488184 0.496337 0.494351
0.488231 0.497399 0.495412
0.488278 0.498460 0.496474
0.488325 0.499521 0.497535
0.489654 0.483612 0.482640
0.489701 0.484673 0.483701
0.489748 0.485734 0.484762
0.489796 0.486796 0.485823
0.489843 0.487857 0.486885
0.489890 0.488918 0.487946
0.489937 0.489979 0.489007
0.489984 0.491040 0.490068
0.490031 0.492101 0.491129
0.490078 0.493162 0.492190
0.490126 0.494223 0.493251
0.490173 0.495284 0.494312
0.490220 0.496346 0.495373
0.490267 0.497407 0.496435
0.490314 0.498468 0.497496
0.490361 0.499529 0.498557
0.490408 0.500590 0.499618
0.491737 0.484681 0.484723
0.491784 0.485743 0.485784
0.491832 0.486804 0.486846
0.491879 0.487865 0.487907
0.491926 0.488926 0.488968
0.491973 0.489987 0.490029
0.492020 0.491048 0.491090
0.492067 0.492109 0.492151
0.492114 0.493170 0.493212
0.492162 0.494231 0.494273
0.492209 0.495293 0.495334
0.492256 0.496354 0.496396
0.492303 0.497415 0.497457
0.492350 0.498476 0.498518
0.492397 0.499537 0.499579
0.492445 0.500598 0.500640
0.492492 0.501659 0.501701
0.493820 0.485751 0.486807
0.493868 0.486812 0.487868
0.493915 0.487873 0.488929
0.493962 0.488934 0.489990
0.494009 0.489995 0.491051
0.494056 0.491056 0.492112
0.494103 0.492117 0.493173
0.494151 0.493178 0.494234
0.494198 0.494240 0.495295
0.494245 0.495301 0.496356
0.494292 0.496362 0.497418
0.494339 0.497423 0.498479
0.494386 0.498484 0.499540
0.494433 0.499545 0.500601
0.494481 0.500606 0.501662
0.494528 0.501667 0.502723
0.494575 0.502728 0.503784
0.495904 0.486820 0.488890
0.495951 0.487881 0.489951
0.495998 0.488942 0.491012
0.496045 0.490003 0.492073
0.496092 0.491064 0.493134
0.496139 0.492125 0.494195
0.496187 0.493187 0.495256
0.496234 0.494248 0.496317
0.496281 0.495309 0.497379
0.496328 0.496370 0.498440
0.496375 0.497431 0.499501
0.496422 0.498492 0.500562
0.496469 0.499553 0.501623
0.496517 0.500614 0.502684
0.496564 0.501675 0.503745
0.496611 0.502737 0.504806
0.496658 0.503798 0.505867
0.497987 0.487889 0.490973
0.498034 0.488950 0.492034
0.498081 0.490011 0.493095
0.498128 0.491072 0.494156
0.498175 0.492134 0.495217
0.498223 0.493195 0.496278
0.498270 0.494256 0.497340
0.498317 0.495317 0.498401
0.498364 0.496378 0.499462
0.498411 0.497439 0.500523
0.498458 0.498500 0.501584
0.498505 0.499561 0.502645
0.498553 0.500622 0.503706
0.498600 0.501684 0.504767
0.498647 0.502745 0.505828
0.498694 0.503806 0.506889
0.498741 0.504867 0.507951
0.500070 0.488958 0.493056
0.500117 0.490019 0.494117
0.500164 0.491081 0.495178
0.500211 0.492142 0.496239
0.500259 0.493203 0.497300
0.500306 0.494264 0.498362
0.500353 0.495325 0.499423
0.500400 0.496386 0.500484
0.500447 0.497447 0.501545
0.500494 0.498508 0.502606
0.500541 0.499569 0.503667
0.500589 0.500631 0.504728
0.500636 0.501692 0.505789
0.500683 0.502753 0.506850
0.500730 0.503814 0.507912
0.500777 0.504875 0.508973
0.500824 0.505936 0.510034
0.502153 0.490028 0.495139
0.502200 0.491089 0.496200
0.502247 0.492150 0.497261
0.502295 0.493211 0.498323
0.502342 0.494272 0.499384
0.502389 0.495333 0.500445
0.502436 0.496394 0.501506
0.502483 0.497455 0.502567
0.502530 0.498516 0.503628
0.502578 0.499578 0.504689
0.502625 0.500639 0.505750
0.502672 0.501700 0.506811
0.502719 0.502761 0.507873
0.502766 0.503822 0.508934
0.502813 0.504883 0.509995
0.502860 0.505944 0.511056
0.502908 0.507005 0.512117
0.504236 0.491097 0.497222
0.504284 0.492158 0.498284
0.504331 0.493219 0.499345
0.504378 0.494280 0.500406
0.504425 0.495341 0.501467
0.504472 0.496402 0.502528
0.504519 0.497463 0.503589
0.504566 0.498525 0.504650
0.504614 0.499586 0.505711
0.504661 0.500647 0.506772
0.504708 0.501708 0.507833
0.504755 0.502769 0.508895
0.504802 0.503830 0.509956
0.504849 0.504891 0.511017
0.504896 0.505952 0.512078
0.504944 0.507013 0.513139
0.504991 0.508075 0.514200
0.506320 0.492166 0.499306
0.506367 0.493227 0.500367
0.506414 0.494288 0.501428
0.506461 0.495349 0.502489
0.506508 0.496410 0.503550
0.506555 0.497472 0.504611
0.506602 0.498533 0.505672
0.506650 0.499594 0.506733
0.506697 0.500655 0.507794
0.506744 0.501716 0.508856
0.506791 0.502777 0.509917
0.506838 0.503838 0.510978
0.506885 0.504899 0.512039
0.506932 0.505960 0.513100
0.506980 0.507022 0.514161
0.507027 0.508083 0.515222
0.507074 0.509144 0.516283
0.508403 0.493235 0.501389
0.508450 0.494296 0.502450
0.508497 0.495357 0.503511
0.508544 0.496419 0.504572
0.508591 0.497480 0.505633
0.508638 0.498541 0.506694
0.508686 0.499602 0.507755
0.508733 0.500663 0.508817
0.508780 0.501724 0.509878
0.508827 0.502785 0.510939
0.508874 0.503846 0.512000
0.508921 0.504907 0.513061
0.508969 0.505969 0.514122
0.509016 0.507030 0.515183
0.509063 0.508091 0.516244
0.509110 0.509152 0.517305
0.509157 0.510213 0.518367
0.510486 0.494304 0.503472
0.510533 0.495366 0.504533
0.510580 0.496427 0.505594
0.510627 0.497488 0.506655
0.510675 0.498549 0.507716
0.510722 0.499610 0.508777
0.510769 0.500671 0.509839
0.510816 0.501732 0.510900
0.510863 0.502793 0.511961
0.510910 0.503854 0.513022
0.510957 0.504916 0.514083
0.511005 0.505977 0.515144
0.511052 0.507038 0.516205
0.511099 0.508099 0.517266
0.511146 0.509160 0.518327
0.511193 0.510221 0.519389
0.511240 0.511282 0.520450
0.512569 0.495374 0.505555
0.512616 0.496435 0.506616
0.512663 0.497496 0.507677
0.512711 0.498557 0.508738
0.512758 0.499618 0.509800
0.512805 0.500679 0.510861
0.512852 0.501740 0.511922
0.512899 0.502801 0.512983
0.512946 0.503863 0.514044
0.512993 0.504924 0.515105
0.513041 0.505985 0.516166
0.513088 0.507046 0.517227
0.513135 0.508107 0.518288
0.513182 0.509168 0.519350
0.513229 0.510229 0.520411
0.513276 0.511290 0.521472
0.513323 0.512351 0.522533
0.514652 0.496443 0.507638
0.514699 0.497504 0.508699
0.514747 0.498565 0.509761
0.514794 0.499626 0.510822
0.514841 0.500687 0.511883
0.514888 0.501748 0.512944
0.514935 0.502810 0.514005
0.514982 0.503871 0.515066
0.515029 0.504932 0.516127
0.515077 0.505993 0.517188
0.515124 0.507054 0.518249
0.515171 0.508115 0.519311
0.515218 0.509176 0.520372
0.515265 0.510237 0.521433
0.515312 0.511298 0.522494
0.515360 0.512360 0.523555
0.515407 0.513421 0.524616
0.516735 0.497512 0.509721
0.516783 0.498573 0.510783
0.516830 0.499634 0.511844
0.516877 0.500695 0.512905
0.516924 0.501757 0.513966
0.516971 0.502818 0.515027
0.517018 0.503879 0.516088
0.517065 0.504940 0.517149
0.517113 0.506001 0.518210
0.517160 0.507062 0.519271
0.517207 0.508123 0.520333
0.517254 0.509184 0.521394
0.517301 0.510245 0.522455
0.517348 0.511307 0.523516
0.517396 0.512368 0.524577
0.517443 0.513429 0.525638
0.517490 0.514490 0.526699
0.483809 0.480809 0.475781
0.483856 0.481870 0.476842
0.483903 0.482931 0.477903
0.483951 0.483992 0.478965
0.483998 0.485054 0.480026
0.484045 0.486115 0.481087
0.484092 0.487176 0.482148
0.484139 0.488237 0.483209
0.484186 0.489298 0.484270
0.484233 0.490359 0.485331
0.484281 0.491420 0.486392
0.484328 0.492481 0.487453
0.484375 0.493542 0.488515
0.484422 0.494604 0.489576
0.484469 0.495665 0.490637
0.484516 0.496726 0.491698
0.484564 0.497787 0.492759
0.485892 0.481878 0.477864
0.485939 0.482939 0.478926
0.485987 0.484001 0.479987
0.486034 0.485062 0.481048
0.486081 0.486123 0.482109
0.486128 0.487184 0.483170
0.486175 0.488245 0.484231
0.486222 0.489306 0.485292
0.486270 0.490367 0.486353
0.486317 0.491428 0.487414
0.486364 0.492489 0.488475
0.486411 0.493551 0.489537
0.486458 0.494612 0.490598
0.486505 0.495673 0.491659
0.486552 0.496734 0.492720
0.486600 0.497795 0.493781
0.486647 0.498856 0.494842
0.487975 0.482948 0.479948
0.488023 0.484009 0.481009
0.488070 0.485070 0.482070
0.488117 0.486131 0.483131
0.488164 0.487192 0.484192
0.488211 0.488253 0.485253
0.488258 0.489314 0.486314
0.488306 0.490375 0.487375
0.488353 0.491436 0.488436
0.488400 0.492498 0.489498
0.488447 0.493559 0.490559
0.488494 0.494620 0.491620
0.488541 0.495681 0.492681
0.488588 0.496742 0.493742
0.488636 0.497803 0.494803
0.488683 0.498864 0.495864
0.488730 0.499925 0.496925
0.490059 0.484017 0.482031
0.490106 0.485078 0.483092
0.490153 0.486139 0.484153
0.490200 0.487200 0.485214
0.490247 0.488261 0.486275
0.490294 0.489322 0.487336
0.490342 0.490383 0.488397
0.490389 0.491445 0.489459
0.490436 0.492506 0.490520
0.490483 0.493567 0.491581
0.490530 0.494628 0.492642
0.490577 0.495689 0.493703
0.490624 0.496750 0.494764
0.490672 0.497811 0.495825
0.490719 0.498872 0.496886
0.490766 0.499933 0.497947
0.490813 0.500995 0.499008
0.492142 0.485086 0.484114
0.492189 0.486147 0.485175
0.492236 0.487208 0.486236
0.492283 0.488269 0.487297
0.492330 0.489330 0.488358
0.492378 0.490392 0.489419
0.492425 0.491453 0.490481
0.492472 0.492514 0.491542
0.492519 0.493575 0.492603
0.492566 0.494636 0.493664
0.492613 0.495697 0.494725
0.492660 0.496758 0.495786
0.492708 0.497819 0.496847
0.492755 0.498880 0.497908
0.492802 0.499942 0.498969
0.492849 0.501003 0.500031
0.492896 0.502064 0.501092
0.494225 0.486155 0.486197
0.494272 0.487216 0.487258
0.494319 0.488277 0.488319
0.494366 0.489339 0.489380
0.494414 0.490400 0.490442
0.494461 0.491461 0.491503
0.494508 0.492522 0.492564
0.494555 0.493583 0.493625
0.494602 0.494644 0.494686
0.494649 0.495705 0.495747
0.494697 0.496766 0.496808
0.494744 0.497827 0.497869
0.494791 0.498889 0.498930
0.494838 0.499950 0.499992
0.494885 0.501011 0.501053
0.494932 0.502072 0.502114
0.494979 0.503133 0.503175
0.496308 0.487224 0.488280
0.496355 0.488286 0.489341
0.496403 0.489347 0.490403
0.496450 0.490408 0.491464
0.496497 0.491469 0.492525
0.496544 0.492530 0.493586
0.496591 0.493591 0.494647
0.496638 0.494652 0.495708
0.496685 0.495713 0.496769
0.496733 0.496774 0.497830
0.496780 0.497836 0.498891
0.496827 0.498897 0.499952
0.496874 0.499958 0.501014
0.496921 0.501019 0.502075
0.496968 0.502080 0.503136
0.497015 0.503141 0.504197
0.497063 0.504202 0.505258
0.498391 0.488294 0.490363
0.498439 0.489355 0.491425
0.498486 0.490416 0.492486
0.498533 0.491477 0.493547
0.498580 0.492538 0.494608
0.498627 0.493599 0.495669
0.498674 0.494660 0.496730
0.498721 0.495721 0.497791
0.498769 0.496783 0.498852
0.498816 0.497844 0.499913
0.498863 0.498905 0.500975
0.498910 0.499966 0.502036
0.498957 0.501027 0.503097
0.499004 0.502088 0.504158
0.499051 0.503149 0.505219
0.499099 0.504210 0.506280
0.499146 0.505271 0.507341
0.500475 0.489363 0.492447
0.500522 0.490424 0.493508
0.500569 0.491485 0.494569
0.500616 0.492546 0.495630
0.500663 0.493607 0.496691
0.500710 0.494668 0.497752
0.500757 0.495730 0.498813
0.500805 0.496791 0.499874
0.500852 0.497852 0.500936
0.500899 0.498913 0.501997
0.500946 0.499974 0.503058
0.500993 0.501035 0.504119
0.501040 0.502096 0.505180
0.501088 0.503157 0.506241
0.501135 0.504218 0.507302
0.501182 0.505280 0.508363
0.501229 0.506341 0.509424
0.502558 0.490432 0.494530
0.502605 0.491493 0.495591
0.502652 0.492554 0.496652
0.502699 0.493615 0.497713
0.502746 0.494677 0.498774
0.502794 0.495738 0.499835
0.502841 0.496799 0.500896
0.502888 0.497860 0.501958
0.502935 0.498921 0.503019
0.502982 0.499982 0.504080
0.503029 0.501043 0.505141
0.503076 0.502104 0.506202
0.503124 0.503165 0.507263
0.503171 0.504227 0.508324
0.503218 0.505288 0.509385
0.503265 0.506349 0.510446
0.503312 0.507410 0.511508
0.504641 0.491501 0.496613
0.504688 0.492562 0.497674
0.504735 0.493624 0.498735
0.504782 0.494685 0.499796
0.504830 0.495746 0.500857
0.504877 0.496807 0.501919
0.504924 0.497868 0.502980
0.504971 0.498929 0.504041
0.505018 0.499990 0.505102
0.505065 0.501051 0.506163
0.505112 0.502112 0.507224
0.505160 0.503174 0.508285
0.505207 0.504235 0.509346
0.505254 0.505296 0.510407
0.505301 0.506357 0.511469
0.505348 0.507418 0.512530
0.505395 0.508479 0.513591
0.506724 0.492571 0.498696
0.506771 0.493632 0.499757
0.506818 0.494693 0.500818
0.506866 0.495754 0.501880
0.506913 0.496815 0.502941
0.506960 0.497876 0.504002
0.507007 0.498937 0.505063
0.507054 0.499998 0.506124
0.507101 0.501059 0.507185
0.507148 0.502121 0.508246
0.507196 0.503182 0.509307
0.507243 0.504243 0.510368
0.507290 0.505304 0.511430
0.507337 0.506365 0.512491
0.507384 0.507426 0.513552
0.507431 0.508487 0.514613
0.507479 0.509548 0.515674
0.508807 0.493640 0.500779
0.508854 0.494701 0.501840
0.508902 0.495762 0.502902
0.508949 0.496823 0.503963
0.508996 0.497884 0.505024
0.509043 0.498945 0.506085
0.509090 0.500006 0.507146
0.509137 0.501068 0.508207
0.509184 0.502129 0.509268
0.509232 0.503190 0.510329
0.509279 0.504251 0.511390
0.509326 0.505312 0.512452
0.509373 0.506373 0.513513
0.509420 0.507434 0.514574
0.509467 0.508495 0.515635
0.509515 0.509556 0.516696
0.509562 0.510618 0.517757
0.510890 0.494709 0.502863
0.510938 0.495770 0.503924
0.510985 0.496831 0.504985
0.511032 0.497892 0.506046
0.511079 0.498953 0.507107
0.511126 0.500015 0.508168
0.511173 0.501076 0.509229
0.511221 0.502137 0.510290
0.511268 0.503198 0.511351
0.511315 0.504259 0.512413
0.511362 0.505320 0.513474
0.511409 0.506381 0.514535
0.511456 0.507442 0.515596
0.511503 0.508503 0.516657
0.511551 0.509565 0.517718
0.511598 0.510626 0.518779
0.511645 0.511687 0.519840
0.512974 0.495778 0.504946
0.513021 0.496839 0.506007
0.513068 0.497900 0.507068
0.513115 0.498962 0.508129
0.513162 0.500023 0.509190
0.513209 0.501084 0.510251
0.513257 0.502145 0.511312
0.513304 0.503206 0.512373
0.513351 0.504267 0.513435
0.513398 0.505328 0.514496
0.513445 0.506389 0.515557
0.513492 0.507450 0.516618
0.513539 0.508512 0.517679
0.513587 0.509573 0.518740
0.513634 0.510634 0.519801
0.513681 0.511695 0.520862
0.513728 0.512756 0.521923
0.515057 0.496847 0.507029
0.515104 0.497909 0.508090
0.515151 0.498970 0.509151
0.515198 0.500031 0.510212
0.515245 0.501092 0.511273
0.515293 0.502153 0.512334
0.515340 0.503214 0.513396
0.515387 0.504275 0.514457
0.515434 0.505336 0.515518
0.515481 0.506397 0.516579
0.515528 0.507459 0.517640
0.515575 0.508520 0.518701
0.515623 0.509581 0.519762
0.515670 0.510642 0.520823
0.515717 0.511703 0.521884
0.515764 0.512764 0.522946
0.515811 0.513825 0.524007
0.517140 0.497917 0.509112
0.517187 0.498978 0.510173
0.517234 0.500039 0.511234
0.517281 0.501100 0.512295
0.517329 0.502161 0.513357
0.517376 0.503222 0.514418
0.517423 0.504283 0.515479
0.517470 0.505344 0.516540
0.517517 0.506406 0.517601
0.517564 0.507467 0.518662
0.517612 0.508528 0.519723
0.517659 0.509589 0.520784
0.517706 0.510650 0.521845
0.517753 0.511711 0.522907
0.517800 0.512772 0.523968
0.517847 0.513833 0.525029
0.517894 0.514894 0.526090
0.484214 0.481214 0.475172
0.484261 0.482275 0.476233
0.484308 0.483336 0.477294
0.484355 0.484397 0.478355
0.484402 0.485458 0.479416
0.484449 0.486519 0.480477
0.484497 0.487580 0.481538
0.484544 0.488641 0.482600
0.484591 0.489703 0.483661
0.484638 0.490764 0.484722
0.484685 0.491825 0.485783
0.484732 0.492886 0.486844
0.484779 0.493947 0.487905
0.484827 0.495008 0.488966
0.484874 0.496069 0.490027
0.484921 0.497130 0.491088
0.484968 0.498191 0.492150
0.486297 0.482283 0.477255
