shared/src/main/assets/luts/drama_red_signal.cube
TITLE "DALUR Red Signal"
LUT_3D_SIZE 5
DOMAIN_MIN 0.0 0.0 0.0
DOMAIN_MAX 1.0 1.0 1.0
0.437000 0.437000 0.443000
0.447696 0.444798 0.450798
0.458392 0.452596 0.458596
0.469087 0.460394 0.466394
0.479783 0.468192 0.474192
0.452309 0.455207 0.458309
0.463005 0.463005 0.466107
0.473701 0.470803 0.473905
0.484397 0.478601 0.481703
0.495092 0.486399 0.489501
0.467618 0.473414 0.473618
0.478314 0.481212 0.481416
0.489010 0.489010 0.489214
0.499706 0.496808 0.497012
0.510402 0.504606 0.504810
0.482927 0.491621 0.488927
0.493623 0.499419 0.496725
0.504319 0.507217 0.504523
0.515015 0.515015 0.512321
0.525711 0.522813 0.520119
0.498236 0.509828 0.504236
0.508932 0.517626 0.512035
0.519628 0.525424 0.519833
0.530324 0.533222 0.527631
0.541020 0.541020 0.535429
0.439973 0.439973 0.448871
0.450669 0.447771 0.456669
0.461365 0.455569 0.464467
0.472061 0.463367 0.472265
0.482756 0.471165 0.480063
0.455282 0.458180 0.464180
0.465978 0.465978 0.471978
0.476674 0.473776 0.479776
0.487370 0.481574 0.487574
0.498066 0.489372 0.495372
0.470591 0.476387 0.479489
0.481287 0.484185 0.487287
0.491983 0.491983 0.495085
0.502679 0.499781 0.502883
0.513375 0.507579 0.510681
0.485901 0.494594 0.494798
0.496596 0.502392 0.502596
0.507292 0.510190 0.510394
0.517988 0.517988 0.518192
0.528684 0.525786 0.525990
0.501210 0.512801 0.510107
0.511905 0.520599 0.517905
0.522601 0.528397 0.525703
0.533297 0.536195 0.533501
0.543993 0.543993 0.541299
0.442946 0.442946 0.454742
0.453642 0.450744 0.462540
0.464338 0.458542 0.470338
0.475034 0.466340 0.478136
0.485730 0.474138 0.485934
0.458255 0.461153 0.470051
0.468951 0.468951 0.477849
0.479647 0.476749 0.485647
0.490343 0.484547 0.493445
0.501039 0.492345 0.501243
0.473565 0.479360 0.485360
0.484260 0.487158 0.493158
0.494956 0.494956 0.500956
0.505652 0.502754 0.508754
0.516348 0.510552 0.516552
0.488874 0.497567 0.500669
0.499569 0.505365 0.508467
0.510265 0.513163 0.516265
0.520961 0.520961 0.524063
0.531657 0.528759 0.531861
0.504183 0.515774 0.515978
0.514879 0.523572 0.523776
0.525574 0.531370 0.531574
0.536270 0.539168 0.539372
0.546966 0.546966 0.547170
0.445919 0.445919 0.460613
0.456615 0.453717 0.468411
0.467311 0.461515 0.476209
0.478007 0.469313 0.484007
0.488703 0.477111 0.491805
0.461229 0.464126 0.475922
0.471924 0.471924 0.483720
0.482620 0.479722 0.491518
0.493316 0.487520 0.499316
0.504012 0.495318 0.507114
0.476538 0.482333 0.491231
0.487234 0.490131 0.499029
0.497929 0.497929 0.506827
0.508625 0.505727 0.514625
0.519321 0.513525 0.522423
0.491847 0.500540 0.506540
0.502543 0.508338 0.514338
0.513238 0.516136 0.522136
0.523934 0.523934 0.529934
0.534630 0.531732 0.537732
0.507156 0.518747 0.521849
0.517852 0.526545 0.529647
0.528548 0.534343 0.537445
0.539243 0.542141 0.545243
0.549939 0.549939 0.553041
0.448893 0.448893 0.466484
0.459588 0.456691 0.474282
0.470284 0.464489 0.482080
0.480980 0.472287 0.489878
0.491676 0.480085 0.497676
0.464202 0.467100 0.481793
0.474898 0.474898 0.489591
0.485593 0.482696 0.497389
0.496289 0.490494 0.505187
0.506985 0.498292 0.512985
0.479511 0.485306 0.497102
0.490207 0.493104 0.504900
0.500902 0.500902 0.512698
0.511598 0.508700 0.520496
0.522294 0.516498 0.528294
0.494820 0.503513 0.512411
0.505516 0.511311 0.520209
0.516212 0.519109 0.528007
0.526907 0.526907 0.535805
0.537603 0.534705 0.543603
0.510129 0.521720 0.527720
0.520825 0.529518 0.535518
0.531521 0.537316 0.543316
0.542217 0.545114 0.551114
0.552912 0.552912 0.558912
