shared/src/main/assets/luts/drama_royal_gold.cube
TITLE "DALUR Royal Gold"
LUT_3D_SIZE 17
DOMAIN_MIN 0.0 0.0 0.0
DOMAIN_MAX 1.0 1.0 1.0
0.470800 0.460000 0.449200
0.472529 0.461470 0.450670
0.474258 0.462941 0.452141
0.475987 0.464411 0.453611
0.477717 0.465881 0.455081
0.479446 0.467352 0.456552
0.481175 0.468822 0.458022
0.482904 0.470292 0.459492
0.484633 0.471763 0.460963
0.486362 0.473233 0.462433
0.488092 0.474703 0.463903
0.489821 0.476174 0.465374
0.491550 0.477644 0.466844
0.493279 0.479114 0.468314
0.495008 0.480585 0.469785
0.496737 0.482055 0.471255
0.498466 0.483525 0.472725
0.473687 0.463145 0.452087
0.475416 0.464616 0.453557
0.477145 0.466086 0.455027
0.478874 0.467556 0.456498
0.480603 0.469027 0.457968
0.482332 0.470497 0.459438
0.484061 0.471967 0.460909
0.485791 0.473438 0.462379
0.487520 0.474908 0.463849
0.489249 0.476378 0.465320
0.490978 0.477849 0.466790
0.492707 0.479319 0.468260
0.494436 0.480789 0.469731
0.496166 0.482260 0.471201
0.497895 0.483730 0.472671
0.499624 0.485200 0.474142
0.501353 0.486671 0.475612
0.476573 0.466291 0.454973
0.478302 0.467761 0.456443
0.480031 0.469231 0.457914
0.481761 0.470702 0.459384
0.483490 0.472172 0.460854
0.485219 0.473642 0.462325
0.486948 0.475113 0.463795
0.488677 0.476583 0.465265
0.490406 0.478053 0.466736
0.492136 0.479524 0.468206
0.493865 0.480994 0.469677
0.495594 0.482464 0.471147
0.497323 0.483935 0.472617
0.499052 0.485405 0.474088
0.500781 0.486875 0.475558
0.502510 0.488346 0.477028
0.504240 0.489816 0.478499
0.479460 0.469436 0.457860
0.481189 0.470907 0.459330
0.482918 0.472377 0.460800
0.484647 0.473847 0.462271
0.486376 0.475318 0.463741
0.488105 0.476788 0.465211
0.489835 0.478258 0.466682
0.491564 0.479729 0.468152
0.493293 0.481199 0.469622
0.495022 0.482669 0.471093
0.496751 0.484140 0.472563
0.498480 0.485610 0.474033
0.500210 0.487080 0.475504
0.501939 0.488551 0.476974
0.503668 0.490021 0.478444
0.505397 0.491491 0.479915
0.507126 0.492962 0.481385
0.482346 0.472582 0.460746
0.484075 0.474052 0.462217
0.485805 0.475522 0.463687
0.487534 0.476993 0.465157
0.489263 0.478463 0.466628
0.490992 0.479933 0.468098
0.492721 0.481404 0.469568
0.494450 0.482874 0.471039
0.496180 0.484344 0.472509
0.497909 0.485815 0.473979
0.499638 0.487285 0.475450
0.501367 0.488755 0.476920
0.503096 0.490226 0.478390
0.504825 0.491696 0.479861
0.506554 0.493166 0.481331
0.508284 0.494637 0.482801
0.510013 0.496107 0.484272
0.485233 0.475727 0.463633
0.486962 0.477197 0.465103
0.488691 0.478668 0.466574
0.490420 0.480138 0.468044
0.492149 0.481608 0.469514
0.493879 0.483079 0.470985
0.495608 0.484549 0.472455
0.497337 0.486019 0.473925
0.499066 0.487490 0.475396
0.500795 0.488960 0.476866
0.502524 0.490430 0.478336
0.504254 0.491901 0.479807
0.505983 0.493371 0.481277
0.507712 0.494841 0.482747
0.509441 0.496312 0.484218
0.511170 0.497782 0.485688
0.512899 0.499252 0.487158
0.488119 0.478872 0.466519
0.489849 0.480343 0.467990
0.491578 0.481813 0.469460
0.493307 0.483283 0.470930
0.495036 0.484754 0.472401
0.496765 0.486224 0.473871
0.498494 0.487694 0.475341
0.500224 0.489165 0.476812
0.501953 0.490635 0.478282
0.503682 0.492105 0.479752
0.505411 0.493576 0.481223
0.507140 0.495046 0.482693
0.508869 0.496516 0.484163
0.510598 0.497987 0.485634
0.512328 0.499457 0.487104
0.514057 0.500927 0.488574
0.515786 0.502398 0.490045
0.491006 0.482018 0.469406
0.492735 0.483488 0.470876
0.494464 0.484958 0.472347
0.496193 0.486429 0.473817
0.497923 0.487899 0.475287
0.499652 0.489369 0.476758
0.501381 0.490840 0.478228
0.503110 0.492310 0.479698
0.504839 0.493780 0.481169
0.506568 0.495251 0.482639
0.508298 0.496721 0.484109
0.510027 0.498191 0.485580
0.511756 0.499662 0.487050
0.513485 0.501132 0.488520
0.515214 0.502602 0.489991
0.516943 0.504073 0.491461
0.518672 0.505543 0.492931
0.493893 0.485163 0.472293
0.495622 0.486633 0.473763
0.497351 0.488104 0.475233
0.499080 0.489574 0.476704
0.500809 0.491044 0.478174
0.502538 0.492515 0.479644
0.504268 0.493985 0.481115
0.505997 0.495455 0.482585
0.507726 0.496926 0.484055
0.509455 0.498396 0.485526
0.511184 0.499866 0.486996
0.512913 0.501337 0.488466
0.514642 0.502807 0.489937
0.516372 0.504278 0.491407
0.518101 0.505748 0.492877
0.519830 0.507218 0.494348
0.521559 0.508689 0.495818
0.496779 0.488309 0.475179
0.498508 0.489779 0.476650
0.500237 0.491249 0.478120
0.501967 0.492720 0.479590
0.503696 0.494190 0.481061
0.505425 0.495660 0.482531
0.507154 0.497131 0.484001
0.508883 0.498601 0.485472
0.510612 0.500071 0.486942
0.512342 0.501542 0.488412
0.514071 0.503012 0.489883
0.515800 0.504482 0.491353
0.517529 0.505953 0.492823
0.519258 0.507423 0.494294
0.520987 0.508893 0.495764
0.522716 0.510364 0.497234
0.524446 0.511834 0.498705
0.499666 0.491454 0.478066
0.501395 0.492924 0.479536
0.503124 0.494395 0.481006
0.504853 0.495865 0.482477
0.506582 0.497335 0.483947
0.508312 0.498806 0.485417
0.510041 0.500276 0.486888
0.511770 0.501746 0.488358
0.513499 0.503217 0.489828
0.515228 0.504687 0.491299
0.516957 0.506157 0.492769
0.518686 0.507628 0.494239
0.520416 0.509098 0.495710
0.522145 0.510568 0.497180
0.523874 0.512039 0.498650
0.525603 0.513509 0.500121
0.527332 0.514979 0.501591
0.502552 0.494599 0.480952
0.504282 0.496070 0.482423
0.506011 0.497540 0.483893
0.507740 0.499010 0.485363
0.509469 0.500481 0.486834
0.511198 0.501951 0.488304
0.512927 0.503421 0.489774
0.514656 0.504892 0.491245
0.516386 0.506362 0.492715
0.518115 0.507832 0.494185
0.519844 0.509303 0.495656
0.521573 0.510773 0.497126
0.523302 0.512243 0.498596
0.525031 0.513714 0.500067
0.526760 0.515184 0.501537
0.528490 0.516654 0.503007
0.530219 0.518125 0.504478
0.505439 0.497745 0.483839
0.507168 0.499215 0.485309
0.508897 0.500685 0.486780
0.510626 0.502156 0.488250
0.512356 0.503626 0.489720
0.514085 0.505096 0.491191
0.515814 0.506567 0.492661
0.517543 0.508037 0.494131
0.519272 0.509507 0.495602
0.521001 0.510978 0.497072
0.522730 0.512448 0.498542
0.524460 0.513918 0.500013
0.526189 0.515389 0.501483
0.527918 0.516859 0.502953
0.529647 0.518329 0.504424
0.531376 0.519800 0.505894
0.533105 0.521270 0.507364
0.508326 0.500890 0.486726
0.510055 0.502360 0.488196
0.511784 0.503831 0.489666
0.513513 0.505301 0.491137
0.515242 0.506771 0.492607
0.516971 0.508242 0.494077
0.518700 0.509712 0.495548
0.520430 0.511182 0.497018
0.522159 0.512653 0.498488
0.523888 0.514123 0.499959
0.525617 0.515593 0.501429
0.527346 0.517064 0.502899
0.529075 0.518534 0.504370
0.530804 0.520004 0.505840
0.532534 0.521475 0.507310
0.534263 0.522945 0.508781
0.535992 0.524415 0.510251
0.511212 0.504036 0.489612
0.512941 0.505506 0.491082
0.514670 0.506976 0.492553
0.516400 0.508447 0.494023
0.518129 0.509917 0.495493
0.519858 0.511387 0.496964
0.521587 0.512858 0.498434
0.523316 0.514328 0.499904
0.525045 0.515798 0.501375
0.526774 0.517269 0.502845
0.528504 0.518739 0.504315
0.530233 0.520209 0.505786
0.531962 0.521680 0.507256
0.533691 0.523150 0.508726
0.535420 0.524620 0.510197
0.537149 0.526091 0.511667
0.538879 0.527561 0.513137
0.514099 0.507181 0.492499
0.515828 0.508651 0.493969
0.517557 0.510122 0.495439
0.519286 0.511592 0.496910
0.521015 0.513062 0.498380
0.522744 0.514533 0.499850
0.524474 0.516003 0.501321
0.526203 0.517473 0.502791
0.527932 0.518944 0.504261
0.529661 0.520414 0.505732
0.531390 0.521884 0.507202
0.533119 0.523355 0.508672
0.534848 0.524825 0.510143
0.536578 0.526295 0.511613
0.538307 0.527766 0.513083
0.540036 0.529236 0.514554
0.541765 0.530706 0.516024
0.516985 0.510326 0.495385
0.518714 0.511797 0.496856
0.520444 0.513267 0.498326
0.522173 0.514737 0.499796
0.523902 0.516208 0.501267
0.525631 0.517678 0.502737
0.527360 0.519148 0.504207
0.529089 0.520619 0.505678
0.530818 0.522089 0.507148
0.532548 0.523559 0.508618
0.534277 0.525030 0.510089
0.536006 0.526500 0.511559
0.537735 0.527970 0.513029
0.539464 0.529441 0.514500
0.541193 0.530911 0.515970
0.542923 0.532381 0.517440
0.544652 0.533852 0.518911
0.471361 0.460561 0.450019
0.473090 0.462031 0.451490
0.474819 0.463501 0.452960
0.476548 0.464972 0.454430
0.478277 0.466442 0.455901
0.480006 0.467912 0.457371
0.481736 0.469383 0.458841
0.483465 0.470853 0.460312
0.485194 0.472323 0.461782
0.486923 0.473794 0.463252
0.488652 0.475264 0.464723
0.490381 0.476734 0.466193
0.492110 0.478205 0.467663
0.493840 0.479675 0.469134
0.495569 0.481145 0.470604
0.497298 0.482616 0.472074
0.499027 0.484086 0.473545
0.474247 0.463706 0.452906
0.475976 0.465176 0.454376
0.477705 0.466647 0.455847
0.479435 0.468117 0.457317
0.481164 0.469587 0.458787
0.482893 0.471058 0.460258
0.484622 0.472528 0.461728
0.486351 0.473998 0.463198
0.488080 0.475469 0.464669
0.489810 0.476939 0.466139
0.491539 0.478409 0.467609
0.493268 0.479880 0.469080
0.494997 0.481350 0.470550
0.496726 0.482820 0.472020
0.498455 0.484291 0.473491
0.500184 0.485761 0.474961
0.501914 0.487231 0.476431
0.477134 0.466851 0.455793
0.478863 0.468322 0.457263
0.480592 0.469792 0.458733
0.482321 0.471262 0.460204
0.484050 0.472733 0.461674
0.485780 0.474203 0.463144
0.487509 0.475673 0.464615
0.489238 0.477144 0.466085
0.490967 0.478614 0.467555
0.492696 0.480084 0.469026
0.494425 0.481555 0.470496
0.496154 0.483025 0.471966
0.497884 0.484495 0.473437
0.499613 0.485966 0.474907
0.501342 0.487436 0.476377
0.503071 0.488906 0.477848
0.504800 0.490377 0.479318
0.480020 0.469997 0.458679
0.481749 0.471467 0.460149
0.483479 0.472937 0.461620
0.485208 0.474408 0.463090
0.486937 0.475878 0.464560
0.488666 0.477348 0.466031
0.490395 0.478819 0.467501
0.492124 0.480289 0.468971
0.493854 0.481759 0.470442
0.495583 0.483230 0.471912
0.497312 0.484700 0.473382
0.499041 0.486170 0.474853
0.500770 0.487641 0.476323
0.502499 0.489111 0.477793
0.504228 0.490581 0.479264
0.505958 0.492052 0.480734
0.507687 0.493522 0.482205
0.482907 0.473142 0.461566
0.484636 0.474613 0.463036
0.486365 0.476083 0.464506
0.488094 0.477553 0.465977
0.489824 0.479024 0.467447
0.491553 0.480494 0.468917
0.493282 0.481964 0.470388
0.495011 0.483435 0.471858
0.496740 0.484905 0.473328
0.498469 0.486375 0.474799
0.500198 0.487846 0.476269
0.501928 0.489316 0.477739
0.503657 0.490786 0.479210
0.505386 0.492257 0.480680
0.507115 0.493727 0.482150
0.508844 0.495197 0.483621
0.510573 0.496668 0.485091
0.485793 0.476288 0.464452
0.487523 0.477758 0.465923
0.489252 0.479228 0.467393
0.490981 0.480699 0.468863
0.492710 0.482169 0.470334
0.494439 0.483639 0.471804
0.496168 0.485110 0.473274
0.497898 0.486580 0.474745
0.499627 0.488050 0.476215
0.501356 0.489521 0.477685
0.503085 0.490991 0.479156
0.504814 0.492461 0.480626
0.506543 0.493932 0.482096
0.508272 0.495402 0.483567
0.510002 0.496872 0.485037
0.511731 0.498343 0.486507
0.513460 0.499813 0.487978
0.488680 0.479433 0.467339
0.490409 0.480903 0.468809
0.492138 0.482374 0.470280
0.493868 0.483844 0.471750
0.495597 0.485314 0.473220
0.497326 0.486785 0.474691
0.499055 0.488255 0.476161
0.500784 0.489725 0.477631
0.502513 0.491196 0.479102
0.504242 0.492666 0.480572
0.505972 0.494136 0.482042
0.507701 0.495607 0.483513
0.509430 0.497077 0.484983
0.511159 0.498547 0.486453
0.512888 0.500018 0.487924
0.514617 0.501488 0.489394
0.516346 0.502958 0.490864
0.491567 0.482578 0.470225
0.493296 0.484049 0.471696
0.495025 0.485519 0.473166
0.496754 0.486989 0.474636
0.498483 0.488460 0.476107
0.500212 0.489930 0.477577
0.501942 0.491400 0.479047
0.503671 0.492871 0.480518
0.505400 0.494341 0.481988
0.507129 0.495811 0.483458
0.508858 0.497282 0.484929
0.510587 0.498752 0.486399
0.512316 0.500222 0.487869
0.514046 0.501693 0.489340
0.515775 0.503163 0.490810
0.517504 0.504633 0.492280
0.519233 0.506104 0.493751
0.494453 0.485724 0.473112
0.496182 0.487194 0.474582
0.497912 0.488664 0.476053
0.499641 0.490135 0.477523
0.501370 0.491605 0.478993
0.503099 0.493075 0.480464
0.504828 0.494546 0.481934
0.506557 0.496016 0.483404
0.508286 0.497486 0.484875
0.510016 0.498957 0.486345
0.511745 0.500427 0.487815
0.513474 0.501897 0.489286
0.515203 0.503368 0.490756
0.516932 0.504838 0.492226
0.518661 0.506308 0.493697
0.520390 0.507779 0.495167
0.522120 0.509249 0.496637
0.497340 0.488869 0.475999
0.499069 0.490339 0.477469
0.500798 0.491810 0.478939
0.502527 0.493280 0.480410
0.504256 0.494750 0.481880
0.505986 0.496221 0.483350
0.507715 0.497691 0.484821
0.509444 0.499161 0.486291
0.511173 0.500632 0.487761
0.512902 0.502102 0.489232
0.514631 0.503572 0.490702
0.516360 0.505043 0.492172
0.518090 0.506513 0.493643
0.519819 0.507983 0.495113
0.521548 0.509454 0.496583
0.523277 0.510924 0.498054
0.525006 0.512394 0.499524
0.500226 0.492015 0.478885
0.501956 0.493485 0.480356
0.503685 0.494955 0.481826
0.505414 0.496426 0.483296
0.507143 0.497896 0.484767
0.508872 0.499366 0.486237
0.510601 0.500837 0.487707
0.512330 0.502307 0.489178
0.514060 0.503777 0.490648
0.515789 0.505248 0.492118
0.517518 0.506718 0.493589
0.519247 0.508188 0.495059
0.520976 0.509659 0.496529
0.522705 0.511129 0.498000
0.524434 0.512599 0.499470
0.526164 0.514070 0.500940
0.527893 0.515540 0.502411
0.503113 0.495160 0.481772
0.504842 0.496630 0.483242
0.506571 0.498101 0.484712
0.508300 0.499571 0.486183
0.510030 0.501041 0.487653
0.511759 0.502512 0.489123
0.513488 0.503982 0.490594
0.515217 0.505452 0.492064
0.516946 0.506923 0.493534
0.518675 0.508393 0.495005
0.520404 0.509863 0.496475
0.522134 0.511334 0.497945
0.523863 0.512804 0.499416
0.525592 0.514274 0.500886
0.527321 0.515745 0.502356
0.529050 0.517215 0.503827
0.530779 0.518685 0.505297
0.506000 0.498305 0.484658
0.507729 0.499776 0.486129
0.509458 0.501246 0.487599
0.511187 0.502716 0.489069
0.512916 0.504187 0.490540
0.514645 0.505657 0.492010
0.516374 0.507127 0.493480
0.518104 0.508598 0.494951
0.519833 0.510068 0.496421
0.521562 0.511538 0.497891
0.523291 0.513009 0.499362
0.525020 0.514479 0.500832
0.526749 0.515949 0.502302
0.528478 0.517420 0.503773
0.530208 0.518890 0.505243
0.531937 0.520360 0.506713
0.533666 0.521831 0.508184
0.508886 0.501451 0.487545
0.510615 0.502921 0.489015
0.512344 0.504391 0.490486
0.514074 0.505862 0.491956
0.515803 0.507332 0.493426
0.517532 0.508802 0.494897
0.519261 0.510273 0.496367
0.520990 0.511743 0.497837
0.522719 0.513213 0.499308
0.524448 0.514684 0.500778
0.526178 0.516154 0.502248
0.527907 0.517624 0.503719
0.529636 0.519095 0.505189
0.531365 0.520565 0.506659
0.533094 0.522035 0.508130
0.534823 0.523506 0.509600
0.536553 0.524976 0.511070
0.511773 0.504596 0.490431
0.513502 0.506066 0.491902
0.515231 0.507537 0.493372
0.516960 0.509007 0.494843
0.518689 0.510477 0.496313
0.520418 0.511948 0.497783
0.522148 0.513418 0.499254
0.523877 0.514888 0.500724
0.525606 0.516359 0.502194
0.527335 0.517829 0.503665
0.529064 0.519299 0.505135
0.530793 0.520770 0.506605
0.532522 0.522240 0.508076
0.534252 0.523710 0.509546
0.535981 0.525181 0.511016
0.537710 0.526651 0.512487
0.539439 0.528121 0.513957
0.514659 0.507742 0.493318
0.516388 0.509212 0.494788
0.518118 0.510682 0.496259
0.519847 0.512153 0.497729
0.521576 0.513623 0.499199
0.523305 0.515093 0.500670
0.525034 0.516564 0.502140
0.526763 0.518034 0.503610
0.528492 0.519504 0.505081
0.530222 0.520975 0.506551
0.531951 0.522445 0.508021
0.533680 0.523915 0.509492
0.535409 0.525386 0.510962
0.537138 0.526856 0.512432
0.538867 0.528326 0.513903
0.540597 0.529797 0.515373
0.542326 0.531267 0.516843
0.517546 0.510887 0.496205
0.519275 0.512357 0.497675
0.521004 0.513828 0.499145
0.522733 0.515298 0.500616
0.524462 0.516768 0.502086
0.526192 0.518239 0.503556
0.527921 0.519709 0.505027
0.529650 0.521179 0.506497
0.531379 0.522650 0.507967
0.533108 0.524120 0.509438
0.534837 0.525590 0.510908
0.536566 0.527061 0.512378
0.538296 0.528531 0.513849
0.540025 0.530001 0.515319
0.541754 0.531472 0.516789
0.543483 0.532942 0.518260
0.545212 0.534412 0.519730
0.471921 0.461121 0.450839
0.473650 0.462592 0.452309
0.475379 0.464062 0.453779
0.477109 0.465532 0.455250
0.478838 0.467003 0.456720
0.480567 0.468473 0.458190
0.482296 0.469943 0.459661
0.484025 0.471414 0.461131
0.485754 0.472884 0.462602
0.487484 0.474354 0.464072
0.489213 0.475825 0.465542
0.490942 0.477295 0.467013
0.492671 0.478765 0.468483
0.494400 0.480236 0.469953
0.496129 0.481706 0.471424
0.497858 0.483176 0.472894
0.499588 0.484647 0.474364
0.474808 0.464267 0.453725
0.476537 0.465737 0.455196
0.478266 0.467207 0.456666
0.479995 0.468678 0.458136
0.481724 0.470148 0.459607
0.483454 0.471618 0.461077
0.485183 0.473089 0.462547
0.486912 0.474559 0.464018
0.488641 0.476029 0.465488
0.490370 0.477500 0.466958
0.492099 0.478970 0.468429
0.493828 0.480440 0.469899
0.495558 0.481911 0.471369
0.497287 0.483381 0.472840
0.499016 0.484851 0.474310
0.500745 0.486322 0.475780
0.502474 0.487792 0.477251
0.477694 0.467412 0.456612
0.479423 0.468882 0.458082
0.481153 0.470353 0.459553
0.482882 0.471823 0.461023
0.484611 0.473293 0.462493
0.486340 0.474764 0.463964
0.488069 0.476234 0.465434
0.489798 0.477704 0.466904
0.491528 0.479175 0.468375
0.493257 0.480645 0.469845
0.494986 0.482115 0.471315
0.496715 0.483586 0.472786
0.498444 0.485056 0.474256
0.500173 0.486526 0.475726
0.501902 0.487997 0.477197
0.503632 0.489467 0.478667
0.505361 0.490937 0.480137
0.480581 0.470557 0.459499
0.482310 0.472028 0.460969
0.484039 0.473498 0.462439
0.485768 0.474968 0.463910
0.487498 0.476439 0.465380
0.489227 0.477909 0.466850
0.490956 0.479379 0.468321
0.492685 0.480850 0.469791
0.494414 0.482320 0.471261
0.496143 0.483790 0.472732
0.497872 0.485261 0.474202
0.499602 0.486731 0.475672
0.501331 0.488201 0.477143
0.503060 0.489672 0.478613
0.504789 0.491142 0.480083
0.506518 0.492612 0.481554
0.508247 0.494083 0.483024
0.483468 0.473703 0.462385
0.485197 0.475173 0.463855
0.486926 0.476643 0.465326
0.488655 0.478114 0.466796
0.490384 0.479584 0.468266
0.492113 0.481054 0.469737
0.493842 0.482525 0.471207
0.495572 0.483995 0.472677
0.497301 0.485465 0.474148
0.499030 0.486936 0.475618
0.500759 0.488406 0.477088
0.502488 0.489876 0.478559
0.504217 0.491347 0.480029
0.505946 0.492817 0.481499
0.507676 0.494287 0.482970
0.509405 0.495758 0.484440
0.511134 0.497228 0.485910
0.486354 0.476848 0.465272
0.488083 0.478318 0.466742
0.489812 0.479789 0.468212
0.491542 0.481259 0.469683
0.493271 0.482730 0.471153
0.495000 0.484200 0.472623
0.496729 0.485670 0.474094
0.498458 0.487141 0.475564
0.500187 0.488611 0.477034
0.501916 0.490081 0.478505
0.503646 0.491552 0.479975
0.505375 0.493022 0.481445
0.507104 0.494492 0.482916
0.508833 0.495963 0.484386
0.510562 0.497433 0.485856
0.512291 0.498903 0.487327
0.514020 0.500374 0.488797
0.489241 0.479994 0.468158
0.490970 0.481464 0.469629
0.492699 0.482934 0.471099
0.494428 0.484405 0.472569
0.496157 0.485875 0.474040
0.497886 0.487345 0.475510
0.499616 0.488816 0.476980
0.501345 0.490286 0.478451
0.503074 0.491756 0.479921
0.504803 0.493227 0.481391
0.506532 0.494697 0.482862
0.508261 0.496167 0.484332
0.509990 0.497638 0.485802
0.511720 0.499108 0.487273
0.513449 0.500578 0.488743
0.515178 0.502049 0.490213
0.516907 0.503519 0.491684
0.492127 0.483139 0.471045
0.493856 0.484609 0.472515
0.495586 0.486080 0.473986
0.497315 0.487550 0.475456
0.499044 0.489020 0.476926
0.500773 0.490491 0.478397
0.502502 0.491961 0.479867
0.504231 0.493431 0.481337
0.505960 0.494902 0.482808
0.507690 0.496372 0.484278
0.509419 0.497842 0.485748
0.511148 0.499313 0.487219
0.512877 0.500783 0.488689
0.514606 0.502253 0.490159
0.516335 0.503724 0.491630
0.518065 0.505194 0.493100
0.519794 0.506664 0.494570
0.495014 0.486284 0.473931
0.496743 0.487755 0.475402
0.498472 0.489225 0.476872
0.500201 0.490695 0.478342
0.501930 0.492166 0.479813
0.503660 0.493636 0.481283
0.505389 0.495106 0.482753
0.507118 0.496577 0.484224
0.508847 0.498047 0.485694
0.510576 0.499517 0.487164
0.512305 0.500988 0.488635
0.514034 0.502458 0.490105
0.515764 0.503928 0.491575
0.517493 0.505399 0.493046
0.519222 0.506869 0.494516
0.520951 0.508339 0.495986
0.522680 0.509810 0.497457
0.497900 0.489430 0.476818
0.499630 0.490900 0.478288
0.501359 0.492370 0.479759
0.503088 0.493841 0.481229
0.504817 0.495311 0.482699
0.506546 0.496781 0.484170
0.508275 0.498252 0.485640
0.510004 0.499722 0.487110
0.511734 0.501192 0.488581
0.513463 0.502663 0.490051
0.515192 0.504133 0.491521
0.516921 0.505603 0.492992
0.518650 0.507074 0.494462
0.520379 0.508544 0.495932
0.522109 0.510014 0.497403
0.523838 0.511485 0.498873
0.525567 0.512955 0.500343
0.500787 0.492575 0.479705
0.502516 0.494045 0.481175
0.504245 0.495516 0.482645
0.505974 0.496986 0.484116
0.507704 0.498456 0.485586
0.509433 0.499927 0.487056
0.511162 0.501397 0.488527
0.512891 0.502867 0.489997
0.514620 0.504338 0.491467
0.516349 0.505808 0.492938
0.518078 0.507278 0.494408
0.519808 0.508749 0.495878
0.521537 0.510219 0.497349
0.523266 0.511689 0.498819
0.524995 0.513160 0.500289
0.526724 0.514630 0.501760
0.528453 0.516100 0.503230
0.503674 0.495721 0.482591
0.505403 0.497191 0.484062
0.507132 0.498661 0.485532
0.508861 0.500132 0.487002
0.510590 0.501602 0.488473
0.512319 0.503072 0.489943
0.514048 0.504543 0.491413
0.515778 0.506013 0.492884
0.517507 0.507483 0.494354
0.519236 0.508954 0.495824
0.520965 0.510424 0.497295
0.522694 0.511894 0.498765
0.524423 0.513365 0.500235
0.526153 0.514835 0.501706
0.527882 0.516305 0.503176
0.529611 0.517776 0.504646
0.531340 0.519246 0.506117
0.506560 0.498866 0.485478
0.508289 0.500336 0.486948
0.510018 0.501807 0.488418
0.511748 0.503277 0.489889
0.513477 0.504747 0.491359
0.515206 0.506218 0.492829
0.516935 0.507688 0.494300
0.518664 0.509158 0.495770
0.520393 0.510629 0.497240
0.522122 0.512099 0.498711
0.523852 0.513569 0.500181
0.525581 0.515040 0.501651
0.527310 0.516510 0.503122
0.529039 0.517980 0.504592
0.530768 0.519451 0.506062
0.532497 0.520921 0.507533
0.534227 0.522391 0.509003
0.509447 0.502011 0.488364
0.511176 0.503482 0.489835
0.512905 0.504952 0.491305
0.514634 0.506422 0.492775
0.516363 0.507893 0.494246
0.518092 0.509363 0.495716
0.519822 0.510833 0.497186
0.521551 0.512304 0.498657
0.523280 0.513774 0.500127
0.525009 0.515244 0.501597
0.526738 0.516715 0.503068
0.528467 0.518185 0.504538
0.530197 0.519655 0.506008
0.531926 0.521126 0.507479
0.533655 0.522596 0.508949
0.535384 0.524066 0.510419
0.537113 0.525537 0.511890
0.512333 0.505157 0.491251
0.514062 0.506627 0.492721
0.515792 0.508097 0.494192
0.517521 0.509568 0.495662
0.519250 0.511038 0.497132
0.520979 0.512508 0.498603
0.522708 0.513979 0.500073
0.524437 0.515449 0.501543
0.526166 0.516919 0.503014
0.527896 0.518390 0.504484
0.529625 0.519860 0.505954
0.531354 0.521330 0.507425
0.533083 0.522801 0.508895
0.534812 0.524271 0.510365
0.536541 0.525741 0.511836
0.538271 0.527212 0.513306
0.540000 0.528682 0.514776
0.515220 0.508302 0.494137
0.516949 0.509772 0.495608
0.518678 0.511243 0.497078
0.520407 0.512713 0.498548
0.522136 0.514183 0.500019
0.523866 0.515654 0.501489
0.525595 0.517124 0.502959
0.527324 0.518594 0.504430
0.529053 0.520065 0.505900
0.530782 0.521535 0.507371
0.532511 0.523005 0.508841
0.534241 0.524476 0.510311
0.535970 0.525946 0.511782
0.537699 0.527416 0.513252
0.539428 0.528887 0.514722
0.541157 0.530357 0.516193
0.542886 0.531827 0.517663
0.518106 0.511447 0.497024
0.519836 0.512918 0.498494
0.521565 0.514388 0.499965
0.523294 0.515858 0.501435
0.525023 0.517329 0.502905
0.526752 0.518799 0.504376
0.528481 0.520270 0.505846
0.530210 0.521740 0.507316
0.531940 0.523210 0.508787
0.533669 0.524681 0.510257
0.535398 0.526151 0.511727
0.537127 0.527621 0.513198
0.538856 0.529092 0.514668
0.540585 0.530562 0.516138
0.542315 0.532032 0.517609
0.544044 0.533503 0.519079
0.545773 0.534973 0.520549
0.472482 0.461682 0.451658
0.474211 0.463152 0.453129
0.475940 0.464622 0.454599
0.477669 0.466093 0.456069
0.479398 0.467563 0.457540
0.481128 0.469033 0.459010
0.482857 0.470504 0.460480
0.484586 0.471974 0.461951
0.486315 0.473444 0.463421
0.488044 0.474915 0.464891
0.489773 0.476385 0.466362
0.491502 0.477855 0.467832
0.493232 0.479326 0.469302
0.494961 0.480796 0.470773
0.496690 0.482266 0.472243
0.498419 0.483737 0.473713
0.500148 0.485207 0.475184
0.475368 0.464827 0.454545
