shared/src/main/assets/luts/drama_cold_lake.cube
TITLE "DALUR Cold Lake"
LUT_3D_SIZE 17
DOMAIN_MIN 0.0 0.0 0.0
DOMAIN_MAX 1.0 1.0 1.0
0.413200 0.432000 0.446800
0.414496 0.434929 0.449729
0.415793 0.437859 0.452659
0.417089 0.440788 0.455588
0.418386 0.443717 0.458517
0.419682 0.446646 0.461446
0.420979 0.449576 0.464376
0.422275 0.452505 0.467305
0.423572 0.455434 0.470234
0.424868 0.458363 0.473163
0.426164 0.461293 0.476093
0.427461 0.464222 0.479022
0.428757 0.467151 0.481951
0.430054 0.470080 0.484880
0.431350 0.473010 0.487810
0.432647 0.475939 0.490739
0.433943 0.478868 0.493668
0.418951 0.436118 0.452551
0.420247 0.439047 0.455480
0.421544 0.441976 0.458409
0.422840 0.444906 0.461339
0.424137 0.447835 0.464268
0.425433 0.450764 0.467197
0.426729 0.453693 0.470126
0.428026 0.456623 0.473056
0.429322 0.459552 0.475985
0.430619 0.462481 0.478914
0.431915 0.465411 0.481843
0.433212 0.468340 0.484773
0.434508 0.471269 0.487702
0.435805 0.474198 0.490631
0.437101 0.477128 0.493560
0.438397 0.480057 0.496490
0.439694 0.482986 0.499419
0.424701 0.440236 0.458301
0.425998 0.443165 0.461231
0.427294 0.446094 0.464160
0.428591 0.449024 0.467089
0.429887 0.451953 0.470019
0.431184 0.454882 0.472948
0.432480 0.457811 0.475877
0.433777 0.460741 0.478806
0.435073 0.463670 0.481736
0.436370 0.466599 0.484665
0.437666 0.469528 0.487594
0.438962 0.472458 0.490523
0.440259 0.475387 0.493453
0.441555 0.478316 0.496382
0.442852 0.481245 0.499311
0.444148 0.484175 0.502240
0.445445 0.487104 0.505170
0.430452 0.444354 0.464052
0.431749 0.447283 0.466982
0.433045 0.450212 0.469911
0.434342 0.453142 0.472840
0.435638 0.456071 0.475769
0.436934 0.459000 0.478699
0.438231 0.461929 0.481628
0.439527 0.464859 0.484557
0.440824 0.467788 0.487486
0.442120 0.470717 0.490416
0.443417 0.473646 0.493345
0.444713 0.476576 0.496274
0.446010 0.479505 0.499203
0.447306 0.482434 0.502133
0.448603 0.485363 0.505062
0.449899 0.488293 0.507991
0.451195 0.491222 0.510920
0.436203 0.448472 0.469803
0.437499 0.451401 0.472732
0.438796 0.454330 0.475662
0.440092 0.457260 0.478591
0.441389 0.460189 0.481520
0.442685 0.463118 0.484449
0.443982 0.466047 0.487379
0.445278 0.468977 0.490308
0.446575 0.471906 0.493237
0.447871 0.474835 0.496166
0.449167 0.477764 0.499096
0.450464 0.480694 0.502025
0.451760 0.483623 0.504954
0.453057 0.486552 0.507883
0.454353 0.489481 0.510813
0.455650 0.492411 0.513742
0.456946 0.495340 0.516671
0.441954 0.452590 0.475554
0.443250 0.455519 0.478483
0.444547 0.458448 0.481412
0.445843 0.461377 0.484342
0.447140 0.464307 0.487271
0.448436 0.467236 0.490200
0.449732 0.470165 0.493129
0.451029 0.473095 0.496059
0.452325 0.476024 0.498988
0.453622 0.478953 0.501917
0.454918 0.481882 0.504846
0.456215 0.484812 0.507776
0.457511 0.487741 0.510705
0.458808 0.490670 0.513634
0.460104 0.493599 0.516563
0.461400 0.496529 0.519493
0.462697 0.499458 0.522422
0.447704 0.456708 0.481304
0.449001 0.459637 0.484234
0.450297 0.462566 0.487163
0.451594 0.465495 0.490092
0.452890 0.468425 0.493022
0.454187 0.471354 0.495951
0.455483 0.474283 0.498880
0.456780 0.477212 0.501809
0.458076 0.480142 0.504739
0.459373 0.483071 0.507668
0.460669 0.486000 0.510597
0.461965 0.488929 0.513526
0.463262 0.491859 0.516456
0.464558 0.494788 0.519385
0.465855 0.497717 0.522314
0.467151 0.500647 0.525243
0.468448 0.503576 0.528173
0.453455 0.460826 0.487055
0.454752 0.463755 0.489984
0.456048 0.466684 0.492914
0.457345 0.469613 0.495843
0.458641 0.472543 0.498772
0.459937 0.475472 0.501702
0.461234 0.478401 0.504631
0.462530 0.481330 0.507560
0.463827 0.484260 0.510489
0.465123 0.487189 0.513419
0.466420 0.490118 0.516348
0.467716 0.493047 0.519277
0.469013 0.495977 0.522206
0.470309 0.498906 0.525136
0.471606 0.501835 0.528065
0.472902 0.504764 0.530994
0.474198 0.507694 0.533923
0.459206 0.464944 0.492806
0.460502 0.467873 0.495735
0.461799 0.470802 0.498665
0.463095 0.473731 0.501594
0.464392 0.476661 0.504523
0.465688 0.479590 0.507452
0.466985 0.482519 0.510382
0.468281 0.485448 0.513311
0.469578 0.488378 0.516240
0.470874 0.491307 0.519169
0.472170 0.494236 0.522099
0.473467 0.497165 0.525028
0.474763 0.500095 0.527957
0.476060 0.503024 0.530886
0.477356 0.505953 0.533816
0.478653 0.508882 0.536745
0.479949 0.511812 0.539674
0.464957 0.469061 0.498557
0.466253 0.471991 0.501486
0.467550 0.474920 0.504415
0.468846 0.477849 0.507345
0.470143 0.480778 0.510274
0.471439 0.483708 0.513203
0.472735 0.486637 0.516132
0.474032 0.489566 0.519062
0.475328 0.492496 0.521991
0.476625 0.495425 0.524920
0.477921 0.498354 0.527849
0.479218 0.501283 0.530779
0.480514 0.504213 0.533708
0.481811 0.507142 0.536637
0.483107 0.510071 0.539566
0.484403 0.513000 0.542496
0.485700 0.515930 0.545425
0.470707 0.473179 0.504307
0.472004 0.476109 0.507237
0.473300 0.479038 0.510166
0.474597 0.481967 0.513095
0.475893 0.484896 0.516025
0.477190 0.487826 0.518954
0.478486 0.490755 0.521883
0.479783 0.493684 0.524812
0.481079 0.496613 0.527742
0.482376 0.499543 0.530671
0.483672 0.502472 0.533600
0.484968 0.505401 0.536529
0.486265 0.508330 0.539459
0.487561 0.511260 0.542388
0.488858 0.514189 0.545317
0.490154 0.517118 0.548246
0.491451 0.520048 0.551176
0.476458 0.477297 0.510058
0.477755 0.480227 0.512987
0.479051 0.483156 0.515917
0.480348 0.486085 0.518846
0.481644 0.489014 0.521775
0.482940 0.491944 0.524705
0.484237 0.494873 0.527634
0.485533 0.497802 0.530563
0.486830 0.500731 0.533492
0.488126 0.503661 0.536422
0.489423 0.506590 0.539351
0.490719 0.509519 0.542280
0.492016 0.512448 0.545209
0.493312 0.515378 0.548139
0.494609 0.518307 0.551068
0.495905 0.521236 0.553997
0.497201 0.524165 0.556926
0.482209 0.481415 0.515809
0.483505 0.484345 0.518738
0.484802 0.487274 0.521668
0.486098 0.490203 0.524597
0.487395 0.493132 0.527526
0.488691 0.496062 0.530455
0.489988 0.498991 0.533385
0.491284 0.501920 0.536314
0.492581 0.504849 0.539243
0.493877 0.507779 0.542172
0.495173 0.510708 0.545102
0.496470 0.513637 0.548031
0.497766 0.516566 0.550960
0.499063 0.519496 0.553889
0.500359 0.522425 0.556819
0.501656 0.525354 0.559748
0.502952 0.528283 0.562677
0.487960 0.485533 0.521560
0.489256 0.488462 0.524489
0.490553 0.491392 0.527418
0.491849 0.494321 0.530348
0.493146 0.497250 0.533277
0.494442 0.500180 0.536206
0.495738 0.503109 0.539135
0.497035 0.506038 0.542065
0.498331 0.508967 0.544994
0.499628 0.511897 0.547923
0.500924 0.514826 0.550852
0.502221 0.517755 0.553782
0.503517 0.520684 0.556711
0.504814 0.523614 0.559640
0.506110 0.526543 0.562569
0.507406 0.529472 0.565499
0.508703 0.532401 0.568428
0.493710 0.489651 0.527310
0.495007 0.492580 0.530240
0.496303 0.495510 0.533169
0.497600 0.498439 0.536098
0.498896 0.501368 0.539028
0.500193 0.504297 0.541957
0.501489 0.507227 0.544886
0.502786 0.510156 0.547815
0.504082 0.513085 0.550745
0.505379 0.516014 0.553674
0.506675 0.518944 0.556603
0.507971 0.521873 0.559532
0.509268 0.524802 0.562462
0.510564 0.527732 0.565391
0.511861 0.530661 0.568320
0.513157 0.533590 0.571249
0.514454 0.536519 0.574179
0.499461 0.493769 0.533061
0.500758 0.496698 0.535990
0.502054 0.499628 0.538920
0.503351 0.502557 0.541849
0.504647 0.505486 0.544778
0.505943 0.508415 0.547708
0.507240 0.511345 0.550637
0.508536 0.514274 0.553566
0.509833 0.517203 0.556495
0.511129 0.520132 0.559425
0.512426 0.523062 0.562354
0.513722 0.525991 0.565283
0.515019 0.528920 0.568212
0.516315 0.531849 0.571142
0.517612 0.534779 0.574071
0.518908 0.537708 0.577000
0.520204 0.540637 0.579929
0.505212 0.497887 0.538812
0.506508 0.500816 0.541741
0.507805 0.503746 0.544670
0.509101 0.506675 0.547600
0.510398 0.509604 0.550529
0.511694 0.512533 0.553458
0.512991 0.515463 0.556388
0.514287 0.518392 0.559317
0.515584 0.521321 0.562246
0.516880 0.524250 0.565175
0.518176 0.527180 0.568105
0.519473 0.530109 0.571034
0.520769 0.533038 0.573963
0.522066 0.535967 0.576892
0.523362 0.538897 0.579822
0.524659 0.541826 0.582751
0.525955 0.544755 0.585680
0.414317 0.433117 0.446284
0.415613 0.436046 0.449213
0.416910 0.438975 0.452143
0.418206 0.441905 0.455072
0.419503 0.444834 0.458001
0.420799 0.447763 0.460930
0.422096 0.450692 0.463860
0.423392 0.453622 0.466789
0.424688 0.456551 0.469718
0.425985 0.459480 0.472647
0.427281 0.462409 0.475577
0.428578 0.465339 0.478506
0.429874 0.468268 0.481435
0.431171 0.471197 0.484364
0.432467 0.474126 0.487294
0.433764 0.477056 0.490223
0.435060 0.479985 0.493152
0.420068 0.437235 0.452035
0.421364 0.440164 0.454964
0.422660 0.443093 0.457893
0.423957 0.446023 0.460823
0.425253 0.448952 0.463752
0.426550 0.451881 0.466681
0.427846 0.454810 0.469610
0.429143 0.457740 0.472540
0.430439 0.460669 0.475469
0.431736 0.463598 0.478398
0.433032 0.466527 0.481327
0.434329 0.469457 0.484257
0.435625 0.472386 0.487186
0.436921 0.475315 0.490115
0.438218 0.478244 0.493044
0.439514 0.481174 0.495974
0.440811 0.484103 0.498903
0.425818 0.441353 0.457786
0.427115 0.444282 0.460715
0.428411 0.447211 0.463644
0.429708 0.450140 0.466573
0.431004 0.453070 0.469503
0.432301 0.455999 0.472432
0.433597 0.458928 0.475361
0.434893 0.461858 0.478290
0.436190 0.464787 0.481220
0.437486 0.467716 0.484149
0.438783 0.470645 0.487078
0.440079 0.473575 0.490007
0.441376 0.476504 0.492937
0.442672 0.479433 0.495866
0.443969 0.482362 0.498795
0.445265 0.485292 0.501724
0.446562 0.488221 0.504654
0.431569 0.445471 0.463536
0.432866 0.448400 0.466466
0.434162 0.451329 0.469395
0.435458 0.454258 0.472324
0.436755 0.457188 0.475253
0.438051 0.460117 0.478183
0.439348 0.463046 0.481112
0.440644 0.465975 0.484041
0.441941 0.468905 0.486970
0.443237 0.471834 0.489900
0.444534 0.474763 0.492829
0.445830 0.477692 0.495758
0.447126 0.480622 0.498687
0.448423 0.483551 0.501617
0.449719 0.486480 0.504546
0.451016 0.489410 0.507475
0.452312 0.492339 0.510404
0.437320 0.449589 0.469287
0.438616 0.452518 0.472216
0.439913 0.455447 0.475146
0.441209 0.458376 0.478075
0.442506 0.461306 0.481004
0.443802 0.464235 0.483933
0.445099 0.467164 0.486863
0.446395 0.470093 0.489792
0.447691 0.473023 0.492721
0.448988 0.475952 0.495650
0.450284 0.478881 0.498580
0.451581 0.481810 0.501509
0.452877 0.484740 0.504438
0.454174 0.487669 0.507367
0.455470 0.490598 0.510297
0.456767 0.493527 0.513226
0.458063 0.496457 0.516155
0.443071 0.453707 0.475038
0.444367 0.456636 0.477967
0.445663 0.459565 0.480896
0.446960 0.462494 0.483826
0.448256 0.465424 0.486755
0.449553 0.468353 0.489684
0.450849 0.471282 0.492613
0.452146 0.474211 0.495543
0.453442 0.477141 0.498472
0.454739 0.480070 0.501401
0.456035 0.482999 0.504330
0.457332 0.485928 0.507260
0.458628 0.488858 0.510189
0.459924 0.491787 0.513118
0.461221 0.494716 0.516047
0.462517 0.497645 0.518977
0.463814 0.500575 0.521906
0.448821 0.457824 0.480789
0.450118 0.460754 0.483718
0.451414 0.463683 0.486647
0.452711 0.466612 0.489576
0.454007 0.469542 0.492506
0.455304 0.472471 0.495435
0.456600 0.475400 0.498364
0.457896 0.478329 0.501293
0.459193 0.481259 0.504223
0.460489 0.484188 0.507152
0.461786 0.487117 0.510081
0.463082 0.490046 0.513010
0.464379 0.492976 0.515940
0.465675 0.495905 0.518869
0.466972 0.498834 0.521798
0.468268 0.501763 0.524727
0.469565 0.504693 0.527657
0.454572 0.461942 0.486539
0.455869 0.464872 0.489469
0.457165 0.467801 0.492398
0.458461 0.470730 0.495327
0.459758 0.473659 0.498256
0.461054 0.476589 0.501186
0.462351 0.479518 0.504115
0.463647 0.482447 0.507044
0.464944 0.485376 0.509973
0.466240 0.488306 0.512903
0.467537 0.491235 0.515832
0.468833 0.494164 0.518761
0.470129 0.497094 0.521690
0.471426 0.500023 0.524620
0.472722 0.502952 0.527549
0.474019 0.505881 0.530478
0.475315 0.508811 0.533407
0.460323 0.466060 0.492290
0.461619 0.468990 0.495219
0.462916 0.471919 0.498149
0.464212 0.474848 0.501078
0.465509 0.477777 0.504007
0.466805 0.480707 0.506936
0.468102 0.483636 0.509866
0.469398 0.486565 0.512795
0.470694 0.489494 0.515724
0.471991 0.492424 0.518653
0.473287 0.495353 0.521583
0.474584 0.498282 0.524512
0.475880 0.501211 0.527441
0.477177 0.504141 0.530370
0.478473 0.507070 0.533300
0.479770 0.509999 0.536229
0.481066 0.512928 0.539158
0.466074 0.470178 0.498041
0.467370 0.473108 0.500970
0.468666 0.476037 0.503899
0.469963 0.478966 0.506829
0.471259 0.481895 0.509758
0.472556 0.484825 0.512687
0.473852 0.487754 0.515616
0.475149 0.490683 0.518546
0.476445 0.493612 0.521475
0.477742 0.496542 0.524404
0.479038 0.499471 0.527333
0.480335 0.502400 0.530263
0.481631 0.505329 0.533192
0.482927 0.508259 0.536121
0.484224 0.511188 0.539050
0.485520 0.514117 0.541980
0.486817 0.517046 0.544909
0.471824 0.474296 0.503792
0.473121 0.477226 0.506721
0.474417 0.480155 0.509650
0.475714 0.483084 0.512579
0.477010 0.486013 0.515509
0.478307 0.488943 0.518438
0.479603 0.491872 0.521367
0.480899 0.494801 0.524296
0.482196 0.497730 0.527226
0.483492 0.500660 0.530155
0.484789 0.503589 0.533084
0.486085 0.506518 0.536013
0.487382 0.509447 0.538943
0.488678 0.512377 0.541872
0.489975 0.515306 0.544801
0.491271 0.518235 0.547730
0.492568 0.521164 0.550660
0.477575 0.478414 0.509542
0.478872 0.481343 0.512472
0.480168 0.484273 0.515401
0.481464 0.487202 0.518330
0.482761 0.490131 0.521259
0.484057 0.493060 0.524189
0.485354 0.495990 0.527118
0.486650 0.498919 0.530047
0.487947 0.501848 0.532976
0.489243 0.504778 0.535906
0.490540 0.507707 0.538835
0.491836 0.510636 0.541764
0.493132 0.513565 0.544693
0.494429 0.516495 0.547623
0.495725 0.519424 0.550552
0.497022 0.522353 0.553481
0.498318 0.525282 0.556410
0.483326 0.482532 0.515293
0.484622 0.485461 0.518222
0.485919 0.488391 0.521152
0.487215 0.491320 0.524081
0.488512 0.494249 0.527010
0.489808 0.497178 0.529939
0.491105 0.500108 0.532869
0.492401 0.503037 0.535798
0.493697 0.505966 0.538727
0.494994 0.508895 0.541656
0.496290 0.511825 0.544586
0.497587 0.514754 0.547515
0.498883 0.517683 0.550444
0.500180 0.520612 0.553373
0.501476 0.523542 0.556303
0.502773 0.526471 0.559232
0.504069 0.529400 0.562161
0.489077 0.486650 0.521044
0.490373 0.489579 0.523973
0.491669 0.492509 0.526902
0.492966 0.495438 0.529832
0.494262 0.498367 0.532761
0.495559 0.501296 0.535690
0.496855 0.504226 0.538619
0.498152 0.507155 0.541549
0.499448 0.510084 0.544478
0.500745 0.513013 0.547407
0.502041 0.515943 0.550336
0.503338 0.518872 0.553266
0.504634 0.521801 0.556195
0.505930 0.524730 0.559124
0.507227 0.527660 0.562053
0.508523 0.530589 0.564983
0.509820 0.533518 0.567912
0.494827 0.490768 0.526795
0.496124 0.493697 0.529724
0.497420 0.496627 0.532653
0.498717 0.499556 0.535582
0.500013 0.502485 0.538512
0.501310 0.505414 0.541441
0.502606 0.508344 0.544370
0.503902 0.511273 0.547299
0.505199 0.514202 0.550229
0.506495 0.517131 0.553158
0.507792 0.520061 0.556087
0.509088 0.522990 0.559016
0.510385 0.525919 0.561946
0.511681 0.528848 0.564875
0.512978 0.531778 0.567804
0.514274 0.534707 0.570733
0.515571 0.537636 0.573663
0.500578 0.494886 0.532545
0.501875 0.497815 0.535475
0.503171 0.500744 0.538404
0.504467 0.503674 0.541333
0.505764 0.506603 0.544262
0.507060 0.509532 0.547192
0.508357 0.512461 0.550121
0.509653 0.515391 0.553050
0.510950 0.518320 0.555979
0.512246 0.521249 0.558909
0.513543 0.524179 0.561838
0.514839 0.527108 0.564767
0.516135 0.530037 0.567696
0.517432 0.532966 0.570626
0.518728 0.535896 0.573555
0.520025 0.538825 0.576484
0.521321 0.541754 0.579413
0.506329 0.499004 0.538296
0.507625 0.501933 0.541225
0.508922 0.504862 0.544155
0.510218 0.507792 0.547084
0.511515 0.510721 0.550013
0.512811 0.513650 0.552942
0.514108 0.516579 0.555872
0.515404 0.519509 0.558801
0.516700 0.522438 0.561730
0.517997 0.525367 0.564659
0.519293 0.528296 0.567589
0.520590 0.531226 0.570518
0.521886 0.534155 0.573447
0.523183 0.537084 0.576376
0.524479 0.540013 0.579306
0.525776 0.542943 0.582235
0.527072 0.545872 0.585164
0.415434 0.434234 0.445768
0.416730 0.437163 0.448697
0.418027 0.440092 0.451627
0.419323 0.443021 0.454556
0.420619 0.445951 0.457485
0.421916 0.448880 0.460414
0.423212 0.451809 0.463344
0.424509 0.454738 0.466273
0.425805 0.457668 0.469202
0.427102 0.460597 0.472131
0.428398 0.463526 0.475061
0.429695 0.466456 0.477990
0.430991 0.469385 0.480919
0.432288 0.472314 0.483848
0.433584 0.475243 0.486778
0.434880 0.478173 0.489707
0.436177 0.481102 0.492636
0.421184 0.438352 0.451519
0.422481 0.441281 0.454448
0.423777 0.444210 0.457377
0.425074 0.447139 0.460307
0.426370 0.450069 0.463236
0.427667 0.452998 0.466165
0.428963 0.455927 0.469094
0.430260 0.458856 0.472024
0.431556 0.461786 0.474953
0.432852 0.464715 0.477882
0.434149 0.467644 0.480811
0.435445 0.470573 0.483741
0.436742 0.473503 0.486670
0.438038 0.476432 0.489599
0.439335 0.479361 0.492528
0.440631 0.482290 0.495458
0.441928 0.485220 0.498387
0.426935 0.442470 0.457270
0.428232 0.445399 0.460199
0.429528 0.448328 0.463128
0.430825 0.451257 0.466057
0.432121 0.454187 0.468987
0.433417 0.457116 0.471916
0.434714 0.460045 0.474845
0.436010 0.462974 0.477774
0.437307 0.465904 0.480704
0.438603 0.468833 0.483633
0.439900 0.471762 0.486562
0.441196 0.474691 0.489491
0.442493 0.477621 0.492421
0.443789 0.480550 0.495350
0.445085 0.483479 0.498279
0.446382 0.486408 0.501208
0.447678 0.489338 0.504138
0.432686 0.446588 0.463020
0.433982 0.449517 0.465950
0.435279 0.452446 0.468879
0.436575 0.455375 0.471808
0.437872 0.458305 0.474737
0.439168 0.461234 0.477667
0.440465 0.464163 0.480596
0.441761 0.467092 0.483525
0.443058 0.470022 0.486454
0.444354 0.472951 0.489384
0.445650 0.475880 0.492313
0.446947 0.478809 0.495242
0.448243 0.481739 0.498171
0.449540 0.484668 0.501101
0.450836 0.487597 0.504030
0.452133 0.490526 0.506959
0.453429 0.493456 0.509888
0.438437 0.450705 0.468771
0.439733 0.453635 0.471700
0.441030 0.456564 0.474630
0.442326 0.459493 0.477559
0.443622 0.462422 0.480488
0.444919 0.465352 0.483417
0.446215 0.468281 0.486347
0.447512 0.471210 0.489276
0.448808 0.474140 0.492205
0.450105 0.477069 0.495134
0.451401 0.479998 0.498064
0.452698 0.482927 0.500993
0.453994 0.485857 0.503922
0.455291 0.488786 0.506851
0.456587 0.491715 0.509781
0.457883 0.494644 0.512710
0.459180 0.497574 0.515639
0.444187 0.454823 0.474522
0.445484 0.457753 0.477451
0.446780 0.460682 0.480380
0.448077 0.463611 0.483310
0.449373 0.466540 0.486239
0.450670 0.469470 0.489168
0.451966 0.472399 0.492097
0.453263 0.475328 0.495027
0.454559 0.478257 0.497956
0.455855 0.481187 0.500885
0.457152 0.484116 0.503814
0.458448 0.487045 0.506744
0.459745 0.489974 0.509673
0.461041 0.492904 0.512602
0.462338 0.495833 0.515531
0.463634 0.498762 0.518461
0.464931 0.501691 0.521390
0.449938 0.458941 0.480273
0.451235 0.461871 0.483202
0.452531 0.464800 0.486131
0.453828 0.467729 0.489060
0.455124 0.470658 0.491990
0.456420 0.473588 0.494919
0.457717 0.476517 0.497848
0.459013 0.479446 0.500777
0.460310 0.482375 0.503707
0.461606 0.485305 0.506636
0.462903 0.488234 0.509565
0.464199 0.491163 0.512494
0.465496 0.494092 0.515424
0.466792 0.497022 0.518353
0.468088 0.499951 0.521282
0.469385 0.502880 0.524211
0.470681 0.505809 0.527141
0.455689 0.463059 0.486023
0.456985 0.465989 0.488953
0.458282 0.468918 0.491882
0.459578 0.471847 0.494811
0.460875 0.474776 0.497740
0.462171 0.477706 0.500670
0.463468 0.480635 0.503599
0.464764 0.483564 0.506528
0.466061 0.486493 0.509457
0.467357 0.489423 0.512387
0.468653 0.492352 0.515316
0.469950 0.495281 0.518245
0.471246 0.498210 0.521174
0.472543 0.501140 0.524104
0.473839 0.504069 0.527033
0.475136 0.506998 0.529962
0.476432 0.509927 0.532891
0.461440 0.467177 0.491774
0.462736 0.470106 0.494703
0.464033 0.473036 0.497633
0.465329 0.475965 0.500562
0.466625 0.478894 0.503491
0.467922 0.481823 0.506420
0.469218 0.484753 0.509350
0.470515 0.487682 0.512279
0.471811 0.490611 0.515208
0.473108 0.493541 0.518137
0.474404 0.496470 0.521067
0.475701 0.499399 0.523996
0.476997 0.502328 0.526925
0.478294 0.505258 0.529854
0.479590 0.508187 0.532784
0.480886 0.511116 0.535713
0.482183 0.514045 0.538642
0.467190 0.471295 0.497525
0.468487 0.474224 0.500454
0.469783 0.477154 0.503383
0.471080 0.480083 0.506313
0.472376 0.483012 0.509242
0.473673 0.485941 0.512171
0.474969 0.488871 0.515100
0.476266 0.491800 0.518030
0.477562 0.494729 0.520959
0.478858 0.497658 0.523888
0.480155 0.500588 0.526817
0.481451 0.503517 0.529747
0.482748 0.506446 0.532676
0.484044 0.509375 0.535605
0.485341 0.512305 0.538534
0.486637 0.515234 0.541464
0.487934 0.518163 0.544393
0.472941 0.475413 0.503276
0.474238 0.478342 0.506205
0.475534 0.481272 0.509134
0.476831 0.484201 0.512063
0.478127 0.487130 0.514993
0.479423 0.490059 0.517922
0.480720 0.492989 0.520851
0.482016 0.495918 0.523780
0.483313 0.498847 0.526710
0.484609 0.501776 0.529639
0.485906 0.504706 0.532568
0.487202 0.507635 0.535497
0.488499 0.510564 0.538427
0.489795 0.513493 0.541356
0.491091 0.516423 0.544285
0.492388 0.519352 0.547214
0.493684 0.522281 0.550144
0.478692 0.479531 0.509026
0.479988 0.482460 0.511956
0.481285 0.485390 0.514885
0.482581 0.488319 0.517814
0.483878 0.491248 0.520743
0.485174 0.494177 0.523673
0.486471 0.497107 0.526602
0.487767 0.500036 0.529531
0.489064 0.502965 0.532460
0.490360 0.505894 0.535390
0.491656 0.508824 0.538319
0.492953 0.511753 0.541248
0.494249 0.514682 0.544177
0.495546 0.517611 0.547107
0.496842 0.520541 0.550036
0.498139 0.523470 0.552965
0.499435 0.526399 0.555894
0.484443 0.483649 0.514777
0.485739 0.486578 0.517706
0.487036 0.489507 0.520636
0.488332 0.492437 0.523565
0.489628 0.495366 0.526494
0.490925 0.498295 0.529423
0.492221 0.501225 0.532353
0.493518 0.504154 0.535282
0.494814 0.507083 0.538211
0.496111 0.510012 0.541140
0.497407 0.512942 0.544070
0.498704 0.515871 0.546999
0.500000 0.518800 0.549928
0.501297 0.521729 0.552857
0.502593 0.524659 0.555787
0.503889 0.527588 0.558716
0.505186 0.530517 0.561645
0.490193 0.487767 0.520528
0.491490 0.490696 0.523457
0.492786 0.493625 0.526386
0.494083 0.496555 0.529316
0.495379 0.499484 0.532245
0.496676 0.502413 0.535174
0.497972 0.505342 0.538103
0.499269 0.508272 0.541033
0.500565 0.511201 0.543962
0.501861 0.514130 0.546891
0.503158 0.517059 0.549820
0.504454 0.519989 0.552750
0.505751 0.522918 0.555679
0.507047 0.525847 0.558608
0.508344 0.528777 0.561537
0.509640 0.531706 0.564467
0.510937 0.534635 0.567396
0.495944 0.491885 0.526279
0.497241 0.494814 0.529208
0.498537 0.497743 0.532137
0.499834 0.500673 0.535066
0.501130 0.503602 0.537996
0.502426 0.506531 0.540925
0.503723 0.509460 0.543854
0.505019 0.512390 0.546783
0.506316 0.515319 0.549713
0.507612 0.518248 0.552642
0.508909 0.521177 0.555571
0.510205 0.524107 0.558500
0.511502 0.527036 0.561430
0.512798 0.529965 0.564359
0.514094 0.532894 0.567288
0.515391 0.535824 0.570217
0.516687 0.538753 0.573147
0.501695 0.496003 0.532029
0.502991 0.498932 0.534959
0.504288 0.501861 0.537888
0.505584 0.504791 0.540817
0.506881 0.507720 0.543746
0.508177 0.510649 0.546676
0.509474 0.513578 0.549605
0.510770 0.516508 0.552534
0.512067 0.519437 0.555463
0.513363 0.522366 0.558393
0.514659 0.525295 0.561322
0.515956 0.528225 0.564251
0.517252 0.531154 0.567180
0.518549 0.534083 0.570110
0.519845 0.537012 0.573039
0.521142 0.539942 0.575968
0.522438 0.542871 0.578897
0.507446 0.500121 0.537780
0.508742 0.503050 0.540709
0.510039 0.505979 0.543639
0.511335 0.508909 0.546568
0.512631 0.511838 0.549497
0.513928 0.514767 0.552426
0.515224 0.517696 0.555356
0.516521 0.520626 0.558285
0.517817 0.523555 0.561214
0.519114 0.526484 0.564143
0.520410 0.529413 0.567073
0.521707 0.532343 0.570002
0.523003 0.535272 0.572931
0.524300 0.538201 0.575860
0.525596 0.541130 0.578790
0.526892 0.544060 0.581719
0.528189 0.546989 0.584648
0.416551 0.435351 0.445252
0.417847 0.438280 0.448181
0.419143 0.441209 0.451111
0.420440 0.444138 0.454040
0.421736 0.447068 0.456969
0.423033 0.449997 0.459898
0.424329 0.452926 0.462828
0.425626 0.455855 0.465757
0.426922 0.458785 0.468686
0.428219 0.461714 0.471615
0.429515 0.464643 0.474545
0.430811 0.467572 0.477474
0.432108 0.470502 0.480403
0.433404 0.473431 0.483332
0.434701 0.476360 0.486262
0.435997 0.479289 0.489191
0.437294 0.482219 0.492120
0.422301 0.439468 0.451003
