shared/src/main/assets/luts/drama_southern_analog.cube
TITLE "DALUR Southern Analog"
LUT_3D_SIZE 9
DOMAIN_MIN 0.0 0.0 0.0
DOMAIN_MAX 1.0 1.0 1.0
0.472000 0.461000 0.448000
0.474639 0.464139 0.451139
0.477279 0.467279 0.454279
0.479918 0.470418 0.457418
0.482558 0.473558 0.460558
0.485197 0.476697 0.463697
0.487837 0.479837 0.466837
0.490476 0.482976 0.469976
0.493116 0.486116 0.473116
0.478163 0.466663 0.454163
0.480803 0.469803 0.457303
0.483442 0.472942 0.460442
0.486082 0.476082 0.463582
0.488721 0.479221 0.466721
0.491361 0.482361 0.469861
0.494000 0.485500 0.473000
0.496640 0.488640 0.476140
0.499279 0.491779 0.479279
0.484327 0.472327 0.460327
0.486966 0.475466 0.463466
0.489606 0.478606 0.466606
0.492245 0.481745 0.469745
0.494885 0.484885 0.472885
0.497524 0.488024 0.476024
0.500164 0.491164 0.479164
0.502803 0.494303 0.482303
0.505443 0.497443 0.485443
0.490490 0.477990 0.466490
0.493130 0.481130 0.469630
0.495769 0.484269 0.472769
0.498409 0.487409 0.475909
0.501049 0.490548 0.479048
0.503688 0.493688 0.482188
0.506327 0.496827 0.485327
0.508967 0.499967 0.488467
0.511606 0.503107 0.491607
0.496654 0.483654 0.472654
0.499293 0.486793 0.475793
0.501933 0.489933 0.478933
0.504572 0.493073 0.482073
0.507212 0.496212 0.485212
0.509852 0.499352 0.488351
0.512491 0.502491 0.491491
0.515131 0.505630 0.494630
0.517770 0.508770 0.497770
0.502817 0.489317 0.478817
0.505457 0.492457 0.481957
0.508096 0.495596 0.485096
0.510736 0.498736 0.488236
0.513376 0.501876 0.491376
0.516015 0.505015 0.494515
0.518655 0.508155 0.497654
0.521294 0.511294 0.500794
0.523934 0.514433 0.503934
0.508981 0.494981 0.484981
0.511620 0.498120 0.488120
0.514260 0.501260 0.491260
0.516900 0.504400 0.494399
0.519539 0.507539 0.497539
0.522178 0.510679 0.500679
0.524818 0.513818 0.503818
0.527458 0.516957 0.506957
0.530097 0.520097 0.510097
0.515145 0.500645 0.491144
0.517784 0.503784 0.494284
0.520424 0.506923 0.497424
0.523063 0.510063 0.500563
0.525702 0.513203 0.503702
0.528342 0.516342 0.506842
0.530981 0.519482 0.509981
0.533621 0.522621 0.513121
0.536261 0.525760 0.516261
0.521308 0.506308 0.497308
0.523948 0.509448 0.500448
0.526587 0.512587 0.503587
0.529227 0.515726 0.506726
0.531866 0.518866 0.509866
0.534505 0.522006 0.513006
0.537145 0.525145 0.516145
0.539785 0.528284 0.519284
0.542424 0.531424 0.522424
0.473197 0.462197 0.448697
0.475836 0.465336 0.451836
0.478476 0.468476 0.454976
0.481115 0.471615 0.458115
0.483755 0.474755 0.461255
0.486394 0.477894 0.464394
0.489034 0.481034 0.467534
0.491673 0.484173 0.470673
0.494313 0.487313 0.473813
0.479360 0.467860 0.454860
0.482000 0.471000 0.458000
0.484640 0.474139 0.461139
0.487279 0.477279 0.464279
0.489918 0.480418 0.467418
0.492558 0.483558 0.470558
0.495198 0.486698 0.473697
0.497837 0.489837 0.476837
0.500476 0.492976 0.479976
0.485524 0.473524 0.461024
0.488163 0.476663 0.464163
0.490803 0.479803 0.467303
0.493442 0.482942 0.470442
0.496082 0.486082 0.473582
0.498721 0.489221 0.476721
0.501361 0.492361 0.479861
0.504000 0.495500 0.483000
0.506640 0.498640 0.486140
0.491687 0.479187 0.467187
0.494327 0.482327 0.470327
0.496966 0.485467 0.473467
0.499606 0.488606 0.476606
0.502246 0.491746 0.479746
0.504885 0.494885 0.482885
0.507525 0.498025 0.486025
0.510164 0.501164 0.489164
0.512803 0.504303 0.492303
0.497851 0.484851 0.473351
0.500490 0.487990 0.476490
0.503130 0.491130 0.479630
0.505769 0.494270 0.482770
0.508409 0.497409 0.485909
0.511049 0.500548 0.489048
0.513688 0.503688 0.492188
0.516327 0.506827 0.495327
0.518967 0.509967 0.498467
0.504014 0.490514 0.479514
0.506654 0.493654 0.482654
0.509293 0.496793 0.485793
0.511933 0.499933 0.488933
0.514572 0.503072 0.492072
0.517212 0.506212 0.495212
0.519851 0.509351 0.498351
0.522491 0.512491 0.501491
0.525130 0.515630 0.504630
0.510178 0.496178 0.485678
0.512818 0.499318 0.488818
0.515457 0.502457 0.491957
0.518096 0.505596 0.495096
0.520736 0.508736 0.498236
0.523375 0.511875 0.501375
0.526015 0.515015 0.504515
0.528655 0.518155 0.507655
0.531294 0.521294 0.510794
0.516342 0.501841 0.491841
0.518981 0.504981 0.494981
0.521620 0.508120 0.498120
0.524260 0.511260 0.501260
0.526899 0.514399 0.504399
0.529539 0.517539 0.507539
0.532178 0.520679 0.510679
0.534818 0.523818 0.513818
0.537458 0.526957 0.516957
0.522505 0.507505 0.498005
0.525144 0.510644 0.501144
0.527784 0.513784 0.504284
0.530423 0.516923 0.507423
0.533063 0.520063 0.510563
0.535702 0.523202 0.513702
0.538342 0.526342 0.516842
0.540982 0.529482 0.519981
0.543621 0.532621 0.523121
0.474394 0.463394 0.449394
0.477033 0.466533 0.452533
0.479673 0.469673 0.455673
0.482312 0.472812 0.458812
0.484952 0.475952 0.461952
0.487591 0.479091 0.465091
0.490231 0.482231 0.468231
0.492870 0.485370 0.471370
0.495510 0.488510 0.474510
0.480557 0.469057 0.455557
0.483197 0.472197 0.458697
0.485836 0.475336 0.461836
0.488476 0.478476 0.464976
0.491115 0.481615 0.468115
0.493755 0.484755 0.471255
0.496394 0.487894 0.474394
0.499034 0.491034 0.477534
0.501673 0.494173 0.480673
0.486721 0.474721 0.461721
0.489360 0.477860 0.464860
0.492000 0.481000 0.468000
0.494639 0.484139 0.471139
0.497279 0.487279 0.474279
0.499918 0.490418 0.477418
0.502558 0.493558 0.480558
0.505197 0.496697 0.483697
0.507837 0.499837 0.486837
0.492885 0.480384 0.467884
0.495524 0.483524 0.471024
0.498163 0.486663 0.474163
0.500803 0.489803 0.477303
0.503443 0.492943 0.480442
0.506082 0.496082 0.483582
0.508721 0.499221 0.486721
0.511361 0.502361 0.489861
0.514000 0.505501 0.493000
0.499048 0.486048 0.474048
0.501687 0.489187 0.477187
0.504327 0.492327 0.480327
0.506966 0.495467 0.483467
0.509606 0.498606 0.486606
0.512246 0.501745 0.489745
0.514885 0.504885 0.492885
0.517524 0.508024 0.496024
0.520164 0.511164 0.499164
0.505211 0.491711 0.480211
0.507851 0.494851 0.483351
0.510490 0.497990 0.486490
0.513130 0.501130 0.489630
0.515769 0.504270 0.492769
0.518409 0.507409 0.495909
0.521049 0.510548 0.499049
0.523688 0.513688 0.502188
0.526327 0.516827 0.505327
0.511375 0.497375 0.486375
0.514015 0.500514 0.489514
0.516654 0.503654 0.492654
0.519293 0.506794 0.495793
0.521933 0.509933 0.498933
0.524572 0.513072 0.502072
0.527212 0.516212 0.505212
0.529852 0.519352 0.508352
0.532491 0.522491 0.511491
0.517539 0.503038 0.492538
0.520178 0.506178 0.495678
0.522817 0.509317 0.498817
0.525457 0.512457 0.501957
0.528096 0.515596 0.505096
0.530736 0.518736 0.508236
0.533376 0.521876 0.511376
0.536015 0.525015 0.514515
0.538655 0.528155 0.517655
0.523702 0.508702 0.498702
0.526342 0.511841 0.501841
0.528981 0.514981 0.504981
0.531620 0.518120 0.508120
0.534260 0.521260 0.511260
0.536899 0.524399 0.514399
0.539539 0.527539 0.517539
0.542179 0.530679 0.520679
0.544818 0.533818 0.523818
0.475591 0.464591 0.450091
0.478231 0.467730 0.453230
0.480870 0.470870 0.456370
0.483509 0.474009 0.459509
0.486149 0.477149 0.462649
0.488788 0.480288 0.465788
0.491428 0.483428 0.468928
0.494067 0.486567 0.472067
0.496707 0.489707 0.475207
0.481754 0.470254 0.456254
0.484394 0.473394 0.459394
0.487034 0.476533 0.462533
0.489673 0.479673 0.465673
0.492312 0.482812 0.468812
0.494952 0.485952 0.471952
0.497592 0.489092 0.475091
0.500231 0.492231 0.478231
0.502870 0.495370 0.481370
0.487918 0.475918 0.462418
0.490557 0.479057 0.465557
0.493197 0.482197 0.468697
0.495836 0.485336 0.471836
0.498476 0.488476 0.474976
0.501115 0.491615 0.478115
0.503755 0.494755 0.481255
0.506394 0.497894 0.484394
0.509034 0.501034 0.487534
0.494082 0.481581 0.468581
0.496721 0.484721 0.471721
0.499360 0.487860 0.474860
0.502000 0.491000 0.478000
0.504640 0.494140 0.481140
0.507279 0.497279 0.484279
0.509919 0.500418 0.487419
0.512558 0.503558 0.490558
0.515197 0.506698 0.493698
0.500245 0.487245 0.474745
0.502884 0.490385 0.477884
0.505524 0.493524 0.481024
0.508163 0.496664 0.484164
0.510803 0.499803 0.487303
0.513443 0.502943 0.490443
0.516082 0.506082 0.493582
0.518722 0.509221 0.496722
0.521361 0.512361 0.499861
0.506408 0.492908 0.480908
0.509048 0.496048 0.484048
0.511687 0.499187 0.487187
0.514327 0.502327 0.490327
0.516966 0.505467 0.493467
0.519606 0.508606 0.496606
0.522246 0.511745 0.499745
0.524885 0.514885 0.502885
0.527524 0.518024 0.506024
0.512572 0.498572 0.487072
0.515212 0.501711 0.490212
0.517851 0.504851 0.493351
0.520490 0.507991 0.496490
0.523130 0.511130 0.499630
0.525770 0.514270 0.502769
0.528409 0.517409 0.505909
0.531049 0.520548 0.509049
0.533688 0.523688 0.512188
0.518736 0.504236 0.493236
0.521375 0.507375 0.496375
0.524015 0.510514 0.499514
0.526654 0.513654 0.502654
0.529293 0.516794 0.505794
0.531933 0.519933 0.508933
0.534573 0.523072 0.512072
0.537212 0.526212 0.515212
0.539851 0.529351 0.518351
0.524899 0.509899 0.499399
0.527539 0.513038 0.502538
0.530178 0.516178 0.505678
0.532817 0.519317 0.508817
0.535457 0.522457 0.511957
0.538096 0.525596 0.515096
0.540736 0.528736 0.518236
0.543376 0.531875 0.521375
0.546015 0.535015 0.524515
0.476788 0.465788 0.450788
0.479427 0.468927 0.453927
0.482067 0.472067 0.457067
0.484706 0.475206 0.460206
0.487346 0.478346 0.463346
0.489985 0.481485 0.466485
0.492625 0.484625 0.469625
0.495264 0.487764 0.472764
0.497904 0.490904 0.475904
0.482951 0.471451 0.456951
0.485591 0.474591 0.460091
0.488230 0.477730 0.463230
0.490870 0.480870 0.466370
0.493509 0.484009 0.469509
0.496149 0.487149 0.472649
0.498788 0.490288 0.475788
0.501428 0.493428 0.478928
0.504067 0.496567 0.482067
0.489115 0.477115 0.463115
0.491754 0.480254 0.466254
0.494394 0.483394 0.469394
0.497033 0.486533 0.472533
0.499673 0.489673 0.475673
0.502312 0.492812 0.478812
0.504952 0.495952 0.481952
0.507591 0.499091 0.485091
0.510231 0.502231 0.488231
0.495279 0.482778 0.469278
0.497918 0.485918 0.472418
0.500557 0.489057 0.475557
0.503197 0.492197 0.478697
0.505837 0.495337 0.481837
0.508476 0.498476 0.484976
0.511116 0.501616 0.488116
0.513755 0.504755 0.491255
0.516395 0.507895 0.494395
0.501442 0.488442 0.475442
0.504081 0.491581 0.478581
0.506721 0.494721 0.481721
0.509360 0.497860 0.484860
0.512000 0.501000 0.488000
0.514640 0.504140 0.491140
0.517279 0.507279 0.494279
0.519919 0.510418 0.497418
0.522558 0.513558 0.500558
0.507605 0.494105 0.481605
0.510245 0.497245 0.484745
0.512884 0.500384 0.487884
0.515524 0.503524 0.491024
0.518163 0.506664 0.494163
0.520803 0.509803 0.497303
0.523443 0.512943 0.500443
0.526082 0.516082 0.503582
0.528722 0.519222 0.506722
0.513769 0.499769 0.487769
0.516409 0.502909 0.490909
0.519048 0.506048 0.494048
0.521688 0.509188 0.497188
0.524327 0.512327 0.500327
0.526967 0.515467 0.503467
0.529606 0.518606 0.506606
0.532246 0.521745 0.509745
0.534885 0.524885 0.512885
0.519933 0.505433 0.493932
0.522572 0.508572 0.497072
0.525212 0.511711 0.500212
0.527851 0.514851 0.503351
0.530490 0.517991 0.506490
0.533130 0.521130 0.509630
0.535770 0.524270 0.512769
0.538409 0.527409 0.515909
0.541049 0.530548 0.519049
0.526096 0.511096 0.500096
0.528736 0.514236 0.503236
0.531375 0.517375 0.506375
0.534015 0.520514 0.509514
0.536654 0.523654 0.512654
0.539293 0.526794 0.515794
0.541933 0.529933 0.518933
0.544573 0.533072 0.522072
0.547212 0.536212 0.525212
0.477985 0.466985 0.451485
0.480625 0.470125 0.454624
0.483264 0.473264 0.457764
0.485903 0.476403 0.460903
0.488543 0.479543 0.464043
0.491182 0.482682 0.467182
0.493822 0.485822 0.470322
0.496462 0.488961 0.473461
0.499101 0.492101 0.476601
0.484148 0.472648 0.457648
0.486788 0.475788 0.460788
0.489427 0.478927 0.463927
0.492067 0.482067 0.467067
0.494706 0.485206 0.470206
0.497346 0.488346 0.473346
0.499986 0.491486 0.476486
0.502625 0.494625 0.479625
0.505265 0.497764 0.482764
0.490312 0.478312 0.463812
0.492951 0.481451 0.466951
0.495591 0.484591 0.470091
0.498230 0.487730 0.473230
0.500870 0.490870 0.476370
0.503509 0.494009 0.479509
0.506149 0.497149 0.482649
0.508788 0.500288 0.485788
0.511428 0.503428 0.488928
0.496476 0.483976 0.469975
0.499115 0.487115 0.473115
0.501754 0.490254 0.476254
0.504394 0.493394 0.479394
0.507034 0.496534 0.482534
0.509673 0.499673 0.485673
0.512312 0.502812 0.488812
0.514952 0.505952 0.491952
0.517591 0.509091 0.495091
0.502639 0.489639 0.476139
0.505278 0.492779 0.479278
0.507918 0.495918 0.482418
0.510557 0.499058 0.485558
0.513197 0.502197 0.488697
0.515837 0.505336 0.491837
0.518476 0.508476 0.494976
0.521115 0.511616 0.498115
0.523755 0.514755 0.501255
0.508802 0.495302 0.482302
0.511442 0.498442 0.485442
0.514081 0.501582 0.488582
0.516721 0.504721 0.491721
0.519361 0.507860 0.494860
0.522000 0.511000 0.498000
0.524639 0.514139 0.501139
0.527279 0.517279 0.504279
0.529918 0.520418 0.507418
0.514966 0.500966 0.488466
0.517605 0.504105 0.491605
0.520245 0.507245 0.494745
0.522884 0.510384 0.497884
0.525524 0.513524 0.501024
0.528163 0.516663 0.504163
0.530803 0.519803 0.507303
0.533443 0.522943 0.510443
0.536082 0.526082 0.513582
0.521130 0.506629 0.494629
0.523769 0.509769 0.497769
0.526408 0.512908 0.500908
0.529048 0.516048 0.504048
0.531687 0.519187 0.507187
0.534327 0.522327 0.510327
0.536967 0.525467 0.513467
0.539606 0.528606 0.516606
0.542246 0.531745 0.519745
0.527293 0.512293 0.500793
0.529932 0.515432 0.503932
0.532572 0.518572 0.507072
0.535211 0.521711 0.510211
0.537851 0.524851 0.513351
0.540490 0.527990 0.516490
0.543130 0.531130 0.519630
0.545770 0.534270 0.522769
0.548409 0.537409 0.525909
0.479182 0.468182 0.452182
0.481821 0.471321 0.455321
0.484461 0.474461 0.458461
0.487100 0.477600 0.461600
0.489740 0.480740 0.464740
0.492379 0.483879 0.467879
0.495019 0.487019 0.471019
0.497659 0.490158 0.474158
0.500298 0.493298 0.477298
0.485345 0.473845 0.458345
0.487985 0.476985 0.461485
0.490624 0.480124 0.464624
0.493264 0.483264 0.467764
0.495903 0.486403 0.470903
0.498543 0.489543 0.474043
0.501182 0.492682 0.477182
0.503822 0.495822 0.480322
0.506461 0.498961 0.483461
0.491509 0.479509 0.464509
0.494148 0.482648 0.467648
0.496788 0.485788 0.470788
0.499427 0.488927 0.473927
0.502067 0.492067 0.477067
0.504706 0.495206 0.480206
0.507346 0.498346 0.483346
0.509985 0.501485 0.486485
0.512625 0.504625 0.489625
0.497673 0.485173 0.470672
0.500312 0.488312 0.473812
0.502951 0.491451 0.476951
0.505591 0.494591 0.480091
0.508231 0.497731 0.483231
0.510870 0.500870 0.486370
0.513510 0.504009 0.489510
0.516149 0.507149 0.492649
0.518788 0.510289 0.495788
0.503836 0.490836 0.476836
0.506475 0.493975 0.479975
0.509115 0.497115 0.483115
0.511755 0.500254 0.486254
0.514394 0.503394 0.489394
0.517034 0.506533 0.492533
0.519673 0.509673 0.495673
0.522312 0.512813 0.498812
0.524952 0.515952 0.501952
0.509999 0.496499 0.482999
0.512639 0.499639 0.486139
0.515278 0.502779 0.489278
0.517918 0.505918 0.492418
0.520558 0.509057 0.495557
0.523197 0.512197 0.498697
0.525837 0.515336 0.501837
0.528476 0.518476 0.504976
0.531115 0.521616 0.508115
0.516163 0.502163 0.489163
0.518803 0.505302 0.492302
0.521442 0.508442 0.495442
0.524081 0.511582 0.498582
0.526721 0.514721 0.501721
0.529361 0.517860 0.504860
0.532000 0.521000 0.508000
0.534640 0.524140 0.511140
0.537279 0.527279 0.514279
0.522327 0.507826 0.495327
0.524966 0.510966 0.498466
0.527605 0.514105 0.501605
0.530245 0.517245 0.504745
0.532884 0.520384 0.507884
0.535524 0.523524 0.511024
0.538164 0.526664 0.514163
0.540803 0.529803 0.517303
0.543443 0.532943 0.520443
0.528490 0.513490 0.501490
0.531130 0.516629 0.504629
0.533769 0.519769 0.507769
0.536408 0.522908 0.510908
0.539048 0.526048 0.514048
0.541687 0.529187 0.517187
0.544327 0.532327 0.520327
0.546967 0.535467 0.523467
0.549606 0.538606 0.526606
0.480379 0.469379 0.452879
0.483019 0.472519 0.456018
0.485658 0.475658 0.459158
0.488297 0.478797 0.462297
0.490937 0.481937 0.465437
0.493576 0.485076 0.468576
0.496216 0.488216 0.471716
0.498856 0.491356 0.474855
0.501495 0.494495 0.477995
0.486542 0.475042 0.459042
0.489182 0.478182 0.462182
0.491821 0.481321 0.465321
0.494461 0.484461 0.468461
0.497100 0.487600 0.471600
0.499740 0.490740 0.474740
0.502379 0.493880 0.477880
0.505019 0.497019 0.481019
0.507659 0.500158 0.484158
0.492706 0.480706 0.465206
0.495345 0.483845 0.468345
0.497985 0.486985 0.471485
0.500624 0.490124 0.474624
0.503264 0.493264 0.477764
0.505903 0.496403 0.480903
0.508543 0.499543 0.484043
0.511182 0.502682 0.487182
0.513822 0.505822 0.490322
0.498870 0.486370 0.471369
0.501509 0.489509 0.474509
0.504148 0.492648 0.477648
0.506788 0.495788 0.480788
0.509428 0.498928 0.483928
0.512067 0.502067 0.487067
0.514707 0.505207 0.490206
0.517346 0.508346 0.493346
0.519985 0.511486 0.496486
0.505033 0.492033 0.477533
0.507672 0.495173 0.480673
0.510312 0.498312 0.483812
0.512952 0.501452 0.486952
0.515591 0.504591 0.490091
0.518231 0.507730 0.493231
0.520870 0.510870 0.496370
0.523510 0.514010 0.499510
0.526149 0.517149 0.502649
0.511196 0.497696 0.483696
0.513836 0.500836 0.486836
0.516475 0.503975 0.489975
0.519115 0.507115 0.493115
0.521755 0.510255 0.496255
0.524394 0.513394 0.499394
0.527034 0.516533 0.502533
0.529673 0.519673 0.505673
0.532312 0.522813 0.508813
0.517360 0.503360 0.489860
0.520000 0.506499 0.493000
0.522639 0.509639 0.496139
0.525278 0.512779 0.499278
0.527918 0.515918 0.502418
0.530558 0.519057 0.505557
0.533197 0.522197 0.508697
0.535837 0.525336 0.511837
0.538476 0.528476 0.514976
0.523524 0.509024 0.496024
0.526163 0.512163 0.499163
0.528803 0.515302 0.502302
0.531442 0.518442 0.505442
0.534081 0.521582 0.508582
0.536721 0.524721 0.511721
0.539361 0.527860 0.514860
0.542000 0.531000 0.518000
0.544639 0.534139 0.521139
0.529687 0.514687 0.502187
0.532327 0.517826 0.505327
0.534966 0.520966 0.508466
0.537605 0.524106 0.511605
0.540245 0.527245 0.514745
0.542884 0.530384 0.517884
0.545524 0.533524 0.521024
0.548163 0.536663 0.524163
0.550803 0.539803 0.527303
0.481576 0.470576 0.453576
0.484215 0.473715 0.456715
0.486855 0.476855 0.459855
0.489494 0.479994 0.462994
0.492134 0.483134 0.466134
0.494773 0.486273 0.469273
0.497413 0.489413 0.472413
0.500053 0.492553 0.475552
0.502692 0.495692 0.478692
0.487739 0.476239 0.459739
0.490379 0.479379 0.462879
0.493018 0.482518 0.466018
0.495658 0.485658 0.469158
0.498297 0.488797 0.472297
0.500937 0.491937 0.475437
0.503576 0.495076 0.478576
0.506216 0.498216 0.481716
0.508855 0.501355 0.484855
0.493903 0.481903 0.465903
0.496542 0.485042 0.469042
0.499182 0.488182 0.472182
0.501821 0.491321 0.475321
0.504461 0.494461 0.478461
0.507100 0.497600 0.481600
0.509740 0.500740 0.484740
0.512379 0.503879 0.487879
0.515019 0.507019 0.491019
0.500066 0.487567 0.472067
0.502706 0.490706 0.475206
0.505346 0.493845 0.478345
0.507985 0.496985 0.481485
0.510625 0.500124 0.484625
0.513264 0.503264 0.487764
0.515903 0.506403 0.490903
0.518543 0.509543 0.494043
0.521183 0.512683 0.497183
0.506230 0.493230 0.478230
0.508869 0.496369 0.481369
0.511509 0.499509 0.484509
0.514149 0.502649 0.487649
0.516788 0.505788 0.490788
0.519427 0.508927 0.493927
0.522067 0.512067 0.497067
0.524707 0.515207 0.500206
0.527346 0.518346 0.503346
0.512393 0.498893 0.484393
0.515033 0.502033 0.487533
0.517672 0.505172 0.490672
0.520312 0.508312 0.493812
0.522951 0.511451 0.496951
0.525591 0.514591 0.500091
0.528231 0.517730 0.503231
0.530870 0.520870 0.506370
0.533509 0.524009 0.509509
0.518557 0.504557 0.490557
0.521197 0.507697 0.493697
0.523836 0.510836 0.496836
0.526475 0.513975 0.499975
0.529115 0.517115 0.503115
0.531755 0.520255 0.506255
0.534394 0.523394 0.509394
0.537034 0.526533 0.512533
0.539673 0.529673 0.515673
0.524721 0.510221 0.496721
0.527360 0.513360 0.499860
0.529999 0.516499 0.502999
0.532639 0.519639 0.506139
0.535278 0.522779 0.509278
0.537918 0.525918 0.512418
0.540558 0.529057 0.515558
0.543197 0.532197 0.518697
0.545837 0.535336 0.521837
0.530884 0.515884 0.502884
0.533523 0.519023 0.506023
0.536163 0.522163 0.509163
0.538803 0.525303 0.512302
0.541442 0.528442 0.515442
0.544081 0.531581 0.518581
0.546721 0.534721 0.521721
0.549361 0.537860 0.524860
0.552000 0.541000 0.528000
