shared/src/main/assets/luts/drama_plastic_primary.cube
TITLE "DALUR Plastic Primary"
LUT_3D_SIZE 17
DOMAIN_MIN 0.0 0.0 0.0
DOMAIN_MAX 1.0 1.0 1.0
0.420000 0.418000 0.420000
0.425875 0.419819 0.421819
0.431750 0.421638 0.423638
0.437625 0.423457 0.425457
0.443500 0.425276 0.427276
0.449374 0.427095 0.429095
0.455249 0.428914 0.430914
0.461124 0.430733 0.432733
0.466999 0.432552 0.434552
0.472874 0.434371 0.436371
0.478749 0.436190 0.438190
0.484624 0.438009 0.440009
0.490499 0.439829 0.441829
0.496373 0.441648 0.443648
0.502248 0.443467 0.445467
0.508123 0.445286 0.447286
0.513998 0.447105 0.449105
0.423571 0.425627 0.423571
0.429446 0.427446 0.425390
0.435321 0.429265 0.427209
0.441196 0.431084 0.429028
0.447071 0.432903 0.430847
0.452946 0.434722 0.432666
0.458820 0.436541 0.434485
0.464695 0.438360 0.436304
0.470570 0.440179 0.438124
0.476445 0.441998 0.439943
0.482320 0.443817 0.441762
0.488195 0.445636 0.443581
0.494070 0.447456 0.445400
0.499945 0.449275 0.447219
0.505820 0.451094 0.449038
0.511694 0.452913 0.450857
0.517569 0.454732 0.452676
0.427142 0.433254 0.427142
0.433017 0.435073 0.428961
0.438892 0.436892 0.430780
0.444767 0.438711 0.432599
0.450642 0.440530 0.434419
0.456517 0.442349 0.436238
0.462392 0.444168 0.438057
0.468266 0.445987 0.439876
0.474141 0.447806 0.441695
0.480016 0.449625 0.443514
0.485891 0.451444 0.445333
0.491766 0.453263 0.447152
0.497641 0.455083 0.448971
0.503516 0.456902 0.450790
0.509391 0.458721 0.452609
0.515266 0.460540 0.454428
0.521140 0.462359 0.456247
0.430713 0.440881 0.430713
0.436588 0.442700 0.432533
0.442463 0.444519 0.434352
0.448338 0.446338 0.436171
0.454213 0.448157 0.437990
0.460088 0.449976 0.439809
0.465963 0.451795 0.441628
0.471838 0.453614 0.443447
0.477713 0.455433 0.445266
0.483587 0.457252 0.447085
0.489462 0.459071 0.448904
0.495337 0.460890 0.450723
0.501212 0.462710 0.452542
0.507087 0.464529 0.454361
0.512962 0.466348 0.456180
0.518837 0.468167 0.457999
0.524712 0.469986 0.459818
0.434285 0.448508 0.434285
0.440160 0.450327 0.436104
0.446034 0.452146 0.437923
0.451909 0.453965 0.439742
0.457784 0.455784 0.441561
0.463659 0.457603 0.443380
0.469534 0.459422 0.445199
0.475409 0.461241 0.447018
0.481284 0.463060 0.448837
0.487159 0.464879 0.450656
0.493033 0.466698 0.452475
0.498908 0.468517 0.454294
0.504783 0.470337 0.456113
0.510658 0.472156 0.457932
0.516533 0.473975 0.459751
0.522408 0.475794 0.461570
0.528283 0.477613 0.463389
0.437856 0.456135 0.437856
0.443731 0.457954 0.439675
0.449606 0.459773 0.441494
0.455480 0.461592 0.443313
0.461355 0.463411 0.445132
0.467230 0.465230 0.446951
0.473105 0.467049 0.448770
0.478980 0.468868 0.450589
0.484855 0.470687 0.452408
0.490730 0.472506 0.454227
0.496605 0.474325 0.456046
0.502480 0.476144 0.457865
0.508354 0.477964 0.459684
0.514229 0.479783 0.461503
0.520104 0.481602 0.463322
0.525979 0.483421 0.465141
0.531854 0.485240 0.466961
0.441427 0.463762 0.441427
0.447302 0.465581 0.443246
0.453177 0.467400 0.445065
0.459052 0.469219 0.446884
0.464927 0.471038 0.448703
0.470801 0.472857 0.450522
0.476676 0.474676 0.452341
0.482551 0.476495 0.454160
0.488426 0.478314 0.455979
0.494301 0.480133 0.457798
0.500176 0.481952 0.459617
0.506051 0.483771 0.461436
0.511926 0.485591 0.463256
0.517800 0.487410 0.465075
0.523675 0.489229 0.466894
0.529550 0.491048 0.468713
0.535425 0.492867 0.470532
0.444998 0.471389 0.444998
0.450873 0.473208 0.446817
0.456748 0.475027 0.448636
0.462623 0.476846 0.450455
0.468498 0.478665 0.452274
0.474373 0.480484 0.454093
0.480247 0.482303 0.455912
0.486122 0.484122 0.457731
0.491997 0.485941 0.459551
0.497872 0.487760 0.461370
0.503747 0.489579 0.463189
0.509622 0.491398 0.465008
0.515497 0.493218 0.466827
0.521372 0.495037 0.468646
0.527246 0.496856 0.470465
0.533121 0.498675 0.472284
0.538996 0.500494 0.474103
0.448569 0.479016 0.448569
0.454444 0.480835 0.450388
0.460319 0.482654 0.452207
0.466194 0.484473 0.454026
0.472069 0.486292 0.455845
0.477944 0.488111 0.457665
0.483819 0.489930 0.459484
0.489693 0.491749 0.461303
0.495568 0.493568 0.463122
0.501443 0.495387 0.464941
0.507318 0.497206 0.466760
0.513193 0.499026 0.468579
0.519068 0.500845 0.470398
0.524943 0.502664 0.472217
0.530818 0.504483 0.474036
0.536693 0.506302 0.475855
0.542567 0.508121 0.477674
0.452140 0.486643 0.452140
0.458015 0.488462 0.453960
0.463890 0.490281 0.455779
0.469765 0.492100 0.457598
0.475640 0.493919 0.459417
0.481515 0.495738 0.461236
0.487390 0.497557 0.463055
0.493265 0.499376 0.464874
0.499140 0.501195 0.466693
0.505014 0.503014 0.468512
0.510889 0.504833 0.470331
0.516764 0.506653 0.472150
0.522639 0.508472 0.473969
0.528514 0.510291 0.475788
0.534389 0.512110 0.477607
0.540264 0.513929 0.479426
0.546139 0.515748 0.481245
0.455712 0.494270 0.455712
0.461587 0.496089 0.457531
0.467461 0.497908 0.459350
0.473336 0.499727 0.461169
0.479211 0.501546 0.462988
0.485086 0.503365 0.464807
0.490961 0.505184 0.466626
0.496836 0.507003 0.468445
0.502711 0.508822 0.470264
0.508586 0.510641 0.472083
0.514460 0.512460 0.473902
0.520335 0.514280 0.475721
0.526210 0.516099 0.477540
0.532085 0.517918 0.479359
0.537960 0.519737 0.481178
0.543835 0.521556 0.482997
0.549710 0.523375 0.484816
0.459283 0.501897 0.459283
0.465158 0.503716 0.461102
0.471033 0.505535 0.462921
0.476907 0.507354 0.464740
0.482782 0.509173 0.466559
0.488657 0.510992 0.468378
0.494532 0.512811 0.470197
0.500407 0.514630 0.472016
0.506282 0.516449 0.473835
0.512157 0.518268 0.475654
0.518032 0.520087 0.477473
0.523907 0.521907 0.479292
0.529781 0.523726 0.481111
0.535656 0.525545 0.482930
0.541531 0.527364 0.484749
0.547406 0.529183 0.486568
0.553281 0.531002 0.488388
0.462854 0.509524 0.462854
0.468729 0.511343 0.464673
0.474604 0.513162 0.466492
0.480479 0.514981 0.468311
0.486354 0.516800 0.470130
0.492228 0.518619 0.471949
0.498103 0.520438 0.473768
0.503978 0.522257 0.475587
0.509853 0.524076 0.477406
0.515728 0.525895 0.479225
0.521603 0.527714 0.481044
0.527478 0.529534 0.482863
0.533353 0.531353 0.484683
0.539227 0.533172 0.486502
0.545102 0.534991 0.488321
0.550977 0.536810 0.490140
0.556852 0.538629 0.491959
0.466425 0.517151 0.466425
0.472300 0.518970 0.468244
0.478175 0.520789 0.470063
0.484050 0.522608 0.471882
0.489925 0.524427 0.473701
0.495800 0.526246 0.475520
0.501674 0.528065 0.477339
0.507549 0.529884 0.479158
0.513424 0.531703 0.480977
0.519299 0.533522 0.482797
0.525174 0.535341 0.484616
0.531049 0.537161 0.486435
0.536924 0.538980 0.488254
0.542799 0.540799 0.490073
0.548673 0.542618 0.491892
0.554548 0.544437 0.493711
0.560423 0.546256 0.495530
0.469996 0.524778 0.469996
0.475871 0.526597 0.471815
0.481746 0.528416 0.473634
0.487621 0.530235 0.475453
0.493496 0.532054 0.477272
0.499371 0.533873 0.479092
0.505246 0.535692 0.480911
0.511120 0.537511 0.482730
0.516995 0.539330 0.484549
0.522870 0.541149 0.486368
0.528745 0.542968 0.488187
0.534620 0.544788 0.490006
0.540495 0.546607 0.491825
0.546370 0.548426 0.493644
0.552245 0.550245 0.495463
0.558120 0.552064 0.497282
0.563994 0.553883 0.499101
0.473567 0.532405 0.473567
0.479442 0.534224 0.475387
0.485317 0.536043 0.477206
0.491192 0.537862 0.479025
0.497067 0.539681 0.480844
0.502942 0.541500 0.482663
0.508817 0.543319 0.484482
0.514692 0.545138 0.486301
0.520567 0.546957 0.488120
0.526441 0.548776 0.489939
0.532316 0.550595 0.491758
0.538191 0.552415 0.493577
0.544066 0.554234 0.495396
0.549941 0.556053 0.497215
0.555816 0.557872 0.499034
0.561691 0.559691 0.500853
0.567566 0.561510 0.502672
0.477139 0.540032 0.477139
0.483014 0.541851 0.478958
0.488888 0.543670 0.480777
0.494763 0.545489 0.482596
0.500638 0.547308 0.484415
0.506513 0.549127 0.486234
0.512388 0.550946 0.488053
0.518263 0.552765 0.489872
0.524138 0.554584 0.491691
0.530013 0.556403 0.493510
0.535887 0.558222 0.495329
0.541762 0.560042 0.497148
0.547637 0.561861 0.498967
0.553512 0.563680 0.500786
0.559387 0.565499 0.502605
0.565262 0.567318 0.504424
0.571137 0.569137 0.506243
0.420694 0.418694 0.424749
0.426568 0.420513 0.426568
0.432443 0.422332 0.428387
0.438318 0.424151 0.430207
0.444193 0.425970 0.432026
0.450068 0.427789 0.433845
0.455943 0.429608 0.435664
0.461818 0.431427 0.437483
0.467693 0.433246 0.439302
0.473567 0.435065 0.441121
0.479442 0.436884 0.442940
0.485317 0.438703 0.444759
0.491192 0.440522 0.446578
0.497067 0.442341 0.448397
0.502942 0.444160 0.450216
0.508817 0.445979 0.452035
0.514692 0.447798 0.453854
0.424265 0.426321 0.428321
0.430140 0.428140 0.430140
0.436014 0.429959 0.431959
0.441889 0.431778 0.433778
0.447764 0.433597 0.435597
0.453639 0.435416 0.437416
0.459514 0.437235 0.439235
0.465389 0.439054 0.441054
0.471264 0.440873 0.442873
0.477139 0.442692 0.444692
0.483014 0.444511 0.446511
0.488888 0.446330 0.448330
0.494763 0.448149 0.450149
0.500638 0.449968 0.451968
0.506513 0.451787 0.453787
0.512388 0.453606 0.455606
0.518263 0.455425 0.457425
0.427836 0.433948 0.431892
0.433711 0.435767 0.433711
0.439586 0.437586 0.435530
0.445461 0.439405 0.437349
0.451335 0.441224 0.439168
0.457210 0.443043 0.440987
0.463085 0.444862 0.442806
0.468960 0.446681 0.444625
0.474835 0.448500 0.446444
0.480710 0.450319 0.448263
0.486585 0.452138 0.450082
0.492460 0.453957 0.451901
0.498334 0.455776 0.453720
0.504209 0.457595 0.455539
0.510084 0.459414 0.457358
0.515959 0.461233 0.459177
0.521834 0.463052 0.460996
0.431407 0.441575 0.435463
0.437282 0.443394 0.437282
0.443157 0.445213 0.439101
0.449032 0.447032 0.440920
0.454907 0.448851 0.442739
0.460781 0.450670 0.444558
0.466656 0.452489 0.446377
0.472531 0.454308 0.448196
0.478406 0.456127 0.450015
0.484281 0.457946 0.451834
0.490156 0.459765 0.453653
0.496031 0.461584 0.455472
0.501906 0.463403 0.457291
0.507781 0.465222 0.459110
0.513655 0.467041 0.460929
0.519530 0.468860 0.462749
0.525405 0.470679 0.464568
0.434978 0.449202 0.439034
0.440853 0.451021 0.440853
0.446728 0.452840 0.442672
0.452603 0.454659 0.444491
0.458478 0.456478 0.446310
0.464353 0.458297 0.448129
0.470227 0.460116 0.449948
0.476102 0.461935 0.451767
0.481977 0.463754 0.453586
0.487852 0.465573 0.455405
0.493727 0.467392 0.457224
0.499602 0.469211 0.459044
0.505477 0.471030 0.460863
0.511352 0.472849 0.462682
0.517227 0.474668 0.464501
0.523101 0.476487 0.466320
0.528976 0.478306 0.468139
0.438549 0.456829 0.442605
0.444424 0.458648 0.444424
0.450299 0.460467 0.446243
0.456174 0.462286 0.448062
0.462049 0.464105 0.449881
0.467924 0.465924 0.451700
0.473799 0.467743 0.453519
0.479674 0.469562 0.455339
0.485548 0.471381 0.457158
0.491423 0.473200 0.458977
0.497298 0.475019 0.460796
0.503173 0.476838 0.462615
0.509048 0.478657 0.464434
0.514923 0.480476 0.466253
0.520798 0.482295 0.468072
0.526673 0.484114 0.469891
0.532547 0.485933 0.471710
0.442121 0.464456 0.446176
0.447995 0.466275 0.447995
0.453870 0.468094 0.449814
0.459745 0.469913 0.451634
0.465620 0.471732 0.453453
0.471495 0.473551 0.455272
0.477370 0.475370 0.457091
0.483245 0.477189 0.458910
0.489120 0.479008 0.460729
0.494994 0.480827 0.462548
0.500869 0.482646 0.464367
0.506744 0.484465 0.466186
0.512619 0.486284 0.468005
0.518494 0.488103 0.469824
0.524369 0.489922 0.471643
0.530244 0.491741 0.473462
0.536119 0.493560 0.475281
0.445692 0.472083 0.449748
0.451567 0.473902 0.451567
0.457441 0.475721 0.453386
0.463316 0.477540 0.455205
0.469191 0.479359 0.457024
0.475066 0.481178 0.458843
0.480941 0.482997 0.460662
0.486816 0.484816 0.462481
0.492691 0.486635 0.464300
0.498566 0.488454 0.466119
0.504441 0.490273 0.467938
0.510315 0.492092 0.469757
0.516190 0.493911 0.471576
0.522065 0.495730 0.473395
0.527940 0.497549 0.475214
0.533815 0.499368 0.477033
0.539690 0.501187 0.478852
0.449263 0.479710 0.453319
0.455138 0.481529 0.455138
0.461013 0.483348 0.456957
0.466888 0.485167 0.458776
0.472762 0.486986 0.460595
0.478637 0.488805 0.462414
0.484512 0.490624 0.464233
0.490387 0.492443 0.466052
0.496262 0.494262 0.467871
0.502137 0.496081 0.469690
0.508012 0.497900 0.471509
0.513887 0.499719 0.473328
0.519761 0.501538 0.475147
0.525636 0.503357 0.476966
0.531511 0.505176 0.478785
0.537386 0.506995 0.480604
0.543261 0.508814 0.482423
0.452834 0.487337 0.456890
0.458709 0.489156 0.458709
0.464584 0.490975 0.460528
0.470459 0.492794 0.462347
0.476334 0.494613 0.464166
0.482208 0.496432 0.465985
0.488083 0.498251 0.467804
0.493958 0.500070 0.469623
0.499833 0.501889 0.471442
0.505708 0.503708 0.473261
0.511583 0.505527 0.475080
0.517458 0.507346 0.476899
0.523333 0.509165 0.478718
0.529207 0.510984 0.480537
0.535082 0.512803 0.482356
0.540957 0.514622 0.484176
0.546832 0.516441 0.485995
0.456405 0.494964 0.460461
0.462280 0.496783 0.462280
0.468155 0.498602 0.464099
0.474030 0.500421 0.465918
0.479905 0.502240 0.467737
0.485780 0.504059 0.469556
0.491654 0.505878 0.471375
0.497529 0.507697 0.473194
0.503404 0.509516 0.475013
0.509279 0.511335 0.476832
0.515154 0.513154 0.478651
0.521029 0.514973 0.480471
0.526904 0.516792 0.482290
0.532779 0.518611 0.484109
0.538654 0.520430 0.485928
0.544528 0.522249 0.487747
0.550403 0.524068 0.489566
0.459976 0.502591 0.464032
0.465851 0.504410 0.465851
0.471726 0.506229 0.467670
0.477601 0.508048 0.469489
0.483476 0.509867 0.471308
0.489351 0.511686 0.473127
0.495226 0.513505 0.474946
0.501101 0.515324 0.476766
0.506975 0.517143 0.478585
0.512850 0.518962 0.480404
0.518725 0.520781 0.482223
0.524600 0.522600 0.484042
0.530475 0.524419 0.485861
0.536350 0.526238 0.487680
0.542225 0.528057 0.489499
0.548100 0.529876 0.491318
0.553974 0.531695 0.493137
0.463548 0.510218 0.467603
0.469422 0.512037 0.469422
0.475297 0.513856 0.471241
0.481172 0.515675 0.473060
0.487047 0.517494 0.474880
0.492922 0.519313 0.476699
0.498797 0.521132 0.478518
0.504672 0.522951 0.480337
0.510547 0.524770 0.482156
0.516421 0.526589 0.483975
0.522296 0.528408 0.485794
0.528171 0.530227 0.487613
0.534046 0.532046 0.489432
0.539921 0.533865 0.491251
0.545796 0.535684 0.493070
0.551671 0.537503 0.494889
0.557546 0.539322 0.496708
0.467119 0.517845 0.471175
0.472994 0.519664 0.472994
0.478868 0.521483 0.474813
0.484743 0.523302 0.476632
0.490618 0.525121 0.478451
0.496493 0.526940 0.480270
0.502368 0.528759 0.482089
0.508243 0.530578 0.483908
0.514118 0.532397 0.485727
0.519993 0.534216 0.487546
0.525868 0.536035 0.489365
0.531742 0.537854 0.491184
0.537617 0.539673 0.493003
0.543492 0.541492 0.494822
0.549367 0.543311 0.496641
0.555242 0.545130 0.498460
0.561117 0.546949 0.500279
0.470690 0.525472 0.474746
0.476565 0.527291 0.476565
0.482440 0.529110 0.478384
0.488315 0.530929 0.480203
0.494189 0.532748 0.482022
0.500064 0.534567 0.483841
0.505939 0.536386 0.485660
0.511814 0.538205 0.487479
0.517689 0.540024 0.489298
0.523564 0.541843 0.491117
0.529439 0.543662 0.492936
0.535314 0.545481 0.494755
0.541188 0.547300 0.496574
0.547063 0.549119 0.498393
0.552938 0.550938 0.500212
0.558813 0.552757 0.502031
0.564688 0.554576 0.503850
0.474261 0.533099 0.478317
0.480136 0.534918 0.480136
0.486011 0.536737 0.481955
0.491886 0.538556 0.483774
0.497761 0.540375 0.485593
0.503635 0.542194 0.487412
0.509510 0.544013 0.489231
0.515385 0.545832 0.491050
0.521260 0.547651 0.492869
0.527135 0.549470 0.494688
0.533010 0.551289 0.496507
0.538885 0.553108 0.498326
0.544760 0.554927 0.500145
0.550634 0.556746 0.501964
0.556509 0.558565 0.503783
0.562384 0.560384 0.505603
0.568259 0.562203 0.507422
0.477832 0.540726 0.481888
0.483707 0.542545 0.483707
0.489582 0.544364 0.485526
0.495457 0.546183 0.487345
0.501332 0.548002 0.489164
0.507207 0.549821 0.490983
0.513081 0.551640 0.492802
0.518956 0.553459 0.494621
0.524831 0.555278 0.496440
0.530706 0.557097 0.498259
0.536581 0.558916 0.500078
0.542456 0.560735 0.501898
0.548331 0.562554 0.503717
0.554206 0.564373 0.505536
0.560081 0.566192 0.507355
0.565955 0.568011 0.509174
0.571830 0.569830 0.510993
0.421387 0.419387 0.429499
0.427262 0.421206 0.431318
0.433137 0.423025 0.433137
0.439012 0.424844 0.434956
0.444887 0.426663 0.436775
0.450762 0.428482 0.438594
0.456636 0.430301 0.440413
0.462511 0.432120 0.442232
0.468386 0.433939 0.444051
0.474261 0.435758 0.445870
0.480136 0.437578 0.447689
0.486011 0.439397 0.449508
0.491886 0.441216 0.451327
0.497761 0.443035 0.453146
0.503635 0.444854 0.454965
0.509510 0.446673 0.456784
0.515385 0.448492 0.458603
0.424958 0.427014 0.433070
0.430833 0.428833 0.434889
0.436708 0.430652 0.436708
0.442583 0.432471 0.438527
0.448458 0.434290 0.440346
0.454333 0.436109 0.442165
0.460208 0.437928 0.443984
0.466082 0.439747 0.445803
0.471957 0.441566 0.447622
0.477832 0.443385 0.449441
0.483707 0.445205 0.451260
0.489582 0.447024 0.453079
0.495457 0.448843 0.454898
0.501332 0.450662 0.456718
0.507207 0.452481 0.458537
0.513081 0.454300 0.460356
0.518956 0.456119 0.462175
0.428529 0.434641 0.436641
0.434404 0.436460 0.438460
0.440279 0.438279 0.440279
0.446154 0.440098 0.442098
0.452029 0.441917 0.443917
0.457904 0.443736 0.445736
0.463779 0.445555 0.447555
0.469654 0.447374 0.449374
0.475528 0.449193 0.451193
0.481403 0.451012 0.453012
0.487278 0.452832 0.454832
0.493153 0.454651 0.456651
0.499028 0.456470 0.458470
0.504903 0.458289 0.460289
0.510778 0.460108 0.462108
0.516653 0.461927 0.463927
0.522528 0.463746 0.465746
0.432101 0.442268 0.440212
0.437975 0.444087 0.442031
0.443850 0.445906 0.443850
0.449725 0.447725 0.445669
0.455600 0.449544 0.447488
0.461475 0.451363 0.449307
0.467350 0.453182 0.451127
0.473225 0.455001 0.452946
0.479100 0.456820 0.454765
0.484975 0.458639 0.456584
0.490849 0.460459 0.458403
0.496724 0.462278 0.460222
0.502599 0.464097 0.462041
0.508474 0.465916 0.463860
0.514349 0.467735 0.465679
0.520224 0.469554 0.467498
0.526099 0.471373 0.469317
0.435672 0.449895 0.443783
0.441547 0.451714 0.445602
0.447422 0.453533 0.447422
0.453296 0.455352 0.449241
0.459171 0.457171 0.451060
0.465046 0.458990 0.452879
0.470921 0.460809 0.454698
0.476796 0.462628 0.456517
0.482671 0.464447 0.458336
0.488546 0.466266 0.460155
0.494421 0.468086 0.461974
0.500295 0.469905 0.463793
0.506170 0.471724 0.465612
0.512045 0.473543 0.467431
0.517920 0.475362 0.469250
0.523795 0.477181 0.471069
0.529670 0.479000 0.472888
0.439243 0.457522 0.447355
0.445118 0.459341 0.449174
0.450993 0.461160 0.450993
0.456868 0.462979 0.452812
0.462742 0.464798 0.454631
0.468617 0.466617 0.456450
0.474492 0.468436 0.458269
0.480367 0.470255 0.460088
0.486242 0.472074 0.461907
0.492117 0.473894 0.463726
0.497992 0.475713 0.465545
0.503867 0.477532 0.467364
0.509741 0.479351 0.469183
0.515616 0.481170 0.471002
0.521491 0.482989 0.472821
0.527366 0.484808 0.474640
0.533241 0.486627 0.476459
0.442814 0.465149 0.450926
0.448689 0.466968 0.452745
0.454564 0.468787 0.454564
0.460439 0.470606 0.456383
0.466314 0.472425 0.458202
0.472188 0.474244 0.460021
0.478063 0.476063 0.461840
0.483938 0.477882 0.463659
0.489813 0.479701 0.465478
0.495688 0.481521 0.467297
0.501563 0.483340 0.469116
0.507438 0.485159 0.470935
0.513313 0.486978 0.472754
0.519188 0.488797 0.474573
0.525062 0.490616 0.476392
0.530937 0.492435 0.478211
0.536812 0.494254 0.480030
0.446385 0.472776 0.454497
0.452260 0.474595 0.456316
0.458135 0.476414 0.458135
0.464010 0.478233 0.459954
0.469885 0.480052 0.461773
0.475760 0.481871 0.463592
0.481635 0.483690 0.465411
0.487509 0.485509 0.467230
0.493384 0.487328 0.469049
0.499259 0.489148 0.470868
0.505134 0.490967 0.472687
0.511009 0.492786 0.474506
0.516884 0.494605 0.476325
0.522759 0.496424 0.478144
0.528634 0.498243 0.479964
0.534508 0.500062 0.481783
0.540383 0.501881 0.483602
0.449956 0.480403 0.458068
0.455831 0.482222 0.459887
0.461706 0.484041 0.461706
0.467581 0.485860 0.463525
0.473456 0.487679 0.465344
0.479331 0.489498 0.467163
0.485206 0.491317 0.468982
0.491081 0.493136 0.470801
0.496955 0.494955 0.472620
0.502830 0.496775 0.474439
0.508705 0.498594 0.476259
0.514580 0.500413 0.478078
0.520455 0.502232 0.479897
0.526330 0.504051 0.481716
0.532205 0.505870 0.483535
0.538080 0.507689 0.485354
0.543955 0.509508 0.487173
0.453528 0.488030 0.461639
0.459402 0.489849 0.463458
0.465277 0.491668 0.465277
0.471152 0.493487 0.467096
0.477027 0.495306 0.468915
0.482902 0.497125 0.470734
0.488777 0.498944 0.472554
0.494652 0.500763 0.474373
0.500527 0.502582 0.476192
0.506402 0.504402 0.478011
0.512276 0.506221 0.479830
0.518151 0.508040 0.481649
0.524026 0.509859 0.483468
0.529901 0.511678 0.485287
0.535776 0.513497 0.487106
0.541651 0.515316 0.488925
0.547526 0.517135 0.490744
0.457099 0.495657 0.465210
0.462974 0.497476 0.467029
0.468849 0.499295 0.468849
0.474723 0.501114 0.470668
0.480598 0.502933 0.472487
0.486473 0.504752 0.474306
0.492348 0.506571 0.476125
0.498223 0.508390 0.477944
0.504098 0.510209 0.479763
0.509973 0.512029 0.481582
0.515848 0.513848 0.483401
0.521722 0.515667 0.485220
0.527597 0.517486 0.487039
0.533472 0.519305 0.488858
0.539347 0.521124 0.490677
0.545222 0.522943 0.492496
0.551097 0.524762 0.494315
0.460670 0.503284 0.468782
0.466545 0.505103 0.470601
0.472420 0.506922 0.472420
0.478295 0.508741 0.474239
0.484169 0.510560 0.476058
0.490044 0.512379 0.477877
0.495919 0.514198 0.479696
0.501794 0.516017 0.481515
0.507669 0.517836 0.483334
0.513544 0.519656 0.485153
0.519419 0.521475 0.486972
0.525294 0.523294 0.488791
0.531168 0.525113 0.490610
0.537043 0.526932 0.492429
0.542918 0.528751 0.494248
0.548793 0.530570 0.496067
0.554668 0.532389 0.497886
0.464241 0.510911 0.472353
0.470116 0.512730 0.474172
0.475991 0.514549 0.475991
0.481866 0.516368 0.477810
0.487741 0.518187 0.479629
0.493615 0.520006 0.481448
0.499490 0.521825 0.483267
0.505365 0.523644 0.485086
0.511240 0.525463 0.486905
0.517115 0.527283 0.488724
0.522990 0.529102 0.490543
0.528865 0.530921 0.492362
0.534740 0.532740 0.494181
0.540615 0.534559 0.496000
0.546489 0.536378 0.497819
0.552364 0.538197 0.499638
0.558239 0.540016 0.501457
0.467812 0.518538 0.475924
0.473687 0.520357 0.477743
0.479562 0.522176 0.479562
0.485437 0.523995 0.481381
0.491312 0.525814 0.483200
0.497187 0.527633 0.485019
0.503062 0.529452 0.486838
0.508936 0.531271 0.488657
0.514811 0.533090 0.490476
0.520686 0.534910 0.492295
0.526561 0.536729 0.494114
0.532436 0.538548 0.495933
0.538311 0.540367 0.497752
0.544186 0.542186 0.499571
0.550061 0.544005 0.501391
0.555935 0.545824 0.503210
0.561810 0.547643 0.505029
0.471383 0.526165 0.479495
0.477258 0.527984 0.481314
0.483133 0.529803 0.483133
0.489008 0.531622 0.484952
0.494883 0.533441 0.486771
0.500758 0.535260 0.488590
0.506633 0.537079 0.490409
0.512508 0.538898 0.492228
0.518382 0.540717 0.494047
0.524257 0.542537 0.495866
0.530132 0.544356 0.497686
0.536007 0.546175 0.499505
0.541882 0.547994 0.501324
0.547757 0.549813 0.503143
0.553632 0.551632 0.504962
0.559507 0.553451 0.506781
0.565382 0.555270 0.508600
0.474955 0.533792 0.483066
0.480829 0.535611 0.484885
0.486704 0.537430 0.486704
0.492579 0.539249 0.488523
0.498454 0.541068 0.490342
0.504329 0.542887 0.492161
0.510204 0.544706 0.493981
0.516079 0.546525 0.495800
0.521954 0.548344 0.497619
0.527829 0.550164 0.499438
0.533703 0.551983 0.501257
0.539578 0.553802 0.503076
0.545453 0.555621 0.504895
0.551328 0.557440 0.506714
0.557203 0.559259 0.508533
0.563078 0.561078 0.510352
0.568953 0.562897 0.512171
0.478526 0.541419 0.486637
0.484401 0.543238 0.488456
0.490276 0.545057 0.490276
0.496150 0.546876 0.492095
0.502025 0.548695 0.493914
0.507900 0.550514 0.495733
0.513775 0.552333 0.497552
0.519650 0.554152 0.499371
0.525525 0.555971 0.501190
0.531400 0.557791 0.503009
0.537275 0.559610 0.504828
0.543149 0.561429 0.506647
0.549024 0.563248 0.508466
0.554899 0.565067 0.510285
0.560774 0.566886 0.512104
0.566649 0.568705 0.513923
0.572524 0.570524 0.515742
0.422081 0.420081 0.434248
0.427956 0.421900 0.436067
0.433830 0.423719 0.437886
0.439705 0.425538 0.439705
0.445580 0.427357 0.441524
0.451455 0.429176 0.443343
0.457330 0.430995 0.445162
0.463205 0.432814 0.446981
0.469080 0.434633 0.448801
0.474955 0.436452 0.450620
0.480829 0.438271 0.452439
0.486704 0.440090 0.454258
0.492579 0.441909 0.456077
0.498454 0.443728 0.457896
0.504329 0.445547 0.459715
0.510204 0.447366 0.461534
0.516079 0.449185 0.463353
0.425652 0.427708 0.437819
