shared/src/main/assets/luts/drama_desert_chemistry.cube
TITLE "DALUR Desert Chemistry"
LUT_3D_SIZE 5
DOMAIN_MIN 0.0 0.0 0.0
DOMAIN_MAX 1.0 1.0 1.0
0.468000 0.452500 0.432000
0.477754 0.459611 0.439111
0.487507 0.466722 0.446222
0.497261 0.473833 0.453333
0.507015 0.480944 0.460444
0.481961 0.469103 0.445961
0.491714 0.476214 0.453072
0.501468 0.483325 0.460183
0.511221 0.490436 0.467294
0.520975 0.497547 0.474405
0.495921 0.485706 0.459921
0.505675 0.492817 0.467032
0.515428 0.499928 0.474143
0.525182 0.507039 0.481254
0.534936 0.514151 0.488365
0.509882 0.502309 0.473882
0.519635 0.509420 0.480993
0.529389 0.516532 0.488104
0.539143 0.523643 0.495215
0.548896 0.530754 0.502326
0.523842 0.518912 0.487842
0.533596 0.526024 0.494953
0.543350 0.533135 0.502064
0.553103 0.540246 0.509176
0.562857 0.547357 0.516287
0.470711 0.455211 0.437354
0.480465 0.462322 0.444465
0.490219 0.469433 0.451576
0.499972 0.476545 0.458687
0.509726 0.483656 0.465798
0.484672 0.471814 0.451314
0.494425 0.478925 0.458425
0.504179 0.486037 0.465537
0.513933 0.493148 0.472648
0.523686 0.500259 0.479759
0.498632 0.488417 0.465275
0.508386 0.495529 0.472386
0.518140 0.502640 0.479497
0.527893 0.509751 0.486608
0.537647 0.516862 0.493719
0.512593 0.505021 0.479235
0.522347 0.512132 0.486347
0.532100 0.519243 0.493458
0.541854 0.526354 0.500569
0.551607 0.533465 0.507680
0.526554 0.521624 0.493196
0.536307 0.528735 0.500307
0.546061 0.535846 0.507418
0.555814 0.542957 0.514529
0.565568 0.550068 0.521640
0.473423 0.457923 0.442708
0.483176 0.465034 0.449819
0.492930 0.472145 0.456930
0.502683 0.479256 0.464041
0.512437 0.486367 0.471152
0.487383 0.474526 0.456668
0.497137 0.481637 0.463779
0.506890 0.488748 0.470890
0.516644 0.495859 0.478001
0.526398 0.502970 0.485113
0.501344 0.491129 0.470629
0.511097 0.498240 0.477740
0.520851 0.505351 0.484851
0.530605 0.512462 0.491962
0.540358 0.519573 0.499073
0.515304 0.507732 0.484589
0.525058 0.514843 0.491700
0.534811 0.521954 0.498811
0.544565 0.529065 0.505923
0.554319 0.536176 0.513034
0.529265 0.524335 0.498550
0.539018 0.531446 0.505661
0.548772 0.538557 0.512772
0.558526 0.545668 0.519883
0.568279 0.552779 0.526994
0.476134 0.460634 0.448061
0.485887 0.467745 0.455172
0.495641 0.474856 0.462284
0.505395 0.481967 0.469395
0.515148 0.489078 0.476506
0.490094 0.477237 0.462022
0.499848 0.484348 0.469133
0.509602 0.491459 0.476244
0.519355 0.498570 0.483355
0.529109 0.505681 0.490466
0.504055 0.493840 0.475983
0.513809 0.500951 0.483094
0.523562 0.508062 0.490205
0.533316 0.515173 0.497316
0.543069 0.522284 0.504427
0.518015 0.510443 0.489943
0.527769 0.517554 0.497054
0.537523 0.524665 0.504165
0.547276 0.531776 0.511276
0.557030 0.538887 0.518387
0.531976 0.527046 0.503904
0.541730 0.534157 0.511015
0.551483 0.541268 0.518126
0.561237 0.548379 0.525237
0.570991 0.555491 0.532348
0.478845 0.463345 0.453415
0.488599 0.470456 0.460526
0.498352 0.477567 0.467637
0.508106 0.484678 0.474748
0.517860 0.491789 0.481860
0.492806 0.479948 0.467376
0.502559 0.487059 0.474487
0.512313 0.494170 0.481598
0.522066 0.501281 0.488709
0.531820 0.508392 0.495820
0.506766 0.496551 0.481336
0.516520 0.503662 0.488447
0.526273 0.510773 0.495558
0.536027 0.517884 0.502670
0.545781 0.524996 0.509781
0.520727 0.513154 0.495297
0.530480 0.520265 0.502408
0.540234 0.527377 0.509519
0.549988 0.534488 0.516630
0.559741 0.541599 0.523741
0.534687 0.529757 0.509257
0.544441 0.536869 0.516369
0.554195 0.543980 0.523480
0.563948 0.551091 0.530591
0.573702 0.558202 0.537702
