shared/src/main/assets/luts/drama_muted_crime.cube
TITLE "DALUR Muted Crime"
LUT_3D_SIZE 5
DOMAIN_MIN 0.0 0.0 0.0
DOMAIN_MAX 1.0 1.0 1.0
0.453000 0.452000 0.447000
0.454269 0.461547 0.456547
0.455538 0.471094 0.466094
0.456807 0.480641 0.475641
0.458076 0.490188 0.485188
0.471743 0.462465 0.465743
0.473011 0.472011 0.475289
0.474280 0.481558 0.484836
0.475549 0.491105 0.494383
0.476818 0.500652 0.503930
0.490485 0.472929 0.484485
0.491754 0.482476 0.494032
0.493023 0.492023 0.503579
0.494292 0.501570 0.513126
0.495561 0.511117 0.522673
0.509228 0.483394 0.503228
0.510497 0.492941 0.512775
0.511766 0.502488 0.522322
0.513034 0.512034 0.531868
0.514303 0.521581 0.541415
0.527970 0.493858 0.521970
0.529239 0.503405 0.531517
0.530508 0.512952 0.541064
0.531777 0.522499 0.550611
0.533046 0.532046 0.560158
0.456640 0.455640 0.442362
0.457909 0.465187 0.451909
0.459178 0.474734 0.461456
0.460447 0.484281 0.471003
0.461716 0.493828 0.480550
0.475383 0.466105 0.461105
0.476651 0.475651 0.470651
0.477920 0.485198 0.480198
0.479189 0.494745 0.489745
0.480458 0.504292 0.499292
0.494125 0.476569 0.479847
0.495394 0.486116 0.489394
0.496663 0.495663 0.498941
0.497932 0.505210 0.508488
0.499201 0.514757 0.518035
0.512868 0.487034 0.498590
0.514137 0.496581 0.508137
0.515406 0.506128 0.517684
0.516674 0.515674 0.527230
0.517943 0.525221 0.536777
0.531610 0.497498 0.517332
0.532879 0.507045 0.526879
0.534148 0.516592 0.536426
0.535417 0.526139 0.545973
0.536686 0.535686 0.555520
0.460280 0.459280 0.437724
0.461549 0.468827 0.447271
0.462818 0.478374 0.456818
0.464087 0.487921 0.466365
0.465356 0.497468 0.475912
0.479022 0.469744 0.456466
0.480291 0.479291 0.466013
0.481560 0.488838 0.475560
0.482829 0.498385 0.485107
0.484098 0.507932 0.494654
0.497765 0.480209 0.475209
0.499034 0.489756 0.484756
0.500303 0.499303 0.494303
0.501572 0.508850 0.503850
0.502841 0.518397 0.513397
0.516508 0.490674 0.493952
0.517777 0.500221 0.503499
0.519045 0.509767 0.513045
0.520314 0.519314 0.522592
0.521583 0.528861 0.532139
0.535250 0.501138 0.512694
0.536519 0.510685 0.522241
0.537788 0.520232 0.531788
0.539057 0.529779 0.541335
0.540326 0.539326 0.550882
0.463920 0.462920 0.433086
0.465189 0.472467 0.442633
0.466458 0.482014 0.452180
0.467727 0.491561 0.461727
0.468995 0.501107 0.471273
0.482662 0.473384 0.451828
0.483931 0.482931 0.461375
0.485200 0.492478 0.470922
0.486469 0.502025 0.480469
0.487738 0.511572 0.490016
0.501405 0.483849 0.470571
0.502674 0.493396 0.480118
0.503943 0.502943 0.489665
0.505212 0.512490 0.499212
0.506481 0.522037 0.508759
0.520148 0.494314 0.489314
0.521417 0.503861 0.498861
0.522685 0.513407 0.508407
0.523954 0.522954 0.517954
0.525223 0.532501 0.527501
0.538890 0.504778 0.508056
0.540159 0.514325 0.517603
0.541428 0.523872 0.527150
0.542697 0.533419 0.536697
0.543966 0.542966 0.546244
0.467560 0.466560 0.428448
0.468829 0.476107 0.437995
0.470098 0.485654 0.447542
0.471367 0.495201 0.457089
0.472635 0.504747 0.466635
0.486302 0.477024 0.447190
0.487571 0.486571 0.456737
0.488840 0.496118 0.466284
0.490109 0.505665 0.475831
0.491378 0.515212 0.485378
0.505045 0.487489 0.465933
0.506314 0.497036 0.475480
0.507583 0.506583 0.485027
0.508852 0.516130 0.494574
0.510121 0.525677 0.504121
0.523788 0.497954 0.484676
0.525056 0.507500 0.494222
0.526325 0.517047 0.503769
0.527594 0.526594 0.513316
0.528863 0.536141 0.522863
0.542530 0.508418 0.503418
0.543799 0.517965 0.512965
0.545068 0.527512 0.522512
0.546337 0.537059 0.532059
0.547606 0.546606 0.541606
