shared/src/main/assets/luts/drama_red_signal.cube
TITLE "DALUR Red Signal"
LUT_3D_SIZE 17
DOMAIN_MIN 0.0 0.0 0.0
DOMAIN_MAX 1.0 1.0 1.0
0.437000 0.437000 0.443000
0.439674 0.438950 0.444950
0.442348 0.440899 0.446899
0.445022 0.442849 0.448849
0.447696 0.444798 0.450798
0.450370 0.446748 0.452748
0.453044 0.448697 0.454697
0.455718 0.450647 0.456647
0.458392 0.452596 0.458596
0.461066 0.454546 0.460546
0.463740 0.456495 0.462495
0.466413 0.458445 0.464445
0.469087 0.460394 0.466394
0.471761 0.462344 0.468344
0.474435 0.464293 0.470293
0.477109 0.466243 0.472243
0.479783 0.468192 0.474192
0.440827 0.441552 0.446827
0.443501 0.443501 0.448777
0.446175 0.445451 0.450726
0.448849 0.447400 0.452676
0.451523 0.449350 0.454625
0.454197 0.451299 0.456575
0.456871 0.453249 0.458524
0.459545 0.455198 0.460474
0.462219 0.457148 0.462423
0.464893 0.459097 0.464373
0.467567 0.461047 0.466322
0.470241 0.462996 0.468272
0.472915 0.464946 0.470221
0.475589 0.466895 0.472171
0.478263 0.468845 0.474120
0.480937 0.470794 0.476070
0.483611 0.472744 0.478019
0.444655 0.446103 0.450655
0.447329 0.448053 0.452604
0.450002 0.450002 0.454554
0.452676 0.451952 0.456503
0.455350 0.453901 0.458453
0.458024 0.455851 0.460402
0.460698 0.457800 0.462352
0.463372 0.459750 0.464301
0.466046 0.461699 0.466251
0.468720 0.463649 0.468200
0.471394 0.465598 0.470150
0.474068 0.467548 0.472099
0.476742 0.469497 0.474049
0.479416 0.471447 0.475998
0.482090 0.473396 0.477948
0.484764 0.475346 0.479897
0.487438 0.477295 0.481847
0.448482 0.450655 0.454482
0.451156 0.452605 0.456431
0.453830 0.454554 0.458381
0.456504 0.456504 0.460330
0.459178 0.458453 0.462280
0.461852 0.460403 0.464229
0.464526 0.462352 0.466179
0.467200 0.464302 0.468128
0.469873 0.466251 0.470078
0.472547 0.468201 0.472027
0.475221 0.470150 0.473977
0.477895 0.472100 0.475926
0.480569 0.474049 0.477876
0.483243 0.475999 0.479825
0.485917 0.477948 0.481775
0.488591 0.479898 0.483724
0.491265 0.481847 0.485674
0.452309 0.455207 0.458309
0.454983 0.457156 0.460259
0.457657 0.459106 0.462208
0.460331 0.461055 0.464158
0.463005 0.463005 0.466107
0.465679 0.464954 0.468057
0.468353 0.466904 0.470006
0.471027 0.468853 0.471956
0.473701 0.470803 0.473905
0.476375 0.472752 0.475855
0.479049 0.474702 0.477804
0.481723 0.476651 0.479754
0.484397 0.478601 0.481703
0.487071 0.480550 0.483653
0.489744 0.482500 0.485602
0.492418 0.484449 0.487552
0.495092 0.486399 0.489501
0.456136 0.459759 0.462136
0.458810 0.461708 0.464086
0.461484 0.463658 0.466035
0.464158 0.465607 0.467985
0.466832 0.467557 0.469934
0.469506 0.469506 0.471884
0.472180 0.471456 0.473833
0.474854 0.473405 0.475783
0.477528 0.475355 0.477732
0.480202 0.477304 0.479682
0.482876 0.479254 0.481631
0.485550 0.481203 0.483581
0.488224 0.483153 0.485530
0.490898 0.485102 0.487480
0.493572 0.487052 0.489429
0.496246 0.489001 0.491379
0.498920 0.490951 0.493328
0.459964 0.464310 0.465964
0.462638 0.466260 0.467913
0.465312 0.468209 0.469863
0.467986 0.470159 0.471812
0.470660 0.472108 0.473762
0.473333 0.474058 0.475711
0.476007 0.476007 0.477661
0.478681 0.477957 0.479610
0.481355 0.479906 0.481560
0.484029 0.481856 0.483509
0.486703 0.483805 0.485459
0.489377 0.485755 0.487408
0.492051 0.487704 0.489358
0.494725 0.489654 0.491307
0.497399 0.491603 0.493257
0.500073 0.493553 0.495206
0.502747 0.495502 0.497156
0.463791 0.468862 0.469791
0.466465 0.470812 0.471740
0.469139 0.472761 0.473690
0.471813 0.474711 0.475639
0.474487 0.476660 0.477589
0.477161 0.478610 0.479538
0.479835 0.480559 0.481488
0.482509 0.482509 0.483437
0.485183 0.484458 0.485387
0.487857 0.486408 0.487336
0.490531 0.488357 0.489286
0.493204 0.490307 0.491235
0.495878 0.492256 0.493185
0.498552 0.494206 0.495134
0.501226 0.496155 0.497084
0.503900 0.498105 0.499033
0.506574 0.500054 0.500983
0.467618 0.473414 0.473618
0.470292 0.475363 0.475568
0.472966 0.477313 0.477517
0.475640 0.479262 0.479467
0.478314 0.481212 0.481416
0.480988 0.483161 0.483366
0.483662 0.485111 0.485315
0.486336 0.487060 0.487265
0.489010 0.489010 0.489214
0.491684 0.490959 0.491164
0.494358 0.492909 0.493113
0.497032 0.494858 0.495063
0.499706 0.496808 0.497012
0.502380 0.498757 0.498962
0.505054 0.500707 0.500911
0.507728 0.502656 0.502861
0.510402 0.504606 0.504810
0.471446 0.477966 0.477446
0.474119 0.479915 0.479395
0.476793 0.481865 0.481345
0.479467 0.483814 0.483294
0.482141 0.485764 0.485244
0.484815 0.487713 0.487193
0.487489 0.489663 0.489143
0.490163 0.491612 0.491092
0.492837 0.493562 0.493042
0.495511 0.495511 0.494991
0.498185 0.497461 0.496941
0.500859 0.499410 0.498890
0.503533 0.501360 0.500840
0.506207 0.503309 0.502789
0.508881 0.505259 0.504739
0.511555 0.507208 0.506688
0.514229 0.509158 0.508638
0.475273 0.482517 0.481273
0.477947 0.484467 0.483222
0.480621 0.486416 0.485172
0.483295 0.488366 0.487121
0.485969 0.490315 0.489071
0.488643 0.492265 0.491020
0.491317 0.494214 0.492970
0.493990 0.496164 0.494919
0.496664 0.498113 0.496869
0.499338 0.500063 0.498818
0.502012 0.502012 0.500768
0.504686 0.503962 0.502717
0.507360 0.505911 0.504667
0.510034 0.507861 0.506616
0.512708 0.509810 0.508566
0.515382 0.511760 0.510515
0.518056 0.513709 0.512465
0.479100 0.487069 0.485100
0.481774 0.489019 0.487050
0.484448 0.490968 0.488999
0.487122 0.492918 0.490949
0.489796 0.494867 0.492898
0.492470 0.496817 0.494848
0.495144 0.498766 0.496797
0.497818 0.500716 0.498747
0.500492 0.502665 0.500696
0.503166 0.504615 0.502646
0.505840 0.506564 0.504595
0.508514 0.508514 0.506545
0.511188 0.510463 0.508494
0.513861 0.512413 0.510444
0.516535 0.514362 0.512393
0.519209 0.516312 0.514343
0.521883 0.518261 0.516292
0.482927 0.491621 0.488927
0.485601 0.493570 0.490877
0.488275 0.495520 0.492826
0.490949 0.497469 0.494776
0.493623 0.499419 0.496725
0.496297 0.501368 0.498675
0.498971 0.503318 0.500624
0.501645 0.505267 0.502574
0.504319 0.507217 0.504523
0.506993 0.509166 0.506473
0.509667 0.511116 0.508422
0.512341 0.513065 0.510372
0.515015 0.515015 0.512321
0.517689 0.516964 0.514271
0.520363 0.518914 0.516220
0.523037 0.520863 0.518170
0.525711 0.522813 0.520119
0.486755 0.496173 0.492755
0.489429 0.498122 0.494704
0.492103 0.500072 0.496654
0.494777 0.502021 0.498603
0.497450 0.503971 0.500553
0.500124 0.505920 0.502502
0.502798 0.507870 0.504452
0.505472 0.509819 0.506401
0.508146 0.511769 0.508351
0.510820 0.513718 0.510300
0.513494 0.515668 0.512250
0.516168 0.517617 0.514199
0.518842 0.519567 0.516149
0.521516 0.521516 0.518098
0.524190 0.523466 0.520048
0.526864 0.525415 0.521997
0.529538 0.527365 0.523947
0.490582 0.500724 0.496582
0.493256 0.502674 0.498531
0.495930 0.504623 0.500481
0.498604 0.506573 0.502430
0.501278 0.508522 0.504380
0.503952 0.510472 0.506329
0.506626 0.512421 0.508279
0.509300 0.514371 0.510228
0.511974 0.516320 0.512178
0.514648 0.518270 0.514127
0.517321 0.520219 0.516077
0.519995 0.522169 0.518026
0.522669 0.524118 0.519976
0.525343 0.526068 0.521925
0.528017 0.528017 0.523875
0.530691 0.529967 0.525824
0.533365 0.531916 0.527774
0.494409 0.505276 0.500409
0.497083 0.507226 0.502359
0.499757 0.509175 0.504308
0.502431 0.511125 0.506258
0.505105 0.513074 0.508207
0.507779 0.515024 0.510157
0.510453 0.516973 0.512106
0.513127 0.518923 0.514056
0.515801 0.520872 0.516005
0.518475 0.522822 0.517955
0.521149 0.524771 0.519904
0.523823 0.526721 0.521854
0.526497 0.528670 0.523803
0.529171 0.530620 0.525753
0.531845 0.532569 0.527702
0.534519 0.534519 0.529652
0.537192 0.536468 0.531601
0.498236 0.509828 0.504236
0.500910 0.511777 0.506186
0.503584 0.513727 0.508136
0.506258 0.515676 0.510085
0.508932 0.517626 0.512035
0.511606 0.519575 0.513984
0.514280 0.521525 0.515934
0.516954 0.523474 0.517883
0.519628 0.525424 0.519833
0.522302 0.527373 0.521782
0.524976 0.529323 0.523732
0.527650 0.531272 0.525681
0.530324 0.533222 0.527631
0.532998 0.535171 0.529580
0.535672 0.537121 0.531530
0.538346 0.539070 0.533479
0.541020 0.541020 0.535429
0.437743 0.437743 0.444468
0.440417 0.439693 0.446417
0.443091 0.441642 0.448367
0.445765 0.443592 0.450316
0.448439 0.445541 0.452266
0.451113 0.447491 0.454215
0.453787 0.449440 0.456165
0.456461 0.451390 0.458114
0.459135 0.453339 0.460064
0.461809 0.455289 0.462013
0.464483 0.457238 0.463963
0.467157 0.459188 0.465912
0.469831 0.461137 0.467862
0.472505 0.463087 0.469811
0.475179 0.465036 0.471761
0.477853 0.466986 0.473710
0.480527 0.468935 0.475660
0.441571 0.442295 0.448295
0.444245 0.444245 0.450245
0.446918 0.446194 0.452194
0.449592 0.448144 0.454144
0.452266 0.450093 0.456093
0.454940 0.452043 0.458043
0.457614 0.453992 0.459992
0.460288 0.455942 0.461942
0.462962 0.457891 0.463891
0.465636 0.459841 0.465841
0.468310 0.461790 0.467790
0.470984 0.463740 0.469740
0.473658 0.465689 0.471689
0.476332 0.467639 0.473639
0.479006 0.469588 0.475588
0.481680 0.471538 0.477538
0.484354 0.473487 0.479487
0.445398 0.446847 0.452122
0.448072 0.448796 0.454072
0.450746 0.450746 0.456021
0.453420 0.452695 0.457971
0.456094 0.454645 0.459920
0.458768 0.456594 0.461870
0.461442 0.458544 0.463819
0.464116 0.460493 0.465769
0.466789 0.462443 0.467718
0.469463 0.464392 0.469668
0.472137 0.466342 0.471617
0.474811 0.468291 0.473567
0.477485 0.470241 0.475516
0.480159 0.472190 0.477466
0.482833 0.474140 0.479415
0.485507 0.476089 0.481365
0.488181 0.478039 0.483314
0.449225 0.451398 0.455950
0.451899 0.453348 0.457899
0.454573 0.455297 0.459849
0.457247 0.457247 0.461798
0.459921 0.459196 0.463748
0.462595 0.461146 0.465697
0.465269 0.463095 0.467647
0.467943 0.465045 0.469596
0.470617 0.466994 0.471546
0.473291 0.468944 0.473495
0.475965 0.470893 0.475445
0.478639 0.472843 0.477394
0.481313 0.474793 0.479344
0.483987 0.476742 0.481293
0.486660 0.478692 0.483243
0.489334 0.480641 0.485192
0.492008 0.482591 0.487142
0.453052 0.455950 0.459777
0.455726 0.457900 0.461726
0.458400 0.459849 0.463676
0.461074 0.461799 0.465625
0.463748 0.463748 0.467575
0.466422 0.465698 0.469524
0.469096 0.467647 0.471474
0.471770 0.469597 0.473423
0.474444 0.471546 0.475373
0.477118 0.473496 0.477322
0.479792 0.475445 0.479272
0.482466 0.477395 0.481221
0.485140 0.479344 0.483171
0.487814 0.481294 0.485120
0.490488 0.483243 0.487070
0.493162 0.485193 0.489019
0.495836 0.487142 0.490969
0.456880 0.460502 0.463604
0.459554 0.462451 0.465554
0.462228 0.464401 0.467503
0.464902 0.466350 0.469453
0.467576 0.468300 0.471402
0.470249 0.470249 0.473352
0.472923 0.472199 0.475301
0.475597 0.474148 0.477251
0.478271 0.476098 0.479200
0.480945 0.478047 0.481150
0.483619 0.479997 0.483099
0.486293 0.481946 0.485049
0.488967 0.483896 0.486998
0.491641 0.485845 0.488948
0.494315 0.487795 0.490897
0.496989 0.489744 0.492847
0.499663 0.491694 0.494796
0.460707 0.465054 0.467431
0.463381 0.467003 0.469381
0.466055 0.468953 0.471330
0.468729 0.470902 0.473280
0.471403 0.472852 0.475229
0.474077 0.474801 0.477179
0.476751 0.476751 0.479128
0.479425 0.478700 0.481078
0.482099 0.480650 0.483027
0.484773 0.482599 0.484977
0.487447 0.484549 0.486926
0.490120 0.486498 0.488876
0.492794 0.488448 0.490825
0.495468 0.490397 0.492775
0.498142 0.492347 0.494724
0.500816 0.494296 0.496674
0.503490 0.496246 0.498623
0.464534 0.469605 0.471259
0.467208 0.471555 0.473208
0.469882 0.473504 0.475158
0.472556 0.475454 0.477107
0.475230 0.477403 0.479057
0.477904 0.479353 0.481006
0.480578 0.481302 0.482956
0.483252 0.483252 0.484905
0.485926 0.485201 0.486855
0.488600 0.487151 0.488804
0.491274 0.489100 0.490754
0.493948 0.491050 0.492703
0.496622 0.492999 0.494653
0.499296 0.494949 0.496602
0.501970 0.496898 0.498552
0.504644 0.498848 0.500501
0.507318 0.500797 0.502451
0.468362 0.474157 0.475086
0.471035 0.476107 0.477035
0.473709 0.478056 0.478985
0.476383 0.480006 0.480934
0.479057 0.481955 0.482884
0.481731 0.483905 0.484833
0.484405 0.485854 0.486783
0.487079 0.487804 0.488732
0.489753 0.489753 0.490682
0.492427 0.491703 0.492631
0.495101 0.493652 0.494581
0.497775 0.495602 0.496531
0.500449 0.497551 0.498480
0.503123 0.499501 0.500430
0.505797 0.501450 0.502379
0.508471 0.503400 0.504329
0.511145 0.505349 0.506278
0.472189 0.478709 0.478913
0.474863 0.480658 0.480863
0.477537 0.482608 0.482812
0.480211 0.484557 0.484762
0.482885 0.486507 0.486711
0.485559 0.488456 0.488661
0.488233 0.490406 0.490610
0.490906 0.492355 0.492560
0.493580 0.494305 0.494509
0.496254 0.496254 0.496459
0.498928 0.498204 0.498408
0.501602 0.500153 0.500358
0.504276 0.502103 0.502307
0.506950 0.504052 0.504257
0.509624 0.506002 0.506206
0.512298 0.507951 0.508156
0.514972 0.509901 0.510105
0.476016 0.483261 0.482741
0.478690 0.485210 0.484690
0.481364 0.487160 0.486640
0.484038 0.489109 0.488589
0.486712 0.491059 0.490539
0.489386 0.493008 0.492488
0.492060 0.494958 0.494438
0.494734 0.496907 0.496387
0.497408 0.498857 0.498337
0.500082 0.500806 0.500286
0.502756 0.502756 0.502236
0.505430 0.504705 0.504185
0.508104 0.506655 0.506135
0.510777 0.508604 0.508084
0.513451 0.510554 0.510034
0.516125 0.512503 0.511983
0.518799 0.514453 0.513933
0.479843 0.487812 0.486568
0.482517 0.489762 0.488517
0.485191 0.491711 0.490467
0.487865 0.493661 0.492416
0.490539 0.495610 0.494366
0.493213 0.497560 0.496315
0.495887 0.499509 0.498265
0.498561 0.501459 0.500214
0.501235 0.503408 0.502164
0.503909 0.505358 0.504113
0.506583 0.507307 0.506063
0.509257 0.509257 0.508012
0.511931 0.511206 0.509962
0.514605 0.513156 0.511911
0.517279 0.515105 0.513861
0.519953 0.517055 0.515810
0.522627 0.519004 0.517760
0.483671 0.492364 0.490395
0.486345 0.494314 0.492345
0.489019 0.496263 0.494294
0.491693 0.498213 0.496244
0.494366 0.500162 0.498193
0.497040 0.502112 0.500143
0.499714 0.504061 0.502092
0.502388 0.506011 0.504042
0.505062 0.507960 0.505991
0.507736 0.509910 0.507941
0.510410 0.511859 0.509890
0.513084 0.513809 0.511840
0.515758 0.515758 0.513789
0.518432 0.517708 0.515739
0.521106 0.519657 0.517688
0.523780 0.521607 0.519638
0.526454 0.523556 0.521587
0.487498 0.496916 0.494222
0.490172 0.498865 0.496172
0.492846 0.500815 0.498121
0.495520 0.502764 0.500071
0.498194 0.504714 0.502020
0.500868 0.506663 0.503970
0.503542 0.508613 0.505919
0.506216 0.510562 0.507869
0.508890 0.512512 0.509818
0.511564 0.514461 0.511768
0.514237 0.516411 0.513717
0.516911 0.518360 0.515667
0.519585 0.520310 0.517616
0.522259 0.522259 0.519566
0.524933 0.524209 0.521515
0.527607 0.526158 0.523465
0.530281 0.528108 0.525414
0.491325 0.501468 0.498050
0.493999 0.503417 0.499999
0.496673 0.505367 0.501949
0.499347 0.507316 0.503898
0.502021 0.509266 0.505848
0.504695 0.511215 0.507797
0.507369 0.513165 0.509747
0.510043 0.515114 0.511696
0.512717 0.517064 0.513646
0.515391 0.519013 0.515595
0.518065 0.520963 0.517545
0.520739 0.522912 0.519494
0.523413 0.524862 0.521444
0.526087 0.526811 0.523393
0.528761 0.528761 0.525343
0.531435 0.530710 0.527292
0.534108 0.532660 0.529242
0.495153 0.506019 0.501877
0.497826 0.507969 0.503826
0.500500 0.509918 0.505776
0.503174 0.511868 0.507725
0.505848 0.513817 0.509675
0.508522 0.515767 0.511624
0.511196 0.517716 0.513574
0.513870 0.519666 0.515523
0.516544 0.521615 0.517473
0.519218 0.523565 0.519422
0.521892 0.525514 0.521372
0.524566 0.527464 0.523321
0.527240 0.529413 0.525271
0.529914 0.531363 0.527220
0.532588 0.533312 0.529170
0.535262 0.535262 0.531119
0.537936 0.537211 0.533069
0.498980 0.510571 0.505704
0.501654 0.512521 0.507654
0.504328 0.514470 0.509603
0.507002 0.516420 0.511553
0.509676 0.518369 0.513502
0.512350 0.520319 0.515452
0.515024 0.522268 0.517401
0.517697 0.524218 0.519351
0.520371 0.526167 0.521300
0.523045 0.528117 0.523250
0.525719 0.530066 0.525199
0.528393 0.532016 0.527149
0.531067 0.533965 0.529098
0.533741 0.535915 0.531048
0.536415 0.537864 0.532997
0.539089 0.539814 0.534947
0.541763 0.541763 0.536896
0.438487 0.438487 0.445935
0.441161 0.440436 0.447885
0.443834 0.442386 0.449834
0.446508 0.444335 0.451784
0.449182 0.446285 0.453733
0.451856 0.448234 0.455683
0.454530 0.450184 0.457632
0.457204 0.452133 0.459582
0.459878 0.454083 0.461531
0.462552 0.456032 0.463481
0.465226 0.457982 0.465430
0.467900 0.459931 0.467380
0.470574 0.461881 0.469329
0.473248 0.463830 0.471279
0.475922 0.465780 0.473228
0.478596 0.467729 0.475178
0.481270 0.469679 0.477127
0.442314 0.443038 0.449763
0.444988 0.444988 0.451712
0.447662 0.446937 0.453662
0.450336 0.448887 0.455611
0.453010 0.450836 0.457561
0.455684 0.452786 0.459510
0.458358 0.454735 0.461460
0.461032 0.456685 0.463409
0.463705 0.458634 0.465359
0.466379 0.460584 0.467308
0.469053 0.462533 0.469258
0.471727 0.464483 0.471207
0.474401 0.466432 0.473157
0.477075 0.468382 0.475106
0.479749 0.470331 0.477056
0.482423 0.472281 0.479005
0.485097 0.474230 0.480955
0.446141 0.447590 0.453590
0.448815 0.449540 0.455540
0.451489 0.451489 0.457489
0.454163 0.453439 0.459439
0.456837 0.455388 0.461388
0.459511 0.457338 0.463338
0.462185 0.459287 0.465287
0.464859 0.461237 0.467237
0.467533 0.463186 0.469186
0.470207 0.465136 0.471136
0.472881 0.467085 0.473085
0.475555 0.469035 0.475035
0.478229 0.470984 0.476984
0.480903 0.472934 0.478934
0.483576 0.474883 0.480883
0.486250 0.476833 0.482833
0.488924 0.478782 0.484782
0.449968 0.452142 0.457417
0.452642 0.454091 0.459367
0.455316 0.456041 0.461316
0.457990 0.457990 0.463266
0.460664 0.459940 0.465215
0.463338 0.461889 0.467165
0.466012 0.463839 0.469114
0.468686 0.465788 0.471064
0.471360 0.467738 0.473013
0.474034 0.469687 0.474963
0.476708 0.471637 0.476912
0.479382 0.473586 0.478862
0.482056 0.475536 0.480811
0.484730 0.477485 0.482761
0.487404 0.479435 0.484710
0.490078 0.481384 0.486660
0.492752 0.483334 0.488609
0.453796 0.456694 0.461245
0.456470 0.458643 0.463194
0.459144 0.460593 0.465144
0.461818 0.462542 0.467093
0.464492 0.464492 0.469043
0.467165 0.466441 0.470992
0.469839 0.468391 0.472942
0.472513 0.470340 0.474891
0.475187 0.472290 0.476841
0.477861 0.474239 0.478790
0.480535 0.476189 0.480740
0.483209 0.478138 0.482689
0.485883 0.480088 0.484639
0.488557 0.482037 0.486588
0.491231 0.483987 0.488538
0.493905 0.485936 0.490487
0.496579 0.487886 0.492437
0.457623 0.461245 0.465072
0.460297 0.463195 0.467021
0.462971 0.465144 0.468971
0.465645 0.467094 0.470920
0.468319 0.469043 0.472870
0.470993 0.470993 0.474819
0.473667 0.472942 0.476769
0.476341 0.474892 0.478718
0.479015 0.476841 0.480668
0.481689 0.478791 0.482617
0.484363 0.480740 0.484567
0.487036 0.482690 0.486516
0.489710 0.484639 0.488466
0.492384 0.486589 0.490415
0.495058 0.488538 0.492365
0.497732 0.490488 0.494314
0.500406 0.492437 0.496264
0.461450 0.465797 0.468899
0.464124 0.467746 0.470849
0.466798 0.469696 0.472798
0.469472 0.471645 0.474748
0.472146 0.473595 0.476697
0.474820 0.475544 0.478647
0.477494 0.477494 0.480596
0.480168 0.479443 0.482546
0.482842 0.481393 0.484495
0.485516 0.483342 0.486445
0.488190 0.485292 0.488394
0.490864 0.487241 0.490344
0.493538 0.489191 0.492293
0.496212 0.491140 0.494243
0.498886 0.493090 0.496192
0.501560 0.495039 0.498142
0.504234 0.496989 0.500091
0.465278 0.470349 0.472726
0.467951 0.472298 0.474676
0.470625 0.474248 0.476625
0.473299 0.476197 0.478575
0.475973 0.478147 0.480524
0.478647 0.480096 0.482474
0.481321 0.482046 0.484423
0.483995 0.483995 0.486373
0.486669 0.485945 0.488322
0.489343 0.487894 0.490272
0.492017 0.489844 0.492221
0.494691 0.491793 0.494171
0.497365 0.493743 0.496120
0.500039 0.495692 0.498070
0.502713 0.497642 0.500019
0.505387 0.499591 0.501969
0.508061 0.501541 0.503918
0.469105 0.474900 0.476554
0.471779 0.476850 0.478503
0.474453 0.478799 0.480453
0.477127 0.480749 0.482402
0.479801 0.482698 0.484352
0.482475 0.484648 0.486301
0.485149 0.486597 0.488251
0.487822 0.488547 0.490200
0.490496 0.490496 0.492150
0.493170 0.492446 0.494099
0.495844 0.494395 0.496049
0.498518 0.496345 0.497998
0.501192 0.498294 0.499948
0.503866 0.500244 0.501897
0.506540 0.502193 0.503847
0.509214 0.504143 0.505796
0.511888 0.506092 0.507746
0.472932 0.479452 0.480381
0.475606 0.481402 0.482331
0.478280 0.483351 0.484280
0.480954 0.485301 0.486230
0.483628 0.487250 0.488179
0.486302 0.489200 0.490129
0.488976 0.491149 0.492078
0.491650 0.493099 0.494028
0.494324 0.495048 0.495977
0.496998 0.496998 0.497927
0.499672 0.498947 0.499876
0.502346 0.500897 0.501826
0.505020 0.502846 0.503775
0.507693 0.504796 0.505725
0.510367 0.506745 0.507674
0.513041 0.508695 0.509624
0.515715 0.510644 0.511573
0.476759 0.484004 0.484208
0.479433 0.485953 0.486158
0.482107 0.487903 0.488107
0.484781 0.489852 0.490057
0.487455 0.491802 0.492006
0.490129 0.493751 0.493956
0.492803 0.495701 0.495905
0.495477 0.497650 0.497855
0.498151 0.499600 0.499804
0.500825 0.501549 0.501754
0.503499 0.503499 0.503703
0.506173 0.505448 0.505653
0.508847 0.507398 0.507602
0.511521 0.509347 0.509552
0.514195 0.511297 0.511501
0.516869 0.513246 0.513451
0.519543 0.515196 0.515400
0.480587 0.488556 0.488036
0.483261 0.490505 0.489985
0.485935 0.492455 0.491935
0.488609 0.494404 0.493884
0.491282 0.496354 0.495834
0.493956 0.498303 0.497783
0.496630 0.500253 0.499733
0.499304 0.502202 0.501682
0.501978 0.504152 0.503632
0.504652 0.506101 0.505581
0.507326 0.508051 0.507531
0.510000 0.510000 0.509480
0.512674 0.511950 0.511430
0.515348 0.513899 0.513379
0.518022 0.515849 0.515329
0.520696 0.517798 0.517278
0.523370 0.519748 0.519228
0.484414 0.493107 0.491863
0.487088 0.495057 0.493812
0.489762 0.497006 0.495762
0.492436 0.498956 0.497711
0.495110 0.500905 0.499661
0.497784 0.502855 0.501610
0.500458 0.504804 0.503560
0.503132 0.506754 0.505509
0.505806 0.508703 0.507459
0.508480 0.510653 0.509408
0.511153 0.512602 0.511358
0.513827 0.514552 0.513307
0.516501 0.516501 0.515257
0.519175 0.518451 0.517206
0.521849 0.520400 0.519156
0.524523 0.522350 0.521105
0.527197 0.524299 0.523055
0.488241 0.497659 0.495690
0.490915 0.499609 0.497640
0.493589 0.501558 0.499589
0.496263 0.503508 0.501539
0.498937 0.505457 0.503488
0.501611 0.507407 0.505438
0.504285 0.509356 0.507387
0.506959 0.511306 0.509337
0.509633 0.513255 0.511286
0.512307 0.515205 0.513236
0.514981 0.517154 0.515185
0.517655 0.519104 0.517135
0.520329 0.521053 0.519084
0.523003 0.523003 0.521034
0.525677 0.524952 0.522983
0.528351 0.526902 0.524933
0.531024 0.528851 0.526882
0.492069 0.502211 0.499517
0.494742 0.504160 0.501467
0.497416 0.506110 0.503416
0.500090 0.508059 0.505366
0.502764 0.510009 0.507315
0.505438 0.511958 0.509265
0.508112 0.513908 0.511214
0.510786 0.515857 0.513164
0.513460 0.517807 0.515113
0.516134 0.519756 0.517063
0.518808 0.521706 0.519012
0.521482 0.523655 0.520962
0.524156 0.525605 0.522911
0.526830 0.527554 0.524861
0.529504 0.529504 0.526810
0.532178 0.531453 0.528760
0.534852 0.533403 0.530709
0.495896 0.506763 0.503345
0.498570 0.508712 0.505294
0.501244 0.510662 0.507244
0.503918 0.512611 0.509193
0.506592 0.514561 0.511143
0.509266 0.516510 0.513092
0.511940 0.518460 0.515042
0.514613 0.520409 0.516991
0.517287 0.522359 0.518941
0.519961 0.524308 0.520890
0.522635 0.526258 0.522840
0.525309 0.528207 0.524789
0.527983 0.530157 0.526739
0.530657 0.532106 0.528688
0.533331 0.534056 0.530638
0.536005 0.536005 0.532587
0.538679 0.537955 0.534537
0.499723 0.511314 0.507172
0.502397 0.513264 0.509121
0.505071 0.515213 0.511071
0.507745 0.517163 0.513020
0.510419 0.519112 0.514970
0.513093 0.521062 0.516919
0.515767 0.523011 0.518869
0.518441 0.524961 0.520818
0.521115 0.526910 0.522768
0.523789 0.528860 0.524717
0.526463 0.530809 0.526667
0.529137 0.532759 0.528616
0.531811 0.534708 0.530566
0.534484 0.536658 0.532515
0.537158 0.538607 0.534465
0.539832 0.540557 0.536414
0.542506 0.542506 0.538364
0.439230 0.439230 0.447403
0.441904 0.441179 0.449353
0.444578 0.443129 0.451302
0.447252 0.445078 0.453252
0.449926 0.447028 0.455201
0.452600 0.448977 0.457151
0.455274 0.450927 0.459100
0.457948 0.452876 0.461050
0.460621 0.454826 0.462999
0.463295 0.456775 0.464949
0.465969 0.458725 0.466898
0.468643 0.460674 0.468848
0.471317 0.462624 0.470797
0.473991 0.464573 0.472747
0.476665 0.466523 0.474696
0.479339 0.468472 0.476646
0.482013 0.470422 0.478595
0.443057 0.443782 0.451231
