shared/src/main/assets/luts/drama_cold_lake.cube
TITLE "DALUR Cold Lake"
LUT_3D_SIZE 5
DOMAIN_MIN 0.0 0.0 0.0
DOMAIN_MAX 1.0 1.0 1.0
0.413200 0.432000 0.446800
0.418386 0.443717 0.458517
0.423572 0.455434 0.470234
0.428757 0.467151 0.481951
0.433943 0.478868 0.493668
0.436203 0.448472 0.469803
0.441389 0.460189 0.481520
0.446575 0.471906 0.493237
0.451760 0.483623 0.504954
0.456946 0.495340 0.516671
0.459206 0.464944 0.492806
0.464392 0.476661 0.504523
0.469578 0.488378 0.516240
0.474763 0.500095 0.527957
0.479949 0.511812 0.539674
0.482209 0.481415 0.515809
0.487395 0.493132 0.527526
0.492581 0.504849 0.539243
0.497766 0.516566 0.550960
0.502952 0.528283 0.562677
0.505212 0.497887 0.538812
0.510398 0.509604 0.550529
0.515584 0.521321 0.562246
0.520769 0.533038 0.573963
0.525955 0.544755 0.585680
0.417667 0.436467 0.444736
0.422853 0.448184 0.456453
0.428039 0.459901 0.468170
0.433225 0.471618 0.479887
0.438411 0.483335 0.491604
0.440670 0.452939 0.467739
0.445856 0.464656 0.479456
0.451042 0.476373 0.491173
0.456228 0.488090 0.502890
0.461414 0.499807 0.514607
0.463673 0.469411 0.490742
0.468859 0.481128 0.502459
0.474045 0.492845 0.514176
0.479231 0.504562 0.525893
0.484417 0.516279 0.537610
0.486676 0.485883 0.513745
0.491862 0.497600 0.525462
0.497048 0.509317 0.537179
0.502234 0.521034 0.548896
0.507420 0.532751 0.560613
0.509679 0.502354 0.536748
0.514865 0.514071 0.548465
0.520051 0.525788 0.560182
0.525237 0.537506 0.571899
0.530423 0.549223 0.583616
0.422135 0.440935 0.442672
0.427321 0.452652 0.454389
0.432506 0.464369 0.466106
0.437692 0.476086 0.477823
0.442878 0.487803 0.489540
0.445138 0.457406 0.465675
0.450324 0.469124 0.477392
0.455509 0.480841 0.489109
0.460695 0.492558 0.500826
0.465881 0.504275 0.512543
0.468141 0.473878 0.488678
0.473327 0.485595 0.500395
0.478512 0.497312 0.512112
0.483698 0.509029 0.523829
0.488884 0.520746 0.535546
0.491144 0.490350 0.511681
0.496330 0.502067 0.523398
0.501515 0.513784 0.535115
0.506701 0.525501 0.546832
0.511887 0.537218 0.558549
0.514147 0.506822 0.534684
0.519333 0.518539 0.546401
0.524518 0.530256 0.558118
0.529704 0.541973 0.569835
0.534890 0.553690 0.581552
0.426602 0.445402 0.440608
0.431788 0.457119 0.452325
0.436974 0.468836 0.464042
0.442159 0.480553 0.475759
0.447345 0.492270 0.487477
0.449605 0.461874 0.463611
0.454791 0.473591 0.475328
0.459977 0.485308 0.487045
0.465162 0.497025 0.498762
0.470348 0.508742 0.510480
0.472608 0.478346 0.486614
0.477794 0.490063 0.498331
0.482980 0.501780 0.510048
0.488165 0.513497 0.521765
0.493351 0.525214 0.533482
0.495611 0.494817 0.509617
0.500797 0.506534 0.521334
0.505983 0.518251 0.533051
0.511168 0.529968 0.544768
0.516354 0.541685 0.556485
0.518614 0.511289 0.532620
0.523800 0.523006 0.544337
0.528986 0.534723 0.556054
0.534171 0.546440 0.567771
0.539357 0.558157 0.579488
0.431069 0.449869 0.438545
0.436255 0.461586 0.450262
0.441441 0.473304 0.461979
0.446627 0.485021 0.473696
0.451813 0.496738 0.485413
0.454072 0.466341 0.461548
0.459258 0.478058 0.473265
0.464444 0.489775 0.484982
0.469630 0.501492 0.496699
0.474816 0.513209 0.508416
0.477075 0.482813 0.484551
0.482261 0.494530 0.496268
0.487447 0.506247 0.507985
0.492633 0.517964 0.519702
0.497819 0.529681 0.531419
0.500078 0.499285 0.507554
0.505264 0.511002 0.519271
0.510450 0.522719 0.530988
0.515636 0.534436 0.542705
0.520822 0.546153 0.554422
0.523081 0.515757 0.530557
0.528267 0.527474 0.542274
0.533453 0.539191 0.553991
0.538639 0.550908 0.565708
0.543825 0.562625 0.577425
