shared/src/main/assets/luts/drama_80s_night.cube
TITLE "DALUR 80s Night"
LUT_3D_SIZE 9
DOMAIN_MIN 0.0 0.0 0.0
DOMAIN_MAX 1.0 1.0 1.0
0.424000 0.428500 0.436000
0.431424 0.432543 0.440043
0.438848 0.436587 0.444087
0.446273 0.440630 0.448130
0.453697 0.444674 0.452174
0.461121 0.448717 0.456217
0.468545 0.452760 0.460260
0.475969 0.456804 0.464304
0.483393 0.460847 0.468347
0.431938 0.439819 0.443938
0.439362 0.443862 0.447981
0.446786 0.447906 0.452025
0.454211 0.451949 0.456068
0.461635 0.455992 0.460112
0.469059 0.460036 0.464155
0.476483 0.464079 0.468199
0.483907 0.468123 0.472242
0.491332 0.472166 0.476285
0.439876 0.451138 0.451876
0.447300 0.455181 0.455920
0.454725 0.459225 0.459963
0.462149 0.463268 0.464006
0.469573 0.467311 0.468050
0.476997 0.471355 0.472093
0.484421 0.475398 0.476137
0.491845 0.479442 0.480180
0.499270 0.483485 0.484223
0.447814 0.462457 0.459814
0.455238 0.466500 0.463858
0.462663 0.470543 0.467901
0.470087 0.474587 0.471944
0.477511 0.478630 0.475988
0.484935 0.482674 0.480031
0.492359 0.486717 0.484075
0.499784 0.490760 0.488118
0.507208 0.494804 0.492161
0.455752 0.473775 0.467752
0.463176 0.477819 0.471796
0.470601 0.481862 0.475839
0.478025 0.485906 0.479882
0.485449 0.489949 0.483926
0.492873 0.493992 0.487969
0.500297 0.498036 0.492013
0.507722 0.502079 0.496056
0.515146 0.506123 0.500100
0.463690 0.485094 0.475690
0.471115 0.489138 0.479734
0.478539 0.493181 0.483777
0.485963 0.497224 0.487821
0.493387 0.501268 0.491864
0.500811 0.505311 0.495907
0.508235 0.509355 0.499951
0.515660 0.513398 0.503994
0.523084 0.517441 0.508038
0.471628 0.496413 0.483628
0.479053 0.500456 0.487672
0.486477 0.504500 0.491715
0.493901 0.508543 0.495759
0.501325 0.512587 0.499802
0.508749 0.516630 0.503845
0.516174 0.520674 0.507889
0.523598 0.524717 0.511932
0.531022 0.528760 0.515976
0.479566 0.507732 0.491566
0.486991 0.511775 0.495610
0.494415 0.515819 0.499653
0.501839 0.519862 0.503697
0.509263 0.523906 0.507740
0.516687 0.527949 0.511784
0.524112 0.531992 0.515827
0.531536 0.536036 0.519870
0.538960 0.540079 0.523914
0.487505 0.519051 0.499505
0.494929 0.523094 0.503548
0.502353 0.527138 0.507591
0.509777 0.531181 0.511635
0.517201 0.535224 0.515678
0.524625 0.539268 0.519722
0.532050 0.543311 0.523765
0.539474 0.547355 0.527808
0.546898 0.551398 0.531852
0.425542 0.430042 0.440922
0.432966 0.434085 0.444966
0.440390 0.438128 0.449009
0.447814 0.442172 0.453053
0.455238 0.446215 0.457096
0.462663 0.450259 0.461139
0.470087 0.454302 0.465183
0.477511 0.458346 0.469226
0.484935 0.462389 0.473270
0.433480 0.441360 0.448860
0.440904 0.445404 0.452904
0.448328 0.449447 0.456947
0.455752 0.453491 0.460991
0.463176 0.457534 0.465034
0.470601 0.461578 0.469078
0.478025 0.465621 0.473121
0.485449 0.469664 0.477164
0.492873 0.473708 0.481208
0.441418 0.452679 0.456799
0.448842 0.456723 0.460842
0.456266 0.460766 0.464885
0.463690 0.464810 0.468929
0.471115 0.468853 0.472972
0.478539 0.472896 0.477016
0.485963 0.476940 0.481059
0.493387 0.480983 0.485102
0.500811 0.485027 0.489146
0.449356 0.463998 0.464737
0.456780 0.468042 0.468780
0.464204 0.472085 0.472823
0.471628 0.476128 0.476867
0.479053 0.480172 0.480910
0.486477 0.484215 0.484954
0.493901 0.488259 0.488997
0.501325 0.492302 0.493040
0.508749 0.496345 0.497084
0.457294 0.475317 0.472675
0.464718 0.479360 0.476718
0.472142 0.483404 0.480761
0.479566 0.487447 0.484805
0.486991 0.491491 0.488848
0.494415 0.495534 0.492892
0.501839 0.499577 0.496935
0.509263 0.503621 0.500979
0.516687 0.507664 0.505022
0.465232 0.486636 0.480613
0.472656 0.490679 0.484656
0.480080 0.494723 0.488700
0.487505 0.498766 0.492743
0.494929 0.502809 0.496786
0.502353 0.506853 0.500830
0.509777 0.510896 0.504873
0.517201 0.514940 0.508917
0.524625 0.518983 0.512960
0.473170 0.497955 0.488551
0.480594 0.501998 0.492594
0.488018 0.506042 0.496638
0.495443 0.510085 0.500681
0.502867 0.514128 0.504724
0.510291 0.518172 0.508768
0.517715 0.522215 0.512811
0.525139 0.526259 0.516855
0.532564 0.530302 0.520898
0.481108 0.509274 0.496489
0.488532 0.513317 0.500532
0.495956 0.517360 0.504576
0.503381 0.521404 0.508619
0.510805 0.525447 0.512663
0.518229 0.529491 0.516706
0.525653 0.533534 0.520749
0.533077 0.537577 0.524793
0.540502 0.541621 0.528836
0.489046 0.520592 0.504427
0.496470 0.524636 0.508470
0.503895 0.528679 0.512514
0.511319 0.532723 0.516557
0.518743 0.536766 0.520601
0.526167 0.540809 0.524644
0.533591 0.544853 0.528687
0.541015 0.548896 0.532731
0.548440 0.552940 0.536774
0.427083 0.431583 0.445845
0.434507 0.435627 0.449888
0.441932 0.439670 0.453932
0.449356 0.443713 0.457975
0.456780 0.447757 0.462018
0.464204 0.451800 0.466062
0.471628 0.455844 0.470105
0.479053 0.459887 0.474149
0.486477 0.463931 0.478192
0.435021 0.442902 0.453783
0.442446 0.446946 0.457826
0.449870 0.450989 0.461870
0.457294 0.455032 0.465913
0.464718 0.459076 0.469957
0.472142 0.463119 0.474000
0.479566 0.467163 0.478043
0.486991 0.471206 0.482087
0.494415 0.475249 0.486130
0.442959 0.454221 0.461721
0.450384 0.458264 0.465764
0.457808 0.462308 0.469808
0.465232 0.466351 0.473851
0.472656 0.470395 0.477895
0.480080 0.474438 0.481938
0.487505 0.478481 0.485981
0.494929 0.482525 0.490025
0.502353 0.486568 0.494068
0.450897 0.465540 0.469659
0.458322 0.469583 0.473702
0.465746 0.473627 0.477746
0.473170 0.477670 0.481789
0.480594 0.481713 0.485833
0.488018 0.485757 0.489876
0.495443 0.489800 0.493919
0.502867 0.493844 0.497963
0.510291 0.497887 0.502006
0.458836 0.476859 0.477597
0.466260 0.480902 0.481640
0.473684 0.484945 0.485684
0.481108 0.488989 0.489727
0.488532 0.493032 0.493771
0.495956 0.497076 0.497814
0.503381 0.501119 0.501858
0.510805 0.505163 0.505901
0.518229 0.509206 0.509944
0.466774 0.488177 0.485535
0.474198 0.492221 0.489579
0.481622 0.496264 0.493622
0.489046 0.500308 0.497665
0.496470 0.504351 0.501709
0.503895 0.508395 0.505752
0.511319 0.512438 0.509796
0.518743 0.516481 0.513839
0.526167 0.520525 0.517882
0.474712 0.499496 0.493473
0.482136 0.503540 0.497517
0.489560 0.507583 0.501560
0.496984 0.511627 0.505603
0.504408 0.515670 0.509647
0.511833 0.519713 0.513690
0.519257 0.523757 0.517734
0.526681 0.527800 0.521777
0.534105 0.531844 0.525820
0.482650 0.510815 0.501411
0.490074 0.514859 0.505455
0.497498 0.518902 0.509498
0.504922 0.522945 0.513542
0.512346 0.526989 0.517585
0.519771 0.531032 0.521628
0.527195 0.535076 0.525672
0.534619 0.539119 0.529715
0.542043 0.543162 0.533759
0.490588 0.522134 0.509349
0.498012 0.526177 0.513393
0.505436 0.530221 0.517436
0.512860 0.534264 0.521480
0.520285 0.538308 0.525523
0.527709 0.542351 0.529566
0.535133 0.546394 0.533610
0.542557 0.550438 0.537653
0.549981 0.554481 0.541697
0.428625 0.433125 0.450767
0.436049 0.437168 0.454811
0.443473 0.441212 0.458854
0.450897 0.445255 0.462897
0.458322 0.449299 0.466941
0.465746 0.453342 0.470984
0.473170 0.457385 0.475028
0.480594 0.461429 0.479071
0.488018 0.465472 0.483115
0.436563 0.444444 0.458705
0.443987 0.448487 0.462749
0.451411 0.452531 0.466792
0.458836 0.456574 0.470836
0.466260 0.460617 0.474879
0.473684 0.464661 0.478922
0.481108 0.468704 0.482966
0.488532 0.472748 0.487009
0.495956 0.476791 0.491053
0.444501 0.455763 0.466643
0.451925 0.459806 0.470687
0.459349 0.463849 0.474730
0.466774 0.467893 0.478774
0.474198 0.471936 0.482817
0.481622 0.475980 0.486860
0.489046 0.480023 0.490904
0.496470 0.484066 0.494947
0.503895 0.488110 0.498991
0.452439 0.467081 0.474581
0.459863 0.471125 0.478625
0.467287 0.475168 0.482668
0.474712 0.479212 0.486712
0.482136 0.483255 0.490755
0.489560 0.487298 0.494798
0.496984 0.491342 0.498842
0.504408 0.495385 0.502885
0.511833 0.499429 0.506929
0.460377 0.478400 0.482519
0.467801 0.482444 0.486563
0.475226 0.486487 0.490606
0.482650 0.490530 0.494650
0.490074 0.494574 0.498693
0.497498 0.498617 0.502737
0.504922 0.502661 0.506780
0.512346 0.506704 0.510823
0.519771 0.510748 0.514867
0.468315 0.489719 0.490458
0.475739 0.493763 0.494501
0.483164 0.497806 0.498544
0.490588 0.501849 0.502588
0.498012 0.505893 0.506631
0.505436 0.509936 0.510675
0.512860 0.513980 0.514718
0.520285 0.518023 0.518761
0.527709 0.522066 0.522805
0.476253 0.501038 0.498396
0.483677 0.505081 0.502439
0.491102 0.509125 0.506482
0.498526 0.513168 0.510526
0.505950 0.517212 0.514569
0.513374 0.521255 0.518613
0.520798 0.525298 0.522656
0.528223 0.529342 0.526699
0.535647 0.533385 0.530743
0.484191 0.512357 0.506334
0.491616 0.516400 0.510377
0.499040 0.520444 0.514421
0.506464 0.524487 0.518464
0.513888 0.528530 0.522507
0.521312 0.532574 0.526551
0.528736 0.536617 0.530594
0.536161 0.540661 0.534638
0.543585 0.544704 0.538681
0.492129 0.523676 0.514272
0.499554 0.527719 0.518315
0.506978 0.531762 0.522359
0.514402 0.535806 0.526402
0.521826 0.539849 0.530445
0.529250 0.543893 0.534489
0.536675 0.547936 0.538532
0.544099 0.551980 0.542576
0.551523 0.556023 0.546619
0.430167 0.434667 0.455690
0.437591 0.438710 0.459733
0.445015 0.442753 0.463776
0.452439 0.446797 0.467820
0.459863 0.450840 0.471863
0.467287 0.454884 0.475907
0.474712 0.458927 0.479950
0.482136 0.462970 0.483994
0.489560 0.467014 0.488037
0.438105 0.445985 0.463628
0.445529 0.450029 0.467671
0.452953 0.454072 0.471715
0.460377 0.458116 0.475758
0.467801 0.462159 0.479801
0.475226 0.466202 0.483845
0.482650 0.470246 0.487888
0.490074 0.474289 0.491932
0.497498 0.478333 0.495975
0.446043 0.457304 0.471566
0.453467 0.461348 0.475609
0.460891 0.465391 0.479653
0.468315 0.469434 0.483696
0.475739 0.473478 0.487739
0.483164 0.477521 0.491783
0.490588 0.481565 0.495826
0.498012 0.485608 0.499870
0.505436 0.489651 0.503913
0.453981 0.468623 0.479504
0.461405 0.472666 0.483547
0.468829 0.476710 0.487591
0.476253 0.480753 0.491634
0.483677 0.484797 0.495677
0.491102 0.488840 0.499721
0.498526 0.492884 0.503764
0.505950 0.496927 0.507808
0.513374 0.500970 0.511851
0.461919 0.479942 0.487442
0.469343 0.483985 0.491485
0.476767 0.488029 0.495529
0.484191 0.492072 0.499572
0.491616 0.496116 0.503616
0.499040 0.500159 0.507659
0.506464 0.504202 0.511702
0.513888 0.508246 0.515746
0.521312 0.512289 0.519789
0.469857 0.491261 0.495380
0.477281 0.495304 0.499423
0.484705 0.499348 0.503467
0.492129 0.503391 0.507510
0.499554 0.507434 0.511554
0.506978 0.511478 0.515597
0.514402 0.515521 0.519640
0.521826 0.519565 0.523684
0.529250 0.523608 0.527727
0.477795 0.502580 0.503318
0.485219 0.506623 0.507361
0.492643 0.510666 0.511405
0.500067 0.514710 0.515448
0.507492 0.518753 0.519492
0.514916 0.522797 0.523535
0.522340 0.526840 0.527578
0.529764 0.530883 0.531622
0.537188 0.534927 0.535665
0.485733 0.513898 0.511256
0.493157 0.517942 0.515300
0.500581 0.521985 0.519343
0.508006 0.526029 0.523386
0.515430 0.530072 0.527430
0.522854 0.534115 0.531473
0.530278 0.538159 0.535517
0.537702 0.542202 0.539560
0.545126 0.546246 0.543603
0.493671 0.525217 0.519194
0.501095 0.529261 0.523238
0.508519 0.533304 0.527281
0.515944 0.537348 0.531324
0.523368 0.541391 0.535368
0.530792 0.545434 0.539411
0.538216 0.549478 0.543455
0.545640 0.553521 0.547498
0.553065 0.557565 0.551541
0.431708 0.436208 0.460612
0.439132 0.440252 0.464655
0.446557 0.444295 0.468699
0.453981 0.448338 0.472742
0.461405 0.452382 0.476786
0.468829 0.456425 0.480829
0.476253 0.460469 0.484873
0.483677 0.464512 0.488916
0.491102 0.468555 0.492959
0.439646 0.447527 0.468550
0.447070 0.451570 0.472594
0.454495 0.455614 0.476637
0.461919 0.459657 0.480680
0.469343 0.463701 0.484724
0.476767 0.467744 0.488767
0.484191 0.471787 0.492811
0.491616 0.475831 0.496854
0.499040 0.479874 0.500897
0.447584 0.458846 0.476488
0.455008 0.462889 0.480532
0.462433 0.466933 0.484575
0.469857 0.470976 0.488618
0.477281 0.475019 0.492662
0.484705 0.479063 0.496705
0.492129 0.483106 0.500749
0.499554 0.487150 0.504792
0.506978 0.491193 0.508835
0.455522 0.470165 0.484426
0.462947 0.474208 0.488470
0.470371 0.478252 0.492513
0.477795 0.482295 0.496556
0.485219 0.486338 0.500600
0.492643 0.490382 0.504643
0.500067 0.494425 0.508687
0.507492 0.498469 0.512730
0.514916 0.502512 0.516774
0.463460 0.481484 0.492364
0.470885 0.485527 0.496408
0.478309 0.489570 0.500451
0.485733 0.493614 0.504495
0.493157 0.497657 0.508538
0.500581 0.501701 0.512581
0.508006 0.505744 0.516625
0.515430 0.509787 0.520668
0.522854 0.513831 0.524712
0.471398 0.492802 0.500302
0.478823 0.496846 0.504346
0.486247 0.500889 0.508389
0.493671 0.504933 0.512433
0.501095 0.508976 0.516476
0.508519 0.513019 0.520519
0.515944 0.517063 0.524563
0.523368 0.521106 0.528606
0.530792 0.525150 0.532650
0.479337 0.504121 0.508240
0.486761 0.508165 0.512284
0.494185 0.512208 0.516327
0.501609 0.516251 0.520371
0.509033 0.520295 0.524414
0.516457 0.524338 0.528457
0.523882 0.528382 0.532501
0.531306 0.532425 0.536544
0.538730 0.536468 0.540588
0.487275 0.515440 0.516179
0.494699 0.519483 0.520222
0.502123 0.523527 0.524265
0.509547 0.527570 0.528309
0.516971 0.531614 0.532352
0.524396 0.535657 0.536396
0.531820 0.539701 0.540439
0.539244 0.543744 0.544482
0.546668 0.547787 0.548526
0.495213 0.526759 0.524117
0.502637 0.530802 0.528160
0.510061 0.534846 0.532203
0.517485 0.538889 0.536247
0.524909 0.542933 0.540290
0.532334 0.546976 0.544334
0.539758 0.551019 0.548377
0.547182 0.555063 0.552420
0.554606 0.559106 0.556464
0.433250 0.437750 0.465534
0.440674 0.441793 0.469578
0.448098 0.445837 0.473621
0.455522 0.449880 0.477665
0.462947 0.453923 0.481708
0.470371 0.457967 0.485752
0.477795 0.462010 0.489795
0.485219 0.466054 0.493838
0.492643 0.470097 0.497882
0.441188 0.449069 0.473473
0.448612 0.453112 0.477516
0.456036 0.457155 0.481559
0.463460 0.461199 0.485603
0.470885 0.465242 0.489646
0.478309 0.469286 0.493690
0.485733 0.473329 0.497733
0.493157 0.477373 0.501776
0.500581 0.481416 0.505820
0.449126 0.460387 0.481411
0.456550 0.464431 0.485454
0.463974 0.468474 0.489497
0.471398 0.472518 0.493541
0.478823 0.476561 0.497584
0.486247 0.480605 0.501628
0.493671 0.484648 0.505671
0.501095 0.488691 0.509714
0.508519 0.492735 0.513758
0.457064 0.471706 0.489349
0.464488 0.475750 0.493392
0.471912 0.479793 0.497435
0.479337 0.483837 0.501479
0.486761 0.487880 0.505522
0.494185 0.491923 0.509566
0.501609 0.495967 0.513609
0.509033 0.500010 0.517653
0.516457 0.504054 0.521696
0.465002 0.483025 0.497287
0.472426 0.487069 0.501330
0.479850 0.491112 0.505374
0.487275 0.495155 0.509417
0.494699 0.499199 0.513460
0.502123 0.503242 0.517504
0.509547 0.507286 0.521547
0.516971 0.511329 0.525591
0.524396 0.515372 0.529634
0.472940 0.494344 0.505225
0.480364 0.498387 0.509268
0.487789 0.502431 0.513312
0.495213 0.506474 0.517355
0.502637 0.510518 0.521398
0.510061 0.514561 0.525442
0.517485 0.518604 0.529485
0.524909 0.522648 0.533529
0.532334 0.526691 0.537572
0.480878 0.505663 0.513163
0.488302 0.509706 0.517206
0.495727 0.513750 0.521250
0.503151 0.517793 0.525293
0.510575 0.521836 0.529336
0.517999 0.525880 0.533380
0.525423 0.529923 0.537423
0.532848 0.533967 0.541467
0.540272 0.538010 0.545510
0.488816 0.516982 0.521101
0.496240 0.521025 0.525144
0.503665 0.525069 0.529188
0.511089 0.529112 0.533231
0.518513 0.533155 0.537275
0.525937 0.537199 0.541318
0.533361 0.541242 0.545361
0.540786 0.545286 0.549405
0.548210 0.549329 0.553448
0.496754 0.528301 0.529039
0.504179 0.532344 0.533082
0.511603 0.536387 0.537126
0.519027 0.540431 0.541169
0.526451 0.544474 0.545213
0.533875 0.548518 0.549256
0.541299 0.552561 0.553299
0.548724 0.556604 0.557343
0.556148 0.560648 0.561386
0.434791 0.439291 0.470457
0.442216 0.443335 0.474500
0.449640 0.447378 0.478544
0.457064 0.451422 0.482587
0.464488 0.455465 0.486631
0.471912 0.459508 0.490674
0.479337 0.463552 0.494717
0.486761 0.467595 0.498761
0.494185 0.471639 0.502804
0.442730 0.450610 0.478395
0.450154 0.454654 0.482438
0.457578 0.458697 0.486482
0.465002 0.462741 0.490525
0.472426 0.466784 0.494569
0.479850 0.470827 0.498612
0.487275 0.474871 0.502655
0.494699 0.478914 0.506699
0.502123 0.482958 0.510742
0.450668 0.461929 0.486333
0.458092 0.465973 0.490376
0.465516 0.470016 0.494420
0.472940 0.474059 0.498463
0.480364 0.478103 0.502507
0.487789 0.482146 0.506550
0.495213 0.486190 0.510593
0.502637 0.490233 0.514637
0.510061 0.494276 0.518680
0.458606 0.473248 0.494271
0.466030 0.477291 0.498314
0.473454 0.481335 0.502358
0.480878 0.485378 0.506401
0.488302 0.489422 0.510445
0.495727 0.493465 0.514488
0.503151 0.497508 0.518532
0.510575 0.501552 0.522575
0.517999 0.505595 0.526618
0.466544 0.484567 0.502209
0.473968 0.488610 0.506253
0.481392 0.492654 0.510296
0.488816 0.496697 0.514339
0.496240 0.500740 0.518383
0.503665 0.504784 0.522426
0.511089 0.508827 0.526470
0.518513 0.512871 0.530513
0.525937 0.516914 0.534556
0.474482 0.495886 0.510147
0.481906 0.499929 0.514191
0.489330 0.503972 0.518234
0.496754 0.508016 0.522277
0.504179 0.512059 0.526321
0.511603 0.516103 0.530364
0.519027 0.520146 0.534408
0.526451 0.524190 0.538451
0.533875 0.528233 0.542494
0.482420 0.507204 0.518085
0.489844 0.511248 0.522129
0.497268 0.515291 0.526172
0.504692 0.519335 0.530215
0.512117 0.523378 0.534259
0.519541 0.527422 0.538302
0.526965 0.531465 0.542346
0.534389 0.535508 0.546389
0.541813 0.539552 0.550433
0.490358 0.518523 0.526023
0.497782 0.522567 0.530067
0.505206 0.526610 0.534110
0.512630 0.530654 0.538154
0.520055 0.534697 0.542197
0.527479 0.538740 0.546240
0.534903 0.542784 0.550284
0.542327 0.546827 0.554327
0.549751 0.550871 0.558371
0.498296 0.529842 0.533961
0.505720 0.533886 0.538005
0.513144 0.537929 0.542048
0.520569 0.541972 0.546092
0.527993 0.546016 0.550135
0.535417 0.550059 0.554178
0.542841 0.554103 0.558222
0.550265 0.558146 0.562265
0.557689 0.562189 0.566309
0.436333 0.440833 0.475379
0.443757 0.444876 0.479423
0.451181 0.448920 0.483466
0.458606 0.452963 0.487510
0.466030 0.457007 0.491553
0.473454 0.461050 0.495596
0.480878 0.465094 0.499640
0.488302 0.469137 0.503683
0.495727 0.473180 0.507727
0.444271 0.452152 0.483317
0.451695 0.456195 0.487361
0.459120 0.460239 0.491404
0.466544 0.464282 0.495448
0.473968 0.468326 0.499491
0.481392 0.472369 0.503534
0.488816 0.476412 0.507578
0.496240 0.480456 0.511621
0.503665 0.484499 0.515665
0.452209 0.463471 0.491255
0.459633 0.467514 0.495299
0.467058 0.471558 0.499342
0.474482 0.475601 0.503386
0.481906 0.479644 0.507429
0.489330 0.483688 0.511472
0.496754 0.487731 0.515516
0.504179 0.491775 0.519559
0.511603 0.495818 0.523603
0.460147 0.474790 0.499193
0.467571 0.478833 0.503237
0.474996 0.482876 0.507280
0.482420 0.486920 0.511324
0.489844 0.490963 0.515367
0.497268 0.495007 0.519411
0.504692 0.499050 0.523454
0.512117 0.503093 0.527497
0.519541 0.507137 0.531541
0.468085 0.486108 0.507132
0.475510 0.490152 0.511175
0.482934 0.494195 0.515218
0.490358 0.498239 0.519262
0.497782 0.502282 0.523305
0.505206 0.506325 0.527349
0.512630 0.510369 0.531392
0.520055 0.514412 0.535435
0.527479 0.518456 0.539479
0.476023 0.497427 0.515070
0.483448 0.501471 0.519113
0.490872 0.505514 0.523156
0.498296 0.509558 0.527200
0.505720 0.513601 0.531243
0.513144 0.517644 0.535287
0.520569 0.521688 0.539330
0.527993 0.525731 0.543373
0.535417 0.529775 0.547417
0.483961 0.508746 0.523008
0.491386 0.512790 0.527051
0.498810 0.516833 0.531094
0.506234 0.520876 0.535138
0.513658 0.524920 0.539181
0.521082 0.528963 0.543225
0.528507 0.533007 0.547268
0.535931 0.537050 0.551312
0.543355 0.541093 0.555355
0.491900 0.520065 0.530946
0.499324 0.524108 0.534989
0.506748 0.528152 0.539033
0.514172 0.532195 0.543076
0.521596 0.536239 0.547119
0.529020 0.540282 0.551163
0.536445 0.544325 0.555206
0.543869 0.548369 0.559250
0.551293 0.552412 0.563293
0.499838 0.531384 0.538884
0.507262 0.535427 0.542927
0.514686 0.539471 0.546971
0.522110 0.543514 0.551014
0.529534 0.547557 0.555057
0.536959 0.551601 0.559101
0.544383 0.555644 0.563144
0.551807 0.559688 0.567188
0.559231 0.563731 0.571231
