shared/src/main/assets/luts/drama_sterile_office.cube
TITLE "DALUR Sterile Office"
LUT_3D_SIZE 9
DOMAIN_MIN 0.0 0.0 0.0
DOMAIN_MAX 1.0 1.0 1.0
0.485200 0.491000 0.494800
0.485712 0.491909 0.495709
0.486225 0.492817 0.496617
0.486737 0.493726 0.497526
0.487249 0.494635 0.498435
0.487761 0.495543 0.499343
0.488274 0.496452 0.500252
0.488786 0.497360 0.501160
0.489298 0.498269 0.502069
0.486984 0.492387 0.496584
0.487496 0.493296 0.497492
0.488008 0.494205 0.498401
0.488521 0.495113 0.499310
0.489033 0.496022 0.500218
0.489545 0.496931 0.501127
0.490057 0.497839 0.502036
0.490570 0.498748 0.502944
0.491082 0.499657 0.503853
0.488768 0.493775 0.498368
0.489280 0.494684 0.499276
0.489792 0.495592 0.500185
0.490304 0.496501 0.501094
0.490817 0.497409 0.502002
0.491329 0.498318 0.502911
0.491841 0.499227 0.503820
0.492354 0.500135 0.504728
0.492866 0.501044 0.505637
0.490552 0.495162 0.500152
0.491064 0.496071 0.501060
0.491576 0.496980 0.501969
0.492088 0.497888 0.502877
0.492601 0.498797 0.503786
0.493113 0.499706 0.504695
0.493625 0.500614 0.505603
0.494137 0.501523 0.506512
0.494650 0.502432 0.507421
0.492335 0.496550 0.501935
0.492848 0.497459 0.502844
0.493360 0.498367 0.503753
0.493872 0.499276 0.504661
0.494384 0.500184 0.505570
0.494897 0.501093 0.506479
0.495409 0.502002 0.507387
0.495921 0.502910 0.508296
0.496433 0.503819 0.509205
0.494119 0.497937 0.503719
0.494632 0.498846 0.504628
0.495144 0.499755 0.505537
0.495656 0.500663 0.506445
0.496168 0.501572 0.507354
0.496681 0.502481 0.508262
0.497193 0.503389 0.509171
0.497705 0.504298 0.510080
0.498217 0.505206 0.510988
0.495903 0.499325 0.505503
0.496415 0.500233 0.506412
0.496928 0.501142 0.507320
0.497440 0.502051 0.508229
0.497952 0.502959 0.509138
0.498464 0.503868 0.510046
0.498977 0.504777 0.510955
0.499489 0.505685 0.511864
0.500001 0.506594 0.512772
0.497687 0.500712 0.507287
0.498199 0.501621 0.508196
0.498711 0.502530 0.509104
0.499224 0.503438 0.510013
0.499736 0.504347 0.510922
0.500248 0.505255 0.511830
0.500760 0.506164 0.512739
0.501273 0.507073 0.513647
0.501785 0.507981 0.514556
0.499471 0.502100 0.509071
0.499983 0.503008 0.509979
0.500495 0.503917 0.510888
0.501008 0.504826 0.511797
0.501520 0.505734 0.512705
0.502032 0.506643 0.513614
0.502544 0.507552 0.514523
0.503057 0.508460 0.515431
0.503569 0.509369 0.516340
0.485546 0.491346 0.494750
0.486059 0.492255 0.495659
0.486571 0.493164 0.496567
0.487083 0.494072 0.497476
0.487595 0.494981 0.498385
0.488108 0.495890 0.499293
0.488620 0.496798 0.500202
0.489132 0.497707 0.501111
0.489644 0.498616 0.502019
0.487330 0.492734 0.496534
0.487843 0.493643 0.497443
0.488355 0.494551 0.498351
0.488867 0.495460 0.499260
0.489379 0.496368 0.500168
0.489892 0.497277 0.501077
0.490404 0.498186 0.501986
0.490916 0.499094 0.502894
0.491428 0.500003 0.503803
0.489114 0.494121 0.498318
0.489626 0.495030 0.499226
0.490139 0.495939 0.500135
0.490651 0.496847 0.501044
0.491163 0.497756 0.501952
0.491675 0.498665 0.502861
0.492188 0.499573 0.503770
0.492700 0.500482 0.504678
0.493212 0.501390 0.505587
0.490898 0.495509 0.500102
0.491410 0.496417 0.501010
0.491923 0.497326 0.501919
0.492435 0.498235 0.502828
0.492947 0.499143 0.503736
0.493459 0.500052 0.504645
0.493972 0.500961 0.505553
0.494484 0.501869 0.506462
0.494996 0.502778 0.507371
0.492682 0.496896 0.501885
0.493194 0.497805 0.502794
0.493706 0.498714 0.503703
0.494219 0.499622 0.504611
0.494731 0.500531 0.505520
0.495243 0.501440 0.506429
0.495755 0.502348 0.507337
0.496268 0.503257 0.508246
0.496780 0.504165 0.509155
0.494466 0.498284 0.503669
0.494978 0.499192 0.504578
0.495490 0.500101 0.505487
0.496002 0.501010 0.506395
0.496515 0.501918 0.507304
0.497027 0.502827 0.508213
0.497539 0.503736 0.509121
0.498051 0.504644 0.510030
0.498564 0.505553 0.510938
0.496250 0.499671 0.505453
0.496762 0.500580 0.506362
0.497274 0.501489 0.507270
0.497786 0.502397 0.508179
0.498299 0.503306 0.509088
0.498811 0.504214 0.509996
0.499323 0.505123 0.510905
0.499835 0.506032 0.511814
0.500348 0.506940 0.512722
0.498033 0.501059 0.507237
0.498546 0.501967 0.508146
0.499058 0.502876 0.509054
0.499570 0.503785 0.509963
0.500082 0.504693 0.510872
0.500595 0.505602 0.511780
0.501107 0.506511 0.512689
0.501619 0.507419 0.513597
0.502131 0.508328 0.514506
0.499817 0.502446 0.509021
0.500329 0.503355 0.509929
0.500842 0.504263 0.510838
0.501354 0.505172 0.511747
0.501866 0.506081 0.512655
0.502379 0.506989 0.513564
0.502891 0.507898 0.514473
0.503403 0.508807 0.515381
0.503915 0.509715 0.516290
0.485893 0.491693 0.494700
0.486405 0.492602 0.495609
0.486917 0.493510 0.496517
0.487430 0.494419 0.497426
0.487942 0.495327 0.498335
0.488454 0.496236 0.499243
0.488966 0.497145 0.500152
0.489479 0.498053 0.501061
0.489991 0.498962 0.501969
0.487677 0.493080 0.496484
0.488189 0.493989 0.497393
0.488701 0.494898 0.498301
0.489213 0.495806 0.499210
0.489726 0.496715 0.500119
0.490238 0.497624 0.501027
0.490750 0.498532 0.501936
0.491263 0.499441 0.502844
0.491775 0.500349 0.503753
0.489461 0.494468 0.498268
0.489973 0.495376 0.499176
0.490485 0.496285 0.500085
0.490997 0.497194 0.500994
0.491510 0.498102 0.501902
0.492022 0.499011 0.502811
0.492534 0.499920 0.503720
0.493046 0.500828 0.504628
0.493559 0.501737 0.505537
0.491244 0.495855 0.500052
0.491757 0.496764 0.500960
0.492269 0.497673 0.501869
0.492781 0.498581 0.502778
0.493293 0.499490 0.503686
0.493806 0.500398 0.504595
0.494318 0.501307 0.505503
0.494830 0.502216 0.506412
0.495342 0.503124 0.507321
0.493028 0.497243 0.501836
0.493541 0.498151 0.502744
0.494053 0.499060 0.503653
0.494565 0.499969 0.504561
0.495077 0.500877 0.505470
0.495590 0.501786 0.506379
0.496102 0.502695 0.507287
0.496614 0.503603 0.508196
0.497126 0.504512 0.509105
0.494812 0.498630 0.503619
0.495324 0.499539 0.504528
0.495837 0.500447 0.505437
0.496349 0.501356 0.506345
0.496861 0.502265 0.507254
0.497373 0.503173 0.508163
0.497886 0.504082 0.509071
0.498398 0.504991 0.509980
0.498910 0.505899 0.510888
0.496596 0.500018 0.505403
0.497108 0.500926 0.506312
0.497620 0.501835 0.507220
0.498133 0.502744 0.508129
0.498645 0.503652 0.509038
0.499157 0.504561 0.509946
0.499670 0.505470 0.510855
0.500182 0.506378 0.511764
0.500694 0.507287 0.512672
0.498380 0.501405 0.507187
0.498892 0.502314 0.508096
0.499404 0.503222 0.509004
0.499917 0.504131 0.509913
0.500429 0.505040 0.510822
0.500941 0.505948 0.511730
0.501453 0.506857 0.512639
0.501966 0.507766 0.513548
0.502478 0.508674 0.514456
0.500164 0.502793 0.508971
0.500676 0.503701 0.509880
0.501188 0.504610 0.510788
0.501700 0.505519 0.511697
0.502213 0.506427 0.512605
0.502725 0.507336 0.513514
0.503237 0.508244 0.514423
0.503749 0.509153 0.515331
0.504262 0.510062 0.516240
0.486239 0.492039 0.494650
0.486752 0.492948 0.495559
0.487264 0.493857 0.496467
0.487776 0.494765 0.497376
0.488288 0.495674 0.498285
0.488801 0.496583 0.499193
0.489313 0.497491 0.500102
0.489825 0.498400 0.501011
0.490337 0.499308 0.501919
0.488023 0.493427 0.496434
0.488535 0.494335 0.497343
0.489048 0.495244 0.498251
0.489560 0.496153 0.499160
0.490072 0.497061 0.500069
0.490584 0.497970 0.500977
0.491097 0.498879 0.501886
0.491609 0.499787 0.502794
0.492121 0.500696 0.503703
0.489807 0.494814 0.498218
0.490319 0.495723 0.499127
0.490832 0.496632 0.500035
0.491344 0.497540 0.500944
0.491856 0.498449 0.501852
0.492368 0.499357 0.502761
0.492881 0.500266 0.503670
0.493393 0.501175 0.504578
0.493905 0.502083 0.505487
0.491591 0.496202 0.500002
0.492103 0.497110 0.500910
0.492615 0.498019 0.501819
0.493128 0.498928 0.502728
0.493640 0.499836 0.503636
0.494152 0.500745 0.504545
0.494664 0.501654 0.505454
0.495177 0.502562 0.506362
0.495689 0.503471 0.507271
0.493375 0.497589 0.501786
0.493887 0.498498 0.502694
0.494399 0.499406 0.503603
0.494911 0.500315 0.504511
0.495424 0.501224 0.505420
0.495936 0.502132 0.506329
0.496448 0.503041 0.507237
0.496961 0.503950 0.508146
0.497473 0.504858 0.509055
0.495159 0.498977 0.503569
0.495671 0.499885 0.504478
0.496183 0.500794 0.505387
0.496695 0.501703 0.506295
0.497208 0.502611 0.507204
0.497720 0.503520 0.508113
0.498232 0.504428 0.509021
0.498744 0.505337 0.509930
0.499257 0.506246 0.510839
0.496942 0.500364 0.505353
0.497455 0.501273 0.506262
0.497967 0.502181 0.507171
0.498479 0.503090 0.508079
0.498991 0.503999 0.508988
0.499504 0.504907 0.509896
0.500016 0.505816 0.510805
0.500528 0.506725 0.511714
0.501040 0.507633 0.512622
0.498726 0.501752 0.507137
0.499239 0.502660 0.508046
0.499751 0.503569 0.508954
0.500263 0.504478 0.509863
0.500775 0.505386 0.510772
0.501288 0.506295 0.511680
0.501800 0.507203 0.512589
0.502312 0.508112 0.513498
0.502824 0.509021 0.514406
0.500510 0.503139 0.508921
0.501022 0.504048 0.509830
0.501535 0.504956 0.510738
0.502047 0.505865 0.511647
0.502559 0.506774 0.512556
0.503071 0.507682 0.513464
0.503584 0.508591 0.514373
0.504096 0.509500 0.515281
0.504608 0.510408 0.516190
0.486586 0.492386 0.494600
0.487098 0.493294 0.495509
0.487610 0.494203 0.496418
0.488123 0.495112 0.497326
0.488635 0.496020 0.498235
0.489147 0.496929 0.499143
0.489659 0.497838 0.500052
0.490172 0.498746 0.500961
0.490684 0.499655 0.501869
0.488370 0.493773 0.496384
0.488882 0.494682 0.497293
0.489394 0.495590 0.498201
0.489906 0.496499 0.499110
0.490419 0.497408 0.500019
0.490931 0.498316 0.500927
0.491443 0.499225 0.501836
0.491955 0.500134 0.502745
0.492468 0.501042 0.503653
0.490153 0.495161 0.498168
0.490666 0.496069 0.499077
0.491178 0.496978 0.499985
0.491690 0.497887 0.500894
0.492202 0.498795 0.501802
0.492715 0.499704 0.502711
0.493227 0.500613 0.503620
0.493739 0.501521 0.504528
0.494252 0.502430 0.505437
0.491937 0.496548 0.499952
0.492450 0.497457 0.500860
0.492962 0.498365 0.501769
0.493474 0.499274 0.502678
0.493986 0.500183 0.503586
0.494499 0.501091 0.504495
0.495011 0.502000 0.505404
0.495523 0.502909 0.506312
0.496035 0.503817 0.507221
0.493721 0.497936 0.501736
0.494233 0.498844 0.502644
0.494746 0.499753 0.503553
0.495258 0.500662 0.504462
0.495770 0.501570 0.505370
0.496282 0.502479 0.506279
0.496795 0.503387 0.507187
0.497307 0.504296 0.508096
0.497819 0.505205 0.509005
0.495505 0.499323 0.503519
0.496017 0.500232 0.504428
0.496530 0.501140 0.505337
0.497042 0.502049 0.506245
0.497554 0.502958 0.507154
0.498066 0.503866 0.508063
0.498579 0.504775 0.508971
0.499091 0.505684 0.509880
0.499603 0.506592 0.510789
0.497289 0.500711 0.505303
0.497801 0.501619 0.506212
0.498313 0.502528 0.507121
0.498826 0.503436 0.508029
0.499338 0.504345 0.508938
0.499850 0.505254 0.509847
0.500362 0.506162 0.510755
0.500875 0.507071 0.511664
0.501387 0.507980 0.512572
0.499073 0.502098 0.507087
0.499585 0.503007 0.507996
0.500097 0.503915 0.508904
0.500609 0.504824 0.509813
0.501122 0.505733 0.510722
0.501634 0.506641 0.511630
0.502146 0.507550 0.512539
0.502659 0.508459 0.513448
0.503171 0.509367 0.514356
0.500857 0.503485 0.508871
0.501369 0.504394 0.509780
0.501881 0.505303 0.510688
0.502393 0.506211 0.511597
0.502906 0.507120 0.512506
0.503418 0.508029 0.513414
0.503930 0.508937 0.514323
0.504442 0.509846 0.515231
0.504955 0.510755 0.516140
0.486932 0.492732 0.494550
0.487444 0.493641 0.495459
0.487957 0.494549 0.496368
0.488469 0.495458 0.497276
0.488981 0.496367 0.498185
0.489493 0.497275 0.499093
0.490006 0.498184 0.500002
0.490518 0.499093 0.500911
0.491030 0.500001 0.501819
0.488716 0.494120 0.496334
0.489228 0.495028 0.497243
0.489741 0.495937 0.498151
0.490253 0.496846 0.499060
0.490765 0.497754 0.499969
0.491277 0.498663 0.500877
0.491790 0.499571 0.501786
0.492302 0.500480 0.502695
0.492814 0.501389 0.503603
0.490500 0.495507 0.498118
0.491012 0.496416 0.499027
0.491524 0.497324 0.499935
0.492037 0.498233 0.500844
0.492549 0.499142 0.501753
0.493061 0.500050 0.502661
0.493573 0.500959 0.503570
0.494086 0.501868 0.504478
0.494598 0.502776 0.505387
0.492284 0.496895 0.499902
0.492796 0.497803 0.500810
0.493308 0.498712 0.501719
0.493821 0.499621 0.502628
0.494333 0.500529 0.503536
0.494845 0.501438 0.504445
0.495357 0.502346 0.505354
0.495870 0.503255 0.506262
0.496382 0.504164 0.507171
0.494068 0.498282 0.501686
0.494580 0.499191 0.502594
0.495092 0.500099 0.503503
0.495604 0.501008 0.504412
0.496117 0.501917 0.505320
0.496629 0.502825 0.506229
0.497141 0.503734 0.507138
0.497653 0.504643 0.508046
0.498166 0.505551 0.508955
0.495851 0.499670 0.503470
0.496364 0.500578 0.504378
0.496876 0.501487 0.505287
0.497388 0.502395 0.506195
0.497900 0.503304 0.507104
0.498413 0.504213 0.508013
0.498925 0.505121 0.508921
0.499437 0.506030 0.509830
0.499949 0.506939 0.510739
0.497635 0.501057 0.505253
0.498148 0.501966 0.506162
0.498660 0.502874 0.507071
0.499172 0.503783 0.507979
0.499684 0.504692 0.508888
0.500197 0.505600 0.509797
0.500709 0.506509 0.510705
0.501221 0.507417 0.511614
0.501733 0.508326 0.512522
0.499419 0.502444 0.507037
0.499931 0.503353 0.507946
0.500444 0.504262 0.508855
0.500956 0.505170 0.509763
0.501468 0.506079 0.510672
0.501980 0.506988 0.511580
0.502493 0.507896 0.512489
0.503005 0.508805 0.513398
0.503517 0.509714 0.514306
0.501203 0.503832 0.508821
0.501715 0.504741 0.509730
0.502228 0.505649 0.510638
0.502740 0.506558 0.511547
0.503252 0.507466 0.512456
0.503764 0.508375 0.513364
0.504277 0.509284 0.514273
0.504789 0.510192 0.515182
0.505301 0.511101 0.516090
0.487279 0.493079 0.494500
0.487791 0.493987 0.495409
0.488303 0.494896 0.496318
0.488815 0.495805 0.497226
0.489328 0.496713 0.498135
0.489840 0.497622 0.499044
0.490352 0.498530 0.499952
0.490864 0.499439 0.500861
0.491377 0.500348 0.501769
0.489062 0.494466 0.496284
0.489575 0.495375 0.497193
0.490087 0.496283 0.498101
0.490599 0.497192 0.499010
0.491112 0.498101 0.499919
0.491624 0.499009 0.500827
0.492136 0.499918 0.501736
0.492648 0.500827 0.502645
0.493161 0.501735 0.503553
0.490846 0.495854 0.498068
0.491359 0.496762 0.498977
0.491871 0.497671 0.499885
0.492383 0.498579 0.500794
0.492895 0.499488 0.501703
0.493408 0.500397 0.502611
0.493920 0.501305 0.503520
0.494432 0.502214 0.504429
0.494944 0.503123 0.505337
0.492630 0.497241 0.499852
0.493142 0.498150 0.500761
0.493655 0.499058 0.501669
0.494167 0.499967 0.502578
0.494679 0.500876 0.503486
0.495191 0.501784 0.504395
0.495704 0.502693 0.505304
0.496216 0.503602 0.506212
0.496728 0.504510 0.507121
0.494414 0.498628 0.501636
0.494926 0.499537 0.502544
0.495439 0.500446 0.503453
0.495951 0.501354 0.504362
0.496463 0.502263 0.505270
0.496975 0.503172 0.506179
0.497488 0.504080 0.507088
0.498000 0.504989 0.507996
0.498512 0.505898 0.508905
0.496198 0.500016 0.503420
0.496710 0.500925 0.504328
0.497222 0.501833 0.505237
0.497735 0.502742 0.506146
0.498247 0.503651 0.507054
0.498759 0.504559 0.507963
0.499271 0.505468 0.508871
0.499784 0.506376 0.509780
0.500296 0.507285 0.510689
0.497982 0.501403 0.505203
0.498494 0.502312 0.506112
0.499006 0.503221 0.507021
0.499518 0.504129 0.507929
0.500031 0.505038 0.508838
0.500543 0.505947 0.509747
0.501055 0.506855 0.510655
0.501568 0.507764 0.511564
0.502080 0.508673 0.512473
0.499766 0.502791 0.506987
0.500278 0.503700 0.507896
0.500790 0.504608 0.508805
0.501302 0.505517 0.509713
0.501815 0.506425 0.510622
0.502327 0.507334 0.511530
0.502839 0.508243 0.512439
0.503351 0.509151 0.513348
0.503864 0.510060 0.514256
0.501549 0.504178 0.508771
0.502062 0.505087 0.509680
0.502574 0.505996 0.510588
0.503086 0.506904 0.511497
0.503598 0.507813 0.512406
0.504111 0.508722 0.513314
0.504623 0.509630 0.514223
0.505135 0.510539 0.515132
0.505647 0.511447 0.516040
0.487625 0.493425 0.494450
0.488137 0.494334 0.495359
0.488650 0.495242 0.496268
0.489162 0.496151 0.497176
0.489674 0.497060 0.498085
0.490186 0.497968 0.498994
0.490699 0.498877 0.499902
0.491211 0.499786 0.500811
0.491723 0.500694 0.501720
0.489409 0.494813 0.496234
0.489921 0.495721 0.497143
0.490433 0.496630 0.498052
0.490946 0.497538 0.498960
0.491458 0.498447 0.499869
0.491970 0.499356 0.500777
0.492482 0.500264 0.501686
0.492995 0.501173 0.502595
0.493507 0.502082 0.503503
0.491193 0.496200 0.498018
0.491705 0.497109 0.498927
0.492217 0.498017 0.499835
0.492730 0.498926 0.500744
0.493242 0.499835 0.501653
0.493754 0.500743 0.502561
0.494266 0.501652 0.503470
0.494779 0.502560 0.504379
0.495291 0.503469 0.505287
0.492977 0.497587 0.499802
0.493489 0.498496 0.500711
0.494001 0.499405 0.501619
0.494513 0.500313 0.502528
0.495026 0.501222 0.503436
0.495538 0.502131 0.504345
0.496050 0.503039 0.505254
0.496562 0.503948 0.506162
0.497075 0.504857 0.507071
0.494760 0.498975 0.501586
0.495273 0.499884 0.502494
0.495785 0.500792 0.503403
0.496297 0.501701 0.504312
0.496809 0.502609 0.505220
0.497322 0.503518 0.506129
0.497834 0.504427 0.507038
0.498346 0.505335 0.507946
0.498859 0.506244 0.508855
0.496544 0.500362 0.503370
0.497057 0.501271 0.504278
0.497569 0.502180 0.505187
0.498081 0.503088 0.506096
0.498593 0.503997 0.507004
0.499106 0.504906 0.507913
0.499618 0.505814 0.508821
0.500130 0.506723 0.509730
0.500642 0.507632 0.510639
0.498328 0.501750 0.505153
0.498840 0.502659 0.506062
0.499353 0.503567 0.506971
0.499865 0.504476 0.507879
0.500377 0.505384 0.508788
0.500889 0.506293 0.509697
0.501402 0.507202 0.510605
0.501914 0.508110 0.511514
0.502426 0.509019 0.512423
0.500112 0.503137 0.506937
0.500624 0.504046 0.507846
0.501137 0.504955 0.508755
0.501649 0.505863 0.509663
0.502161 0.506772 0.510572
0.502673 0.507681 0.511481
0.503186 0.508589 0.512389
0.503698 0.509498 0.513298
0.504210 0.510406 0.514206
0.501896 0.504525 0.508721
0.502408 0.505433 0.509630
0.502920 0.506342 0.510538
0.503433 0.507251 0.511447
0.503945 0.508159 0.512356
0.504457 0.509068 0.513264
0.504969 0.509977 0.514173
0.505482 0.510885 0.515082
0.505994 0.511794 0.515990
0.487972 0.493772 0.494400
0.488484 0.494680 0.495309
0.488996 0.495589 0.496218
0.489508 0.496497 0.497126
0.490021 0.497406 0.498035
0.490533 0.498315 0.498944
0.491045 0.499223 0.499852
0.491557 0.500132 0.500761
0.492070 0.501041 0.501670
0.489755 0.495159 0.496184
0.490268 0.496068 0.497093
0.490780 0.496976 0.498002
0.491292 0.497885 0.498910
0.491804 0.498794 0.499819
0.492317 0.499702 0.500727
0.492829 0.500611 0.501636
0.493341 0.501519 0.502545
0.493853 0.502428 0.503453
0.491539 0.496546 0.497968
0.492051 0.497455 0.498877
0.492564 0.498364 0.499785
0.493076 0.499272 0.500694
0.493588 0.500181 0.501603
0.494100 0.501090 0.502511
0.494613 0.501998 0.503420
0.495125 0.502907 0.504329
0.495637 0.503816 0.505237
0.493323 0.497934 0.499752
0.493835 0.498843 0.500661
0.494348 0.499751 0.501569
0.494860 0.500660 0.502478
0.495372 0.501568 0.503387
0.495884 0.502477 0.504295
0.496397 0.503386 0.505204
0.496909 0.504294 0.506112
0.497421 0.505203 0.507021
0.495107 0.499321 0.501536
0.495619 0.500230 0.502444
0.496131 0.501139 0.503353
0.496644 0.502047 0.504262
0.497156 0.502956 0.505170
0.497668 0.503865 0.506079
0.498180 0.504773 0.506988
0.498693 0.505682 0.507896
0.499205 0.506590 0.508805
0.496891 0.500709 0.503320
0.497403 0.501617 0.504228
0.497915 0.502526 0.505137
0.498428 0.503435 0.506046
0.498940 0.504343 0.506954
0.499452 0.505252 0.507863
0.499964 0.506161 0.508772
0.500477 0.507069 0.509680
0.500989 0.507978 0.510589
0.498675 0.502096 0.505104
0.499187 0.503005 0.506012
0.499699 0.503914 0.506921
0.500211 0.504822 0.507829
0.500724 0.505731 0.508738
0.501236 0.506640 0.509647
0.501748 0.507548 0.510555
0.502260 0.508457 0.511464
0.502773 0.509365 0.512373
0.500458 0.503484 0.506887
0.500971 0.504392 0.507796
0.501483 0.505301 0.508705
0.501995 0.506210 0.509613
0.502507 0.507118 0.510522
0.503020 0.508027 0.511431
0.503532 0.508936 0.512339
0.504044 0.509844 0.513248
0.504557 0.510753 0.514157
0.502242 0.504871 0.508671
0.502755 0.505780 0.509580
0.503267 0.506689 0.510489
0.503779 0.507597 0.511397
0.504291 0.508506 0.512306
0.504804 0.509414 0.513214
0.505316 0.510323 0.514123
0.505828 0.511232 0.515032
0.506340 0.512140 0.515940
