shared/src/main/assets/luts/drama_birmingham_smoke.cube
TITLE "DALUR Birmingham Smoke"
LUT_3D_SIZE 9
DOMAIN_MIN 0.0 0.0 0.0
DOMAIN_MAX 1.0 1.0 1.0
0.427200 0.420000 0.412800
0.428832 0.427154 0.419954
0.430465 0.434307 0.427107
0.432097 0.441461 0.434261
0.433730 0.448614 0.441414
0.435362 0.455768 0.448568
0.436994 0.462921 0.455721
0.438627 0.470075 0.462875
0.440259 0.477228 0.470028
0.441244 0.428523 0.426844
0.442876 0.435676 0.433997
0.444509 0.442830 0.441151
0.446141 0.449983 0.448305
0.447774 0.457137 0.455458
0.449406 0.464290 0.462612
0.451038 0.471444 0.469765
0.452671 0.478598 0.476919
0.454303 0.485751 0.484072
0.455288 0.437046 0.440888
0.456920 0.444199 0.448041
0.458553 0.451353 0.455195
0.460185 0.458506 0.462348
0.461817 0.465660 0.469502
0.463450 0.472813 0.476656
0.465082 0.479967 0.483809
0.466715 0.487120 0.490963
0.468347 0.494274 0.498116
0.469332 0.445568 0.454932
0.470964 0.452722 0.462085
0.472597 0.459875 0.469239
0.474229 0.467029 0.476392
0.475861 0.474182 0.483546
0.477494 0.481336 0.490699
0.479126 0.488490 0.497853
0.480759 0.495643 0.505006
0.482391 0.502797 0.512160
0.483376 0.454091 0.468976
0.485008 0.461245 0.476129
0.486640 0.468398 0.483283
0.488273 0.475552 0.490436
0.489905 0.482705 0.497590
0.491538 0.489859 0.504743
0.493170 0.497012 0.511897
0.494803 0.504166 0.519050
0.496435 0.511319 0.526204
0.497420 0.462614 0.483020
0.499052 0.469767 0.490173
0.500684 0.476921 0.497327
0.502317 0.484075 0.504480
0.503949 0.491228 0.511634
0.505582 0.498382 0.518787
0.507214 0.505535 0.525941
0.508846 0.512689 0.533094
0.510479 0.519842 0.540248
0.511463 0.471137 0.497063
0.513096 0.478290 0.504217
0.514728 0.485444 0.511371
0.516361 0.492597 0.518524
0.517993 0.499751 0.525678
0.519625 0.506904 0.532831
0.521258 0.514058 0.539985
0.522890 0.521211 0.547138
0.524523 0.528365 0.554292
0.525507 0.479659 0.511107
0.527140 0.486813 0.518261
0.528772 0.493967 0.525414
0.530405 0.501120 0.532568
0.532037 0.508274 0.539721
0.533669 0.515427 0.546875
0.535302 0.522581 0.554029
0.536934 0.529734 0.561182
0.538567 0.536888 0.568336
0.539551 0.488182 0.525151
0.541184 0.495336 0.532305
0.542816 0.502489 0.539458
0.544448 0.509643 0.546612
0.546081 0.516796 0.553765
0.547713 0.523950 0.560919
0.549346 0.531103 0.568072
0.550978 0.538257 0.575226
0.552611 0.545411 0.582380
0.429927 0.422727 0.410006
0.431560 0.429881 0.417160
0.433192 0.437035 0.424313
0.434825 0.444188 0.431467
0.436457 0.451342 0.438620
0.438090 0.458495 0.445774
0.439722 0.465649 0.452928
0.441354 0.472802 0.460081
0.442987 0.479956 0.467235
0.443971 0.431250 0.424050
0.445604 0.438404 0.431204
0.447236 0.445557 0.438357
0.448869 0.452711 0.445511
0.450501 0.459864 0.452664
0.452133 0.467018 0.459818
0.453766 0.474171 0.466971
0.455398 0.481325 0.474125
0.457031 0.488479 0.481279
0.458015 0.439773 0.438094
0.459648 0.446927 0.445248
0.461280 0.454080 0.452401
0.462912 0.461234 0.459555
0.464545 0.468387 0.466708
0.466177 0.475541 0.473862
0.467810 0.482694 0.481015
0.469442 0.489848 0.488169
0.471075 0.497001 0.495322
0.472059 0.448296 0.452138
0.473692 0.455449 0.459292
0.475324 0.462603 0.466445
0.476956 0.469756 0.473599
0.478589 0.476910 0.480752
0.480221 0.484063 0.487906
0.481854 0.491217 0.495059
0.483486 0.498371 0.502213
0.485118 0.505524 0.509366
0.486103 0.456819 0.466182
0.487735 0.463972 0.473335
0.489368 0.471126 0.480489
0.491000 0.478279 0.487643
0.492633 0.485433 0.494796
0.494265 0.492586 0.501950
0.495898 0.499740 0.509103
0.497530 0.506893 0.516257
0.499162 0.514047 0.523410
0.500147 0.465341 0.480226
0.501779 0.472495 0.487379
0.503412 0.479648 0.494533
0.505044 0.486802 0.501686
0.506677 0.493955 0.508840
0.508309 0.501109 0.515994
0.509941 0.508263 0.523147
0.511574 0.515416 0.530301
0.513206 0.522570 0.537454
0.514191 0.473864 0.494270
0.515823 0.481018 0.501423
0.517456 0.488171 0.508577
0.519088 0.495325 0.515730
0.520721 0.502478 0.522884
0.522353 0.509632 0.530037
0.523985 0.516785 0.537191
0.525618 0.523939 0.544345
0.527250 0.531092 0.551498
0.528235 0.482387 0.508314
0.529867 0.489540 0.515467
0.531500 0.496694 0.522621
0.533132 0.503847 0.529774
0.534764 0.511001 0.536928
0.536397 0.518155 0.544081
0.538029 0.525308 0.551235
0.539662 0.532462 0.558388
0.541294 0.539615 0.565542
0.542279 0.490910 0.522358
0.543911 0.498063 0.529511
0.545543 0.505217 0.536665
0.547176 0.512370 0.543818
0.548808 0.519524 0.550972
0.550441 0.526677 0.558125
0.552073 0.533831 0.565279
0.553706 0.540984 0.572432
0.555338 0.548138 0.579586
0.432655 0.425455 0.407213
0.434287 0.432608 0.414366
0.435920 0.439762 0.421520
0.437552 0.446915 0.428673
0.439185 0.454069 0.435827
0.440817 0.461223 0.442980
0.442449 0.468376 0.450134
0.444082 0.475530 0.457287
0.445714 0.482683 0.464441
0.446699 0.433978 0.421257
0.448331 0.441131 0.428410
0.449964 0.448285 0.435564
0.451596 0.455438 0.442717
0.453228 0.462592 0.449871
0.454861 0.469745 0.457024
0.456493 0.476899 0.464178
0.458126 0.484052 0.471331
0.459758 0.491206 0.478485
0.460743 0.442500 0.435300
0.462375 0.449654 0.442454
0.464008 0.456808 0.449608
0.465640 0.463961 0.456761
0.467272 0.471115 0.463915
0.468905 0.478268 0.471068
0.470537 0.485422 0.478222
0.472170 0.492575 0.485375
0.473802 0.499729 0.492529
0.474787 0.451023 0.449344
0.476419 0.458177 0.456498
0.478051 0.465330 0.463651
0.479684 0.472484 0.470805
0.481316 0.479637 0.477958
0.482949 0.486791 0.485112
0.484581 0.493944 0.492266
0.486213 0.501098 0.499419
0.487846 0.508252 0.506573
0.488830 0.459546 0.463388
0.490463 0.466700 0.470542
0.492095 0.473853 0.477695
0.493728 0.481007 0.484849
0.495360 0.488160 0.492002
0.496993 0.495314 0.499156
0.498625 0.502467 0.506309
0.500257 0.509621 0.513463
0.501890 0.516774 0.520617
0.502874 0.468069 0.477432
0.504507 0.475222 0.484586
0.506139 0.482376 0.491739
0.507772 0.489529 0.498893
0.509404 0.496683 0.506046
0.511036 0.503836 0.513200
0.512669 0.510990 0.520353
0.514301 0.518144 0.527507
0.515934 0.525297 0.534660
0.516918 0.476592 0.491476
0.518551 0.483745 0.498630
0.520183 0.490899 0.505783
0.521816 0.498052 0.512937
0.523448 0.505206 0.520090
0.525080 0.512359 0.527244
0.526713 0.519513 0.534397
0.528345 0.526666 0.541551
0.529978 0.533820 0.548704
0.530962 0.485114 0.505520
0.532595 0.492268 0.512673
0.534227 0.499421 0.519827
0.535859 0.506575 0.526981
0.537492 0.513728 0.534134
0.539124 0.520882 0.541288
0.540757 0.528036 0.548441
0.542389 0.535189 0.555595
0.544022 0.542343 0.562748
0.545006 0.493637 0.519564
0.546639 0.500791 0.526717
0.548271 0.507944 0.533871
0.549903 0.515098 0.541024
0.551536 0.522251 0.548178
0.553168 0.529405 0.555332
0.554801 0.536558 0.562485
0.556433 0.543712 0.569639
0.558065 0.550865 0.576792
0.435382 0.428182 0.404419
0.437015 0.435336 0.411572
0.438647 0.442489 0.418726
0.440280 0.449643 0.425880
0.441912 0.456796 0.433033
0.443544 0.463950 0.440187
0.445177 0.471104 0.447340
0.446809 0.478257 0.454494
0.448442 0.485411 0.461647
0.449426 0.436705 0.418463
0.451059 0.443859 0.425616
0.452691 0.451012 0.432770
0.454323 0.458166 0.439923
0.455956 0.465319 0.447077
0.457588 0.472473 0.454231
0.459221 0.479626 0.461384
0.460853 0.486780 0.468538
0.462486 0.493933 0.475691
0.463470 0.445228 0.432507
0.465103 0.452381 0.439660
0.466735 0.459535 0.446814
0.468367 0.466688 0.453967
0.470000 0.473842 0.461121
0.471632 0.480996 0.468274
0.473265 0.488149 0.475428
0.474897 0.495303 0.482582
0.476529 0.502456 0.489735
0.477514 0.453751 0.446551
0.479146 0.460904 0.453704
0.480779 0.468058 0.460858
0.482411 0.475211 0.468011
0.484044 0.482365 0.475165
0.485676 0.489518 0.482318
0.487308 0.496672 0.489472
0.488941 0.503825 0.496625
0.490573 0.510979 0.503779
0.491558 0.462273 0.460595
0.493190 0.469427 0.467748
0.494823 0.476580 0.474902
0.496455 0.483734 0.482055
0.498088 0.490888 0.489209
0.499720 0.498041 0.496362
0.501352 0.505195 0.503516
0.502985 0.512348 0.510669
0.504617 0.519502 0.517823
0.505602 0.470796 0.474638
0.507234 0.477950 0.481792
0.508867 0.485103 0.488946
0.510499 0.492257 0.496099
0.512131 0.499410 0.503253
0.513764 0.506564 0.510406
0.515396 0.513717 0.517560
0.517029 0.520871 0.524713
0.518661 0.528025 0.531867
0.519646 0.479319 0.488682
0.521278 0.486473 0.495836
0.522911 0.493626 0.502989
0.524543 0.500780 0.510143
0.526175 0.507933 0.517297
0.527808 0.515087 0.524450
0.529440 0.522240 0.531604
0.531073 0.529394 0.538757
0.532705 0.536547 0.545911
0.533690 0.487842 0.502726
0.535322 0.494995 0.509880
0.536954 0.502149 0.517033
0.538587 0.509302 0.524187
0.540219 0.516456 0.531340
0.541852 0.523609 0.538494
0.543484 0.530763 0.545647
0.545117 0.537917 0.552801
0.546749 0.545070 0.559955
0.547734 0.496365 0.516770
0.549366 0.503518 0.523924
0.550998 0.510672 0.531077
0.552631 0.517825 0.538231
0.554263 0.524979 0.545384
0.555896 0.532132 0.552538
0.557528 0.539286 0.559691
0.559160 0.546439 0.566845
0.560793 0.553593 0.573998
0.438110 0.430910 0.401625
0.439742 0.438063 0.408779
0.441375 0.445217 0.415932
0.443007 0.452370 0.423086
0.444639 0.459524 0.430239
0.446272 0.466677 0.437393
0.447904 0.473831 0.444546
0.449537 0.480985 0.451700
0.451169 0.488138 0.458854
0.452154 0.439433 0.415669
0.453786 0.446586 0.422823
0.455418 0.453740 0.429976
0.457051 0.460893 0.437130
0.458683 0.468047 0.444283
0.460316 0.475200 0.451437
0.461948 0.482354 0.458590
0.463581 0.489507 0.465744
0.465213 0.496661 0.472897
0.466198 0.447955 0.429713
0.467830 0.455109 0.436867
0.469462 0.462262 0.444020
0.471095 0.469416 0.451174
0.472727 0.476569 0.458327
0.474360 0.483723 0.465481
0.475992 0.490877 0.472634
0.477624 0.498030 0.479788
0.479257 0.505184 0.486941
0.480241 0.456478 0.443757
0.481874 0.463632 0.450910
0.483506 0.470785 0.458064
0.485139 0.477939 0.465218
0.486771 0.485092 0.472371
0.488404 0.492246 0.479525
0.490036 0.499399 0.486678
0.491668 0.506553 0.493832
0.493301 0.513706 0.500985
0.494285 0.465001 0.457801
0.495918 0.472154 0.464954
0.497550 0.479308 0.472108
0.499183 0.486461 0.479261
0.500815 0.493615 0.486415
0.502447 0.500769 0.493569
0.504080 0.507922 0.500722
0.505712 0.515076 0.507876
0.507345 0.522229 0.515029
0.508329 0.473524 0.471845
0.509962 0.480677 0.478998
0.511594 0.487831 0.486152
0.513227 0.494984 0.493305
0.514859 0.502138 0.500459
0.516491 0.509291 0.507612
0.518124 0.516445 0.514766
0.519756 0.523598 0.521920
0.521389 0.530752 0.529073
0.522373 0.482046 0.485889
0.524006 0.489200 0.493042
0.525638 0.496353 0.500196
0.527270 0.503507 0.507349
0.528903 0.510661 0.514503
0.530535 0.517814 0.521656
0.532168 0.524968 0.528810
0.533800 0.532121 0.535963
0.535432 0.539275 0.543117
0.536417 0.490569 0.499933
0.538049 0.497723 0.507086
0.539682 0.504876 0.514240
0.541314 0.512030 0.521393
0.542947 0.519183 0.528547
0.544579 0.526337 0.535700
0.546212 0.533490 0.542854
0.547844 0.540644 0.550007
0.549476 0.547798 0.557161
0.550461 0.499092 0.513976
0.552093 0.506246 0.521130
0.553726 0.513399 0.528284
0.555358 0.520553 0.535437
0.556991 0.527706 0.542591
0.558623 0.534860 0.549744
0.560255 0.542013 0.556898
0.561888 0.549167 0.564051
0.563520 0.556320 0.571205
0.440837 0.433637 0.398832
0.442470 0.440791 0.405985
0.444102 0.447944 0.413139
0.445734 0.455098 0.420292
0.447367 0.462251 0.427446
0.448999 0.469405 0.434599
0.450632 0.476558 0.441753
0.452264 0.483712 0.448906
0.453896 0.490865 0.456060
0.454881 0.442160 0.412875
0.456513 0.449313 0.420029
0.458146 0.456467 0.427183
0.459778 0.463621 0.434336
0.461411 0.470774 0.441490
0.463043 0.477928 0.448643
0.464676 0.485081 0.455797
0.466308 0.492235 0.462950
0.467940 0.499388 0.470104
0.468925 0.450683 0.426919
0.470557 0.457836 0.434073
0.472190 0.464990 0.441226
0.473822 0.472143 0.448380
0.475455 0.479297 0.455534
0.477087 0.486450 0.462687
0.478719 0.493604 0.469841
0.480352 0.500758 0.476994
0.481984 0.507911 0.484148
0.482969 0.459206 0.440963
0.484601 0.466359 0.448117
0.486234 0.473513 0.455270
0.487866 0.480666 0.462424
0.489499 0.487820 0.469577
0.491131 0.494973 0.476731
0.492763 0.502127 0.483884
0.494396 0.509280 0.491038
0.496028 0.516434 0.498192
0.497013 0.467728 0.455007
0.498645 0.474882 0.462161
0.500278 0.482035 0.469314
0.501910 0.489189 0.476468
0.503542 0.496342 0.483621
0.505175 0.503496 0.490775
0.506807 0.510650 0.497928
0.508440 0.517803 0.505082
0.510072 0.524957 0.512235
0.511057 0.476251 0.469051
0.512689 0.483405 0.476205
0.514322 0.490558 0.483358
0.515954 0.497712 0.490512
0.517586 0.504865 0.497665
0.519219 0.512019 0.504819
0.520851 0.519172 0.511972
0.522484 0.526326 0.519126
0.524116 0.533479 0.526279
0.525101 0.484774 0.483095
0.526733 0.491927 0.490249
0.528365 0.499081 0.497402
0.529998 0.506234 0.504556
0.531630 0.513388 0.511709
0.533263 0.520542 0.518863
0.534895 0.527695 0.526016
0.536527 0.534849 0.533170
0.538160 0.542002 0.540323
0.539145 0.493297 0.497139
0.540777 0.500450 0.504292
0.542409 0.507604 0.511446
0.544042 0.514757 0.518599
0.545674 0.521911 0.525753
0.547307 0.529064 0.532907
0.548939 0.536218 0.540060
0.550571 0.543371 0.547214
0.552204 0.550525 0.554367
0.553188 0.501819 0.511183
0.554821 0.508973 0.518336
0.556453 0.516126 0.525490
0.558086 0.523280 0.532643
0.559718 0.530434 0.539797
0.561350 0.537587 0.546950
0.562983 0.544741 0.554104
0.564615 0.551894 0.561258
0.566248 0.559048 0.568411
0.443565 0.436365 0.396038
0.445197 0.443518 0.403191
0.446829 0.450672 0.410345
0.448462 0.457825 0.417498
0.450094 0.464979 0.424652
0.451727 0.472132 0.431806
0.453359 0.479286 0.438959
0.454992 0.486439 0.446113
0.456624 0.493593 0.453266
0.457609 0.444887 0.410082
0.459241 0.452041 0.417235
0.460873 0.459194 0.424389
0.462506 0.466348 0.431542
0.464138 0.473502 0.438696
0.465771 0.480655 0.445849
0.467403 0.487809 0.453003
0.469035 0.494962 0.460157
0.470668 0.502116 0.467310
0.471652 0.453410 0.424126
0.473285 0.460564 0.431279
0.474917 0.467717 0.438433
0.476550 0.474871 0.445586
0.478182 0.482024 0.452740
0.479814 0.489178 0.459893
0.481447 0.496331 0.467047
0.483079 0.503485 0.474200
0.484712 0.510638 0.481354
0.485696 0.461933 0.438170
0.487329 0.469086 0.445323
0.488961 0.476240 0.452477
0.490594 0.483394 0.459630
0.492226 0.490547 0.466784
0.493858 0.497701 0.473937
0.495491 0.504854 0.481091
0.497123 0.512008 0.488244
0.498756 0.519161 0.495398
0.499740 0.470456 0.452213
0.501373 0.477609 0.459367
0.503005 0.484763 0.466521
0.504637 0.491916 0.473674
0.506270 0.499070 0.480828
0.507902 0.506223 0.487981
0.509535 0.513377 0.495135
0.511167 0.520531 0.502288
0.512800 0.527684 0.509442
0.513784 0.478979 0.466257
0.515417 0.486132 0.473411
0.517049 0.493286 0.480564
0.518681 0.500439 0.487718
0.520314 0.507593 0.494872
0.521946 0.514746 0.502025
0.523579 0.521900 0.509179
0.525211 0.529053 0.516332
0.526843 0.536207 0.523486
0.527828 0.487501 0.480301
0.529460 0.494655 0.487455
0.531093 0.501808 0.494608
0.532725 0.508962 0.501762
0.534358 0.516115 0.508915
0.535990 0.523269 0.516069
0.537623 0.530423 0.523223
0.539255 0.537576 0.530376
0.540887 0.544730 0.537530
0.541872 0.496024 0.494345
0.543504 0.503178 0.501499
0.545137 0.510331 0.508652
0.546769 0.517485 0.515806
0.548402 0.524638 0.522959
0.550034 0.531792 0.530113
0.551666 0.538945 0.537266
0.553299 0.546099 0.544420
0.554931 0.553252 0.551573
0.555916 0.504547 0.508389
0.557548 0.511700 0.515543
0.559181 0.518854 0.522696
0.560813 0.526007 0.529850
0.562446 0.533161 0.537003
0.564078 0.540315 0.544157
0.565710 0.547468 0.551310
0.567343 0.554622 0.558464
0.568975 0.561775 0.565617
0.446292 0.439092 0.393244
0.447924 0.446246 0.400398
0.449557 0.453399 0.407551
0.451189 0.460553 0.414705
0.452822 0.467706 0.421858
0.454454 0.474860 0.429012
0.456087 0.482013 0.436165
0.457719 0.489167 0.443319
0.459351 0.496320 0.450472
0.460336 0.447615 0.407288
0.461968 0.454768 0.414442
0.463601 0.461922 0.421595
0.465233 0.469075 0.428749
0.466866 0.476229 0.435902
0.468498 0.483383 0.443056
0.470130 0.490536 0.450209
0.471763 0.497690 0.457363
0.473395 0.504843 0.464516
0.474380 0.456138 0.421332
0.476012 0.463291 0.428486
0.477645 0.470445 0.435639
0.479277 0.477598 0.442793
0.480910 0.484752 0.449946
0.482542 0.491905 0.457100
0.484174 0.499059 0.464253
0.485807 0.506212 0.471407
0.487439 0.513366 0.478560
0.488424 0.464660 0.435376
0.490056 0.471814 0.442529
0.491689 0.478967 0.449683
0.493321 0.486121 0.456837
0.494953 0.493275 0.463990
0.496586 0.500428 0.471144
0.498218 0.507582 0.478297
0.499851 0.514735 0.485451
0.501483 0.521889 0.492604
0.502468 0.473183 0.449420
0.504100 0.480337 0.456573
0.505732 0.487490 0.463727
0.507365 0.494644 0.470880
0.508997 0.501797 0.478034
0.510630 0.508951 0.485187
0.512262 0.516104 0.492341
0.513895 0.523258 0.499495
0.515527 0.530411 0.506648
0.516512 0.481706 0.463464
0.518144 0.488859 0.470617
0.519776 0.496013 0.477771
0.521409 0.503167 0.484924
0.523041 0.510320 0.492078
0.524674 0.517474 0.499231
0.526306 0.524627 0.506385
0.527938 0.531781 0.513538
0.529571 0.538934 0.520692
0.530555 0.490229 0.477508
0.532188 0.497382 0.484661
0.533820 0.504536 0.491815
0.535453 0.511689 0.498968
0.537085 0.518843 0.506122
0.538718 0.525996 0.513275
0.540350 0.533150 0.520429
0.541982 0.540303 0.527582
0.543615 0.547457 0.534736
0.544599 0.498751 0.491551
0.546232 0.505905 0.498705
0.547864 0.513059 0.505859
0.549497 0.520212 0.513012
0.551129 0.527366 0.520166
0.552761 0.534519 0.527319
0.554394 0.541673 0.534473
0.556026 0.548826 0.541626
0.557659 0.555980 0.548780
0.558643 0.507274 0.505595
0.560276 0.514428 0.512749
0.561908 0.521581 0.519902
0.563541 0.528735 0.527056
0.565173 0.535888 0.534210
0.566805 0.543042 0.541363
0.568438 0.550196 0.548517
0.570070 0.557349 0.555670
0.571703 0.564503 0.562824
0.449019 0.441819 0.390450
0.450652 0.448973 0.397604
0.452284 0.456127 0.404758
0.453917 0.463280 0.411911
0.455549 0.470434 0.419065
0.457182 0.477587 0.426218
0.458814 0.484741 0.433372
0.460446 0.491894 0.440525
0.462079 0.499048 0.447679
0.463063 0.450342 0.404494
0.464696 0.457496 0.411648
0.466328 0.464649 0.418801
0.467961 0.471803 0.425955
0.469593 0.478956 0.433109
0.471225 0.486110 0.440262
0.472858 0.493264 0.447416
0.474490 0.500417 0.454569
0.476123 0.507571 0.461723
0.477107 0.458865 0.418538
0.478740 0.466019 0.425692
0.480372 0.473172 0.432845
0.482005 0.480326 0.439999
0.483637 0.487479 0.447152
0.485269 0.494633 0.454306
0.486902 0.501786 0.461460
0.488534 0.508940 0.468613
0.490167 0.516093 0.475767
0.491151 0.467388 0.432582
0.492784 0.474541 0.439736
0.494416 0.481695 0.446889
0.496048 0.488848 0.454043
0.497681 0.496002 0.461196
0.499313 0.503156 0.468350
0.500946 0.510309 0.475503
0.502578 0.517463 0.482657
0.504211 0.524616 0.489811
0.505195 0.475911 0.446626
0.506828 0.483064 0.453780
0.508460 0.490218 0.460933
0.510092 0.497371 0.468087
0.511725 0.504525 0.475240
0.513357 0.511678 0.482394
0.514990 0.518832 0.489547
0.516622 0.525985 0.496701
0.518254 0.533139 0.503854
0.519239 0.484433 0.460670
0.520871 0.491587 0.467824
0.522504 0.498740 0.474977
0.524136 0.505894 0.482131
0.525769 0.513048 0.489284
0.527401 0.520201 0.496438
0.529033 0.527355 0.503591
0.530666 0.534508 0.510745
0.532298 0.541662 0.517898
0.533283 0.492956 0.474714
0.534915 0.500110 0.481867
0.536548 0.507263 0.489021
0.538180 0.514417 0.496175
0.539813 0.521570 0.503328
0.541445 0.528724 0.510482
0.543077 0.535877 0.517635
0.544710 0.543031 0.524789
0.546342 0.550184 0.531942
0.547327 0.501479 0.488758
0.548959 0.508632 0.495911
0.550592 0.515786 0.503065
0.552224 0.522940 0.510218
0.553856 0.530093 0.517372
0.555489 0.537247 0.524526
0.557121 0.544400 0.531679
0.558754 0.551554 0.538833
0.560386 0.558707 0.545986
0.561371 0.510002 0.502802
0.563003 0.517155 0.509955
0.564636 0.524309 0.517109
0.566268 0.531462 0.524262
0.567900 0.538616 0.531416
0.569533 0.545769 0.538569
0.571165 0.552923 0.545723
0.572798 0.560076 0.552876
0.574430 0.567230 0.560030
