shared/src/main/assets/luts/drama_purple_fever.cube
TITLE "DALUR Purple Fever"
LUT_3D_SIZE 5
DOMAIN_MIN 0.0 0.0 0.0
DOMAIN_MAX 1.0 1.0 1.0
0.416000 0.418000 0.434000
0.435718 0.425040 0.441040
0.455436 0.432080 0.448080
0.475153 0.439120 0.455120
0.494871 0.446159 0.462159
0.429821 0.444499 0.447821
0.449539 0.451539 0.454861
0.469256 0.458578 0.461900
0.488974 0.465618 0.468940
0.508692 0.472658 0.475980
0.443641 0.470997 0.461641
0.463359 0.478037 0.468681
0.483077 0.485077 0.475721
0.502795 0.492117 0.482761
0.522513 0.499157 0.489801
0.457462 0.497496 0.475462
0.477180 0.504536 0.482502
0.496898 0.511576 0.489542
0.516616 0.518616 0.496582
0.536333 0.525655 0.503622
0.471283 0.523995 0.489283
0.491001 0.531034 0.496323
0.510719 0.538074 0.503363
0.530436 0.545114 0.510403
0.550154 0.552154 0.517442
0.418684 0.420684 0.449362
0.438402 0.427724 0.456402
0.458120 0.434764 0.463442
0.477837 0.441804 0.470482
0.497555 0.448844 0.477521
0.432505 0.447183 0.463183
0.452223 0.454223 0.470223
0.471940 0.461262 0.477262
0.491658 0.468302 0.484302
0.511376 0.475342 0.491342
0.446326 0.473681 0.477003
0.466043 0.480721 0.484043
0.485761 0.487761 0.491083
0.505479 0.494801 0.498123
0.525197 0.501841 0.505163
0.460146 0.500180 0.490824
0.479864 0.507220 0.497864
0.499582 0.514260 0.504904
0.519300 0.521300 0.511944
0.539017 0.528340 0.518984
0.473967 0.526679 0.504645
0.493685 0.533719 0.511685
0.513403 0.540758 0.518725
0.533120 0.547798 0.525765
0.552838 0.554838 0.532804
0.421368 0.423368 0.464724
0.441086 0.430408 0.471764
0.460804 0.437448 0.478804
0.480522 0.444488 0.485844
0.500239 0.451528 0.492883
0.435189 0.449867 0.478545
0.454907 0.456907 0.485585
0.474624 0.463947 0.492624
0.494342 0.470986 0.499664
0.514060 0.478026 0.506704
0.449010 0.476365 0.492365
0.468727 0.483405 0.499405
0.488445 0.490445 0.506445
0.508163 0.497485 0.513485
0.527881 0.504525 0.520525
0.462830 0.502864 0.506186
0.482548 0.509904 0.513226
0.502266 0.516944 0.520266
0.521984 0.523984 0.527306
0.541702 0.531024 0.534346
0.476651 0.529363 0.520007
0.496369 0.536403 0.527047
0.516087 0.543443 0.534087
0.535804 0.550482 0.541127
0.555522 0.557522 0.548166
0.424052 0.426052 0.480086
0.443770 0.433092 0.487126
0.463488 0.440132 0.494166
0.483206 0.447172 0.501206
0.502923 0.454212 0.508245
0.437873 0.452551 0.493907
0.457591 0.459591 0.500947
0.477309 0.466631 0.507986
0.497026 0.473671 0.515026
0.516744 0.480710 0.522066
0.451694 0.479050 0.507728
0.471412 0.486089 0.514767
0.491129 0.493129 0.521807
0.510847 0.500169 0.528847
0.530565 0.507209 0.535887
0.465514 0.505548 0.521548
0.485232 0.512588 0.528588
0.504950 0.519628 0.535628
0.524668 0.526668 0.542668
0.544386 0.533708 0.549708
0.479335 0.532047 0.535369
0.499053 0.539087 0.542409
0.518771 0.546127 0.549449
0.538489 0.553166 0.556489
0.558206 0.560206 0.563528
0.426736 0.428736 0.495448
0.446454 0.435776 0.502488
0.466172 0.442816 0.509528
0.485890 0.449856 0.516568
0.505607 0.456896 0.523607
0.440557 0.455235 0.509269
0.460275 0.462275 0.516309
0.479993 0.469315 0.523349
0.499710 0.476355 0.530388
0.519428 0.483394 0.537428
0.454378 0.481734 0.523090
0.474096 0.488774 0.530129
0.493813 0.495813 0.537169
0.513531 0.502853 0.544209
0.533249 0.509893 0.551249
0.468199 0.508232 0.536910
0.487916 0.515272 0.543950
0.507634 0.522312 0.550990
0.527352 0.529352 0.558030
0.547070 0.536392 0.565070
0.482019 0.534731 0.550731
0.501737 0.541771 0.557771
0.521455 0.548811 0.564811
0.541173 0.555851 0.571851
0.560890 0.562890 0.578890
