shared/src/main/assets/luts/drama_cold_isolation.cube
TITLE "DALUR Cold Isolation"
LUT_3D_SIZE 17
DOMAIN_MIN 0.0 0.0 0.0
DOMAIN_MAX 1.0 1.0 1.0
0.422000 0.440000 0.458000
0.422629 0.442758 0.460758
0.423259 0.445516 0.463516
0.423888 0.448274 0.466274
0.424517 0.451032 0.469032
0.425147 0.453790 0.471790
0.425776 0.456548 0.474548
0.426406 0.459306 0.477306
0.427035 0.462064 0.480064
0.427664 0.464822 0.482822
0.428294 0.467580 0.485580
0.428923 0.470338 0.488338
0.429552 0.473096 0.491096
0.430182 0.475854 0.493854
0.430811 0.478612 0.496612
0.431440 0.481370 0.499370
0.432070 0.484128 0.502128
0.427415 0.443286 0.463415
0.428044 0.446044 0.466173
0.428673 0.448802 0.468931
0.429303 0.451560 0.471689
0.429932 0.454318 0.474447
0.430561 0.457076 0.477204
0.431191 0.459834 0.479962
0.431820 0.462592 0.482720
0.432449 0.465350 0.485478
0.433079 0.468108 0.488236
0.433708 0.470866 0.490994
0.434338 0.473624 0.493752
0.434967 0.476382 0.496510
0.435596 0.479140 0.499268
0.436226 0.481898 0.502026
0.436855 0.484656 0.504784
0.437484 0.487414 0.507542
0.432829 0.446572 0.468829
0.433458 0.449330 0.471587
0.434088 0.452088 0.474345
0.434717 0.454846 0.477103
0.435347 0.457604 0.479861
0.435976 0.460362 0.482619
0.436605 0.463120 0.485377
0.437235 0.465878 0.488135
0.437864 0.468636 0.490893
0.438493 0.471394 0.493651
0.439123 0.474152 0.496409
0.439752 0.476910 0.499167
0.440381 0.479668 0.501925
0.441011 0.482426 0.504683
0.441640 0.485184 0.507441
0.442270 0.487942 0.510199
0.442899 0.490700 0.512957
0.438244 0.449858 0.474244
0.438873 0.452616 0.477002
0.439502 0.455374 0.479760
0.440132 0.458132 0.482518
0.440761 0.460890 0.485276
0.441390 0.463648 0.488034
0.442020 0.466406 0.490792
0.442649 0.469164 0.493550
0.443278 0.471922 0.496308
0.443908 0.474680 0.499066
0.444537 0.477438 0.501824
0.445167 0.480196 0.504582
0.445796 0.482954 0.507340
0.446425 0.485712 0.510098
0.447055 0.488470 0.512855
0.447684 0.491228 0.515613
0.448313 0.493986 0.518371
0.443658 0.453144 0.479658
0.444287 0.455902 0.482416
0.444917 0.458660 0.485174
0.445546 0.461418 0.487932
0.446176 0.464176 0.490690
0.446805 0.466934 0.493448
0.447434 0.469692 0.496206
0.448064 0.472450 0.498964
0.448693 0.475208 0.501722
0.449322 0.477966 0.504480
0.449952 0.480724 0.507238
0.450581 0.483482 0.509996
0.451210 0.486240 0.512754
0.451840 0.488998 0.515512
0.452469 0.491756 0.518270
0.453099 0.494513 0.521028
0.453728 0.497271 0.523786
0.449073 0.456429 0.485073
0.449702 0.459187 0.487831
0.450331 0.461945 0.490589
0.450961 0.464703 0.493347
0.451590 0.467461 0.496105
0.452219 0.470219 0.498863
0.452849 0.472977 0.501621
0.453478 0.475735 0.504379
0.454108 0.478493 0.507137
0.454737 0.481251 0.509895
0.455366 0.484009 0.512653
0.455996 0.486767 0.515411
0.456625 0.489525 0.518169
0.457254 0.492283 0.520927
0.457884 0.495041 0.523685
0.458513 0.497799 0.526443
0.459142 0.500557 0.529201
0.454487 0.459715 0.490487
0.455117 0.462473 0.493245
0.455746 0.465231 0.496003
0.456375 0.467989 0.498761
0.457005 0.470747 0.501519
0.457634 0.473505 0.504277
0.458263 0.476263 0.507035
0.458893 0.479021 0.509793
0.459522 0.481779 0.512551
0.460151 0.484537 0.515309
0.460781 0.487295 0.518067
0.461410 0.490053 0.520825
0.462040 0.492811 0.523583
0.462669 0.495569 0.526341
0.463298 0.498327 0.529099
0.463928 0.501085 0.531857
0.464557 0.503843 0.534615
0.459902 0.463001 0.495902
0.460531 0.465759 0.498660
0.461160 0.468517 0.501418
0.461790 0.471275 0.504176
0.462419 0.474033 0.506934
0.463048 0.476791 0.509692
0.463678 0.479549 0.512450
0.464307 0.482307 0.515208
0.464937 0.485065 0.517966
0.465566 0.487823 0.520724
0.466195 0.490581 0.523482
0.466825 0.493339 0.526240
0.467454 0.496097 0.528998
0.468083 0.498855 0.531756
0.468713 0.501613 0.534514
0.469342 0.504371 0.537272
0.469972 0.507129 0.540030
0.465316 0.466287 0.501316
0.465946 0.469045 0.504074
0.466575 0.471803 0.506832
0.467204 0.474561 0.509590
0.467834 0.477319 0.512348
0.468463 0.480077 0.515106
0.469092 0.482835 0.517864
0.469722 0.485593 0.520622
0.470351 0.488351 0.523380
0.470980 0.491109 0.526138
0.471610 0.493867 0.528896
0.472239 0.496625 0.531654
0.472869 0.499383 0.534412
0.473498 0.502141 0.537170
0.474127 0.504899 0.539928
0.474757 0.507657 0.542686
0.475386 0.510415 0.545444
0.470731 0.469573 0.506731
0.471360 0.472331 0.509489
0.471989 0.475089 0.512247
0.472619 0.477847 0.515005
0.473248 0.480605 0.517763
0.473878 0.483363 0.520521
0.474507 0.486121 0.523279
0.475136 0.488879 0.526037
0.475766 0.491637 0.528795
0.476395 0.494395 0.531553
0.477024 0.497153 0.534311
0.477654 0.499911 0.537069
0.478283 0.502669 0.539827
0.478912 0.505427 0.542585
0.479542 0.508185 0.545343
0.480171 0.510943 0.548101
0.480801 0.513701 0.550859
0.476145 0.472859 0.512145
0.476775 0.475617 0.514903
0.477404 0.478375 0.517661
0.478033 0.481133 0.520419
0.478663 0.483891 0.523177
0.479292 0.486649 0.525935
0.479921 0.489407 0.528693
0.480551 0.492165 0.531451
0.481180 0.494923 0.534209
0.481810 0.497681 0.536967
0.482439 0.500439 0.539725
0.483068 0.503197 0.542483
0.483698 0.505955 0.545241
0.484327 0.508713 0.547999
0.484956 0.511471 0.550757
0.485586 0.514229 0.553515
0.486215 0.516987 0.556273
0.481560 0.476145 0.517560
0.482189 0.478903 0.520318
0.482818 0.481661 0.523076
0.483448 0.484419 0.525834
0.484077 0.487177 0.528592
0.484707 0.489935 0.531350
0.485336 0.492693 0.534108
0.485965 0.495451 0.536866
0.486595 0.498209 0.539624
0.487224 0.500967 0.542382
0.487853 0.503725 0.545140
0.488483 0.506483 0.547898
0.489112 0.509241 0.550656
0.489742 0.511999 0.553414
0.490371 0.514757 0.556172
0.491000 0.517515 0.558930
0.491630 0.520273 0.561688
0.486974 0.479431 0.522974
0.487604 0.482189 0.525732
0.488233 0.484947 0.528490
0.488862 0.487705 0.531248
0.489492 0.490463 0.534006
0.490121 0.493221 0.536764
0.490750 0.495979 0.539522
0.491380 0.498737 0.542280
0.492009 0.501495 0.545038
0.492639 0.504253 0.547796
0.493268 0.507011 0.550554
0.493897 0.509769 0.553312
0.494527 0.512527 0.556070
0.495156 0.515285 0.558828
0.495785 0.518043 0.561586
0.496415 0.520801 0.564344
0.497044 0.523559 0.567102
0.492389 0.482717 0.528389
0.493018 0.485475 0.531147
0.493648 0.488233 0.533905
0.494277 0.490991 0.536663
0.494906 0.493749 0.539421
0.495536 0.496507 0.542179
0.496165 0.499265 0.544937
0.496794 0.502023 0.547695
0.497424 0.504781 0.550453
0.498053 0.507539 0.553211
0.498682 0.510297 0.555969
0.499312 0.513055 0.558727
0.499941 0.515813 0.561485
0.500571 0.518571 0.564243
0.501200 0.521329 0.567001
0.501829 0.524087 0.569759
0.502459 0.526845 0.572517
0.497803 0.486003 0.533803
0.498433 0.488761 0.536561
0.499062 0.491519 0.539319
0.499691 0.494277 0.542077
0.500321 0.497035 0.544835
0.500950 0.499792 0.547593
0.501580 0.502550 0.550351
0.502209 0.505308 0.553109
0.502838 0.508066 0.555867
0.503468 0.510824 0.558625
0.504097 0.513582 0.561383
0.504726 0.516340 0.564141
0.505356 0.519098 0.566899
0.505985 0.521856 0.569657
0.506614 0.524614 0.572415
0.507244 0.527372 0.575173
0.507873 0.530130 0.577931
0.503218 0.489288 0.539218
0.503847 0.492046 0.541976
0.504477 0.494804 0.544734
0.505106 0.497562 0.547492
0.505735 0.500320 0.550250
0.506365 0.503078 0.553008
0.506994 0.505836 0.555766
0.507623 0.508594 0.558524
0.508253 0.511352 0.561282
0.508882 0.514110 0.564040
0.509512 0.516868 0.566798
0.510141 0.519626 0.569556
0.510770 0.522384 0.572314
0.511400 0.525142 0.575072
0.512029 0.527900 0.577830
0.512658 0.530658 0.580588
0.513288 0.533416 0.583346
0.508632 0.492574 0.544632
0.509262 0.495332 0.547390
0.509891 0.498090 0.550148
0.510520 0.500848 0.552906
0.511150 0.503606 0.555664
0.511779 0.506364 0.558422
0.512409 0.509122 0.561180
0.513038 0.511880 0.563938
0.513667 0.514638 0.566696
0.514297 0.517396 0.569454
0.514926 0.520154 0.572212
0.515555 0.522912 0.574970
0.516185 0.525670 0.577728
0.516814 0.528428 0.580486
0.517443 0.531186 0.583244
0.518073 0.533944 0.586002
0.518702 0.536702 0.588760
0.423052 0.441052 0.456923
0.423681 0.443810 0.459681
0.424310 0.446568 0.462439
0.424940 0.449326 0.465197
0.425569 0.452084 0.467955
0.426198 0.454842 0.470713
0.426828 0.457600 0.473471
0.427457 0.460358 0.476229
0.428086 0.463115 0.478987
0.428716 0.465873 0.481745
0.429345 0.468631 0.484503
0.429975 0.471389 0.487261
0.430604 0.474147 0.490019
0.431233 0.476905 0.492777
0.431863 0.479663 0.495535
0.432492 0.482421 0.498293
0.433121 0.485179 0.501051
0.428466 0.444337 0.462337
0.429095 0.447095 0.465095
0.429725 0.449853 0.467853
0.430354 0.452611 0.470611
0.430984 0.455369 0.473369
0.431613 0.458127 0.476127
0.432242 0.460885 0.478885
0.432872 0.463643 0.481643
0.433501 0.466401 0.484401
0.434130 0.469159 0.487159
0.434760 0.471917 0.489917
0.435389 0.474675 0.492675
0.436018 0.477433 0.495433
0.436648 0.480191 0.498191
0.437277 0.482949 0.500949
0.437907 0.485707 0.503707
0.438536 0.488465 0.506465
0.433881 0.447623 0.467752
0.434510 0.450381 0.470510
0.435139 0.453139 0.473268
0.435769 0.455897 0.476026
0.436398 0.458655 0.478784
0.437027 0.461413 0.481542
0.437657 0.464171 0.484300
0.438286 0.466929 0.487058
0.438916 0.469687 0.489816
0.439545 0.472445 0.492574
0.440174 0.475203 0.495332
0.440804 0.477961 0.498090
0.441433 0.480719 0.500848
0.442062 0.483477 0.503606
0.442692 0.486235 0.506364
0.443321 0.488993 0.509122
0.443950 0.491751 0.511880
0.439295 0.450909 0.473166
0.439924 0.453667 0.475924
0.440554 0.456425 0.478682
0.441183 0.459183 0.481440
0.441813 0.461941 0.484198
0.442442 0.464699 0.486956
0.443071 0.467457 0.489714
0.443701 0.470215 0.492472
0.444330 0.472973 0.495230
0.444959 0.475731 0.497988
0.445589 0.478489 0.500746
0.446218 0.481247 0.503504
0.446847 0.484005 0.506262
0.447477 0.486763 0.509020
0.448106 0.489521 0.511778
0.448736 0.492279 0.514536
0.449365 0.495037 0.517294
0.444710 0.454195 0.478581
0.445339 0.456953 0.481339
0.445968 0.459711 0.484097
0.446598 0.462469 0.486855
0.447227 0.465227 0.489613
0.447856 0.467985 0.492371
0.448486 0.470743 0.495129
0.449115 0.473501 0.497887
0.449745 0.476259 0.500645
0.450374 0.479017 0.503403
0.451003 0.481775 0.506161
0.451633 0.484533 0.508919
0.452262 0.487291 0.511677
0.452891 0.490049 0.514435
0.453521 0.492807 0.517193
0.454150 0.495565 0.519951
0.454779 0.498323 0.522709
0.450124 0.457481 0.483996
0.450754 0.460239 0.486754
0.451383 0.462997 0.489512
0.452012 0.465755 0.492270
0.452642 0.468513 0.495028
0.453271 0.471271 0.497786
0.453900 0.474029 0.500544
0.454530 0.476787 0.503301
0.455159 0.479545 0.506059
0.455788 0.482303 0.508817
0.456418 0.485061 0.511575
0.457047 0.487819 0.514333
0.457677 0.490577 0.517091
0.458306 0.493335 0.519849
0.458935 0.496093 0.522607
0.459565 0.498851 0.525365
0.460194 0.501609 0.528123
0.455539 0.460767 0.489410
0.456168 0.463525 0.492168
0.456797 0.466283 0.494926
0.457427 0.469041 0.497684
0.458056 0.471799 0.500442
0.458686 0.474557 0.503200
0.459315 0.477315 0.505958
0.459944 0.480073 0.508716
0.460574 0.482831 0.511474
0.461203 0.485589 0.514232
0.461832 0.488347 0.516990
0.462462 0.491105 0.519748
0.463091 0.493863 0.522506
0.463720 0.496621 0.525264
0.464350 0.499379 0.528022
0.464979 0.502137 0.530780
0.465609 0.504895 0.533538
0.460953 0.464053 0.494825
0.461583 0.466811 0.497583
0.462212 0.469569 0.500341
0.462841 0.472327 0.503099
0.463471 0.475085 0.505857
0.464100 0.477843 0.508615
0.464729 0.480601 0.511373
0.465359 0.483359 0.514131
0.465988 0.486117 0.516889
0.466617 0.488875 0.519647
0.467247 0.491633 0.522405
0.467876 0.494391 0.525163
0.468506 0.497149 0.527921
0.469135 0.499907 0.530679
0.469764 0.502665 0.533437
0.470394 0.505423 0.536195
0.471023 0.508181 0.538952
0.466368 0.467339 0.500239
0.466997 0.470097 0.502997
0.467626 0.472855 0.505755
0.468256 0.475613 0.508513
0.468885 0.478371 0.511271
0.469515 0.481129 0.514029
0.470144 0.483887 0.516787
0.470773 0.486645 0.519545
0.471403 0.489403 0.522303
0.472032 0.492161 0.525061
0.472661 0.494919 0.527819
0.473291 0.497677 0.530577
0.473920 0.500435 0.533335
0.474549 0.503193 0.536093
0.475179 0.505951 0.538851
0.475808 0.508709 0.541609
0.476438 0.511467 0.544367
0.471782 0.470625 0.505654
0.472412 0.473383 0.508412
0.473041 0.476141 0.511170
0.473670 0.478899 0.513928
0.474300 0.481657 0.516686
0.474929 0.484415 0.519444
0.475558 0.487173 0.522202
0.476188 0.489931 0.524960
0.476817 0.492689 0.527718
0.477447 0.495447 0.530476
0.478076 0.498205 0.533234
0.478705 0.500963 0.535992
0.479335 0.503721 0.538750
0.479964 0.506479 0.541508
0.480593 0.509237 0.544266
0.481223 0.511995 0.547024
0.481852 0.514753 0.549782
0.477197 0.473910 0.511068
0.477826 0.476668 0.513826
0.478456 0.479426 0.516584
0.479085 0.482184 0.519342
0.479714 0.484942 0.522100
0.480344 0.487700 0.524858
0.480973 0.490458 0.527616
0.481602 0.493216 0.530374
0.482232 0.495974 0.533132
0.482861 0.498732 0.535890
0.483490 0.501490 0.538648
0.484120 0.504248 0.541406
0.484749 0.507006 0.544164
0.485379 0.509764 0.546922
0.486008 0.512522 0.549680
0.486637 0.515280 0.552438
0.487267 0.518038 0.555196
0.482611 0.477196 0.516483
0.483241 0.479954 0.519241
0.483870 0.482712 0.521999
0.484499 0.485470 0.524757
0.485129 0.488228 0.527515
0.485758 0.490986 0.530273
0.486388 0.493744 0.533031
0.487017 0.496502 0.535789
0.487646 0.499260 0.538547
0.488276 0.502018 0.541305
0.488905 0.504776 0.544063
0.489534 0.507534 0.546821
0.490164 0.510292 0.549579
0.490793 0.513050 0.552337
0.491422 0.515808 0.555095
0.492052 0.518566 0.557853
0.492681 0.521324 0.560611
0.488026 0.480482 0.521897
0.488655 0.483240 0.524655
0.489285 0.485998 0.527413
0.489914 0.488756 0.530171
0.490543 0.491514 0.532929
0.491173 0.494272 0.535687
0.491802 0.497030 0.538445
0.492431 0.499788 0.541203
0.493061 0.502546 0.543961
0.493690 0.505304 0.546719
0.494319 0.508062 0.549477
0.494949 0.510820 0.552235
0.495578 0.513578 0.554993
0.496208 0.516336 0.557751
0.496837 0.519094 0.560509
0.497466 0.521852 0.563267
0.498096 0.524610 0.566025
0.493440 0.483768 0.527312
0.494070 0.486526 0.530070
0.494699 0.489284 0.532828
0.495328 0.492042 0.535586
0.495958 0.494800 0.538344
0.496587 0.497558 0.541102
0.497217 0.500316 0.543860
0.497846 0.503074 0.546618
0.498475 0.505832 0.549376
0.499105 0.508590 0.552134
0.499734 0.511348 0.554892
0.500363 0.514106 0.557650
0.500993 0.516864 0.560408
0.501622 0.519622 0.563166
0.502251 0.522380 0.565924
0.502881 0.525138 0.568682
0.503510 0.527896 0.571440
0.498855 0.487054 0.532726
0.499484 0.489812 0.535484
0.500114 0.492570 0.538242
0.500743 0.495328 0.541000
0.501372 0.498086 0.543758
0.502002 0.500844 0.546516
0.502631 0.503602 0.549274
0.503260 0.506360 0.552032
0.503890 0.509118 0.554790
0.504519 0.511876 0.557548
0.505149 0.514634 0.560306
0.505778 0.517392 0.563064
0.506407 0.520150 0.565822
0.507037 0.522908 0.568580
0.507666 0.525666 0.571338
0.508295 0.528424 0.574096
0.508925 0.531182 0.576854
0.504269 0.490340 0.538141
0.504899 0.493098 0.540899
0.505528 0.495856 0.543657
0.506158 0.498614 0.546415
0.506787 0.501372 0.549173
0.507416 0.504130 0.551931
0.508046 0.506888 0.554689
0.508675 0.509646 0.557447
0.509304 0.512404 0.560205
0.509934 0.515162 0.562963
0.510563 0.517920 0.565721
0.511192 0.520678 0.568479
0.511822 0.523436 0.571237
0.512451 0.526194 0.573995
0.513081 0.528952 0.576753
0.513710 0.531710 0.579511
0.514339 0.534468 0.582269
0.509684 0.493626 0.543555
0.510313 0.496384 0.546313
0.510943 0.499142 0.549071
0.511572 0.501900 0.551829
0.512201 0.504658 0.554587
0.512831 0.507416 0.557345
0.513460 0.510174 0.560103
0.514089 0.512932 0.562861
0.514719 0.515690 0.565619
0.515348 0.518448 0.568377
0.515978 0.521206 0.571135
0.516607 0.523964 0.573893
0.517236 0.526722 0.576651
0.517866 0.529480 0.579409
0.518495 0.532238 0.582167
0.519124 0.534996 0.584925
0.519754 0.537754 0.587683
0.424103 0.442103 0.455846
0.424732 0.444861 0.458604
0.425362 0.447619 0.461362
0.425991 0.450377 0.464120
0.426621 0.453135 0.466878
0.427250 0.455893 0.469636
0.427879 0.458651 0.472394
0.428509 0.461409 0.475152
0.429138 0.464167 0.477910
0.429767 0.466925 0.480668
0.430397 0.469683 0.483426
0.431026 0.472441 0.486184
0.431655 0.475199 0.488942
0.432285 0.477957 0.491700
0.432914 0.480715 0.494458
0.433544 0.483473 0.497216
0.434173 0.486231 0.499974
0.429518 0.445389 0.461260
0.430147 0.448147 0.464018
0.430776 0.450905 0.466776
0.431406 0.453663 0.469534
0.432035 0.456421 0.472292
0.432664 0.459179 0.475050
0.433294 0.461937 0.477808
0.433923 0.464695 0.480566
0.434553 0.467453 0.483324
0.435182 0.470211 0.486082
0.435811 0.472969 0.488840
0.436441 0.475727 0.491598
0.437070 0.478485 0.494356
0.437699 0.481243 0.497114
0.438329 0.484001 0.499872
0.438958 0.486759 0.502630
0.439587 0.489517 0.505388
0.434932 0.448675 0.466675
0.435561 0.451433 0.469433
0.436191 0.454191 0.472191
0.436820 0.456949 0.474949
0.437450 0.459707 0.477707
0.438079 0.462465 0.480465
0.438708 0.465223 0.483223
0.439338 0.467981 0.485981
0.439967 0.470739 0.488739
0.440596 0.473497 0.491497
0.441226 0.476255 0.494255
0.441855 0.479013 0.497013
0.442485 0.481771 0.499771
0.443114 0.484529 0.502529
0.443743 0.487287 0.505287
0.444373 0.490045 0.508045
0.445002 0.492803 0.510803
0.440347 0.451961 0.472089
0.440976 0.454719 0.474847
0.441605 0.457477 0.477605
0.442235 0.460235 0.480363
0.442864 0.462993 0.483121
0.443493 0.465751 0.485879
0.444123 0.468509 0.488637
0.444752 0.471267 0.491395
0.445382 0.474025 0.494153
0.446011 0.476783 0.496911
0.446640 0.479541 0.499669
0.447270 0.482299 0.502427
0.447899 0.485057 0.505185
0.448528 0.487815 0.507943
0.449158 0.490573 0.510701
0.449787 0.493331 0.513459
0.450416 0.496089 0.516217
0.445761 0.455247 0.477504
0.446391 0.458005 0.480262
0.447020 0.460763 0.483020
0.447649 0.463521 0.485778
0.448279 0.466279 0.488536
0.448908 0.469037 0.491294
0.449537 0.471795 0.494052
0.450167 0.474553 0.496810
0.450796 0.477311 0.499568
0.451425 0.480069 0.502326
0.452055 0.482827 0.505084
0.452684 0.485585 0.507842
0.453314 0.488343 0.510600
0.453943 0.491101 0.513358
0.454572 0.493859 0.516116
0.455202 0.496617 0.518874
0.455831 0.499375 0.521632
0.451176 0.458533 0.482918
0.451805 0.461291 0.485676
0.452434 0.464049 0.488434
0.453064 0.466807 0.491192
0.453693 0.469565 0.493950
0.454323 0.472323 0.496708
0.454952 0.475081 0.499466
0.455581 0.477839 0.502224
0.456211 0.480597 0.504982
0.456840 0.483355 0.507740
0.457469 0.486113 0.510498
0.458099 0.488870 0.513256
0.458728 0.491628 0.516014
0.459357 0.494386 0.518772
0.459987 0.497144 0.521530
0.460616 0.499902 0.524288
0.461246 0.502660 0.527046
0.456590 0.461818 0.488333
0.457220 0.464576 0.491091
0.457849 0.467334 0.493849
0.458478 0.470092 0.496607
0.459108 0.472850 0.499365
0.459737 0.475608 0.502123
0.460366 0.478366 0.504881
0.460996 0.481124 0.507639
0.461625 0.483882 0.510397
0.462255 0.486640 0.513155
0.462884 0.489398 0.515913
0.463513 0.492156 0.518671
0.464143 0.494914 0.521429
0.464772 0.497672 0.524187
0.465401 0.500430 0.526945
0.466031 0.503188 0.529703
0.466660 0.505946 0.532461
0.462005 0.465104 0.493747
0.462634 0.467862 0.496505
0.463263 0.470620 0.499263
0.463893 0.473378 0.502021
0.464522 0.476136 0.504779
0.465152 0.478894 0.507537
0.465781 0.481652 0.510295
0.466410 0.484410 0.513053
0.467040 0.487168 0.515811
0.467669 0.489926 0.518569
0.468298 0.492684 0.521327
0.468928 0.495442 0.524085
0.469557 0.498200 0.526843
0.470187 0.500958 0.529601
0.470816 0.503716 0.532359
0.471445 0.506474 0.535117
0.472075 0.509232 0.537875
0.467419 0.468390 0.499162
0.468049 0.471148 0.501920
0.468678 0.473906 0.504678
0.469307 0.476664 0.507436
0.469937 0.479422 0.510194
0.470566 0.482180 0.512952
0.471195 0.484938 0.515710
0.471825 0.487696 0.518468
0.472454 0.490454 0.521226
0.473084 0.493212 0.523984
0.473713 0.495970 0.526742
0.474342 0.498728 0.529500
0.474972 0.501486 0.532258
0.475601 0.504244 0.535016
0.476230 0.507002 0.537774
0.476860 0.509760 0.540532
0.477489 0.512518 0.543290
0.472834 0.471676 0.504577
0.473463 0.474434 0.507335
0.474093 0.477192 0.510093
0.474722 0.479950 0.512851
0.475351 0.482708 0.515609
0.475981 0.485466 0.518367
0.476610 0.488224 0.521125
0.477239 0.490982 0.523883
0.477869 0.493740 0.526641
0.478498 0.496498 0.529398
0.479127 0.499256 0.532156
0.479757 0.502014 0.534914
0.480386 0.504772 0.537672
0.481016 0.507530 0.540430
0.481645 0.510288 0.543188
0.482274 0.513046 0.545946
0.482904 0.515804 0.548704
0.478248 0.474962 0.509991
0.478878 0.477720 0.512749
0.479507 0.480478 0.515507
0.480136 0.483236 0.518265
0.480766 0.485994 0.521023
0.481395 0.488752 0.523781
0.482025 0.491510 0.526539
0.482654 0.494268 0.529297
0.483283 0.497026 0.532055
0.483913 0.499784 0.534813
0.484542 0.502542 0.537571
0.485171 0.505300 0.540329
0.485801 0.508058 0.543087
0.486430 0.510816 0.545845
0.487059 0.513574 0.548603
0.487689 0.516332 0.551361
0.488318 0.519090 0.554119
0.483663 0.478248 0.515406
0.484292 0.481006 0.518164
0.484922 0.483764 0.520922
0.485551 0.486522 0.523680
0.486180 0.489280 0.526438
0.486810 0.492038 0.529196
0.487439 0.494796 0.531954
0.488068 0.497554 0.534712
0.488698 0.500312 0.537470
0.489327 0.503070 0.540228
0.489957 0.505828 0.542986
0.490586 0.508586 0.545744
0.491215 0.511344 0.548502
0.491845 0.514102 0.551260
0.492474 0.516860 0.554018
0.493103 0.519618 0.556776
0.493733 0.522376 0.559534
0.489077 0.481534 0.520820
0.489707 0.484292 0.523578
0.490336 0.487050 0.526336
0.490965 0.489808 0.529094
0.491595 0.492566 0.531852
0.492224 0.495324 0.534610
0.492854 0.498082 0.537368
0.493483 0.500840 0.540126
0.494112 0.503598 0.542884
0.494742 0.506356 0.545642
0.495371 0.509114 0.548400
0.496000 0.511872 0.551158
0.496630 0.514630 0.553916
0.497259 0.517388 0.556674
0.497888 0.520146 0.559432
0.498518 0.522904 0.562190
0.499147 0.525662 0.564948
0.494492 0.484820 0.526235
0.495121 0.487578 0.528993
0.495751 0.490336 0.531751
0.496380 0.493094 0.534509
0.497009 0.495852 0.537267
0.497639 0.498610 0.540025
0.498268 0.501368 0.542783
0.498897 0.504126 0.545541
0.499527 0.506884 0.548299
0.500156 0.509642 0.551057
0.500786 0.512400 0.553815
0.501415 0.515158 0.556573
0.502044 0.517916 0.559331
0.502674 0.520674 0.562089
0.503303 0.523432 0.564847
0.503932 0.526190 0.567605
0.504562 0.528948 0.570363
0.499906 0.488106 0.531649
0.500536 0.490864 0.534407
0.501165 0.493622 0.537165
0.501795 0.496380 0.539923
0.502424 0.499138 0.542681
0.503053 0.501896 0.545439
0.503683 0.504654 0.548197
0.504312 0.507412 0.550955
0.504941 0.510170 0.553713
0.505571 0.512928 0.556471
0.506200 0.515686 0.559229
0.506829 0.518444 0.561987
0.507459 0.521202 0.564745
0.508088 0.523960 0.567503
0.508718 0.526718 0.570261
0.509347 0.529476 0.573019
0.509976 0.532234 0.575777
0.505321 0.491392 0.537064
0.505950 0.494150 0.539822
0.506580 0.496907 0.542580
0.507209 0.499665 0.545338
0.507838 0.502423 0.548096
0.508468 0.505181 0.550854
0.509097 0.507939 0.553612
0.509727 0.510697 0.556370
0.510356 0.513455 0.559128
0.510985 0.516213 0.561886
0.511615 0.518971 0.564644
0.512244 0.521729 0.567402
0.512873 0.524487 0.570160
0.513503 0.527245 0.572918
0.514132 0.530003 0.575676
0.514761 0.532761 0.578434
0.515391 0.535519 0.581192
0.510735 0.494677 0.542478
0.511365 0.497435 0.545236
0.511994 0.500193 0.547994
0.512624 0.502951 0.550752
0.513253 0.505709 0.553510
0.513882 0.508467 0.556268
0.514512 0.511225 0.559026
0.515141 0.513983 0.561784
0.515770 0.516741 0.564542
0.516400 0.519499 0.567300
0.517029 0.522257 0.570058
0.517658 0.525015 0.572816
0.518288 0.527773 0.575574
0.518917 0.530531 0.578332
0.519547 0.533289 0.581090
0.520176 0.536047 0.583848
0.520805 0.538805 0.586606
0.425155 0.443155 0.454769
0.425784 0.445913 0.457527
0.426413 0.448671 0.460285
0.427043 0.451429 0.463043
0.427672 0.454187 0.465801
0.428301 0.456945 0.468559
0.428931 0.459703 0.471317
0.429560 0.462461 0.474075
0.430190 0.465219 0.476833
0.430819 0.467977 0.479591
0.431448 0.470735 0.482349
0.432078 0.473493 0.485107
0.432707 0.476251 0.487865
0.433336 0.479009 0.490623
0.433966 0.481767 0.493381
0.434595 0.484525 0.496139
0.435224 0.487283 0.498897
0.430569 0.446441 0.460183
