shared/src/main/assets/luts/drama_winter_steel.cube
TITLE "DALUR Winter Steel"
LUT_3D_SIZE 17
DOMAIN_MIN 0.0 0.0 0.0
DOMAIN_MAX 1.0 1.0 1.0
0.410800 0.430000 0.449200
0.411534 0.433218 0.452418
0.412269 0.436435 0.455635
0.413003 0.439653 0.458853
0.413737 0.442871 0.462071
0.414471 0.446088 0.465288
0.415206 0.449306 0.468506
0.415940 0.452524 0.471724
0.416674 0.455741 0.474941
0.417408 0.458959 0.478159
0.418143 0.462177 0.481377
0.418877 0.465394 0.484594
0.419611 0.468612 0.487812
0.420345 0.471830 0.491030
0.421080 0.475047 0.494247
0.421814 0.478265 0.497465
0.422548 0.481483 0.500683
0.417117 0.433834 0.455517
0.417851 0.437051 0.458735
0.418585 0.440269 0.461952
0.419320 0.443487 0.465170
0.420054 0.446704 0.468388
0.420788 0.449922 0.471605
0.421522 0.453140 0.474823
0.422257 0.456357 0.478041
0.422991 0.459575 0.481258
0.423725 0.462792 0.484476
0.424460 0.466010 0.487694
0.425194 0.469228 0.490911
0.425928 0.472445 0.494129
0.426662 0.475663 0.497347
0.427397 0.478881 0.500564
0.428131 0.482098 0.503782
0.428865 0.485316 0.507000
0.423434 0.437667 0.461834
0.424168 0.440885 0.465052
0.424902 0.444102 0.468269
0.425637 0.447320 0.471487
0.426371 0.450538 0.474705
0.427105 0.453755 0.477922
0.427839 0.456973 0.481140
0.428574 0.460191 0.484358
0.429308 0.463408 0.487575
0.430042 0.466626 0.490793
0.430776 0.469844 0.494010
0.431511 0.473061 0.497228
0.432245 0.476279 0.500446
0.432979 0.479497 0.503663
0.433714 0.482714 0.506881
0.434448 0.485932 0.510099
0.435182 0.489150 0.513316
0.429751 0.441501 0.468151
0.430485 0.444718 0.471368
0.431219 0.447936 0.474586
0.431954 0.451154 0.477804
0.432688 0.454371 0.481021
0.433422 0.457589 0.484239
0.434156 0.460807 0.487457
0.434891 0.464024 0.490674
0.435625 0.467242 0.493892
0.436359 0.470460 0.497110
0.437093 0.473677 0.500327
0.437828 0.476895 0.503545
0.438562 0.480113 0.506763
0.439296 0.483330 0.509980
0.440030 0.486548 0.513198
0.440765 0.489766 0.516416
0.441499 0.492983 0.519633
0.436068 0.445334 0.474468
0.436802 0.448552 0.477685
0.437536 0.451769 0.480903
0.438271 0.454987 0.484121
0.439005 0.458205 0.487338
0.439739 0.461422 0.490556
0.440473 0.464640 0.493774
0.441208 0.467858 0.496991
0.441942 0.471075 0.500209
0.442676 0.474293 0.503427
0.443410 0.477511 0.506644
0.444145 0.480728 0.509862
0.444879 0.483946 0.513080
0.445613 0.487164 0.516297
0.446347 0.490381 0.519515
0.447082 0.493599 0.522733
0.447816 0.496817 0.525950
0.442385 0.449168 0.480785
0.443119 0.452385 0.484002
0.443853 0.455603 0.487220
0.444588 0.458821 0.490438
0.445322 0.462038 0.493655
0.446056 0.465256 0.496873
0.446790 0.468474 0.500091
0.447525 0.471691 0.503308
0.448259 0.474909 0.506526
0.448993 0.478127 0.509744
0.449727 0.481344 0.512961
0.450462 0.484562 0.516179
0.451196 0.487780 0.519397
0.451930 0.490997 0.522614
0.452664 0.494215 0.525832
0.453399 0.497433 0.529050
0.454133 0.500650 0.532267
0.448702 0.453001 0.487102
0.449436 0.456219 0.490319
0.450170 0.459437 0.493537
0.450904 0.462654 0.496755
0.451639 0.465872 0.499972
0.452373 0.469090 0.503190
0.453107 0.472307 0.506408
0.453841 0.475525 0.509625
0.454576 0.478743 0.512843
0.455310 0.481960 0.516061
0.456044 0.485178 0.519278
0.456779 0.488396 0.522496
0.457513 0.491613 0.525714
0.458247 0.494831 0.528931
0.458981 0.498049 0.532149
0.459716 0.501266 0.535367
0.460450 0.504484 0.538584
0.455019 0.456835 0.493419
0.455753 0.460052 0.496636
0.456487 0.463270 0.499854
0.457221 0.466488 0.503072
0.457956 0.469705 0.506289
0.458690 0.472923 0.509507
0.459424 0.476141 0.512725
0.460158 0.479358 0.515942
0.460893 0.482576 0.519160
0.461627 0.485794 0.522378
0.462361 0.489011 0.525595
0.463095 0.492229 0.528813
0.463830 0.495447 0.532031
0.464564 0.498664 0.535248
0.465298 0.501882 0.538466
0.466033 0.505100 0.541684
0.466767 0.508317 0.544901
0.461336 0.460668 0.499736
0.462070 0.463886 0.502953
0.462804 0.467104 0.506171
0.463538 0.470321 0.509389
0.464273 0.473539 0.512606
0.465007 0.476757 0.515824
0.465741 0.479974 0.519042
0.466475 0.483192 0.522259
0.467210 0.486410 0.525477
0.467944 0.489627 0.528695
0.468678 0.492845 0.531912
0.469412 0.496063 0.535130
0.470147 0.499280 0.538347
0.470881 0.502498 0.541565
0.471615 0.505716 0.544783
0.472349 0.508933 0.548000
0.473084 0.512151 0.551218
0.467653 0.464502 0.506053
0.468387 0.467720 0.509270
0.469121 0.470937 0.512488
0.469855 0.474155 0.515705
0.470590 0.477373 0.518923
0.471324 0.480590 0.522141
0.472058 0.483808 0.525358
0.472792 0.487026 0.528576
0.473527 0.490243 0.531794
0.474261 0.493461 0.535011
0.474995 0.496678 0.538229
0.475729 0.499896 0.541447
0.476464 0.503114 0.544664
0.477198 0.506331 0.547882
0.477932 0.509549 0.551100
0.478666 0.512767 0.554317
0.479401 0.515984 0.557535
0.473969 0.468335 0.512369
0.474704 0.471553 0.515587
0.475438 0.474771 0.518805
0.476172 0.477988 0.522022
0.476906 0.481206 0.525240
0.477641 0.484424 0.528458
0.478375 0.487641 0.531675
0.479109 0.490859 0.534893
0.479844 0.494077 0.538111
0.480578 0.497294 0.541328
0.481312 0.500512 0.544546
0.482046 0.503730 0.547764
0.482781 0.506947 0.550981
0.483515 0.510165 0.554199
0.484249 0.513383 0.557417
0.484983 0.516600 0.560634
0.485718 0.519818 0.563852
0.480286 0.472169 0.518686
0.481021 0.475387 0.521904
0.481755 0.478604 0.525122
0.482489 0.481822 0.528339
0.483223 0.485040 0.531557
0.483958 0.488257 0.534775
0.484692 0.491475 0.537992
0.485426 0.494693 0.541210
0.486160 0.497910 0.544428
0.486895 0.501128 0.547645
0.487629 0.504346 0.550863
0.488363 0.507563 0.554081
0.489098 0.510781 0.557298
0.489832 0.513999 0.560516
0.490566 0.517216 0.563734
0.491300 0.520434 0.566951
0.492035 0.523652 0.570169
0.486603 0.476003 0.525003
0.487338 0.479220 0.528221
0.488072 0.482438 0.531439
0.488806 0.485656 0.534656
0.489540 0.488873 0.537874
0.490275 0.492091 0.541092
0.491009 0.495308 0.544309
0.491743 0.498526 0.547527
0.492477 0.501744 0.550745
0.493212 0.504961 0.553962
0.493946 0.508179 0.557180
0.494680 0.511397 0.560398
0.495414 0.514614 0.563615
0.496149 0.517832 0.566833
0.496883 0.521050 0.570051
0.497617 0.524267 0.573268
0.498351 0.527485 0.576486
0.492920 0.479836 0.531320
0.493655 0.483054 0.534538
0.494389 0.486271 0.537756
0.495123 0.489489 0.540973
0.495857 0.492707 0.544191
0.496592 0.495924 0.547409
0.497326 0.499142 0.550626
0.498060 0.502360 0.553844
0.498794 0.505577 0.557062
0.499529 0.508795 0.560279
0.500263 0.512013 0.563497
0.500997 0.515230 0.566715
0.501731 0.518448 0.569932
0.502466 0.521666 0.573150
0.503200 0.524883 0.576368
0.503934 0.528101 0.579585
0.504668 0.531319 0.582803
0.499237 0.483670 0.537637
0.499971 0.486887 0.540855
0.500706 0.490105 0.544073
0.501440 0.493323 0.547290
0.502174 0.496540 0.550508
0.502909 0.499758 0.553726
0.503643 0.502976 0.556943
0.504377 0.506193 0.560161
0.505111 0.509411 0.563379
0.505846 0.512629 0.566596
0.506580 0.515846 0.569814
0.507314 0.519064 0.573031
0.508048 0.522282 0.576249
0.508783 0.525499 0.579467
0.509517 0.528717 0.582684
0.510251 0.531935 0.585902
0.510985 0.535152 0.589120
0.505554 0.487503 0.543954
0.506288 0.490721 0.547172
0.507023 0.493938 0.550389
0.507757 0.497156 0.553607
0.508491 0.500374 0.556825
0.509225 0.503591 0.560042
0.509960 0.506809 0.563260
0.510694 0.510027 0.566478
0.511428 0.513244 0.569695
0.512163 0.516462 0.572913
0.512897 0.519680 0.576131
0.513631 0.522897 0.579348
0.514365 0.526115 0.582566
0.515100 0.529333 0.585784
0.515834 0.532550 0.589001
0.516568 0.535768 0.592219
0.517302 0.538986 0.595437
0.511871 0.491337 0.550271
0.512605 0.494554 0.553489
0.513340 0.497772 0.556706
0.514074 0.500990 0.559924
0.514808 0.504207 0.563142
0.515542 0.507425 0.566359
0.516277 0.510643 0.569577
0.517011 0.513860 0.572795
0.517745 0.517078 0.576012
0.518479 0.520296 0.579230
0.519214 0.523513 0.582448
0.519948 0.526731 0.585665
0.520682 0.529949 0.588883
0.521416 0.533166 0.592101
0.522151 0.536384 0.595318
0.522885 0.539602 0.598536
0.523619 0.542819 0.601754
0.412027 0.431227 0.447943
0.412761 0.434444 0.451161
0.413495 0.437662 0.454379
0.414230 0.440880 0.457596
0.414964 0.444097 0.460814
0.415698 0.447315 0.464032
0.416432 0.450533 0.467249
0.417167 0.453750 0.470467
0.417901 0.456968 0.473685
0.418635 0.460186 0.476902
0.419369 0.463403 0.480120
0.420104 0.466621 0.483338
0.420838 0.469839 0.486555
0.421572 0.473056 0.489773
0.422306 0.476274 0.492991
0.423041 0.479492 0.496208
0.423775 0.482709 0.499426
0.418344 0.435060 0.454260
0.419078 0.438278 0.457478
0.419812 0.441496 0.460696
0.420547 0.444713 0.463913
0.421281 0.447931 0.467131
0.422015 0.451149 0.470349
0.422749 0.454366 0.473566
0.423484 0.457584 0.476784
0.424218 0.460802 0.480002
0.424952 0.464019 0.483219
0.425686 0.467237 0.486437
0.426421 0.470455 0.489655
0.427155 0.473672 0.492872
0.427889 0.476890 0.496090
0.428623 0.480108 0.499308
0.429358 0.483325 0.502525
0.430092 0.486543 0.505743
0.424661 0.438894 0.460577
0.425395 0.442112 0.463795
0.426129 0.445329 0.467013
0.426863 0.448547 0.470230
0.427598 0.451765 0.473448
0.428332 0.454982 0.476666
0.429066 0.458200 0.479883
0.429801 0.461418 0.483101
0.430535 0.464635 0.486319
0.431269 0.467853 0.489536
0.432003 0.471070 0.492754
0.432738 0.474288 0.495972
0.433472 0.477506 0.499189
0.434206 0.480723 0.502407
0.434940 0.483941 0.505625
0.435675 0.487159 0.508842
0.436409 0.490376 0.512060
0.430978 0.442727 0.466894
0.431712 0.445945 0.470112
0.432446 0.449163 0.473330
0.433180 0.452380 0.476547
0.433915 0.455598 0.479765
0.434649 0.458816 0.482983
0.435383 0.462033 0.486200
0.436117 0.465251 0.489418
0.436852 0.468469 0.492636
0.437586 0.471686 0.495853
0.438320 0.474904 0.499071
0.439054 0.478122 0.502288
0.439789 0.481339 0.505506
0.440523 0.484557 0.508724
0.441257 0.487775 0.511941
0.441992 0.490992 0.515159
0.442726 0.494210 0.518377
0.437295 0.446561 0.473211
0.438029 0.449779 0.476429
0.438763 0.452996 0.479647
0.439497 0.456214 0.482864
0.440232 0.459432 0.486082
0.440966 0.462649 0.489299
0.441700 0.465867 0.492517
0.442434 0.469085 0.495735
0.443169 0.472302 0.498952
0.443903 0.475520 0.502170
0.444637 0.478738 0.505388
0.445371 0.481955 0.508605
0.446106 0.485173 0.511823
0.446840 0.488391 0.515041
0.447574 0.491608 0.518258
0.448308 0.494826 0.521476
0.449043 0.498044 0.524694
0.443612 0.450395 0.479528
0.444346 0.453612 0.482746
0.445080 0.456830 0.485963
0.445814 0.460048 0.489181
0.446549 0.463265 0.492399
0.447283 0.466483 0.495616
0.448017 0.469700 0.498834
0.448751 0.472918 0.502052
0.449486 0.476136 0.505269
0.450220 0.479353 0.508487
0.450954 0.482571 0.511705
0.451688 0.485789 0.514922
0.452423 0.489006 0.518140
0.453157 0.492224 0.521358
0.453891 0.495442 0.524575
0.454625 0.498659 0.527793
0.455360 0.501877 0.531011
0.449928 0.454228 0.485845
0.450663 0.457446 0.489063
0.451397 0.460663 0.492280
0.452131 0.463881 0.495498
0.452866 0.467099 0.498716
0.453600 0.470316 0.501933
0.454334 0.473534 0.505151
0.455068 0.476752 0.508369
0.455803 0.479969 0.511586
0.456537 0.483187 0.514804
0.457271 0.486405 0.518022
0.458005 0.489622 0.521239
0.458740 0.492840 0.524457
0.459474 0.496058 0.527675
0.460208 0.499275 0.530892
0.460942 0.502493 0.534110
0.461677 0.505711 0.537328
0.456245 0.458062 0.492162
0.456980 0.461279 0.495380
0.457714 0.464497 0.498597
0.458448 0.467715 0.501815
0.459182 0.470932 0.505033
0.459917 0.474150 0.508250
0.460651 0.477368 0.511468
0.461385 0.480585 0.514686
0.462119 0.483803 0.517903
0.462854 0.487021 0.521121
0.463588 0.490238 0.524339
0.464322 0.493456 0.527556
0.465057 0.496674 0.530774
0.465791 0.499891 0.533992
0.466525 0.503109 0.537209
0.467259 0.506327 0.540427
0.467994 0.509544 0.543645
0.462562 0.461895 0.498479
0.463297 0.465113 0.501697
0.464031 0.468330 0.504914
0.464765 0.471548 0.508132
0.465499 0.474766 0.511350
0.466234 0.477983 0.514567
0.466968 0.481201 0.517785
0.467702 0.484419 0.521003
0.468436 0.487636 0.524220
0.469171 0.490854 0.527438
0.469905 0.494072 0.530656
0.470639 0.497289 0.533873
0.471373 0.500507 0.537091
0.472108 0.503725 0.540309
0.472842 0.506942 0.543526
0.473576 0.510160 0.546744
0.474311 0.513378 0.549962
0.468879 0.465729 0.504796
0.469614 0.468946 0.508014
0.470348 0.472164 0.511231
0.471082 0.475382 0.514449
0.471816 0.478599 0.517667
0.472551 0.481817 0.520884
0.473285 0.485035 0.524102
0.474019 0.488252 0.527320
0.474753 0.491470 0.530537
0.475488 0.494688 0.533755
0.476222 0.497905 0.536973
0.476956 0.501123 0.540190
0.477690 0.504341 0.543408
0.478425 0.507558 0.546625
0.479159 0.510776 0.549843
0.479893 0.513994 0.553061
0.480627 0.517211 0.556278
0.475196 0.469562 0.511113
0.475931 0.472780 0.514331
0.476665 0.475998 0.517548
0.477399 0.479215 0.520766
0.478133 0.482433 0.523983
0.478868 0.485651 0.527201
0.479602 0.488868 0.530419
0.480336 0.492086 0.533636
0.481070 0.495304 0.536854
0.481805 0.498521 0.540072
0.482539 0.501739 0.543289
0.483273 0.504957 0.546507
0.484007 0.508174 0.549725
0.484742 0.511392 0.552942
0.485476 0.514609 0.556160
0.486210 0.517827 0.559378
0.486944 0.521045 0.562595
0.481513 0.473396 0.517430
0.482247 0.476613 0.520647
0.482982 0.479831 0.523865
0.483716 0.483049 0.527083
0.484450 0.486266 0.530300
0.485184 0.489484 0.533518
0.485919 0.492702 0.536736
0.486653 0.495919 0.539953
0.487387 0.499137 0.543171
0.488122 0.502355 0.546389
0.488856 0.505572 0.549606
0.489590 0.508790 0.552824
0.490324 0.512008 0.556042
0.491059 0.515225 0.559259
0.491793 0.518443 0.562477
0.492527 0.521661 0.565695
0.493261 0.524878 0.568912
0.487830 0.477229 0.523747
0.488564 0.480447 0.526964
0.489299 0.483665 0.530182
0.490033 0.486882 0.533400
0.490767 0.490100 0.536617
0.491501 0.493318 0.539835
0.492236 0.496535 0.543053
0.492970 0.499753 0.546270
0.493704 0.502971 0.549488
0.494438 0.506188 0.552706
0.495173 0.509406 0.555923
0.495907 0.512624 0.559141
0.496641 0.515841 0.562359
0.497376 0.519059 0.565576
0.498110 0.522277 0.568794
0.498844 0.525494 0.572012
0.499578 0.528712 0.575229
0.494147 0.481063 0.530064
0.494881 0.484281 0.533281
0.495616 0.487498 0.536499
0.496350 0.490716 0.539717
0.497084 0.493934 0.542934
0.497818 0.497151 0.546152
0.498553 0.500369 0.549370
0.499287 0.503586 0.552587
0.500021 0.506804 0.555805
0.500755 0.510022 0.559023
0.501490 0.513239 0.562240
0.502224 0.516457 0.565458
0.502958 0.519675 0.568676
0.503692 0.522892 0.571893
0.504427 0.526110 0.575111
0.505161 0.529328 0.578329
0.505895 0.532545 0.581546
0.500464 0.484896 0.536381
0.501198 0.488114 0.539598
0.501933 0.491332 0.542816
0.502667 0.494549 0.546034
0.503401 0.497767 0.549251
0.504135 0.500985 0.552469
0.504870 0.504202 0.555687
0.505604 0.507420 0.558904
0.506338 0.510638 0.562122
0.507072 0.513855 0.565340
0.507807 0.517073 0.568557
0.508541 0.520291 0.571775
0.509275 0.523508 0.574993
0.510009 0.526726 0.578210
0.510744 0.529944 0.581428
0.511478 0.533161 0.584646
0.512212 0.536379 0.587863
0.506781 0.488730 0.542698
0.507515 0.491948 0.545915
0.508249 0.495165 0.549133
0.508984 0.498383 0.552351
0.509718 0.501601 0.555568
0.510452 0.504818 0.558786
0.511187 0.508036 0.562004
0.511921 0.511254 0.565221
0.512655 0.514471 0.568439
0.513389 0.517689 0.571657
0.514124 0.520907 0.574874
0.514858 0.524124 0.578092
0.515592 0.527342 0.581310
0.516326 0.530560 0.584527
0.517061 0.533777 0.587745
0.517795 0.536995 0.590962
0.518529 0.540213 0.594180
0.513098 0.492564 0.549015
0.513832 0.495781 0.552232
0.514566 0.498999 0.555450
0.515301 0.502216 0.558668
0.516035 0.505434 0.561885
0.516769 0.508652 0.565103
0.517503 0.511869 0.568320
0.518238 0.515087 0.571538
0.518972 0.518305 0.574756
0.519706 0.521522 0.577973
0.520441 0.524740 0.581191
0.521175 0.527958 0.584409
0.521909 0.531175 0.587626
0.522643 0.534393 0.590844
0.523378 0.537611 0.594062
0.524112 0.540828 0.597279
0.524846 0.544046 0.600497
0.413254 0.432454 0.446687
0.413988 0.435671 0.449904
0.414722 0.438889 0.453122
0.415456 0.442107 0.456340
0.416191 0.445324 0.459557
0.416925 0.448542 0.462775
0.417659 0.451760 0.465993
0.418393 0.454977 0.469210
0.419128 0.458195 0.472428
0.419862 0.461413 0.475646
0.420596 0.464630 0.478863
0.421330 0.467848 0.482081
0.422065 0.471066 0.485299
0.422799 0.474283 0.488516
0.423533 0.477501 0.491734
0.424267 0.480719 0.494952
0.425002 0.483936 0.498169
0.419571 0.436287 0.453004
0.420305 0.439505 0.456221
0.421039 0.442722 0.459439
0.421773 0.445940 0.462657
0.422508 0.449158 0.465874
0.423242 0.452375 0.469092
0.423976 0.455593 0.472310
0.424710 0.458811 0.475527
0.425445 0.462028 0.478745
0.426179 0.465246 0.481963
0.426913 0.468464 0.485180
0.427647 0.471681 0.488398
0.428382 0.474899 0.491616
0.429116 0.478117 0.494833
0.429850 0.481334 0.498051
0.430584 0.484552 0.501269
0.431319 0.487770 0.504486
0.425887 0.440121 0.459321
0.426622 0.443338 0.462538
0.427356 0.446556 0.465756
0.428090 0.449774 0.468974
0.428825 0.452991 0.472191
0.429559 0.456209 0.475409
0.430293 0.459427 0.478627
0.431027 0.462644 0.481844
0.431762 0.465862 0.485062
0.432496 0.469080 0.488280
0.433230 0.472297 0.491497
0.433964 0.475515 0.494715
0.434699 0.478733 0.497933
0.435433 0.481950 0.501150
0.436167 0.485168 0.504368
0.436901 0.488386 0.507586
0.437636 0.491603 0.510803
0.432204 0.443954 0.465638
0.432939 0.447172 0.468855
0.433673 0.450390 0.472073
0.434407 0.453607 0.475291
0.435141 0.456825 0.478508
0.435876 0.460043 0.481726
0.436610 0.463260 0.484944
0.437344 0.466478 0.488161
0.438079 0.469696 0.491379
0.438813 0.472913 0.494597
0.439547 0.476131 0.497814
0.440281 0.479348 0.501032
0.441016 0.482566 0.504250
0.441750 0.485784 0.507467
0.442484 0.489001 0.510685
0.443218 0.492219 0.513903
0.443953 0.495437 0.517120
0.438521 0.447788 0.471955
0.439256 0.451005 0.475172
0.439990 0.454223 0.478390
0.440724 0.457441 0.481608
0.441458 0.460658 0.484825
0.442193 0.463876 0.488043
0.442927 0.467094 0.491261
0.443661 0.470311 0.494478
0.444395 0.473529 0.497696
0.445130 0.476747 0.500914
0.445864 0.479964 0.504131
0.446598 0.483182 0.507349
0.447332 0.486400 0.510567
0.448067 0.489617 0.513784
0.448801 0.492835 0.517002
0.449535 0.496053 0.520219
0.450270 0.499270 0.523437
0.444838 0.451621 0.478272
0.445573 0.454839 0.481489
0.446307 0.458057 0.484707
0.447041 0.461274 0.487925
0.447775 0.464492 0.491142
0.448510 0.467710 0.494360
0.449244 0.470927 0.497577
0.449978 0.474145 0.500795
0.450712 0.477363 0.504013
0.451447 0.480580 0.507230
0.452181 0.483798 0.510448
0.452915 0.487016 0.513666
0.453649 0.490233 0.516883
0.454384 0.493451 0.520101
0.455118 0.496669 0.523319
0.455852 0.499886 0.526536
0.456586 0.503104 0.529754
0.451155 0.455455 0.484588
0.451890 0.458673 0.487806
0.452624 0.461890 0.491024
0.453358 0.465108 0.494241
0.454092 0.468326 0.497459
0.454827 0.471543 0.500677
0.455561 0.474761 0.503894
0.456295 0.477978 0.507112
0.457029 0.481196 0.510330
0.457764 0.484414 0.513547
0.458498 0.487631 0.516765
0.459232 0.490849 0.519983
0.459966 0.494067 0.523200
0.460701 0.497284 0.526418
0.461435 0.500502 0.529636
0.462169 0.503720 0.532853
0.462903 0.506937 0.536071
0.457472 0.459288 0.490905
0.458206 0.462506 0.494123
0.458941 0.465724 0.497341
0.459675 0.468941 0.500558
0.460409 0.472159 0.503776
0.461144 0.475377 0.506994
0.461878 0.478594 0.510211
0.462612 0.481812 0.513429
0.463346 0.485030 0.516647
0.464081 0.488247 0.519864
0.464815 0.491465 0.523082
0.465549 0.494683 0.526300
0.466283 0.497900 0.529517
0.467018 0.501118 0.532735
0.467752 0.504336 0.535953
0.468486 0.507553 0.539170
0.469220 0.510771 0.542388
0.463789 0.463122 0.497222
0.464523 0.466340 0.500440
0.465258 0.469557 0.503658
0.465992 0.472775 0.506875
0.466726 0.475993 0.510093
0.467460 0.479210 0.513311
0.468195 0.482428 0.516528
0.468929 0.485646 0.519746
0.469663 0.488863 0.522964
0.470397 0.492081 0.526181
0.471132 0.495299 0.529399
0.471866 0.498516 0.532617
0.472600 0.501734 0.535834
0.473335 0.504952 0.539052
0.474069 0.508169 0.542270
0.474803 0.511387 0.545487
0.475537 0.514605 0.548705
0.470106 0.466955 0.503539
0.470840 0.470173 0.506757
0.471575 0.473391 0.509975
0.472309 0.476608 0.513192
0.473043 0.479826 0.516410
0.473777 0.483044 0.519628
0.474512 0.486261 0.522845
0.475246 0.489479 0.526063
0.475980 0.492697 0.529281
0.476714 0.495914 0.532498
0.477449 0.499132 0.535716
0.478183 0.502350 0.538934
0.478917 0.505567 0.542151
0.479651 0.508785 0.545369
0.480386 0.512003 0.548587
0.481120 0.515220 0.551804
0.481854 0.518438 0.555022
0.476423 0.470789 0.509856
0.477157 0.474007 0.513074
0.477892 0.477224 0.516292
0.478626 0.480442 0.519509
0.479360 0.483660 0.522727
0.480094 0.486877 0.525945
0.480829 0.490095 0.529162
0.481563 0.493313 0.532380
0.482297 0.496530 0.535598
0.483031 0.499748 0.538815
0.483766 0.502966 0.542033
0.484500 0.506183 0.545251
0.485234 0.509401 0.548468
0.485968 0.512619 0.551686
0.486703 0.515836 0.554903
0.487437 0.519054 0.558121
0.488171 0.522272 0.561339
0.482740 0.474623 0.516173
0.483474 0.477840 0.519391
0.484209 0.481058 0.522609
0.484943 0.484276 0.525826
0.485677 0.487493 0.529044
0.486411 0.490711 0.532261
0.487146 0.493929 0.535479
0.487880 0.497146 0.538697
0.488614 0.500364 0.541914
0.489348 0.503582 0.545132
0.490083 0.506799 0.548350
0.490817 0.510017 0.551567
0.491551 0.513235 0.554785
0.492285 0.516452 0.558003
0.493020 0.519670 0.561220
0.493754 0.522887 0.564438
0.494488 0.526105 0.567656
0.489057 0.478456 0.522490
0.489791 0.481674 0.525708
0.490525 0.484891 0.528925
0.491260 0.488109 0.532143
0.491994 0.491327 0.535361
0.492728 0.494544 0.538578
0.493462 0.497762 0.541796
0.494197 0.500980 0.545014
0.494931 0.504197 0.548231
0.495665 0.507415 0.551449
0.496400 0.510633 0.554667
0.497134 0.513850 0.557884
0.497868 0.517068 0.561102
0.498602 0.520286 0.564320
0.499337 0.523503 0.567537
0.500071 0.526721 0.570755
0.500805 0.529939 0.573973
0.495374 0.482290 0.528807
0.496108 0.485507 0.532025
0.496842 0.488725 0.535242
0.497577 0.491943 0.538460
0.498311 0.495160 0.541678
0.499045 0.498378 0.544895
0.499779 0.501596 0.548113
0.500514 0.504813 0.551331
0.501248 0.508031 0.554548
0.501982 0.511249 0.557766
0.502716 0.514466 0.560984
0.503451 0.517684 0.564201
0.504185 0.520902 0.567419
0.504919 0.524119 0.570637
0.505654 0.527337 0.573854
0.506388 0.530555 0.577072
0.507122 0.533772 0.580290
0.501691 0.486123 0.535124
0.502425 0.489341 0.538342
0.503159 0.492559 0.541559
0.503894 0.495776 0.544777
0.504628 0.498994 0.547995
0.505362 0.502212 0.551212
0.506096 0.505429 0.554430
0.506831 0.508647 0.557648
0.507565 0.511864 0.560865
0.508299 0.515082 0.564083
0.509033 0.518300 0.567301
0.509768 0.521517 0.570518
0.510502 0.524735 0.573736
0.511236 0.527953 0.576954
0.511970 0.531170 0.580171
0.512705 0.534388 0.583389
0.513439 0.537606 0.586607
0.508008 0.489957 0.541441
0.508742 0.493174 0.544659
0.509476 0.496392 0.547876
0.510211 0.499610 0.551094
0.510945 0.502827 0.554312
0.511679 0.506045 0.557529
0.512413 0.509263 0.560747
0.513148 0.512480 0.563965
0.513882 0.515698 0.567182
0.514616 0.518916 0.570400
0.515350 0.522133 0.573618
0.516085 0.525351 0.576835
0.516819 0.528569 0.580053
0.517553 0.531786 0.583271
0.518287 0.535004 0.586488
0.519022 0.538222 0.589706
0.519756 0.541439 0.592924
0.514325 0.493790 0.547758
0.515059 0.497008 0.550976
0.515793 0.500226 0.554193
0.516528 0.503443 0.557411
0.517262 0.506661 0.560629
0.517996 0.509879 0.563846
0.518730 0.513096 0.567064
0.519465 0.516314 0.570282
0.520199 0.519532 0.573499
0.520933 0.522749 0.576717
0.521667 0.525967 0.579935
0.522402 0.529185 0.583152
0.523136 0.532402 0.586370
0.523870 0.535620 0.589588
0.524604 0.538838 0.592805
0.525339 0.542055 0.596023
0.526073 0.545273 0.599240
0.414480 0.433680 0.445430
0.415215 0.436898 0.448648
0.415949 0.440116 0.451866
0.416683 0.443333 0.455083
0.417417 0.446551 0.458301
0.418152 0.449769 0.461518
0.418886 0.452986 0.464736
0.419620 0.456204 0.467954
0.420354 0.459422 0.471171
0.421089 0.462639 0.474389
0.421823 0.465857 0.477607
0.422557 0.469075 0.480824
0.423292 0.472292 0.484042
0.424026 0.475510 0.487260
0.424760 0.478728 0.490477
0.425494 0.481945 0.493695
0.426229 0.485163 0.496913
0.420797 0.437514 0.451747
