shared/src/main/assets/luts/drama_cold_isolation.cube
TITLE "DALUR Cold Isolation"
LUT_3D_SIZE 9
DOMAIN_MIN 0.0 0.0 0.0
DOMAIN_MAX 1.0 1.0 1.0
0.422000 0.440000 0.458000
0.423259 0.445516 0.463516
0.424517 0.451032 0.469032
0.425776 0.456548 0.474548
0.427035 0.462064 0.480064
0.428294 0.467580 0.485580
0.429552 0.473096 0.491096
0.430811 0.478612 0.496612
0.432070 0.484128 0.502128
0.432829 0.446572 0.468829
0.434088 0.452088 0.474345
0.435347 0.457604 0.479861
0.436605 0.463120 0.485377
0.437864 0.468636 0.490893
0.439123 0.474152 0.496409
0.440381 0.479668 0.501925
0.441640 0.485184 0.507441
0.442899 0.490700 0.512957
0.443658 0.453144 0.479658
0.444917 0.458660 0.485174
0.446176 0.464176 0.490690
0.447434 0.469692 0.496206
0.448693 0.475208 0.501722
0.449952 0.480724 0.507238
0.451210 0.486240 0.512754
0.452469 0.491756 0.518270
0.453728 0.497271 0.523786
0.454487 0.459715 0.490487
0.455746 0.465231 0.496003
0.457005 0.470747 0.501519
0.458263 0.476263 0.507035
0.459522 0.481779 0.512551
0.460781 0.487295 0.518067
0.462040 0.492811 0.523583
0.463298 0.498327 0.529099
0.464557 0.503843 0.534615
0.465316 0.466287 0.501316
0.466575 0.471803 0.506832
0.467834 0.477319 0.512348
0.469092 0.482835 0.517864
0.470351 0.488351 0.523380
0.471610 0.493867 0.528896
0.472869 0.499383 0.534412
0.474127 0.504899 0.539928
0.475386 0.510415 0.545444
0.476145 0.472859 0.512145
0.477404 0.478375 0.517661
0.478663 0.483891 0.523177
0.479921 0.489407 0.528693
0.481180 0.494923 0.534209
0.482439 0.500439 0.539725
0.483698 0.505955 0.545241
0.484956 0.511471 0.550757
0.486215 0.516987 0.556273
0.486974 0.479431 0.522974
0.488233 0.484947 0.528490
0.489492 0.490463 0.534006
0.490750 0.495979 0.539522
0.492009 0.501495 0.545038
0.493268 0.507011 0.550554
0.494527 0.512527 0.556070
0.495785 0.518043 0.561586
0.497044 0.523559 0.567102
0.497803 0.486003 0.533803
0.499062 0.491519 0.539319
0.500321 0.497035 0.544835
0.501580 0.502550 0.550351
0.502838 0.508066 0.555867
0.504097 0.513582 0.561383
0.505356 0.519098 0.566899
0.506614 0.524614 0.572415
0.507873 0.530130 0.577931
0.508632 0.492574 0.544632
0.509891 0.498090 0.550148
0.511150 0.503606 0.555664
0.512409 0.509122 0.561180
0.513667 0.514638 0.566696
0.514926 0.520154 0.572212
0.516185 0.525670 0.577728
0.517443 0.531186 0.583244
0.518702 0.536702 0.588760
0.424103 0.442103 0.455846
0.425362 0.447619 0.461362
0.426621 0.453135 0.466878
0.427879 0.458651 0.472394
0.429138 0.464167 0.477910
0.430397 0.469683 0.483426
0.431655 0.475199 0.488942
0.432914 0.480715 0.494458
0.434173 0.486231 0.499974
0.434932 0.448675 0.466675
0.436191 0.454191 0.472191
0.437450 0.459707 0.477707
0.438708 0.465223 0.483223
0.439967 0.470739 0.488739
0.441226 0.476255 0.494255
0.442485 0.481771 0.499771
0.443743 0.487287 0.505287
0.445002 0.492803 0.510803
0.445761 0.455247 0.477504
0.447020 0.460763 0.483020
0.448279 0.466279 0.488536
0.449537 0.471795 0.494052
0.450796 0.477311 0.499568
0.452055 0.482827 0.505084
0.453314 0.488343 0.510600
0.454572 0.493859 0.516116
0.455831 0.499375 0.521632
0.456590 0.461818 0.488333
0.457849 0.467334 0.493849
0.459108 0.472850 0.499365
0.460366 0.478366 0.504881
0.461625 0.483882 0.510397
0.462884 0.489398 0.515913
0.464143 0.494914 0.521429
0.465401 0.500430 0.526945
0.466660 0.505946 0.532461
0.467419 0.468390 0.499162
0.468678 0.473906 0.504678
0.469937 0.479422 0.510194
0.471195 0.484938 0.515710
0.472454 0.490454 0.521226
0.473713 0.495970 0.526742
0.474972 0.501486 0.532258
0.476230 0.507002 0.537774
0.477489 0.512518 0.543290
0.478248 0.474962 0.509991
0.479507 0.480478 0.515507
0.480766 0.485994 0.521023
0.482025 0.491510 0.526539
0.483283 0.497026 0.532055
0.484542 0.502542 0.537571
0.485801 0.508058 0.543087
0.487059 0.513574 0.548603
0.488318 0.519090 0.554119
0.489077 0.481534 0.520820
0.490336 0.487050 0.526336
0.491595 0.492566 0.531852
0.492854 0.498082 0.537368
0.494112 0.503598 0.542884
0.495371 0.509114 0.548400
0.496630 0.514630 0.553916
0.497888 0.520146 0.559432
0.499147 0.525662 0.564948
0.499906 0.488106 0.531649
0.501165 0.493622 0.537165
0.502424 0.499138 0.542681
0.503683 0.504654 0.548197
0.504941 0.510170 0.553713
0.506200 0.515686 0.559229
0.507459 0.521202 0.564745
0.508718 0.526718 0.570261
0.509976 0.532234 0.575777
0.510735 0.494677 0.542478
0.511994 0.500193 0.547994
0.513253 0.505709 0.553510
0.514512 0.511225 0.559026
0.515770 0.516741 0.564542
0.517029 0.522257 0.570058
0.518288 0.527773 0.575574
0.519547 0.533289 0.581090
0.520805 0.538805 0.586606
0.426206 0.444206 0.453692
0.427465 0.449722 0.459208
0.428724 0.455238 0.464724
0.429982 0.460754 0.470240
0.431241 0.466270 0.475756
0.432500 0.471786 0.481272
0.433759 0.477302 0.486788
0.435017 0.482818 0.492304
0.436276 0.488334 0.497820
0.437035 0.450778 0.464521
0.438294 0.456294 0.470037
0.439553 0.461810 0.475553
0.440811 0.467326 0.481069
0.442070 0.472842 0.486585
0.443329 0.478358 0.492101
0.444588 0.483874 0.497617
0.445846 0.489390 0.503133
0.447105 0.494906 0.508649
0.447864 0.457350 0.475350
0.449123 0.462866 0.480866
0.450382 0.468382 0.486382
0.451640 0.473898 0.491898
0.452899 0.479414 0.497414
0.454158 0.484930 0.502930
0.455417 0.490446 0.508446
0.456675 0.495962 0.513962
0.457934 0.501478 0.519478
0.458693 0.463922 0.486179
0.459952 0.469438 0.491695
0.461211 0.474954 0.497211
0.462470 0.480470 0.502727
0.463728 0.485985 0.508243
0.464987 0.491501 0.513759
0.466246 0.497017 0.519275
0.467504 0.502533 0.524791
0.468763 0.508049 0.530307
0.469522 0.470493 0.497008
0.470781 0.476009 0.502524
0.472040 0.481525 0.508040
0.473299 0.487041 0.513556
0.474557 0.492557 0.519072
0.475816 0.498073 0.524588
0.477075 0.503589 0.530104
0.478333 0.509105 0.535620
0.479592 0.514621 0.541136
0.480351 0.477065 0.507837
0.481610 0.482581 0.513353
0.482869 0.488097 0.518869
0.484128 0.493613 0.524385
0.485386 0.499129 0.529901
0.486645 0.504645 0.535417
0.487904 0.510161 0.540933
0.489163 0.515677 0.546449
0.490421 0.521193 0.551965
0.491180 0.483637 0.518666
0.492439 0.489153 0.524182
0.493698 0.494669 0.529698
0.494957 0.500185 0.535214
0.496215 0.505701 0.540730
0.497474 0.511217 0.546246
0.498733 0.516733 0.551762
0.499992 0.522249 0.557278
0.501250 0.527765 0.562794
0.502010 0.490209 0.529495
0.503268 0.495725 0.535011
0.504527 0.501241 0.540527
0.505786 0.506757 0.546043
0.507044 0.512273 0.551559
0.508303 0.517789 0.557075
0.509562 0.523305 0.562591
0.510821 0.528821 0.568107
0.512079 0.534337 0.573623
0.512839 0.496780 0.540324
0.514097 0.502296 0.545840
0.515356 0.507812 0.551356
0.516615 0.513328 0.556872
0.517873 0.518844 0.562388
0.519132 0.524360 0.567904
0.520391 0.529876 0.573420
0.521650 0.535392 0.578936
0.522908 0.540908 0.584452
0.428309 0.446309 0.451537
0.429568 0.451825 0.457053
0.430827 0.457341 0.462569
0.432085 0.462857 0.468085
0.433344 0.468373 0.473601
0.434603 0.473889 0.479117
0.435862 0.479405 0.484633
0.437120 0.484921 0.490149
0.438379 0.490437 0.495665
0.439138 0.452881 0.462367
0.440397 0.458397 0.467883
0.441656 0.463913 0.473399
0.442914 0.469429 0.478914
0.444173 0.474945 0.484430
0.445432 0.480461 0.489946
0.446691 0.485977 0.495462
0.447949 0.491493 0.500978
0.449208 0.497009 0.506494
0.449967 0.459453 0.473196
0.451226 0.464969 0.478712
0.452485 0.470485 0.484228
0.453744 0.476001 0.489744
0.455002 0.481517 0.495260
0.456261 0.487033 0.500776
0.457520 0.492549 0.506292
0.458778 0.498065 0.511808
0.460037 0.503581 0.517323
0.460796 0.466025 0.484025
0.462055 0.471541 0.489541
0.463314 0.477057 0.495057
0.464573 0.482573 0.500573
0.465831 0.488089 0.506089
0.467090 0.493605 0.511605
0.468349 0.499121 0.517121
0.469608 0.504637 0.522637
0.470866 0.510153 0.528153
0.471625 0.472596 0.494854
0.472884 0.478112 0.500370
0.474143 0.483628 0.505886
0.475402 0.489144 0.511402
0.476660 0.494660 0.516918
0.477919 0.500176 0.522434
0.479178 0.505692 0.527950
0.480437 0.511208 0.533466
0.481695 0.516724 0.538982
0.482455 0.479168 0.505683
0.483713 0.484684 0.511199
0.484972 0.490200 0.516715
0.486231 0.495716 0.522231
0.487489 0.501232 0.527747
0.488748 0.506748 0.533263
0.490007 0.512264 0.538779
0.491266 0.517780 0.544295
0.492524 0.523296 0.549811
0.493284 0.485740 0.516512
0.494542 0.491256 0.522028
0.495801 0.496772 0.527544
0.497060 0.502288 0.533060
0.498318 0.507804 0.538576
0.499577 0.513320 0.544092
0.500836 0.518836 0.549608
0.502095 0.524352 0.555124
0.503353 0.529868 0.560640
0.504113 0.492312 0.527341
0.505371 0.497828 0.532857
0.506630 0.503344 0.538373
0.507889 0.508860 0.543889
0.509148 0.514376 0.549405
0.510406 0.519892 0.554921
0.511665 0.525408 0.560437
0.512924 0.530924 0.565953
0.514182 0.536440 0.571469
0.514942 0.498884 0.538170
0.516200 0.504400 0.543686
0.517459 0.509916 0.549202
0.518718 0.515432 0.554718
0.519977 0.520948 0.560234
0.521235 0.526464 0.565750
0.522494 0.531980 0.571266
0.523753 0.537495 0.576782
0.525011 0.543011 0.582298
0.430412 0.448412 0.449383
0.431671 0.453928 0.454899
0.432930 0.459444 0.460415
0.434189 0.464960 0.465931
0.435447 0.470476 0.471447
0.436706 0.475992 0.476963
0.437965 0.481508 0.482479
0.439223 0.487024 0.487995
0.440482 0.492540 0.493511
0.441241 0.454984 0.460212
0.442500 0.460500 0.465728
0.443759 0.466016 0.471244
0.445018 0.471532 0.476760
0.446276 0.477048 0.482276
0.447535 0.482564 0.487792
0.448794 0.488080 0.493308
0.450053 0.493596 0.498824
0.451311 0.499112 0.504340
0.452070 0.461556 0.471041
0.453329 0.467072 0.476557
0.454588 0.472588 0.482073
0.455847 0.478104 0.487589
0.457105 0.483620 0.493105
0.458364 0.489136 0.498621
0.459623 0.494652 0.504137
0.460882 0.500168 0.509653
0.462140 0.505684 0.515169
0.462899 0.468128 0.481870
0.464158 0.473644 0.487386
0.465417 0.479160 0.492902
0.466676 0.484676 0.498418
0.467934 0.490192 0.503934
0.469193 0.495708 0.509450
0.470452 0.501224 0.514966
0.471711 0.506740 0.520482
0.472969 0.512256 0.525998
0.473729 0.474700 0.492700
0.474987 0.480215 0.498215
0.476246 0.485731 0.503731
0.477505 0.491247 0.509247
0.478763 0.496763 0.514763
0.480022 0.502279 0.520279
0.481281 0.507795 0.525795
0.482540 0.513311 0.531311
0.483798 0.518827 0.536827
0.484558 0.481271 0.503529
0.485816 0.486787 0.509045
0.487075 0.492303 0.514561
0.488334 0.497819 0.520077
0.489593 0.503335 0.525593
0.490851 0.508851 0.531108
0.492110 0.514367 0.536624
0.493369 0.519883 0.542140
0.494627 0.525399 0.547656
0.495387 0.487843 0.514358
0.496645 0.493359 0.519874
0.497904 0.498875 0.525390
0.499163 0.504391 0.530906
0.500422 0.509907 0.536422
0.501680 0.515423 0.541938
0.502939 0.520939 0.547454
0.504198 0.526455 0.552970
0.505456 0.531971 0.558486
0.506216 0.494415 0.525187
0.507474 0.499931 0.530703
0.508733 0.505447 0.536219
0.509992 0.510963 0.541735
0.511251 0.516479 0.547251
0.512509 0.521995 0.552767
0.513768 0.527511 0.558283
0.515027 0.533027 0.563799
0.516286 0.538543 0.569315
0.517045 0.500987 0.536016
0.518303 0.506503 0.541532
0.519562 0.512019 0.547048
0.520821 0.517535 0.552564
0.522080 0.523051 0.558080
0.523338 0.528567 0.563596
0.524597 0.534083 0.569112
0.525856 0.539599 0.574628
0.527115 0.545115 0.580144
0.432515 0.450515 0.447229
0.433774 0.456031 0.452745
0.435033 0.461547 0.458261
0.436292 0.467063 0.463777
0.437550 0.472579 0.469293
0.438809 0.478095 0.474809
0.440068 0.483611 0.480325
0.441327 0.489127 0.485841
0.442585 0.494643 0.491357
0.443344 0.457087 0.458058
0.444603 0.462603 0.463574
0.445862 0.468119 0.469090
0.447121 0.473635 0.474606
0.448379 0.479151 0.480122
0.449638 0.484667 0.485638
0.450897 0.490183 0.491154
0.452156 0.495699 0.496670
0.453414 0.501215 0.502186
0.454174 0.463659 0.468887
0.455432 0.469175 0.474403
0.456691 0.474691 0.479919
0.457950 0.480207 0.485435
0.459208 0.485723 0.490951
0.460467 0.491239 0.496467
0.461726 0.496755 0.501983
0.462985 0.502271 0.507499
0.464243 0.507787 0.513015
0.465003 0.470231 0.479716
0.466261 0.475747 0.485232
0.467520 0.481263 0.490748
0.468779 0.486779 0.496264
0.470037 0.492295 0.501780
0.471296 0.497811 0.507296
0.472555 0.503327 0.512812
0.473814 0.508843 0.518328
0.475072 0.514359 0.523844
0.475832 0.476803 0.490545
0.477090 0.482319 0.496061
0.478349 0.487835 0.501577
0.479608 0.493351 0.507093
0.480867 0.498867 0.512609
0.482125 0.504383 0.518125
0.483384 0.509899 0.523641
0.484643 0.515415 0.529157
0.485901 0.520931 0.534673
0.486661 0.483374 0.501374
0.487919 0.488890 0.506890
0.489178 0.494406 0.512406
0.490437 0.499922 0.517922
0.491696 0.505438 0.523438
0.492954 0.510954 0.528954
0.494213 0.516470 0.534470
0.495472 0.521986 0.539986
0.496731 0.527502 0.545502
0.497490 0.489946 0.512203
0.498748 0.495462 0.517719
0.500007 0.500978 0.523235
0.501266 0.506494 0.528751
0.502525 0.512010 0.534267
0.503783 0.517526 0.539783
0.505042 0.523042 0.545299
0.506301 0.528558 0.550815
0.507560 0.534074 0.556331
0.508319 0.496518 0.523032
0.509578 0.502034 0.528548
0.510836 0.507550 0.534064
0.512095 0.513066 0.539580
0.513354 0.518582 0.545096
0.514612 0.524098 0.550612
0.515871 0.529614 0.556128
0.517130 0.535130 0.561644
0.518389 0.540646 0.567160
0.519148 0.503090 0.533862
0.520407 0.508606 0.539378
0.521665 0.514122 0.544894
0.522924 0.519638 0.550409
0.524183 0.525154 0.555925
0.525441 0.530670 0.561441
0.526700 0.536186 0.566957
0.527959 0.541702 0.572473
0.529218 0.547218 0.577989
0.434619 0.452619 0.445075
0.435877 0.458135 0.450591
0.437136 0.463650 0.456107
0.438395 0.469166 0.461623
0.439653 0.474682 0.467139
0.440912 0.480198 0.472655
0.442171 0.485714 0.478171
0.443430 0.491230 0.483687
0.444688 0.496746 0.489203
0.445448 0.459190 0.455904
0.446706 0.464706 0.461420
0.447965 0.470222 0.466936
0.449224 0.475738 0.472452
0.450482 0.481254 0.477968
0.451741 0.486770 0.483484
0.453000 0.492286 0.489000
0.454259 0.497802 0.494516
0.455517 0.503318 0.500032
0.456277 0.465762 0.466733
0.457535 0.471278 0.472249
0.458794 0.476794 0.477765
0.460053 0.482310 0.483281
0.461312 0.487826 0.488797
0.462570 0.493342 0.494313
0.463829 0.498858 0.499829
0.465088 0.504374 0.505345
0.466346 0.509890 0.510861
0.467106 0.472334 0.477562
0.468364 0.477850 0.483078
0.469623 0.483366 0.488594
0.470882 0.488882 0.494110
0.472141 0.494398 0.499626
0.473399 0.499914 0.505142
0.474658 0.505430 0.510658
0.475917 0.510946 0.516174
0.477176 0.516462 0.521690
0.477935 0.478906 0.488391
0.479193 0.484422 0.493907
0.480452 0.489938 0.499423
0.481711 0.495454 0.504939
0.482970 0.500970 0.510455
0.484228 0.506486 0.515971
0.485487 0.512002 0.521487
0.486746 0.517518 0.527003
0.488005 0.523034 0.532519
0.488764 0.485477 0.499220
0.490022 0.490993 0.504736
0.491281 0.496509 0.510252
0.492540 0.502025 0.515768
0.493799 0.507541 0.521284
0.495057 0.513057 0.526800
0.496316 0.518573 0.532316
0.497575 0.524089 0.537832
0.498834 0.529605 0.543348
0.499593 0.492049 0.510049
0.500852 0.497565 0.515565
0.502110 0.503081 0.521081
0.503369 0.508597 0.526597
0.504628 0.514113 0.532113
0.505886 0.519629 0.537629
0.507145 0.525145 0.543145
0.508404 0.530661 0.548661
0.509663 0.536177 0.554177
0.510422 0.498621 0.520878
0.511681 0.504137 0.526394
0.512939 0.509653 0.531910
0.514198 0.515169 0.537426
0.515457 0.520685 0.542942
0.516716 0.526201 0.548458
0.517974 0.531717 0.553974
0.519233 0.537233 0.559490
0.520492 0.542749 0.565006
0.521251 0.505193 0.531707
0.522510 0.510709 0.537223
0.523768 0.516225 0.542739
0.525027 0.521741 0.548255
0.526286 0.527257 0.553771
0.527545 0.532773 0.559287
0.528803 0.538289 0.564803
0.530062 0.543805 0.570319
0.531321 0.549321 0.575835
0.436722 0.454722 0.442921
0.437980 0.460238 0.448437
0.439239 0.465754 0.453953
0.440498 0.471270 0.459469
0.441757 0.476786 0.464985
0.443015 0.482302 0.470501
0.444274 0.487818 0.476017
0.445533 0.493334 0.481533
0.446791 0.498850 0.487049
0.447551 0.461293 0.453750
0.448809 0.466809 0.459266
0.450068 0.472325 0.464782
0.451327 0.477841 0.470298
0.452586 0.483357 0.475814
0.453844 0.488873 0.481330
0.455103 0.494389 0.486846
0.456362 0.499905 0.492362
0.457620 0.505421 0.497878
0.458380 0.467865 0.464579
0.459638 0.473381 0.470095
0.460897 0.478897 0.475611
0.462156 0.484413 0.481127
0.463415 0.489929 0.486643
0.464673 0.495445 0.492159
0.465932 0.500961 0.497675
0.467191 0.506477 0.503191
0.468450 0.511993 0.508707
0.469209 0.474437 0.475408
0.470467 0.479953 0.480924
0.471726 0.485469 0.486440
0.472985 0.490985 0.491956
0.474244 0.496501 0.497472
0.475502 0.502017 0.502988
0.476761 0.507533 0.508504
0.478020 0.513049 0.514020
0.479279 0.518565 0.519536
0.480038 0.481009 0.486237
0.481297 0.486525 0.491753
0.482555 0.492041 0.497269
0.483814 0.497557 0.502785
0.485073 0.503073 0.508301
0.486331 0.508589 0.513817
0.487590 0.514105 0.519333
0.488849 0.519621 0.524849
0.490108 0.525137 0.530365
0.490867 0.487581 0.497066
0.492126 0.493097 0.502582
0.493384 0.498613 0.508098
0.494643 0.504129 0.513614
0.495902 0.509645 0.519130
0.497160 0.515160 0.524646
0.498419 0.520676 0.530162
0.499678 0.526192 0.535678
0.500937 0.531708 0.541194
0.501696 0.494152 0.507895
0.502955 0.499668 0.513411
0.504213 0.505184 0.518927
0.505472 0.510700 0.524443
0.506731 0.516216 0.529959
0.507990 0.521732 0.535475
0.509248 0.527248 0.540991
0.510507 0.532764 0.546507
0.511766 0.538280 0.552023
0.512525 0.500724 0.518724
0.513784 0.506240 0.524240
0.515042 0.511756 0.529756
0.516301 0.517272 0.535272
0.517560 0.522788 0.540788
0.518819 0.528304 0.546304
0.520077 0.533820 0.551820
0.521336 0.539336 0.557336
0.522595 0.544852 0.562852
0.523354 0.507296 0.529553
0.524613 0.512812 0.535069
0.525871 0.518328 0.540585
0.527130 0.523844 0.546101
0.528389 0.529360 0.551617
0.529648 0.534876 0.557133
0.530906 0.540392 0.562649
0.532165 0.545908 0.568165
0.533424 0.551424 0.573681
0.438825 0.456825 0.440767
0.440083 0.462341 0.446283
0.441342 0.467857 0.451799
0.442601 0.473373 0.457315
0.443860 0.478889 0.462831
0.445118 0.484405 0.468347
0.446377 0.489921 0.473863
0.447636 0.495437 0.479379
0.448895 0.500953 0.484895
0.449654 0.463396 0.451596
0.450912 0.468912 0.457112
0.452171 0.474428 0.462628
0.453430 0.479944 0.468144
0.454689 0.485460 0.473660
0.455947 0.490976 0.479176
0.457206 0.496492 0.484692
0.458465 0.502008 0.490208
0.459724 0.507524 0.495724
0.460483 0.469968 0.462425
0.461742 0.475484 0.467941
0.463000 0.481000 0.473457
0.464259 0.486516 0.478973
0.465518 0.492032 0.484489
0.466776 0.497548 0.490005
0.468035 0.503064 0.495521
0.469294 0.508580 0.501037
0.470553 0.514096 0.506553
0.471312 0.476540 0.473254
0.472571 0.482056 0.478770
0.473829 0.487572 0.484286
0.475088 0.493088 0.489802
0.476347 0.498604 0.495318
0.477605 0.504120 0.500834
0.478864 0.509636 0.506350
0.480123 0.515152 0.511866
0.481382 0.520668 0.517382
0.482141 0.483112 0.484083
0.483400 0.488628 0.489599
0.484658 0.494144 0.495115
0.485917 0.499660 0.500631
0.487176 0.505176 0.506147
0.488435 0.510692 0.511663
0.489693 0.516208 0.517179
0.490952 0.521724 0.522695
0.492211 0.527240 0.528211
0.492970 0.489684 0.494912
0.494229 0.495200 0.500428
0.495487 0.500716 0.505944
0.496746 0.506232 0.511460
0.498005 0.511748 0.516976
0.499264 0.517264 0.522492
0.500522 0.522780 0.528008
0.501781 0.528296 0.533524
0.503040 0.533812 0.539040
0.503799 0.496255 0.505741
0.505058 0.501771 0.511257
0.506316 0.507287 0.516773
0.507575 0.512803 0.522289
0.508834 0.518319 0.527805
0.510093 0.523835 0.533321
0.511351 0.529351 0.538837
0.512610 0.534867 0.544353
0.513869 0.540383 0.549869
0.514628 0.502827 0.516570
0.515887 0.508343 0.522086
0.517145 0.513859 0.527602
0.518404 0.519375 0.533118
0.519663 0.524891 0.538634
0.520922 0.530407 0.544150
0.522180 0.535923 0.549666
0.523439 0.541439 0.555182
0.524698 0.546955 0.560698
0.525457 0.509399 0.527399
0.526716 0.514915 0.532915
0.527975 0.520431 0.538431
0.529233 0.525947 0.543947
0.530492 0.531463 0.549463
0.531751 0.536979 0.554979
0.533009 0.542495 0.560495
0.534268 0.548011 0.566011
0.535527 0.553527 0.571527
