shared/src/main/assets/luts/drama_purple_fever.cube
TITLE "DALUR Purple Fever"
LUT_3D_SIZE 9
DOMAIN_MIN 0.0 0.0 0.0
DOMAIN_MAX 1.0 1.0 1.0
0.416000 0.418000 0.434000
0.425859 0.421520 0.437520
0.435718 0.425040 0.441040
0.445577 0.428560 0.444560
0.455436 0.432080 0.448080
0.465294 0.435600 0.451600
0.475153 0.439120 0.455120
0.485012 0.442640 0.458640
0.494871 0.446159 0.462159
0.422910 0.431249 0.440910
0.432769 0.434769 0.444430
0.442628 0.438289 0.447950
0.452487 0.441809 0.451470
0.462346 0.445329 0.454990
0.472205 0.448849 0.458510
0.482064 0.452369 0.462030
0.491923 0.455889 0.465550
0.501781 0.459409 0.469070
0.429821 0.444499 0.447821
0.439680 0.448019 0.451341
0.449539 0.451539 0.454861
0.459397 0.455058 0.458381
0.469256 0.458578 0.461900
0.479115 0.462098 0.465420
0.488974 0.465618 0.468940
0.498833 0.469138 0.472460
0.508692 0.472658 0.475980
0.436731 0.457748 0.454731
0.446590 0.461268 0.458251
0.456449 0.464788 0.461771
0.466308 0.468308 0.465291
0.476167 0.471828 0.468811
0.486026 0.475348 0.472331
0.495884 0.478868 0.475851
0.505743 0.482388 0.479371
0.515602 0.485907 0.482891
0.443641 0.470997 0.461641
0.453500 0.474517 0.465161
0.463359 0.478037 0.468681
0.473218 0.481557 0.472201
0.483077 0.485077 0.475721
0.492936 0.488597 0.479241
0.502795 0.492117 0.482761
0.512654 0.495637 0.486281
0.522513 0.499157 0.489801
0.450552 0.484247 0.468552
0.460411 0.487767 0.472072
0.470270 0.491286 0.475592
0.480129 0.494806 0.479112
0.489987 0.498326 0.482632
0.499846 0.501846 0.486152
0.509705 0.505366 0.489671
0.519564 0.508886 0.493191
0.529423 0.512406 0.496711
0.457462 0.497496 0.475462
0.467321 0.501016 0.478982
0.477180 0.504536 0.482502
0.487039 0.508056 0.486022
0.496898 0.511576 0.489542
0.506757 0.515096 0.493062
0.516616 0.518616 0.496582
0.526474 0.522135 0.500102
0.536333 0.525655 0.503622
0.464373 0.510745 0.482373
0.474231 0.514265 0.485893
0.484090 0.517785 0.489412
0.493949 0.521305 0.492932
0.503808 0.524825 0.496452
0.513667 0.528345 0.499972
0.523526 0.531865 0.503492
0.533385 0.535385 0.507012
0.543244 0.538905 0.510532
0.471283 0.523995 0.489283
0.481142 0.527515 0.492803
0.491001 0.531034 0.496323
0.500860 0.534554 0.499843
0.510719 0.538074 0.503363
0.520577 0.541594 0.506883
0.530436 0.545114 0.510403
0.540295 0.548634 0.513922
0.550154 0.552154 0.517442
0.417342 0.419342 0.441681
0.427201 0.422862 0.445201
0.437060 0.426382 0.448721
0.446919 0.429902 0.452241
0.456778 0.433422 0.455761
0.466636 0.436942 0.459281
0.476495 0.440462 0.462801
0.486354 0.443982 0.466321
0.496213 0.447502 0.469840
0.424252 0.432591 0.448591
0.434111 0.436111 0.452111
0.443970 0.439631 0.455631
0.453829 0.443151 0.459151
0.463688 0.446671 0.462671
0.473547 0.450191 0.466191
0.483406 0.453711 0.469711
0.493265 0.457231 0.473231
0.503124 0.460751 0.476751
0.431163 0.445841 0.455502
0.441022 0.449361 0.459022
0.450881 0.452881 0.462542
0.460739 0.456400 0.466062
0.470598 0.459920 0.469581
0.480457 0.463440 0.473101
0.490316 0.466960 0.476621
0.500175 0.470480 0.480141
0.510034 0.474000 0.483661
0.438073 0.459090 0.462412
0.447932 0.462610 0.465932
0.457791 0.466130 0.469452
0.467650 0.469650 0.472972
0.477509 0.473170 0.476492
0.487368 0.476690 0.480012
0.497226 0.480210 0.483532
0.507085 0.483730 0.487052
0.516944 0.487249 0.490572
0.444984 0.472339 0.469322
0.454842 0.475859 0.472842
0.464701 0.479379 0.476362
0.474560 0.482899 0.479882
0.484419 0.486419 0.483402
0.494278 0.489939 0.486922
0.504137 0.493459 0.490442
0.513996 0.496979 0.493962
0.523855 0.500499 0.497482
0.451894 0.485589 0.476233
0.461753 0.489109 0.479753
0.471612 0.492629 0.483273
0.481471 0.496148 0.486793
0.491329 0.499668 0.490313
0.501188 0.503188 0.493833
0.511047 0.506708 0.497352
0.520906 0.510228 0.500872
0.530765 0.513748 0.504392
0.458804 0.498838 0.483143
0.468663 0.502358 0.486663
0.478522 0.505878 0.490183
0.488381 0.509398 0.493703
0.498240 0.512918 0.497223
0.508099 0.516438 0.500743
0.517958 0.519958 0.504263
0.527816 0.523478 0.507783
0.537675 0.526997 0.511303
0.465715 0.512087 0.490054
0.475574 0.515607 0.493574
0.485432 0.519127 0.497093
0.495291 0.522647 0.500613
0.505150 0.526167 0.504133
0.515009 0.529687 0.507653
0.524868 0.533207 0.511173
0.534727 0.536727 0.514693
0.544586 0.540247 0.518213
0.472625 0.525337 0.496964
0.482484 0.528857 0.500484
0.492343 0.532377 0.504004
0.502202 0.535896 0.507524
0.512061 0.539416 0.511044
0.521919 0.542936 0.514564
0.531778 0.546456 0.518084
0.541637 0.549976 0.521603
0.551496 0.553496 0.525123
0.418684 0.420684 0.449362
0.428543 0.424204 0.452882
0.438402 0.427724 0.456402
0.448261 0.431244 0.459922
0.458120 0.434764 0.463442
0.467979 0.438284 0.466962
0.477837 0.441804 0.470482
0.487696 0.445324 0.474002
0.497555 0.448844 0.477521
0.425594 0.433933 0.456272
0.435453 0.437453 0.459792
0.445312 0.440973 0.463312
0.455171 0.444493 0.466832
0.465030 0.448013 0.470352
0.474889 0.451533 0.473872
0.484748 0.455053 0.477392
0.494607 0.458573 0.480912
0.504466 0.462093 0.484432
0.432505 0.447183 0.463183
0.442364 0.450703 0.466703
0.452223 0.454223 0.470223
0.462082 0.457743 0.473743
0.471940 0.461262 0.477262
0.481799 0.464782 0.480782
0.491658 0.468302 0.484302
0.501517 0.471822 0.487822
0.511376 0.475342 0.491342
0.439415 0.460432 0.470093
0.449274 0.463952 0.473613
0.459133 0.467472 0.477133
0.468992 0.470992 0.480653
0.478851 0.474512 0.484173
0.488710 0.478032 0.487693
0.498569 0.481552 0.491213
0.508427 0.485072 0.494733
0.518286 0.488592 0.498253
0.446326 0.473681 0.477003
0.456184 0.477201 0.480523
0.466043 0.480721 0.484043
0.475902 0.484241 0.487563
0.485761 0.487761 0.491083
0.495620 0.491281 0.494603
0.505479 0.494801 0.498123
0.515338 0.498321 0.501643
0.525197 0.501841 0.505163
0.453236 0.486931 0.483914
0.463095 0.490451 0.487434
0.472954 0.493971 0.490954
0.482813 0.497491 0.494474
0.492671 0.501010 0.497994
0.502530 0.504530 0.501514
0.512389 0.508050 0.505033
0.522248 0.511570 0.508553
0.532107 0.515090 0.512073
0.460146 0.500180 0.490824
0.470005 0.503700 0.494344
0.479864 0.507220 0.497864
0.489723 0.510740 0.501384
0.499582 0.514260 0.504904
0.509441 0.517780 0.508424
0.519300 0.521300 0.511944
0.529159 0.524820 0.515464
0.539017 0.528340 0.518984
0.467057 0.513429 0.497735
0.476916 0.516949 0.501255
0.486774 0.520469 0.504774
0.496633 0.523989 0.508294
0.506492 0.527509 0.511814
0.516351 0.531029 0.515334
0.526210 0.534549 0.518854
0.536069 0.538069 0.522374
0.545928 0.541589 0.525894
0.473967 0.526679 0.504645
0.483826 0.530199 0.508165
0.493685 0.533719 0.511685
0.503544 0.537239 0.515205
0.513403 0.540758 0.518725
0.523261 0.544278 0.522245
0.533120 0.547798 0.525765
0.542979 0.551318 0.529284
0.552838 0.554838 0.532804
0.420026 0.422026 0.457043
0.429885 0.425546 0.460563
0.439744 0.429066 0.464083
0.449603 0.432586 0.467603
0.459462 0.436106 0.471123
0.469321 0.439626 0.474643
0.479179 0.443146 0.478163
0.489038 0.446666 0.481683
0.498897 0.450186 0.485202
0.426937 0.435275 0.463953
0.436795 0.438795 0.467473
0.446654 0.442315 0.470993
0.456513 0.445835 0.474513
0.466372 0.449355 0.478033
0.476231 0.452875 0.481553
0.486090 0.456395 0.485073
0.495949 0.459915 0.488593
0.505808 0.463435 0.492113
0.433847 0.448525 0.470864
0.443706 0.452045 0.474384
0.453565 0.455565 0.477904
0.463424 0.459085 0.481424
0.473282 0.462605 0.484943
0.483141 0.466124 0.488463
0.493000 0.469644 0.491983
0.502859 0.473164 0.495503
0.512718 0.476684 0.499023
0.440757 0.461774 0.477774
0.450616 0.465294 0.481294
0.460475 0.468814 0.484814
0.470334 0.472334 0.488334
0.480193 0.475854 0.491854
0.490052 0.479374 0.495374
0.499911 0.482894 0.498894
0.509769 0.486414 0.502414
0.519628 0.489934 0.505934
0.447668 0.475023 0.484684
0.457527 0.478543 0.488204
0.467385 0.482063 0.491724
0.477244 0.485583 0.495244
0.487103 0.489103 0.498764
0.496962 0.492623 0.502284
0.506821 0.496143 0.505804
0.516680 0.499663 0.509324
0.526539 0.503183 0.512844
0.454578 0.488273 0.491595
0.464437 0.491793 0.495115
0.474296 0.495313 0.498635
0.484155 0.498833 0.502155
0.494014 0.502353 0.505675
0.503872 0.505872 0.509195
0.513731 0.509392 0.512714
0.523590 0.512912 0.516234
0.533449 0.516432 0.519754
0.461488 0.501522 0.498505
0.471347 0.505042 0.502025
0.481206 0.508562 0.505545
0.491065 0.512082 0.509065
0.500924 0.515602 0.512585
0.510783 0.519122 0.516105
0.520642 0.522642 0.519625
0.530501 0.526162 0.523145
0.540359 0.529682 0.526665
0.468399 0.514771 0.505416
0.478258 0.518291 0.508936
0.488117 0.521811 0.512455
0.497975 0.525331 0.515975
0.507834 0.528851 0.519495
0.517693 0.532371 0.523015
0.527552 0.535891 0.526535
0.537411 0.539411 0.530055
0.547270 0.542931 0.533575
0.475309 0.528021 0.512326
0.485168 0.531541 0.515846
0.495027 0.535061 0.519366
0.504886 0.538581 0.522886
0.514745 0.542100 0.526406
0.524604 0.545620 0.529926
0.534462 0.549140 0.533446
0.544321 0.552660 0.536965
0.554180 0.556180 0.540485
0.421368 0.423368 0.464724
0.431227 0.426888 0.468244
0.441086 0.430408 0.471764
0.450945 0.433928 0.475284
0.460804 0.437448 0.478804
0.470663 0.440968 0.482324
0.480522 0.444488 0.485844
0.490380 0.448008 0.489364
0.500239 0.451528 0.492883
0.428279 0.436618 0.471634
0.438137 0.440137 0.475154
0.447996 0.443657 0.478674
0.457855 0.447177 0.482194
0.467714 0.450697 0.485714
0.477573 0.454217 0.489234
0.487432 0.457737 0.492754
0.497291 0.461257 0.496274
0.507150 0.464777 0.499794
0.435189 0.449867 0.478545
0.445048 0.453387 0.482065
0.454907 0.456907 0.485585
0.464766 0.460427 0.489105
0.474624 0.463947 0.492624
0.484483 0.467467 0.496144
0.494342 0.470986 0.499664
0.504201 0.474506 0.503184
0.514060 0.478026 0.506704
0.442099 0.463116 0.485455
0.451958 0.466636 0.488975
0.461817 0.470156 0.492495
0.471676 0.473676 0.496015
0.481535 0.477196 0.499535
0.491394 0.480716 0.503055
0.501253 0.484236 0.506575
0.511112 0.487756 0.510095
0.520970 0.491276 0.513615
0.449010 0.476365 0.492365
0.458869 0.479885 0.495885
0.468727 0.483405 0.499405
0.478586 0.486925 0.502925
0.488445 0.490445 0.506445
0.498304 0.493965 0.509965
0.508163 0.497485 0.513485
0.518022 0.501005 0.517005
0.527881 0.504525 0.520525
0.455920 0.489615 0.499276
0.465779 0.493135 0.502796
0.475638 0.496655 0.506316
0.485497 0.500175 0.509836
0.495356 0.503695 0.513356
0.505214 0.507214 0.516876
0.515073 0.510734 0.520395
0.524932 0.514254 0.523915
0.534791 0.517774 0.527435
0.462830 0.502864 0.506186
0.472689 0.506384 0.509706
0.482548 0.509904 0.513226
0.492407 0.513424 0.516746
0.502266 0.516944 0.520266
0.512125 0.520464 0.523786
0.521984 0.523984 0.527306
0.531843 0.527504 0.530826
0.541702 0.531024 0.534346
0.469741 0.516113 0.513097
0.479600 0.519633 0.516617
0.489459 0.523153 0.520136
0.499317 0.526673 0.523656
0.509176 0.530193 0.527176
0.519035 0.533713 0.530696
0.528894 0.537233 0.534216
0.538753 0.540753 0.537736
0.548612 0.544273 0.541256
0.476651 0.529363 0.520007
0.486510 0.532883 0.523527
0.496369 0.536403 0.527047
0.506228 0.539923 0.530567
0.516087 0.543443 0.534087
0.525946 0.546962 0.537607
0.535804 0.550482 0.541127
0.545663 0.554002 0.544646
0.555522 0.557522 0.548166
0.422710 0.424710 0.472405
0.432569 0.428230 0.475925
0.442428 0.431750 0.479445
0.452287 0.435270 0.482965
0.462146 0.438790 0.486485
0.472005 0.442310 0.490005
0.481864 0.445830 0.493525
0.491722 0.449350 0.497045
0.501581 0.452870 0.500564
0.429621 0.437960 0.479315
0.439479 0.441479 0.482835
0.449338 0.444999 0.486355
0.459197 0.448519 0.489875
0.469056 0.452039 0.493395
0.478915 0.455559 0.496915
0.488774 0.459079 0.500435
0.498633 0.462599 0.503955
0.508492 0.466119 0.507475
0.436531 0.451209 0.486226
0.446390 0.454729 0.489746
0.456249 0.458249 0.493266
0.466108 0.461769 0.496786
0.475967 0.465289 0.500305
0.485825 0.468809 0.503825
0.495684 0.472328 0.507345
0.505543 0.475848 0.510865
0.515402 0.479368 0.514385
0.443441 0.464458 0.493136
0.453300 0.467978 0.496656
0.463159 0.471498 0.500176
0.473018 0.475018 0.503696
0.482877 0.478538 0.507216
0.492736 0.482058 0.510736
0.502595 0.485578 0.514256
0.512454 0.489098 0.517776
0.522312 0.492618 0.521296
0.450352 0.477708 0.500047
0.460211 0.481227 0.503566
0.470069 0.484747 0.507086
0.479928 0.488267 0.510606
0.489787 0.491787 0.514126
0.499646 0.495307 0.517646
0.509505 0.498827 0.521166
0.519364 0.502347 0.524686
0.529223 0.505867 0.528206
0.457262 0.490957 0.506957
0.467121 0.494477 0.510477
0.476980 0.497997 0.513997
0.486839 0.501517 0.517517
0.496698 0.505037 0.521037
0.506557 0.508557 0.524557
0.516415 0.512076 0.528076
0.526274 0.515596 0.531596
0.536133 0.519116 0.535116
0.464172 0.504206 0.513867
0.474031 0.507726 0.517387
0.483890 0.511246 0.520907
0.493749 0.514766 0.524427
0.503608 0.518286 0.527947
0.513467 0.521806 0.531467
0.523326 0.525326 0.534987
0.533185 0.528846 0.538507
0.543044 0.532366 0.542027
0.471083 0.517456 0.520778
0.480942 0.520975 0.524298
0.490801 0.524495 0.527817
0.500659 0.528015 0.531337
0.510518 0.531535 0.534857
0.520377 0.535055 0.538377
0.530236 0.538575 0.541897
0.540095 0.542095 0.545417
0.549954 0.545615 0.548937
0.477993 0.530705 0.527688
0.487852 0.534225 0.531208
0.497711 0.537745 0.534728
0.507570 0.541265 0.538248
0.517429 0.544785 0.541768
0.527288 0.548305 0.545288
0.537147 0.551824 0.548808
0.547005 0.555344 0.552328
0.556864 0.558864 0.555847
0.424052 0.426052 0.480086
0.433911 0.429572 0.483606
0.443770 0.433092 0.487126
0.453629 0.436612 0.490646
0.463488 0.440132 0.494166
0.473347 0.443652 0.497686
0.483206 0.447172 0.501206
0.493065 0.450692 0.504726
0.502923 0.454212 0.508245
0.430963 0.439302 0.486996
0.440822 0.442822 0.490516
0.450680 0.446341 0.494036
0.460539 0.449861 0.497556
0.470398 0.453381 0.501076
0.480257 0.456901 0.504596
0.490116 0.460421 0.508116
0.499975 0.463941 0.511636
0.509834 0.467461 0.515156
0.437873 0.452551 0.493907
0.447732 0.456071 0.497427
0.457591 0.459591 0.500947
0.467450 0.463111 0.504467
0.477309 0.466631 0.507986
0.487167 0.470151 0.511506
0.497026 0.473671 0.515026
0.506885 0.477190 0.518546
0.516744 0.480710 0.522066
0.444783 0.465800 0.500817
0.454642 0.469320 0.504337
0.464501 0.472840 0.507857
0.474360 0.476360 0.511377
0.484219 0.479880 0.514897
0.494078 0.483400 0.518417
0.503937 0.486920 0.521937
0.513796 0.490440 0.525457
0.523655 0.493960 0.528977
0.451694 0.479050 0.507728
0.461553 0.482570 0.511247
0.471412 0.486089 0.514767
0.481270 0.489609 0.518287
0.491129 0.493129 0.521807
0.500988 0.496649 0.525327
0.510847 0.500169 0.528847
0.520706 0.503689 0.532367
0.530565 0.507209 0.535887
0.458604 0.492299 0.514638
0.468463 0.495819 0.518158
0.478322 0.499339 0.521678
0.488181 0.502859 0.525198
0.498040 0.506379 0.528718
0.507899 0.509899 0.532238
0.517757 0.513419 0.535757
0.527616 0.516938 0.539277
0.537475 0.520458 0.542797
0.465514 0.505548 0.521548
0.475373 0.509068 0.525068
0.485232 0.512588 0.528588
0.495091 0.516108 0.532108
0.504950 0.519628 0.535628
0.514809 0.523148 0.539148
0.524668 0.526668 0.542668
0.534527 0.530188 0.546188
0.544386 0.533708 0.549708
0.472425 0.518798 0.528459
0.482284 0.522318 0.531979
0.492143 0.525837 0.535498
0.502002 0.529357 0.539018
0.511860 0.532877 0.542538
0.521719 0.536397 0.546058
0.531578 0.539917 0.549578
0.541437 0.543437 0.553098
0.551296 0.546957 0.556618
0.479335 0.532047 0.535369
0.489194 0.535567 0.538889
0.499053 0.539087 0.542409
0.508912 0.542607 0.545929
0.518771 0.546127 0.549449
0.528630 0.549647 0.552969
0.538489 0.553166 0.556489
0.548347 0.556686 0.560009
0.558206 0.560206 0.563528
0.425394 0.427394 0.487767
0.435253 0.430914 0.491287
0.445112 0.434434 0.494807
0.454971 0.437954 0.498327
0.464830 0.441474 0.501847
0.474689 0.444994 0.505367
0.484548 0.448514 0.508887
0.494407 0.452034 0.512407
0.504265 0.455554 0.515926
0.432305 0.440644 0.494677
0.442164 0.444164 0.498197
0.452022 0.447684 0.501717
0.461881 0.451203 0.505237
0.471740 0.454723 0.508757
0.481599 0.458243 0.512277
0.491458 0.461763 0.515797
0.501317 0.465283 0.519317
0.511176 0.468803 0.522837
0.439215 0.453893 0.501588
0.449074 0.457413 0.505108
0.458933 0.460933 0.508628
0.468792 0.464453 0.512148
0.478651 0.467973 0.515668
0.488510 0.471493 0.519187
0.498368 0.475013 0.522707
0.508227 0.478533 0.526227
0.518086 0.482052 0.529747
0.446125 0.467142 0.508498
0.455984 0.470662 0.512018
0.465843 0.474182 0.515538
0.475702 0.477702 0.519058
0.485561 0.481222 0.522578
0.495420 0.484742 0.526098
0.505279 0.488262 0.529618
0.515138 0.491782 0.533138
0.524997 0.495302 0.536658
0.453036 0.480392 0.515409
0.462895 0.483912 0.518928
0.472754 0.487432 0.522448
0.482612 0.490951 0.525968
0.492471 0.494471 0.529488
0.502330 0.497991 0.533008
0.512189 0.501511 0.536528
0.522048 0.505031 0.540048
0.531907 0.508551 0.543568
0.459946 0.493641 0.522319
0.469805 0.497161 0.525839
0.479664 0.500681 0.529359
0.489523 0.504201 0.532879
0.499382 0.507721 0.536399
0.509241 0.511241 0.539919
0.519100 0.514761 0.543438
0.528958 0.518280 0.546958
0.538817 0.521800 0.550478
0.466857 0.506890 0.529229
0.476715 0.510410 0.532749
0.486574 0.513930 0.536269
0.496433 0.517450 0.539789
0.506292 0.520970 0.543309
0.516151 0.524490 0.546829
0.526010 0.528010 0.550349
0.535869 0.531530 0.553869
0.545728 0.535050 0.557389
0.473767 0.520140 0.536140
0.483626 0.523660 0.539660
0.493485 0.527179 0.543179
0.503344 0.530699 0.546699
0.513202 0.534219 0.550219
0.523061 0.537739 0.553739
0.532920 0.541259 0.557259
0.542779 0.544779 0.560779
0.552638 0.548299 0.564299
0.480677 0.533389 0.543050
0.490536 0.536909 0.546570
0.500395 0.540429 0.550090
0.510254 0.543949 0.553610
0.520113 0.547469 0.557130
0.529972 0.550989 0.560650
0.539831 0.554509 0.564170
0.549690 0.558028 0.567690
0.559548 0.561548 0.571209
0.426736 0.428736 0.495448
0.436595 0.432256 0.498968
0.446454 0.435776 0.502488
0.456313 0.439296 0.506008
0.466172 0.442816 0.509528
0.476031 0.446336 0.513048
0.485890 0.449856 0.516568
0.495749 0.453376 0.520088
0.505607 0.456896 0.523607
0.433647 0.441986 0.502358
0.443506 0.445506 0.505878
0.453365 0.449026 0.509398
0.463223 0.452546 0.512918
0.473082 0.456065 0.516438
0.482941 0.459585 0.519958
0.492800 0.463105 0.523478
0.502659 0.466625 0.526998
0.512518 0.470145 0.530518
0.440557 0.455235 0.509269
0.450416 0.458755 0.512789
0.460275 0.462275 0.516309
0.470134 0.465795 0.519829
0.479993 0.469315 0.523349
0.489852 0.472835 0.526868
0.499710 0.476355 0.530388
0.509569 0.479875 0.533908
0.519428 0.483394 0.537428
0.447467 0.468484 0.516179
0.457326 0.472004 0.519699
0.467185 0.475524 0.523219
0.477044 0.479044 0.526739
0.486903 0.482564 0.530259
0.496762 0.486084 0.533779
0.506621 0.489604 0.537299
0.516480 0.493124 0.540819
0.526339 0.496644 0.544339
0.454378 0.481734 0.523090
0.464237 0.485254 0.526609
0.474096 0.488774 0.530129
0.483955 0.492293 0.533649
0.493813 0.495813 0.537169
0.503672 0.499333 0.540689
0.513531 0.502853 0.544209
0.523390 0.506373 0.547729
0.533249 0.509893 0.551249
0.461288 0.494983 0.530000
0.471147 0.498503 0.533520
0.481006 0.502023 0.537040
0.490865 0.505543 0.540560
0.500724 0.509063 0.544080
0.510583 0.512583 0.547600
0.520442 0.516103 0.551119
0.530300 0.519623 0.554639
0.540159 0.523142 0.558159
0.468199 0.508232 0.536910
0.478057 0.511752 0.540430
0.487916 0.515272 0.543950
0.497775 0.518792 0.547470
0.507634 0.522312 0.550990
0.517493 0.525832 0.554510
0.527352 0.529352 0.558030
0.537211 0.532872 0.561550
0.547070 0.536392 0.565070
0.475109 0.521482 0.543821
0.484968 0.525002 0.547341
0.494827 0.528522 0.550860
0.504686 0.532041 0.554380
0.514545 0.535561 0.557900
0.524403 0.539081 0.561420
0.534262 0.542601 0.564940
0.544121 0.546121 0.568460
0.553980 0.549641 0.571980
0.482019 0.534731 0.550731
0.491878 0.538251 0.554251
0.501737 0.541771 0.557771
0.511596 0.545291 0.561291
0.521455 0.548811 0.564811
0.531314 0.552331 0.568331
0.541173 0.555851 0.571851
0.551032 0.559371 0.575371
0.560890 0.562890 0.578890
