shared/src/main/assets/luts/drama_desert_chemistry.cube
TITLE "DALUR Desert Chemistry"
LUT_3D_SIZE 17
DOMAIN_MIN 0.0 0.0 0.0
DOMAIN_MAX 1.0 1.0 1.0
0.468000 0.452500 0.432000
0.470438 0.454278 0.433778
0.472877 0.456056 0.435556
0.475315 0.457833 0.437333
0.477754 0.459611 0.439111
0.480192 0.461389 0.440889
0.482630 0.463167 0.442667
0.485069 0.464944 0.444444
0.487507 0.466722 0.446222
0.489946 0.468500 0.448000
0.492384 0.470278 0.449778
0.494822 0.472055 0.451555
0.497261 0.473833 0.453333
0.499699 0.475611 0.455111
0.502138 0.477389 0.456889
0.504576 0.479167 0.458667
0.507015 0.480944 0.460444
0.471490 0.456651 0.435490
0.473929 0.458429 0.437268
0.476367 0.460206 0.439046
0.478805 0.461984 0.440823
0.481244 0.463762 0.442601
0.483682 0.465540 0.444379
0.486121 0.467317 0.446157
0.488559 0.469095 0.447935
0.490997 0.470873 0.449712
0.493436 0.472651 0.451490
0.495874 0.474428 0.453268
0.498313 0.476206 0.455046
0.500751 0.477984 0.456823
0.503189 0.479762 0.458601
0.505628 0.481540 0.460379
0.508066 0.483317 0.462157
0.510505 0.485095 0.463934
0.474980 0.460802 0.438980
0.477419 0.462579 0.440758
0.479857 0.464357 0.442536
0.482296 0.466135 0.444314
0.484734 0.467913 0.446091
0.487172 0.469690 0.447869
0.489611 0.471468 0.449647
0.492049 0.473246 0.451425
0.494488 0.475024 0.453202
0.496926 0.476802 0.454980
0.499364 0.478579 0.456758
0.501803 0.480357 0.458536
0.504241 0.482135 0.460314
0.506680 0.483913 0.462091
0.509118 0.485690 0.463869
0.511556 0.487468 0.465647
0.513995 0.489246 0.467425
0.478470 0.464952 0.442470
0.480909 0.466730 0.444248
0.483347 0.468508 0.446026
0.485786 0.470286 0.447804
0.488224 0.472063 0.449582
0.490662 0.473841 0.451359
0.493101 0.475619 0.453137
0.495539 0.477397 0.454915
0.497978 0.479175 0.456693
0.500416 0.480952 0.458470
0.502855 0.482730 0.460248
0.505293 0.484508 0.462026
0.507731 0.486286 0.463804
0.510170 0.488063 0.465581
0.512608 0.489841 0.467359
0.515047 0.491619 0.469137
0.517485 0.493397 0.470915
0.481961 0.469103 0.445961
0.484399 0.470881 0.447738
0.486837 0.472659 0.449516
0.489276 0.474436 0.451294
0.491714 0.476214 0.453072
0.494153 0.477992 0.454849
0.496591 0.479770 0.456627
0.499029 0.481548 0.458405
0.501468 0.483325 0.460183
0.503906 0.485103 0.461961
0.506345 0.486881 0.463738
0.508783 0.488659 0.465516
0.511221 0.490436 0.467294
0.513660 0.492214 0.469072
0.516098 0.493992 0.470849
0.518537 0.495770 0.472627
0.520975 0.497547 0.474405
0.485451 0.473254 0.449451
0.487889 0.475032 0.451228
0.490328 0.476809 0.453006
0.492766 0.478587 0.454784
0.495204 0.480365 0.456562
0.497643 0.482143 0.458340
0.500081 0.483921 0.460117
0.502520 0.485698 0.461895
0.504958 0.487476 0.463673
0.507396 0.489254 0.465451
0.509835 0.491032 0.467228
0.512273 0.492809 0.469006
0.514712 0.494587 0.470784
0.517150 0.496365 0.472562
0.519588 0.498143 0.474340
0.522027 0.499920 0.476117
0.524465 0.501698 0.477895
0.488941 0.477405 0.452941
0.491379 0.479182 0.454719
0.493818 0.480960 0.456496
0.496256 0.482738 0.458274
0.498694 0.484516 0.460052
0.501133 0.486294 0.461830
0.503571 0.488071 0.463607
0.506010 0.489849 0.465385
0.508448 0.491627 0.467163
0.510887 0.493405 0.468941
0.513325 0.495182 0.470719
0.515763 0.496960 0.472496
0.518202 0.498738 0.474274
0.520640 0.500516 0.476052
0.523079 0.502293 0.477830
0.525517 0.504071 0.479607
0.527955 0.505849 0.481385
0.492431 0.481555 0.456431
0.494869 0.483333 0.458209
0.497308 0.485111 0.459987
0.499746 0.486889 0.461764
0.502185 0.488667 0.463542
0.504623 0.490444 0.465320
0.507061 0.492222 0.467098
0.509500 0.494000 0.468875
0.511938 0.495778 0.470653
0.514377 0.497555 0.472431
0.516815 0.499333 0.474209
0.519253 0.501111 0.475986
0.521692 0.502889 0.477764
0.524130 0.504666 0.479542
0.526569 0.506444 0.481320
0.529007 0.508222 0.483098
0.531446 0.510000 0.484875
0.495921 0.485706 0.459921
0.498360 0.487484 0.461699
0.500798 0.489262 0.463477
0.503236 0.491040 0.465254
0.505675 0.492817 0.467032
0.508113 0.494595 0.468810
0.510552 0.496373 0.470588
0.512990 0.498151 0.472366
0.515428 0.499928 0.474143
0.517867 0.501706 0.475921
0.520305 0.503484 0.477699
0.522744 0.505262 0.479477
0.525182 0.507039 0.481254
0.527620 0.508817 0.483032
0.530059 0.510595 0.484810
0.532497 0.512373 0.486588
0.534936 0.514151 0.488365
0.499411 0.489857 0.463411
0.501850 0.491635 0.465189
0.504288 0.493413 0.466967
0.506726 0.495190 0.468745
0.509165 0.496968 0.470522
0.511603 0.498746 0.472300
0.514042 0.500524 0.474078
0.516480 0.502301 0.475856
0.518919 0.504079 0.477633
0.521357 0.505857 0.479411
0.523795 0.507635 0.481189
0.526234 0.509412 0.482967
0.528672 0.511190 0.484745
0.531111 0.512968 0.486522
0.533549 0.514746 0.488300
0.535987 0.516524 0.490078
0.538426 0.518301 0.491856
0.502901 0.494008 0.466901
0.505340 0.495786 0.468679
0.507778 0.497563 0.470457
0.510217 0.499341 0.472235
0.512655 0.501119 0.474013
0.515093 0.502897 0.475790
0.517532 0.504674 0.477568
0.519970 0.506452 0.479346
0.522409 0.508230 0.481124
0.524847 0.510008 0.482901
0.527285 0.511785 0.484679
0.529724 0.513563 0.486457
0.532162 0.515341 0.488235
0.534601 0.517119 0.490012
0.537039 0.518897 0.491790
0.539478 0.520674 0.493568
0.541916 0.522452 0.495346
0.506392 0.498159 0.470392
0.508830 0.499936 0.472169
0.511268 0.501714 0.473947
0.513707 0.503492 0.475725
0.516145 0.505270 0.477503
0.518584 0.507047 0.479280
0.521022 0.508825 0.481058
0.523460 0.510603 0.482836
0.525899 0.512381 0.484614
0.528337 0.514159 0.486392
0.530776 0.515936 0.488169
0.533214 0.517714 0.489947
0.535652 0.519492 0.491725
0.538091 0.521270 0.493503
0.540529 0.523047 0.495280
0.542968 0.524825 0.497058
0.545406 0.526603 0.498836
0.509882 0.502309 0.473882
0.512320 0.504087 0.475659
0.514759 0.505865 0.477437
0.517197 0.507643 0.479215
0.519635 0.509420 0.480993
0.522074 0.511198 0.482771
0.524512 0.512976 0.484548
0.526951 0.514754 0.486326
0.529389 0.516532 0.488104
0.531827 0.518309 0.489882
0.534266 0.520087 0.491659
0.536704 0.521865 0.493437
0.539143 0.523643 0.495215
0.541581 0.525420 0.496993
0.544019 0.527198 0.498771
0.546458 0.528976 0.500548
0.548896 0.530754 0.502326
0.513372 0.506460 0.477372
0.515810 0.508238 0.479150
0.518249 0.510016 0.480927
0.520687 0.511793 0.482705
0.523125 0.513571 0.484483
0.525564 0.515349 0.486261
0.528002 0.517127 0.488038
0.530441 0.518905 0.489816
0.532879 0.520682 0.491594
0.535318 0.522460 0.493372
0.537756 0.524238 0.495150
0.540194 0.526016 0.496927
0.542633 0.527793 0.498705
0.545071 0.529571 0.500483
0.547510 0.531349 0.502261
0.549948 0.533127 0.504038
0.552386 0.534904 0.505816
0.516862 0.510611 0.480862
0.519300 0.512389 0.482640
0.521739 0.514166 0.484418
0.524177 0.515944 0.486195
0.526616 0.517722 0.487973
0.529054 0.519500 0.489751
0.531492 0.521278 0.491529
0.533931 0.523055 0.493306
0.536369 0.524833 0.495084
0.538808 0.526611 0.496862
0.541246 0.528389 0.498640
0.543684 0.530166 0.500417
0.546123 0.531944 0.502195
0.548561 0.533722 0.503973
0.551000 0.535500 0.505751
0.553438 0.537277 0.507529
0.555877 0.539055 0.509306
0.520352 0.514762 0.484352
0.522791 0.516539 0.486130
0.525229 0.518317 0.487908
0.527667 0.520095 0.489685
0.530106 0.521873 0.491463
0.532544 0.523651 0.493241
0.534983 0.525428 0.495019
0.537421 0.527206 0.496797
0.539859 0.528984 0.498574
0.542298 0.530762 0.500352
0.544736 0.532539 0.502130
0.547175 0.534317 0.503908
0.549613 0.536095 0.505685
0.552051 0.537873 0.507463
0.554490 0.539650 0.509241
0.556928 0.541428 0.511019
0.559367 0.543206 0.512796
0.523842 0.518912 0.487842
0.526281 0.520690 0.489620
0.528719 0.522468 0.491398
0.531157 0.524246 0.493176
0.533596 0.526024 0.494953
0.536034 0.527801 0.496731
0.538473 0.529579 0.498509
0.540911 0.531357 0.500287
0.543350 0.533135 0.502064
0.545788 0.534912 0.503842
0.548226 0.536690 0.505620
0.550665 0.538468 0.507398
0.553103 0.540246 0.509176
0.555542 0.542023 0.510953
0.557980 0.543801 0.512731
0.560418 0.545579 0.514509
0.562857 0.547357 0.516287
0.468678 0.453178 0.433338
0.471116 0.454956 0.435116
0.473555 0.456733 0.436894
0.475993 0.458511 0.438672
0.478431 0.460289 0.440450
0.480870 0.462067 0.442227
0.483308 0.463844 0.444005
0.485747 0.465622 0.445783
0.488185 0.467400 0.447561
0.490623 0.469178 0.449338
0.493062 0.470956 0.451116
0.495500 0.472733 0.452894
0.497939 0.474511 0.454672
0.500377 0.476289 0.456449
0.502816 0.478067 0.458227
0.505254 0.479844 0.460005
0.507692 0.481622 0.461783
0.472168 0.457329 0.436829
0.474606 0.459106 0.438606
0.477045 0.460884 0.440384
0.479483 0.462662 0.442162
0.481922 0.464440 0.443940
0.484360 0.466217 0.445717
0.486798 0.467995 0.447495
0.489237 0.469773 0.449273
0.491675 0.471551 0.451051
0.494114 0.473329 0.452829
0.496552 0.475106 0.454606
0.498990 0.476884 0.456384
0.501429 0.478662 0.458162
0.503867 0.480440 0.459940
0.506306 0.482217 0.461717
0.508744 0.483995 0.463495
0.511182 0.485773 0.465273
0.475658 0.461479 0.440319
0.478097 0.463257 0.442097
0.480535 0.465035 0.443874
0.482973 0.466813 0.445652
0.485412 0.468590 0.447430
0.487850 0.470368 0.449208
0.490289 0.472146 0.450985
0.492727 0.473924 0.452763
0.495165 0.475702 0.454541
0.497604 0.477479 0.456319
0.500042 0.479257 0.458096
0.502481 0.481035 0.459874
0.504919 0.482813 0.461652
0.507357 0.484590 0.463430
0.509796 0.486368 0.465208
0.512234 0.488146 0.466985
0.514673 0.489924 0.468763
0.479148 0.465630 0.443809
0.481587 0.467408 0.445587
0.484025 0.469186 0.447364
0.486463 0.470963 0.449142
0.488902 0.472741 0.450920
0.491340 0.474519 0.452698
0.493779 0.476297 0.454476
0.496217 0.478075 0.456253
0.498656 0.479852 0.458031
0.501094 0.481630 0.459809
0.503532 0.483408 0.461587
0.505971 0.485186 0.463364
0.508409 0.486963 0.465142
0.510848 0.488741 0.466920
0.513286 0.490519 0.468698
0.515724 0.492297 0.470475
0.518163 0.494075 0.472253
0.482638 0.469781 0.447299
0.485077 0.471559 0.449077
0.487515 0.473336 0.450855
0.489954 0.475114 0.452632
0.492392 0.476892 0.454410
0.494830 0.478670 0.456188
0.497269 0.480448 0.457966
0.499707 0.482225 0.459743
0.502146 0.484003 0.461521
0.504584 0.485781 0.463299
0.507022 0.487559 0.465077
0.509461 0.489336 0.466855
0.511899 0.491114 0.468632
0.514338 0.492892 0.470410
0.516776 0.494670 0.472188
0.519215 0.496448 0.473966
0.521653 0.498225 0.475743
0.486129 0.473932 0.450789
0.488567 0.475709 0.452567
0.491005 0.477487 0.454345
0.493444 0.479265 0.456122
0.495882 0.481043 0.457900
0.498321 0.482821 0.459678
0.500759 0.484598 0.461456
0.503197 0.486376 0.463234
0.505636 0.488154 0.465011
0.508074 0.489932 0.466789
0.510513 0.491709 0.468567
0.512951 0.493487 0.470345
0.515389 0.495265 0.472122
0.517828 0.497043 0.473900
0.520266 0.498821 0.475678
0.522705 0.500598 0.477456
0.525143 0.502376 0.479234
0.489619 0.478082 0.454279
0.492057 0.479860 0.456057
0.494495 0.481638 0.457835
0.496934 0.483416 0.459613
0.499372 0.485194 0.461390
0.501811 0.486971 0.463168
0.504249 0.488749 0.464946
0.506688 0.490527 0.466724
0.509126 0.492305 0.468501
0.511564 0.494082 0.470279
0.514003 0.495860 0.472057
0.516441 0.497638 0.473835
0.518880 0.499416 0.475613
0.521318 0.501194 0.477390
0.523756 0.502971 0.479168
0.526195 0.504749 0.480946
0.528633 0.506527 0.482724
0.493109 0.482233 0.457769
0.495547 0.484011 0.459547
0.497986 0.485789 0.461325
0.500424 0.487567 0.463103
0.502862 0.489344 0.464881
0.505301 0.491122 0.466658
0.507739 0.492900 0.468436
0.510178 0.494678 0.470214
0.512616 0.496455 0.471992
0.515054 0.498233 0.473769
0.517493 0.500011 0.475547
0.519931 0.501789 0.477325
0.522370 0.503567 0.479103
0.524808 0.505344 0.480880
0.527247 0.507122 0.482658
0.529685 0.508900 0.484436
0.532123 0.510678 0.486214
0.496599 0.486384 0.461260
0.499037 0.488162 0.463037
0.501476 0.489940 0.464815
0.503914 0.491717 0.466593
0.506353 0.493495 0.468371
0.508791 0.495273 0.470148
0.511229 0.497051 0.471926
0.513668 0.498828 0.473704
0.516106 0.500606 0.475482
0.518545 0.502384 0.477260
0.520983 0.504162 0.479037
0.523421 0.505940 0.480815
0.525860 0.507717 0.482593
0.528298 0.509495 0.484371
0.530737 0.511273 0.486148
0.533175 0.513051 0.487926
0.535613 0.514828 0.489704
0.500089 0.490535 0.464750
0.502527 0.492313 0.466527
0.504966 0.494090 0.468305
0.507404 0.495868 0.470083
0.509843 0.497646 0.471861
0.512281 0.499424 0.473639
0.514720 0.501201 0.475416
0.517158 0.502979 0.477194
0.519596 0.504757 0.478972
0.522035 0.506535 0.480750
0.524473 0.508313 0.482527
0.526912 0.510090 0.484305
0.529350 0.511868 0.486083
0.531788 0.513646 0.487861
0.534227 0.515424 0.489639
0.536665 0.517201 0.491416
0.539104 0.518979 0.493194
0.503579 0.494686 0.468240
0.506018 0.496463 0.470018
0.508456 0.498241 0.471795
0.510894 0.500019 0.473573
0.513333 0.501797 0.475351
0.515771 0.503574 0.477129
0.518210 0.505352 0.478906
0.520648 0.507130 0.480684
0.523086 0.508908 0.482462
0.525525 0.510686 0.484240
0.527963 0.512463 0.486018
0.530402 0.514241 0.487795
0.532840 0.516019 0.489573
0.535279 0.517797 0.491351
0.537717 0.519574 0.493129
0.540155 0.521352 0.494906
0.542594 0.523130 0.496684
0.507069 0.498836 0.471730
0.509508 0.500614 0.473508
0.511946 0.502392 0.475286
0.514385 0.504170 0.477063
0.516823 0.505947 0.478841
0.519261 0.507725 0.480619
0.521700 0.509503 0.482397
0.524138 0.511281 0.484174
0.526577 0.513059 0.485952
0.529015 0.514836 0.487730
0.531453 0.516614 0.489508
0.533892 0.518392 0.491285
0.536330 0.520170 0.493063
0.538769 0.521947 0.494841
0.541207 0.523725 0.496619
0.543645 0.525503 0.498397
0.546084 0.527281 0.500174
0.510560 0.502987 0.475220
0.512998 0.504765 0.476998
0.515436 0.506543 0.478776
0.517875 0.508320 0.480553
0.520313 0.510098 0.482331
0.522752 0.511876 0.484109
0.525190 0.513654 0.485887
0.527628 0.515432 0.487665
0.530067 0.517209 0.489442
0.532505 0.518987 0.491220
0.534944 0.520765 0.492998
0.537382 0.522543 0.494776
0.539820 0.524320 0.496553
0.542259 0.526098 0.498331
0.544697 0.527876 0.500109
0.547136 0.529654 0.501887
0.549574 0.531432 0.503665
0.514050 0.507138 0.478710
0.516488 0.508916 0.480488
0.518926 0.510693 0.482266
0.521365 0.512471 0.484044
0.523803 0.514249 0.485821
0.526242 0.516027 0.487599
0.528680 0.517805 0.489377
0.531119 0.519582 0.491155
0.533557 0.521360 0.492932
0.535995 0.523138 0.494710
0.538434 0.524916 0.496488
0.540872 0.526693 0.498266
0.543311 0.528471 0.500044
0.545749 0.530249 0.501821
0.548187 0.532027 0.503599
0.550626 0.533805 0.505377
0.553064 0.535582 0.507155
0.517540 0.511289 0.482200
0.519978 0.513066 0.483978
0.522417 0.514844 0.485756
0.524855 0.516622 0.487534
0.527293 0.518400 0.489312
0.529732 0.520178 0.491089
0.532170 0.521955 0.492867
0.534609 0.523733 0.494645
0.537047 0.525511 0.496423
0.539485 0.527289 0.498200
0.541924 0.529066 0.499978
0.544362 0.530844 0.501756
0.546801 0.532622 0.503534
0.549239 0.534400 0.505311
0.551678 0.536178 0.507089
0.554116 0.537955 0.508867
0.556554 0.539733 0.510645
0.521030 0.515439 0.485691
0.523468 0.517217 0.487468
0.525907 0.518995 0.489246
0.528345 0.520773 0.491024
0.530784 0.522551 0.492802
0.533222 0.524328 0.494579
0.535660 0.526106 0.496357
0.538099 0.527884 0.498135
0.540537 0.529662 0.499913
0.542976 0.531439 0.501691
0.545414 0.533217 0.503468
0.547852 0.534995 0.505246
0.550291 0.536773 0.507024
0.552729 0.538551 0.508802
0.555168 0.540328 0.510579
0.557606 0.542106 0.512357
0.560044 0.543884 0.514135
0.524520 0.519590 0.489181
0.526958 0.521368 0.490958
0.529397 0.523146 0.492736
0.531835 0.524924 0.494514
0.534274 0.526701 0.496292
0.536712 0.528479 0.498070
0.539151 0.530257 0.499847
0.541589 0.532035 0.501625
0.544027 0.533812 0.503403
0.546466 0.535590 0.505181
0.548904 0.537368 0.506958
0.551343 0.539146 0.508736
0.553781 0.540924 0.510514
0.556219 0.542701 0.512292
0.558658 0.544479 0.514070
0.561096 0.546257 0.515847
0.563535 0.548035 0.517625
0.469356 0.453856 0.434677
0.471794 0.455633 0.436455
0.474232 0.457411 0.438232
0.476671 0.459189 0.440010
0.479109 0.460967 0.441788
0.481548 0.462744 0.443566
0.483986 0.464522 0.445344
0.486424 0.466300 0.447121
0.488863 0.468078 0.448899
0.491301 0.469856 0.450677
0.493740 0.471633 0.452455
0.496178 0.473411 0.454232
0.498617 0.475189 0.456010
0.501055 0.476967 0.457788
0.503493 0.478744 0.459566
0.505932 0.480522 0.461343
0.508370 0.482300 0.463121
0.472846 0.458006 0.438167
0.475284 0.459784 0.439945
0.477723 0.461562 0.441723
0.480161 0.463340 0.443500
0.482599 0.465117 0.445278
0.485038 0.466895 0.447056
0.487476 0.468673 0.448834
0.489915 0.470451 0.450611
0.492353 0.472229 0.452389
0.494791 0.474006 0.454167
0.497230 0.475784 0.455945
0.499668 0.477562 0.457723
0.502107 0.479340 0.459500
0.504545 0.481117 0.461278
0.506983 0.482895 0.463056
0.509422 0.484673 0.464834
0.511860 0.486451 0.466611
0.476336 0.462157 0.441657
0.478774 0.463935 0.443435
0.481213 0.465713 0.445213
0.483651 0.467490 0.446990
0.486090 0.469268 0.448768
0.488528 0.471046 0.450546
0.490966 0.472824 0.452324
0.493405 0.474602 0.454102
0.495843 0.476379 0.455879
0.498282 0.478157 0.457657
0.500720 0.479935 0.459435
0.503158 0.481713 0.461213
0.505597 0.483490 0.462990
0.508035 0.485268 0.464768
0.510474 0.487046 0.466546
0.512912 0.488824 0.468324
0.515350 0.490602 0.470102
0.479826 0.466308 0.445147
0.482264 0.468086 0.446925
0.484703 0.469864 0.448703
0.487141 0.471641 0.450481
0.489580 0.473419 0.452258
0.492018 0.475197 0.454036
0.494457 0.476975 0.455814
0.496895 0.478752 0.457592
0.499333 0.480530 0.459370
0.501772 0.482308 0.461147
0.504210 0.484086 0.462925
0.506649 0.485863 0.464703
0.509087 0.487641 0.466481
0.511525 0.489419 0.468258
0.513964 0.491197 0.470036
0.516402 0.492975 0.471814
0.518841 0.494752 0.473592
0.483316 0.470459 0.448637
0.485755 0.472237 0.450415
0.488193 0.474014 0.452193
0.490631 0.475792 0.453971
0.493070 0.477570 0.455749
0.495508 0.479348 0.457526
0.497947 0.481125 0.459304
0.500385 0.482903 0.461082
0.502823 0.484681 0.462860
0.505262 0.486459 0.464637
0.507700 0.488236 0.466415
0.510139 0.490014 0.468193
0.512577 0.491792 0.469971
0.515016 0.493570 0.471749
0.517454 0.495348 0.473526
0.519892 0.497125 0.475304
0.522331 0.498903 0.477082
0.486806 0.474610 0.452128
0.489245 0.476387 0.453905
0.491683 0.478165 0.455683
0.494122 0.479943 0.457461
0.496560 0.481721 0.459239
0.498998 0.483498 0.461016
0.501437 0.485276 0.462794
0.503875 0.487054 0.464572
0.506314 0.488832 0.466350
0.508752 0.490609 0.468128
0.511190 0.492387 0.469905
0.513629 0.494165 0.471683
0.516067 0.495943 0.473461
0.518506 0.497721 0.475239
0.520944 0.499498 0.477016
0.523382 0.501276 0.478794
0.525821 0.503054 0.480572
0.490296 0.478760 0.455618
0.492735 0.480538 0.457396
0.495173 0.482316 0.459173
0.497612 0.484094 0.460951
0.500050 0.485871 0.462729
0.502489 0.487649 0.464507
0.504927 0.489427 0.466284
0.507365 0.491205 0.468062
0.509804 0.492982 0.469840
0.512242 0.494760 0.471618
0.514681 0.496538 0.473395
0.517119 0.498316 0.475173
0.519557 0.500094 0.476951
0.521996 0.501871 0.478729
0.524434 0.503649 0.480507
0.526873 0.505427 0.482284
0.529311 0.507205 0.484062
0.493787 0.482911 0.459108
0.496225 0.484689 0.460886
0.498663 0.486467 0.462663
0.501102 0.488244 0.464441
0.503540 0.490022 0.466219
0.505979 0.491800 0.467997
0.508417 0.493578 0.469775
0.510855 0.495355 0.471552
0.513294 0.497133 0.473330
0.515732 0.498911 0.475108
0.518171 0.500689 0.476886
0.520609 0.502467 0.478663
0.523048 0.504244 0.480441
0.525486 0.506022 0.482219
0.527924 0.507800 0.483997
0.530363 0.509578 0.485774
0.532801 0.511355 0.487552
0.497277 0.487062 0.462598
0.499715 0.488840 0.464376
0.502154 0.490617 0.466154
0.504592 0.492395 0.467931
0.507030 0.494173 0.469709
0.509469 0.495951 0.471487
0.511907 0.497728 0.473265
0.514346 0.499506 0.475042
0.516784 0.501284 0.476820
0.519222 0.503062 0.478598
0.521661 0.504840 0.480376
0.524099 0.506617 0.482154
0.526538 0.508395 0.483931
0.528976 0.510173 0.485709
0.531414 0.511951 0.487487
0.533853 0.513728 0.489265
0.536291 0.515506 0.491042
0.500767 0.491213 0.466088
0.503205 0.492990 0.467866
0.505644 0.494768 0.469644
0.508082 0.496546 0.471421
0.510521 0.498324 0.473199
0.512959 0.500101 0.474977
0.515397 0.501879 0.476755
0.517836 0.503657 0.478533
0.520274 0.505435 0.480310
0.522713 0.507213 0.482088
0.525151 0.508990 0.483866
0.527589 0.510768 0.485644
0.530028 0.512546 0.487421
0.532466 0.514324 0.489199
0.534905 0.516101 0.490977
0.537343 0.517879 0.492755
0.539781 0.519657 0.494533
0.504257 0.495363 0.469578
0.506695 0.497141 0.471356
0.509134 0.498919 0.473134
0.511572 0.500697 0.474912
0.514011 0.502474 0.476689
0.516449 0.504252 0.478467
0.518887 0.506030 0.480245
0.521326 0.507808 0.482023
0.523764 0.509586 0.483800
0.526203 0.511363 0.485578
0.528641 0.513141 0.487356
0.531080 0.514919 0.489134
0.533518 0.516697 0.490912
0.535956 0.518474 0.492689
0.538395 0.520252 0.494467
0.540833 0.522030 0.496245
0.543272 0.523808 0.498023
0.507747 0.499514 0.473068
0.510186 0.501292 0.474846
0.512624 0.503070 0.476624
0.515062 0.504847 0.478402
0.517501 0.506625 0.480180
0.519939 0.508403 0.481957
0.522378 0.510181 0.483735
0.524816 0.511959 0.485513
0.527254 0.513736 0.487291
0.529693 0.515514 0.489068
0.532131 0.517292 0.490846
0.534570 0.519070 0.492624
0.537008 0.520847 0.494402
0.539446 0.522625 0.496179
0.541885 0.524403 0.497957
0.544323 0.526181 0.499735
0.546762 0.527959 0.501513
0.511237 0.503665 0.476559
0.513676 0.505443 0.478336
0.516114 0.507221 0.480114
0.518553 0.508998 0.481892
0.520991 0.510776 0.483670
0.523429 0.512554 0.485447
0.525868 0.514332 0.487225
0.528306 0.516109 0.489003
0.530745 0.517887 0.490781
0.533183 0.519665 0.492559
0.535621 0.521443 0.494336
0.538060 0.523220 0.496114
0.540498 0.524998 0.497892
0.542937 0.526776 0.499670
0.545375 0.528554 0.501447
0.547813 0.530332 0.503225
0.550252 0.532109 0.505003
0.514727 0.507816 0.480049
0.517166 0.509594 0.481827
0.519604 0.511371 0.483604
0.522043 0.513149 0.485382
0.524481 0.514927 0.487160
0.526920 0.516705 0.488938
0.529358 0.518482 0.490715
0.531796 0.520260 0.492493
0.534235 0.522038 0.494271
0.536673 0.523816 0.496049
0.539112 0.525593 0.497826
0.541550 0.527371 0.499604
0.543988 0.529149 0.501382
0.546427 0.530927 0.503160
0.548865 0.532705 0.504938
0.551304 0.534482 0.506715
0.553742 0.536260 0.508493
0.518218 0.511967 0.483539
0.520656 0.513744 0.485317
0.523094 0.515522 0.487094
0.525533 0.517300 0.488872
0.527971 0.519078 0.490650
0.530410 0.520855 0.492428
0.532848 0.522633 0.494206
0.535286 0.524411 0.495983
0.537725 0.526189 0.497761
0.540163 0.527966 0.499539
0.542602 0.529744 0.501317
0.545040 0.531522 0.503094
0.547479 0.533300 0.504872
0.549917 0.535078 0.506650
0.552355 0.536855 0.508428
0.554794 0.538633 0.510205
0.557232 0.540411 0.511983
0.521708 0.516117 0.487029
0.524146 0.517895 0.488807
0.526585 0.519673 0.490585
0.529023 0.521451 0.492362
0.531461 0.523228 0.494140
0.533900 0.525006 0.495918
0.536338 0.526784 0.497696
0.538777 0.528562 0.499473
0.541215 0.530339 0.501251
0.543653 0.532117 0.503029
0.546092 0.533895 0.504807
0.548530 0.535673 0.506585
0.550969 0.537451 0.508362
0.553407 0.539228 0.510140
0.555845 0.541006 0.511918
0.558284 0.542784 0.513696
0.560722 0.544562 0.515473
0.525198 0.520268 0.490519
0.527636 0.522046 0.492297
0.530075 0.523824 0.494075
0.532513 0.525601 0.495852
0.534952 0.527379 0.497630
0.537390 0.529157 0.499408
0.539828 0.530935 0.501186
0.542267 0.532712 0.502964
0.544705 0.534490 0.504741
0.547144 0.536268 0.506519
0.549582 0.538046 0.508297
0.552020 0.539824 0.510075
0.554459 0.541601 0.511852
0.556897 0.543379 0.513630
0.559336 0.545157 0.515408
0.561774 0.546935 0.517186
0.564212 0.548712 0.518964
0.470033 0.454533 0.436015
0.472472 0.456311 0.437793
0.474910 0.458089 0.439571
0.477349 0.459867 0.441349
0.479787 0.461645 0.443126
0.482225 0.463422 0.444904
0.484664 0.465200 0.446682
0.487102 0.466978 0.448460
0.489541 0.468756 0.450238
0.491979 0.470533 0.452015
0.494418 0.472311 0.453793
0.496856 0.474089 0.455571
0.499294 0.475867 0.457349
0.501733 0.477644 0.459126
0.504171 0.479422 0.460904
0.506610 0.481200 0.462682
0.509048 0.482978 0.464460
0.473524 0.458684 0.439505
