shared/src/main/assets/luts/drama_chrome_frontier.cube
TITLE "DALUR Chrome Frontier"
LUT_3D_SIZE 17
DOMAIN_MIN 0.0 0.0 0.0
DOMAIN_MAX 1.0 1.0 1.0
0.449000 0.440000 0.431000
0.451768 0.442018 0.433018
0.454537 0.444037 0.435036
0.457305 0.446055 0.437055
0.460073 0.448073 0.439073
0.462841 0.450091 0.441091
0.465609 0.452109 0.443109
0.468378 0.454128 0.445128
0.471146 0.456146 0.447146
0.473914 0.458164 0.449164
0.476683 0.460182 0.451182
0.479451 0.462201 0.453201
0.482219 0.464219 0.455219
0.484987 0.466237 0.457237
0.487756 0.468255 0.459255
0.490524 0.470274 0.461274
0.493292 0.472292 0.463292
0.452962 0.444712 0.434962
0.455730 0.446730 0.436980
0.458499 0.448749 0.438999
0.461267 0.450767 0.441017
0.464035 0.452785 0.443035
0.466803 0.454803 0.445053
0.469572 0.456822 0.447072
0.472340 0.458840 0.449090
0.475108 0.460858 0.451108
0.477876 0.462876 0.453126
0.480645 0.464895 0.455145
0.483413 0.466913 0.457163
0.486181 0.468931 0.459181
0.488949 0.470949 0.461199
0.491718 0.472968 0.463218
0.494486 0.474986 0.465236
0.497254 0.477004 0.467254
0.456925 0.449425 0.438924
0.459693 0.451443 0.440943
0.462461 0.453461 0.442961
0.465229 0.455479 0.444979
0.467998 0.457498 0.446997
0.470766 0.459516 0.449016
0.473534 0.461534 0.451034
0.476302 0.463552 0.453052
0.479070 0.465570 0.455070
0.481839 0.467589 0.457089
0.484607 0.469607 0.459107
0.487375 0.471625 0.461125
0.490144 0.473643 0.463143
0.492912 0.475662 0.465162
0.495680 0.477680 0.467180
0.498448 0.479698 0.469198
0.501217 0.481717 0.471217
0.460887 0.454137 0.442887
0.463655 0.456155 0.444905
0.466423 0.458173 0.446923
0.469191 0.460191 0.448941
0.471960 0.462210 0.450960
0.474728 0.464228 0.452978
0.477496 0.466246 0.454996
0.480264 0.468264 0.457014
0.483033 0.470283 0.459033
0.485801 0.472301 0.461051
0.488569 0.474319 0.463069
0.491337 0.476337 0.465087
0.494106 0.478356 0.467106
0.496874 0.480374 0.469124
0.499642 0.482392 0.471142
0.502410 0.484410 0.473160
0.505179 0.486429 0.475179
0.464849 0.458849 0.446849
0.467617 0.460867 0.448867
0.470385 0.462885 0.450885
0.473154 0.464904 0.452904
0.475922 0.466922 0.454922
0.478690 0.468940 0.456940
0.481458 0.470958 0.458958
0.484227 0.472977 0.460977
0.486995 0.474995 0.462995
0.489763 0.477013 0.465013
0.492532 0.479031 0.467031
0.495300 0.481050 0.469050
0.498068 0.483068 0.471068
0.500836 0.485086 0.473086
0.503605 0.487104 0.475104
0.506373 0.489123 0.477123
0.509141 0.491141 0.479141
0.468811 0.463561 0.450811
0.471579 0.465579 0.452829
0.474348 0.467598 0.454848
0.477116 0.469616 0.456866
0.479884 0.471634 0.458884
0.482652 0.473652 0.460902
0.485421 0.475671 0.462921
0.488189 0.477689 0.464939
0.490957 0.479707 0.466957
0.493725 0.481725 0.468975
0.496494 0.483744 0.470994
0.499262 0.485762 0.473012
0.502030 0.487780 0.475030
0.504798 0.489798 0.477048
0.507567 0.491817 0.479067
0.510335 0.493835 0.481085
0.513103 0.495853 0.483103
0.472773 0.468273 0.454773
0.475542 0.470292 0.456792
0.478310 0.472310 0.458810
0.481078 0.474328 0.460828
0.483846 0.476346 0.462846
0.486615 0.478365 0.464865
0.489383 0.480383 0.466883
0.492151 0.482401 0.468901
0.494920 0.484420 0.470919
0.497688 0.486438 0.472938
0.500456 0.488456 0.474956
0.503224 0.490474 0.476974
0.505992 0.492492 0.478992
0.508761 0.494511 0.481011
0.511529 0.496529 0.483029
0.514297 0.498547 0.485047
0.517065 0.500565 0.487065
0.476736 0.472986 0.458736
0.479504 0.475004 0.460754
0.482272 0.477022 0.462772
0.485040 0.479040 0.464790
0.487809 0.481059 0.466809
0.490577 0.483077 0.468827
0.493345 0.485095 0.470845
0.496113 0.487113 0.472863
0.498882 0.489132 0.474882
0.501650 0.491150 0.476900
0.504418 0.493168 0.478918
0.507186 0.495186 0.480936
0.509955 0.497205 0.482955
0.512723 0.499223 0.484973
0.515491 0.501241 0.486991
0.518259 0.503259 0.489009
0.521028 0.505278 0.491028
0.480698 0.477698 0.462698
0.483466 0.479716 0.464716
0.486234 0.481734 0.466734
0.489003 0.483753 0.468753
0.491771 0.485771 0.470771
0.494539 0.487789 0.472789
0.497307 0.489807 0.474807
0.500076 0.491826 0.476826
0.502844 0.493844 0.478844
0.505612 0.495862 0.480862
0.508381 0.497881 0.482880
0.511149 0.499899 0.484899
0.513917 0.501917 0.486917
0.516685 0.503935 0.488935
0.519454 0.505954 0.490954
0.522222 0.507972 0.492972
0.524990 0.509990 0.494990
0.484660 0.482410 0.466660
0.487428 0.484428 0.468678
0.490197 0.486447 0.470697
0.492965 0.488465 0.472715
0.495733 0.490483 0.474733
0.498501 0.492501 0.476751
0.501270 0.494520 0.478770
0.504038 0.496538 0.480788
0.506806 0.498556 0.482806
0.509574 0.500574 0.484824
0.512343 0.502593 0.486843
0.515111 0.504611 0.488861
0.517879 0.506629 0.490879
0.520648 0.508647 0.492897
0.523416 0.510666 0.494916
0.526184 0.512684 0.496934
0.528952 0.514702 0.498952
0.488622 0.487122 0.470622
0.491391 0.489141 0.472641
0.494159 0.491159 0.474659
0.496927 0.493177 0.476677
0.499695 0.495195 0.478695
0.502464 0.497214 0.480714
0.505232 0.499232 0.482732
0.508000 0.501250 0.484750
0.510768 0.503269 0.486768
0.513537 0.505287 0.488787
0.516305 0.507305 0.490805
0.519073 0.509323 0.492823
0.521842 0.511342 0.494842
0.524610 0.513360 0.496860
0.527378 0.515378 0.498878
0.530146 0.517396 0.500896
0.532914 0.519415 0.502914
0.492585 0.491835 0.474585
0.495353 0.493853 0.476603
0.498121 0.495871 0.478621
0.500889 0.497889 0.480639
0.503658 0.499908 0.482658
0.506426 0.501926 0.484676
0.509194 0.503944 0.486694
0.511962 0.505962 0.488712
0.514731 0.507981 0.490731
0.517499 0.509999 0.492749
0.520267 0.512017 0.494767
0.523035 0.514035 0.496785
0.525804 0.516054 0.498804
0.528572 0.518072 0.500822
0.531340 0.520090 0.502840
0.534108 0.522108 0.504858
0.536877 0.524127 0.506877
0.496547 0.496547 0.478547
0.499315 0.498565 0.480565
0.502083 0.500583 0.482583
0.504852 0.502602 0.484602
0.507620 0.504620 0.486620
0.510388 0.506638 0.488638
0.513157 0.508656 0.490656
0.515925 0.510675 0.492675
0.518693 0.512693 0.494693
0.521461 0.514711 0.496711
0.524230 0.516730 0.498730
0.526998 0.518748 0.500748
0.529766 0.520766 0.502766
0.532534 0.522784 0.504784
0.535303 0.524803 0.506803
0.538071 0.526821 0.508821
0.540839 0.528839 0.510839
0.500509 0.501259 0.482509
0.503277 0.503277 0.484527
0.506046 0.505296 0.486546
0.508814 0.507314 0.488564
0.511582 0.509332 0.490582
0.514350 0.511350 0.492600
0.517119 0.513369 0.494619
0.519887 0.515387 0.496637
0.522655 0.517405 0.498655
0.525423 0.519423 0.500673
0.528192 0.521442 0.502692
0.530960 0.523460 0.504710
0.533728 0.525478 0.506728
0.536497 0.527497 0.508746
0.539265 0.529515 0.510765
0.542033 0.531533 0.512783
0.544801 0.533551 0.514801
0.504471 0.505971 0.486471
0.507240 0.507990 0.488490
0.510008 0.510008 0.490508
0.512776 0.512026 0.492526
0.515544 0.514045 0.494544
0.518313 0.516063 0.496563
0.521081 0.518081 0.498581
0.523849 0.520099 0.500599
0.526618 0.522118 0.502618
0.529386 0.524136 0.504636
0.532154 0.526154 0.506654
0.534922 0.528172 0.508672
0.537691 0.530191 0.510691
0.540459 0.532209 0.512709
0.543227 0.534227 0.514727
0.545995 0.536245 0.516745
0.548763 0.538264 0.518763
0.508434 0.510684 0.490434
0.511202 0.512702 0.492452
0.513970 0.514720 0.494470
0.516738 0.516738 0.496488
0.519507 0.518757 0.498507
0.522275 0.520775 0.500525
0.525043 0.522793 0.502543
0.527811 0.524811 0.504561
0.530580 0.526830 0.506580
0.533348 0.528848 0.508598
0.536116 0.530866 0.510616
0.538884 0.532884 0.512634
0.541653 0.534903 0.514653
0.544421 0.536921 0.516671
0.547189 0.538939 0.518689
0.549957 0.540957 0.520707
0.552726 0.542976 0.522726
0.512396 0.515396 0.494396
0.515164 0.517414 0.496414
0.517933 0.519432 0.498432
0.520701 0.521451 0.500451
0.523469 0.523469 0.502469
0.526237 0.525487 0.504487
0.529006 0.527505 0.506505
0.531774 0.529524 0.508524
0.534542 0.531542 0.510542
0.537310 0.533560 0.512560
0.540079 0.535579 0.514579
0.542847 0.537597 0.516597
0.545615 0.539615 0.518615
0.548383 0.541633 0.520633
0.551152 0.543652 0.522652
0.553920 0.545670 0.524670
0.556688 0.547688 0.526688
0.449769 0.440769 0.432520
0.452538 0.442788 0.434538
0.455306 0.444806 0.436556
0.458074 0.446824 0.438574
0.460843 0.448843 0.440592
0.463611 0.450861 0.442611
0.466379 0.452879 0.444629
0.469147 0.454897 0.446647
0.471916 0.456916 0.448666
0.474684 0.458934 0.450684
0.477452 0.460952 0.452702
0.480220 0.462970 0.454720
0.482988 0.464988 0.456738
0.485757 0.467007 0.458757
0.488525 0.469025 0.460775
0.491293 0.471043 0.462793
0.494062 0.473062 0.464811
0.453732 0.445482 0.436482
0.456500 0.447500 0.438500
0.459268 0.449518 0.440518
0.462036 0.451536 0.442536
0.464805 0.453555 0.444555
0.467573 0.455573 0.446573
0.470341 0.457591 0.448591
0.473110 0.459610 0.450609
0.475878 0.461628 0.452628
0.478646 0.463646 0.454646
0.481414 0.465664 0.456664
0.484183 0.467683 0.458683
0.486951 0.469701 0.460701
0.489719 0.471719 0.462719
0.492487 0.473737 0.464737
0.495255 0.475755 0.466755
0.498024 0.477774 0.468774
0.457694 0.450194 0.440444
0.460462 0.452212 0.442462
0.463231 0.454231 0.444481
0.465999 0.456249 0.446499
0.468767 0.458267 0.448517
0.471535 0.460285 0.450535
0.474304 0.462304 0.452554
0.477072 0.464322 0.454572
0.479840 0.466340 0.456590
0.482608 0.468358 0.458608
0.485377 0.470377 0.460627
0.488145 0.472395 0.462645
0.490913 0.474413 0.464663
0.493681 0.476431 0.466681
0.496450 0.478450 0.468699
0.499218 0.480468 0.470718
0.501986 0.482486 0.472736
0.461656 0.454906 0.444406
0.464424 0.456924 0.446424
0.467193 0.458943 0.448443
0.469961 0.460961 0.450461
0.472729 0.462979 0.452479
0.475498 0.464998 0.454497
0.478266 0.467016 0.456516
0.481034 0.469034 0.458534
0.483802 0.471052 0.460552
0.486571 0.473071 0.462570
0.489339 0.475089 0.464589
0.492107 0.477107 0.466607
0.494875 0.479125 0.468625
0.497643 0.481143 0.470643
0.500412 0.483162 0.472662
0.503180 0.485180 0.474680
0.505948 0.487198 0.476698
0.465619 0.459618 0.448369
0.468387 0.461637 0.450387
0.471155 0.463655 0.452405
0.473923 0.465673 0.454423
0.476691 0.467691 0.456441
0.479460 0.469710 0.458460
0.482228 0.471728 0.460478
0.484996 0.473746 0.462496
0.487764 0.475764 0.464514
0.490533 0.477783 0.466533
0.493301 0.479801 0.468551
0.496069 0.481819 0.470569
0.498837 0.483837 0.472587
0.501606 0.485856 0.474606
0.504374 0.487874 0.476624
0.507142 0.489892 0.478642
0.509911 0.491911 0.480661
0.469581 0.464331 0.452331
0.472349 0.466349 0.454349
0.475117 0.468367 0.456367
0.477886 0.470386 0.458386
0.480654 0.472404 0.460404
0.483422 0.474422 0.462422
0.486190 0.476440 0.464440
0.488958 0.478458 0.466458
0.491727 0.480477 0.468477
0.494495 0.482495 0.470495
0.497263 0.484513 0.472513
0.500031 0.486531 0.474531
0.502800 0.488550 0.476550
0.505568 0.490568 0.478568
0.508336 0.492586 0.480586
0.511104 0.494605 0.482604
0.513873 0.496623 0.484623
0.473543 0.469043 0.456293
0.476311 0.471061 0.458311
0.479080 0.473080 0.460330
0.481848 0.475098 0.462348
0.484616 0.477116 0.464366
0.487384 0.479134 0.466384
0.490152 0.481152 0.468402
0.492921 0.483171 0.470421
0.495689 0.485189 0.472439
0.498457 0.487207 0.474457
0.501225 0.489225 0.476475
0.503994 0.491244 0.478494
0.506762 0.493262 0.480512
0.509530 0.495280 0.482530
0.512298 0.497299 0.484548
0.515067 0.499317 0.486567
0.517835 0.501335 0.488585
0.477505 0.473755 0.460255
0.480273 0.475773 0.462273
0.483042 0.477792 0.464292
0.485810 0.479810 0.466310
0.488578 0.481828 0.468328
0.491347 0.483847 0.470347
0.494115 0.485865 0.472365
0.496883 0.487883 0.474383
0.499651 0.489901 0.476401
0.502419 0.491919 0.478419
0.505188 0.493938 0.480438
0.507956 0.495956 0.482456
0.510724 0.497974 0.484474
0.513493 0.499992 0.486492
0.516261 0.502011 0.488511
0.519029 0.504029 0.490529
0.521797 0.506047 0.492547
0.481468 0.478468 0.464218
0.484236 0.480486 0.466236
0.487004 0.482504 0.468254
0.489772 0.484522 0.470272
0.492540 0.486540 0.472290
0.495309 0.488559 0.474309
0.498077 0.490577 0.476327
0.500845 0.492595 0.478345
0.503613 0.494613 0.480363
0.506382 0.496632 0.482382
0.509150 0.498650 0.484400
0.511918 0.500668 0.486418
0.514687 0.502687 0.488436
0.517455 0.504705 0.490455
0.520223 0.506723 0.492473
0.522991 0.508741 0.494491
0.525760 0.510760 0.496510
0.485430 0.483180 0.468180
0.488198 0.485198 0.470198
0.490966 0.487216 0.472216
0.493735 0.489235 0.474235
0.496503 0.491253 0.476253
0.499271 0.493271 0.478271
0.502039 0.495289 0.480289
0.504807 0.497307 0.482307
0.507576 0.499326 0.484326
0.510344 0.501344 0.486344
0.513112 0.503362 0.488362
0.515880 0.505381 0.490380
0.518649 0.507399 0.492399
0.521417 0.509417 0.494417
0.524185 0.511435 0.496435
0.526953 0.513454 0.498453
0.529722 0.515472 0.500472
0.489392 0.487892 0.472142
0.492160 0.489910 0.474160
0.494929 0.491929 0.476179
0.497697 0.493947 0.478197
0.500465 0.495965 0.480215
0.503233 0.497983 0.482233
0.506001 0.500001 0.484251
0.508770 0.502020 0.486270
0.511538 0.504038 0.488288
0.514306 0.506056 0.490306
0.517074 0.508074 0.492324
0.519843 0.510093 0.494343
0.522611 0.512111 0.496361
0.525379 0.514129 0.498379
0.528148 0.516147 0.500398
0.530916 0.518166 0.502416
0.533684 0.520184 0.504434
0.493354 0.492604 0.476104
0.496123 0.494622 0.478123
0.498891 0.496641 0.480141
0.501659 0.498659 0.482159
0.504427 0.500677 0.484177
0.507196 0.502695 0.486196
0.509964 0.504714 0.488214
0.512732 0.506732 0.490232
0.515500 0.508750 0.492250
0.518268 0.510768 0.494268
0.521037 0.512787 0.496287
0.523805 0.514805 0.498305
0.526573 0.516823 0.500323
0.529342 0.518841 0.502341
0.532110 0.520860 0.504360
0.534878 0.522878 0.506378
0.537646 0.524896 0.508396
0.497317 0.497317 0.480067
0.500085 0.499335 0.482085
0.502853 0.501353 0.484103
0.505621 0.503371 0.486121
0.508389 0.505389 0.488139
0.511158 0.507408 0.490158
0.513926 0.509426 0.492176
0.516694 0.511444 0.494194
0.519463 0.513463 0.496212
0.522231 0.515481 0.498231
0.524999 0.517499 0.500249
0.527767 0.519517 0.502267
0.530536 0.521536 0.504286
0.533304 0.523554 0.506304
0.536072 0.525572 0.508322
0.538840 0.527590 0.510340
0.541609 0.529609 0.512359
0.501279 0.502029 0.484029
0.504047 0.504047 0.486047
0.506815 0.506065 0.488065
0.509584 0.508084 0.490084
0.512352 0.510102 0.492102
0.515120 0.512120 0.494120
0.517888 0.514138 0.496138
0.520656 0.516156 0.498156
0.523425 0.518175 0.500175
0.526193 0.520193 0.502193
0.528961 0.522211 0.504211
0.531729 0.524230 0.506229
0.534498 0.526248 0.508248
0.537266 0.528266 0.510266
0.540034 0.530284 0.512284
0.542802 0.532303 0.514302
0.545571 0.534321 0.516321
0.505241 0.506741 0.487991
0.508009 0.508759 0.490009
0.510778 0.510778 0.492028
0.513546 0.512796 0.494046
0.516314 0.514814 0.496064
0.519082 0.516832 0.498082
0.521850 0.518850 0.500100
0.524619 0.520869 0.502119
0.527387 0.522887 0.504137
0.530155 0.524905 0.506155
0.532923 0.526923 0.508174
0.535692 0.528942 0.510192
0.538460 0.530960 0.512210
0.541228 0.532978 0.514228
0.543997 0.534997 0.516247
0.546765 0.537015 0.518265
0.549533 0.539033 0.520283
0.509203 0.511453 0.491953
0.511972 0.513471 0.493972
0.514740 0.515490 0.495990
0.517508 0.517508 0.498008
0.520276 0.519526 0.500026
0.523045 0.521545 0.502045
0.525813 0.523563 0.504063
0.528581 0.525581 0.506081
0.531349 0.527599 0.508099
0.534117 0.529617 0.510118
0.536886 0.531636 0.512136
0.539654 0.533654 0.514154
0.542422 0.535672 0.516172
0.545191 0.537690 0.518190
0.547959 0.539709 0.520209
0.550727 0.541727 0.522227
0.553495 0.543745 0.524245
0.513166 0.516166 0.495916
0.515934 0.518184 0.497934
0.518702 0.520202 0.499952
0.521470 0.522220 0.501970
0.524238 0.524238 0.503988
0.527007 0.526257 0.506007
0.529775 0.528275 0.508025
0.532543 0.530293 0.510043
0.535312 0.532312 0.512062
0.538080 0.534330 0.514080
0.540848 0.536348 0.516098
0.543616 0.538366 0.518116
0.546385 0.540385 0.520135
0.549153 0.542403 0.522153
0.551921 0.544421 0.524171
0.554689 0.546439 0.526189
0.557458 0.548458 0.528208
0.450539 0.441539 0.434039
0.453307 0.443557 0.436057
0.456076 0.445576 0.438076
0.458844 0.447594 0.440094
0.461612 0.449612 0.442112
0.464380 0.451630 0.444130
0.467148 0.453649 0.446149
0.469917 0.455667 0.448167
0.472685 0.457685 0.450185
0.475453 0.459703 0.452203
0.478222 0.461722 0.454222
0.480990 0.463740 0.456240
0.483758 0.465758 0.458258
0.486526 0.467776 0.460276
0.489295 0.469795 0.462295
0.492063 0.471813 0.464313
0.494831 0.473831 0.466331
0.454501 0.446251 0.438001
0.457269 0.448269 0.440020
0.460038 0.450288 0.442038
0.462806 0.452306 0.444056
0.465574 0.454324 0.446074
0.468343 0.456343 0.448093
0.471111 0.458361 0.450111
0.473879 0.460379 0.452129
0.476647 0.462397 0.454147
0.479415 0.464415 0.456165
0.482184 0.466434 0.458184
0.484952 0.468452 0.460202
0.487720 0.470470 0.462220
0.490488 0.472488 0.464238
0.493257 0.474507 0.466257
0.496025 0.476525 0.468275
0.498793 0.478543 0.470293
0.458464 0.450964 0.441964
0.461232 0.452982 0.443982
0.464000 0.455000 0.446000
0.466768 0.457018 0.448018
0.469537 0.459037 0.450037
0.472305 0.461055 0.452055
0.475073 0.463073 0.454073
0.477841 0.465091 0.456091
0.480610 0.467110 0.458110
0.483378 0.469128 0.460128
0.486146 0.471146 0.462146
0.488914 0.473164 0.464164
0.491683 0.475183 0.466183
0.494451 0.477201 0.468201
0.497219 0.479219 0.470219
0.499987 0.481237 0.472237
0.502756 0.483256 0.474256
0.462426 0.455676 0.445926
0.465194 0.457694 0.447944
0.467962 0.459712 0.449962
0.470731 0.461731 0.451981
0.473499 0.463749 0.453999
0.476267 0.465767 0.456017
0.479035 0.467785 0.458035
0.481803 0.469803 0.460054
0.484572 0.471822 0.462072
0.487340 0.473840 0.464090
0.490108 0.475858 0.466108
0.492876 0.477876 0.468127
0.495645 0.479895 0.470145
0.498413 0.481913 0.472163
0.501181 0.483931 0.474181
0.503950 0.485950 0.476199
0.506718 0.487968 0.478218
0.466388 0.460388 0.449888
0.469156 0.462406 0.451906
0.471924 0.464424 0.453924
0.474693 0.466443 0.455943
0.477461 0.468461 0.457961
0.480229 0.470479 0.459979
0.482998 0.472498 0.461998
0.485766 0.474516 0.464016
0.488534 0.476534 0.466034
0.491302 0.478552 0.468052
0.494071 0.480571 0.470071
0.496839 0.482589 0.472089
0.499607 0.484607 0.474107
0.502375 0.486625 0.476125
0.505143 0.488644 0.478143
0.507912 0.490662 0.480162
0.510680 0.492680 0.482180
0.470350 0.465100 0.453850
0.473118 0.467118 0.455868
0.475887 0.469137 0.457887
0.478655 0.471155 0.459905
0.481423 0.473173 0.461923
0.484191 0.475191 0.463941
0.486960 0.477210 0.465960
0.489728 0.479228 0.467978
0.492496 0.481246 0.469996
0.495264 0.483264 0.472014
0.498033 0.485283 0.474033
0.500801 0.487301 0.476051
0.503569 0.489319 0.478069
0.506337 0.491337 0.480087
0.509106 0.493356 0.482106
0.511874 0.495374 0.484124
0.514642 0.497392 0.486142
0.474312 0.469812 0.457812
0.477081 0.471831 0.459831
0.479849 0.473849 0.461849
0.482617 0.475867 0.463867
0.485386 0.477885 0.465886
0.488154 0.479904 0.467904
0.490922 0.481922 0.469922
0.493690 0.483940 0.471940
0.496459 0.485959 0.473959
0.499227 0.487977 0.475977
0.501995 0.489995 0.477995
0.504763 0.492013 0.480013
0.507532 0.494032 0.482032
0.510300 0.496050 0.484050
0.513068 0.498068 0.486068
0.515836 0.500086 0.488086
0.518604 0.502104 0.490104
0.478275 0.474525 0.461775
0.481043 0.476543 0.463793
0.483811 0.478561 0.465811
0.486579 0.480579 0.467830
0.489348 0.482598 0.469848
0.492116 0.484616 0.471866
0.494884 0.486634 0.473884
0.497652 0.488652 0.475902
0.500421 0.490671 0.477921
0.503189 0.492689 0.479939
0.505957 0.494707 0.481957
0.508725 0.496725 0.483976
0.511494 0.498744 0.485994
0.514262 0.500762 0.488012
0.517030 0.502780 0.490030
0.519798 0.504798 0.492048
0.522567 0.506817 0.494067
0.482237 0.479237 0.465737
0.485005 0.481255 0.467755
0.487773 0.483273 0.469773
0.490542 0.485292 0.471792
0.493310 0.487310 0.473810
0.496078 0.489328 0.475828
0.498847 0.491347 0.477847
0.501615 0.493365 0.479865
0.504383 0.495383 0.481883
0.507151 0.497401 0.483901
0.509920 0.499420 0.485920
0.512688 0.501438 0.487938
0.515456 0.503456 0.489956
0.518224 0.505474 0.491974
0.520993 0.507493 0.493993
0.523761 0.509511 0.496011
0.526529 0.511529 0.498029
0.486199 0.483949 0.469699
0.488967 0.485967 0.471717
0.491736 0.487986 0.473736
0.494504 0.490004 0.475754
0.497272 0.492022 0.477772
0.500040 0.494040 0.479790
0.502809 0.496059 0.481809
0.505577 0.498077 0.483827
0.508345 0.500095 0.485845
0.511113 0.502113 0.487863
0.513882 0.504132 0.489882
0.516650 0.506150 0.491900
0.519418 0.508168 0.493918
0.522186 0.510186 0.495937
0.524955 0.512205 0.497955
0.527723 0.514223 0.499973
0.530491 0.516241 0.501991
0.490161 0.488661 0.473661
0.492930 0.490680 0.475680
0.495698 0.492698 0.477698
0.498466 0.494716 0.479716
0.501235 0.496735 0.481735
0.504003 0.498753 0.483753
0.506771 0.500771 0.485771
0.509539 0.502789 0.487789
0.512308 0.504807 0.489807
0.515076 0.506826 0.491826
0.517844 0.508844 0.493844
0.520612 0.510862 0.495862
0.523381 0.512881 0.497881
0.526149 0.514899 0.499899
0.528917 0.516917 0.501917
0.531685 0.518935 0.503935
0.534453 0.520953 0.505953
0.494124 0.493374 0.477624
0.496892 0.495392 0.479642
0.499660 0.497410 0.481660
0.502428 0.499428 0.483679
0.505197 0.501447 0.485697
0.507965 0.503465 0.487715
0.510733 0.505483 0.489733
0.513501 0.507501 0.491751
0.516270 0.509520 0.493770
0.519038 0.511538 0.495788
0.521806 0.513556 0.497806
0.524574 0.515574 0.499825
0.527343 0.517593 0.501843
0.530111 0.519611 0.503861
0.532879 0.521629 0.505879
0.535647 0.523648 0.507898
0.538416 0.525666 0.509916
0.498086 0.498086 0.481586
0.500854 0.500104 0.483604
0.503622 0.502123 0.485623
0.506391 0.504141 0.487641
0.509159 0.506159 0.489659
0.511927 0.508177 0.491677
0.514695 0.510196 0.493695
0.517464 0.512214 0.495714
0.520232 0.514232 0.497732
0.523000 0.516250 0.499750
0.525768 0.518269 0.501768
0.528537 0.520287 0.503787
0.531305 0.522305 0.505805
0.534073 0.524323 0.507823
0.536842 0.526342 0.509842
0.539610 0.528360 0.511860
0.542378 0.530378 0.513878
0.502048 0.502798 0.485548
0.504817 0.504817 0.487567
0.507585 0.506835 0.489585
0.510353 0.508853 0.491603
0.513121 0.510871 0.493621
0.515889 0.512889 0.495639
0.518658 0.514908 0.497658
0.521426 0.516926 0.499676
0.524194 0.518944 0.501694
0.526963 0.520962 0.503712
0.529731 0.522981 0.505731
0.532499 0.524999 0.507749
0.535267 0.527017 0.509767
0.538035 0.529035 0.511786
0.540804 0.531054 0.513804
0.543572 0.533072 0.515822
0.546340 0.535090 0.517840
0.506010 0.507510 0.489510
0.508779 0.509529 0.491529
0.511547 0.511547 0.493547
0.514315 0.513565 0.495565
0.517083 0.515583 0.497583
0.519852 0.517602 0.499602
0.522620 0.519620 0.501620
0.525388 0.521638 0.503638
0.528157 0.523656 0.505656
0.530925 0.525675 0.507675
0.533693 0.527693 0.509693
0.536461 0.529711 0.511711
0.539230 0.531730 0.513730
0.541998 0.533748 0.515748
0.544766 0.535766 0.517766
0.547534 0.537784 0.519784
0.550303 0.539802 0.521802
0.509973 0.512223 0.493473
0.512741 0.514241 0.495491
0.515509 0.516259 0.497509
0.518278 0.518278 0.499528
0.521046 0.520296 0.501546
0.523814 0.522314 0.503564
0.526582 0.524332 0.505582
0.529350 0.526350 0.507600
0.532119 0.528369 0.509619
0.534887 0.530387 0.511637
0.537655 0.532405 0.513655
0.540423 0.534423 0.515674
0.543192 0.536442 0.517692
0.545960 0.538460 0.519710
0.548728 0.540478 0.521728
0.551497 0.542497 0.523747
0.554265 0.544515 0.525765
0.513935 0.516935 0.497435
0.516703 0.518953 0.499453
0.519471 0.520971 0.501471
0.522240 0.522990 0.503490
0.525008 0.525008 0.505508
0.527776 0.527026 0.507526
0.530544 0.529045 0.509544
0.533313 0.531063 0.511563
0.536081 0.533081 0.513581
0.538849 0.535099 0.515599
0.541617 0.537118 0.517618
0.544386 0.539136 0.519636
0.547154 0.541154 0.521654
0.549922 0.543172 0.523672
0.552691 0.545191 0.525691
0.555459 0.547209 0.527709
0.558227 0.549227 0.529727
0.451309 0.442308 0.435558
0.454077 0.444327 0.437577
0.456845 0.446345 0.439595
0.459613 0.448363 0.441613
0.462382 0.450381 0.443632
0.465150 0.452400 0.445650
0.467918 0.454418 0.447668
0.470686 0.456436 0.449686
0.473455 0.458455 0.451705
0.476223 0.460473 0.453723
0.478991 0.462491 0.455741
0.481759 0.464509 0.457759
0.484528 0.466528 0.459778
0.487296 0.468546 0.461796
0.490064 0.470564 0.463814
0.492832 0.472582 0.465832
0.495600 0.474600 0.467851
0.455271 0.447021 0.439521
