shared/src/main/assets/luts/drama_corporate_neutral.cube
TITLE "DALUR Corporate Neutral"
LUT_3D_SIZE 9
DOMAIN_MIN 0.0 0.0 0.0
DOMAIN_MAX 1.0 1.0 1.0
0.483000 0.480000 0.477000
0.483094 0.482122 0.479122
0.483189 0.484244 0.481244
0.483283 0.486367 0.483367
0.483377 0.488489 0.485489
0.483471 0.490611 0.487611
0.483566 0.492733 0.489733
0.483660 0.494856 0.491856
0.483754 0.496978 0.493978
0.487166 0.482138 0.481166
0.487261 0.484261 0.483289
0.487355 0.486383 0.485411
0.487449 0.488505 0.487533
0.487544 0.490627 0.489655
0.487638 0.492750 0.491777
0.487732 0.494872 0.493900
0.487826 0.496994 0.496022
0.487921 0.499116 0.498144
0.491333 0.484277 0.485333
0.491427 0.486399 0.487455
0.491521 0.488521 0.489577
0.491616 0.490644 0.491699
0.491710 0.492766 0.493822
0.491804 0.494888 0.495944
0.491899 0.497010 0.498066
0.491993 0.499132 0.500188
0.492087 0.501255 0.502310
0.495499 0.486415 0.489499
0.495593 0.488538 0.491621
0.495688 0.490660 0.493744
0.495782 0.492782 0.495866
0.495876 0.494904 0.497988
0.495971 0.497026 0.500110
0.496065 0.499149 0.502232
0.496159 0.501271 0.504355
0.496253 0.503393 0.506477
0.499665 0.488554 0.493665
0.499760 0.490676 0.495788
0.499854 0.492798 0.497910
0.499948 0.494920 0.500032
0.500043 0.497043 0.502154
0.500137 0.499165 0.504277
0.500231 0.501287 0.506399
0.500326 0.503409 0.508521
0.500420 0.505531 0.510643
0.503832 0.490692 0.497832
0.503926 0.492814 0.499954
0.504020 0.494937 0.502076
0.504115 0.497059 0.504198
0.504209 0.499181 0.506321
0.504303 0.501303 0.508443
0.504398 0.503426 0.510565
0.504492 0.505548 0.512687
0.504586 0.507670 0.514810
0.507998 0.492831 0.501998
0.508092 0.494953 0.504120
0.508187 0.497075 0.506243
0.508281 0.499197 0.508365
0.508375 0.501320 0.510487
0.508470 0.503442 0.512609
0.508564 0.505564 0.514731
0.508658 0.507686 0.516854
0.508753 0.509808 0.518976
0.512165 0.494969 0.506165
0.512259 0.497091 0.508287
0.512353 0.499214 0.510409
0.512447 0.501336 0.512531
0.512542 0.503458 0.514653
0.512636 0.505580 0.516776
0.512730 0.507702 0.518898
0.512825 0.509825 0.521020
0.512919 0.511947 0.523142
0.516331 0.497108 0.510331
0.516425 0.499230 0.512453
0.516519 0.501352 0.514575
0.516614 0.503474 0.516698
0.516708 0.505596 0.518820
0.516802 0.507719 0.520942
0.516897 0.509841 0.523064
0.516991 0.511963 0.525186
0.517085 0.514085 0.527309
0.483809 0.480809 0.475781
0.483903 0.482931 0.477903
0.483998 0.485054 0.480026
0.484092 0.487176 0.482148
0.484186 0.489298 0.484270
0.484281 0.491420 0.486392
0.484375 0.493542 0.488515
0.484469 0.495665 0.490637
0.484564 0.497787 0.492759
0.487975 0.482948 0.479948
0.488070 0.485070 0.482070
0.488164 0.487192 0.484192
0.488258 0.489314 0.486314
0.488353 0.491436 0.488436
0.488447 0.493559 0.490559
0.488541 0.495681 0.492681
0.488636 0.497803 0.494803
0.488730 0.499925 0.496925
0.492142 0.485086 0.484114
0.492236 0.487208 0.486236
0.492330 0.489330 0.488358
0.492425 0.491453 0.490481
0.492519 0.493575 0.492603
0.492613 0.495697 0.494725
0.492708 0.497819 0.496847
0.492802 0.499942 0.498969
0.492896 0.502064 0.501092
0.496308 0.487224 0.488280
0.496403 0.489347 0.490403
0.496497 0.491469 0.492525
0.496591 0.493591 0.494647
0.496685 0.495713 0.496769
0.496780 0.497836 0.498891
0.496874 0.499958 0.501014
0.496968 0.502080 0.503136
0.497063 0.504202 0.505258
0.500475 0.489363 0.492447
0.500569 0.491485 0.494569
0.500663 0.493607 0.496691
0.500757 0.495730 0.498813
0.500852 0.497852 0.500936
0.500946 0.499974 0.503058
0.501040 0.502096 0.505180
0.501135 0.504218 0.507302
0.501229 0.506341 0.509424
0.504641 0.491501 0.496613
0.504735 0.493624 0.498735
0.504830 0.495746 0.500857
0.504924 0.497868 0.502980
0.505018 0.499990 0.505102
0.505112 0.502112 0.507224
0.505207 0.504235 0.509346
0.505301 0.506357 0.511469
0.505395 0.508479 0.513591
0.508807 0.493640 0.500779
0.508902 0.495762 0.502902
0.508996 0.497884 0.505024
0.509090 0.500006 0.507146
0.509184 0.502129 0.509268
0.509279 0.504251 0.511390
0.509373 0.506373 0.513513
0.509467 0.508495 0.515635
0.509562 0.510618 0.517757
0.512974 0.495778 0.504946
0.513068 0.497900 0.507068
0.513162 0.500023 0.509190
0.513257 0.502145 0.511312
0.513351 0.504267 0.513435
0.513445 0.506389 0.515557
0.513539 0.508512 0.517679
0.513634 0.510634 0.519801
0.513728 0.512756 0.521923
0.517140 0.497917 0.509112
0.517234 0.500039 0.511234
0.517329 0.502161 0.513357
0.517423 0.504283 0.515479
0.517517 0.506406 0.517601
0.517612 0.508528 0.519723
0.517706 0.510650 0.521845
0.517800 0.512772 0.523968
0.517894 0.514894 0.526090
0.484618 0.481618 0.474562
0.484713 0.483740 0.476685
0.484807 0.485863 0.478807
0.484901 0.487985 0.480929
0.484995 0.490107 0.483051
0.485090 0.492229 0.485174
0.485184 0.494352 0.487296
0.485278 0.496474 0.489418
0.485373 0.498596 0.491540
0.488785 0.483757 0.478729
0.488879 0.485879 0.480851
0.488973 0.488001 0.482973
0.489068 0.490123 0.485095
0.489162 0.492246 0.487218
0.489256 0.494368 0.489340
0.489350 0.496490 0.491462
0.489445 0.498612 0.493584
0.489539 0.500734 0.495707
0.492951 0.485895 0.482895
0.493045 0.488017 0.485017
0.493140 0.490140 0.487140
0.493234 0.492262 0.489262
0.493328 0.494384 0.491384
0.493422 0.496506 0.493506
0.493517 0.498628 0.495628
0.493611 0.500751 0.497751
0.493705 0.502873 0.499873
0.497117 0.488034 0.487062
0.497212 0.490156 0.489184
0.497306 0.492278 0.491306
0.497400 0.494400 0.493428
0.497495 0.496522 0.495550
0.497589 0.498645 0.497673
0.497683 0.500767 0.499795
0.497777 0.502889 0.501917
0.497872 0.505011 0.504039
0.501284 0.490172 0.491228
0.501378 0.492294 0.493350
0.501472 0.494416 0.495472
0.501567 0.496539 0.497595
0.501661 0.498661 0.499717
0.501755 0.500783 0.501839
0.501850 0.502905 0.503961
0.501944 0.505028 0.506083
0.502038 0.507150 0.508206
0.505450 0.492310 0.495394
0.505544 0.494433 0.497516
0.505639 0.496555 0.499639
0.505733 0.498677 0.501761
0.505827 0.500799 0.503883
0.505922 0.502922 0.506005
0.506016 0.505044 0.508128
0.506110 0.507166 0.510250
0.506204 0.509288 0.512372
0.509616 0.494449 0.499561
0.509711 0.496571 0.501683
0.509805 0.498693 0.503805
0.509899 0.500816 0.505927
0.509994 0.502938 0.508049
0.510088 0.505060 0.510172
0.510182 0.507182 0.512294
0.510277 0.509304 0.514416
0.510371 0.511427 0.516538
0.513783 0.496587 0.503727
0.513877 0.498710 0.505849
0.513971 0.500832 0.507971
0.514066 0.502954 0.510094
0.514160 0.505076 0.512216
0.514254 0.507198 0.514338
0.514349 0.509321 0.516460
0.514443 0.511443 0.518582
0.514537 0.513565 0.520705
0.517949 0.498726 0.507893
0.518043 0.500848 0.510016
0.518138 0.502970 0.512138
0.518232 0.505092 0.514260
0.518326 0.507215 0.516382
0.518421 0.509337 0.518504
0.518515 0.511459 0.520627
0.518609 0.513581 0.522749
0.518704 0.515704 0.524871
0.485427 0.482427 0.473344
0.485522 0.484550 0.475466
0.485616 0.486672 0.477588
0.485710 0.488794 0.479710
0.485805 0.490916 0.481833
0.485899 0.493039 0.483955
0.485993 0.495161 0.486077
0.486088 0.497283 0.488199
0.486182 0.499405 0.490321
0.489594 0.484566 0.477510
0.489688 0.486688 0.479632
0.489782 0.488810 0.481754
0.489877 0.490933 0.483877
0.489971 0.493055 0.485999
0.490065 0.495177 0.488121
0.490160 0.497299 0.490243
0.490254 0.499421 0.492366
0.490348 0.501544 0.494488
0.493760 0.486704 0.481676
0.493854 0.488827 0.483799
0.493949 0.490949 0.485921
0.494043 0.493071 0.488043
0.494137 0.495193 0.490165
0.494232 0.497315 0.492287
0.494326 0.499438 0.494410
0.494420 0.501560 0.496532
0.494515 0.503682 0.498654
0.497926 0.488843 0.485843
0.498021 0.490965 0.487965
0.498115 0.493087 0.490087
0.498209 0.495209 0.492209
0.498304 0.497332 0.494332
0.498398 0.499454 0.496454
0.498492 0.501576 0.498576
0.498587 0.503698 0.500698
0.498681 0.505820 0.502820
0.502093 0.490981 0.490009
0.502187 0.493103 0.492131
0.502281 0.495226 0.494254
0.502376 0.497348 0.496376
0.502470 0.499470 0.498498
0.502564 0.501592 0.500620
0.502659 0.503714 0.502742
0.502753 0.505837 0.504865
0.502847 0.507959 0.506987
0.506259 0.493120 0.494175
0.506354 0.495242 0.496298
0.506448 0.497364 0.498420
0.506542 0.499486 0.500542
0.506636 0.501608 0.502664
0.506731 0.503731 0.504787
0.506825 0.505853 0.506909
0.506919 0.507975 0.509031
0.507014 0.510097 0.511153
0.510426 0.495258 0.498342
0.510520 0.497380 0.500464
0.510614 0.499502 0.502586
0.510708 0.501625 0.504708
0.510803 0.503747 0.506831
0.510897 0.505869 0.508953
0.510991 0.507991 0.511075
0.511086 0.510114 0.513197
0.511180 0.512236 0.515320
0.514592 0.497397 0.502508
0.514686 0.499519 0.504630
0.514781 0.501641 0.506753
0.514875 0.503763 0.508875
0.514969 0.505885 0.510997
0.515063 0.508008 0.513119
0.515158 0.510130 0.515241
0.515252 0.512252 0.517364
0.515346 0.514374 0.519486
0.518758 0.499535 0.506675
0.518853 0.501657 0.508797
0.518947 0.503779 0.510919
0.519041 0.505902 0.513041
0.519135 0.508024 0.515163
0.519230 0.510146 0.517286
0.519324 0.512268 0.519408
0.519418 0.514390 0.521530
0.519513 0.516513 0.523652
0.486237 0.483237 0.472125
0.486331 0.485359 0.474247
0.486425 0.487481 0.476369
0.486519 0.489603 0.478492
0.486614 0.491725 0.480614
0.486708 0.493848 0.482736
0.486802 0.495970 0.484858
0.486897 0.498092 0.486980
0.486991 0.500214 0.489103
0.490403 0.485375 0.476291
0.490497 0.487497 0.478413
0.490592 0.489619 0.480536
0.490686 0.491742 0.482658
0.490780 0.493864 0.484780
0.490874 0.495986 0.486902
0.490969 0.498108 0.489025
0.491063 0.500231 0.491147
0.491157 0.502353 0.493269
0.494569 0.487513 0.480458
0.494664 0.489636 0.482580
0.494758 0.491758 0.484702
0.494852 0.493880 0.486824
0.494946 0.496002 0.488946
0.495041 0.498125 0.491069
0.495135 0.500247 0.493191
0.495229 0.502369 0.495313
0.495324 0.504491 0.497435
0.498736 0.489652 0.484624
0.498830 0.491774 0.486746
0.498924 0.493896 0.488868
0.499019 0.496019 0.490991
0.499113 0.498141 0.493113
0.499207 0.500263 0.495235
0.499301 0.502385 0.497357
0.499396 0.504507 0.499479
0.499490 0.506630 0.501602
0.502902 0.491790 0.488790
0.502996 0.493913 0.490913
0.503091 0.496035 0.493035
0.503185 0.498157 0.495157
0.503279 0.500279 0.497279
0.503373 0.502401 0.499401
0.503468 0.504524 0.501524
0.503562 0.506646 0.503646
0.503656 0.508768 0.505768
0.507068 0.493929 0.492957
0.507163 0.496051 0.495079
0.507257 0.498173 0.497201
0.507351 0.500295 0.499323
0.507446 0.502418 0.501446
0.507540 0.504540 0.503568
0.507634 0.506662 0.505690
0.507728 0.508784 0.507812
0.507823 0.510906 0.509934
0.511235 0.496067 0.497123
0.511329 0.498189 0.499245
0.511423 0.500312 0.501367
0.511518 0.502434 0.503490
0.511612 0.504556 0.505612
0.511706 0.506678 0.507734
0.511801 0.508801 0.509856
0.511895 0.510923 0.511979
0.511989 0.513045 0.514101
0.515401 0.498206 0.501289
0.515495 0.500328 0.503412
0.515590 0.502450 0.505534
0.515684 0.504572 0.507656
0.515778 0.506695 0.509778
0.515873 0.508817 0.511900
0.515967 0.510939 0.514023
0.516061 0.513061 0.516145
0.516155 0.515183 0.518267
0.519567 0.500344 0.505456
0.519662 0.502466 0.507578
0.519756 0.504589 0.509700
0.519850 0.506711 0.511822
0.519945 0.508833 0.513945
0.520039 0.510955 0.516067
0.520133 0.513077 0.518189
0.520228 0.515200 0.520311
0.520322 0.517322 0.522433
0.487046 0.484046 0.470906
0.487140 0.486168 0.473028
0.487234 0.488290 0.475151
0.487329 0.490412 0.477273
0.487423 0.492535 0.479395
0.487517 0.494657 0.481517
0.487611 0.496779 0.483639
0.487706 0.498901 0.485762
0.487800 0.501023 0.487884
0.491212 0.486184 0.475072
0.491306 0.488306 0.477195
0.491401 0.490429 0.479317
0.491495 0.492551 0.481439
0.491589 0.494673 0.483561
0.491684 0.496795 0.485684
0.491778 0.498917 0.487806
0.491872 0.501040 0.489928
0.491966 0.503162 0.492050
0.495378 0.488323 0.479239
0.495473 0.490445 0.481361
0.495567 0.492567 0.483483
0.495661 0.494689 0.485605
0.495756 0.496811 0.487728
0.495850 0.498934 0.489850
0.495944 0.501056 0.491972
0.496039 0.503178 0.494094
0.496133 0.505300 0.496217
0.499545 0.490461 0.483405
0.499639 0.492583 0.485527
0.499733 0.494705 0.487650
0.499828 0.496828 0.489772
0.499922 0.498950 0.491894
0.500016 0.501072 0.494016
0.500111 0.503194 0.496138
0.500205 0.505317 0.498261
0.500299 0.507439 0.500383
0.503711 0.492599 0.487572
0.503805 0.494722 0.489694
0.503900 0.496844 0.491816
0.503994 0.498966 0.493938
0.504088 0.501088 0.496060
0.504183 0.503211 0.498183
0.504277 0.505333 0.500305
0.504371 0.507455 0.502427
0.504466 0.509577 0.504549
0.507877 0.494738 0.491738
0.507972 0.496860 0.493860
0.508066 0.498982 0.495982
0.508160 0.501105 0.498105
0.508255 0.503227 0.500227
0.508349 0.505349 0.502349
0.508443 0.507471 0.504471
0.508538 0.509593 0.506593
0.508632 0.511716 0.508716
0.512044 0.496876 0.495904
0.512138 0.498999 0.498026
0.512232 0.501121 0.500149
0.512327 0.503243 0.502271
0.512421 0.505365 0.504393
0.512515 0.507487 0.506515
0.512610 0.509610 0.508638
0.512704 0.511732 0.510760
0.512798 0.513854 0.512882
0.516210 0.499015 0.500071
0.516305 0.501137 0.502193
0.516399 0.503259 0.504315
0.516493 0.505381 0.506437
0.516587 0.507504 0.508559
0.516682 0.509626 0.510682
0.516776 0.511748 0.512804
0.516870 0.513870 0.514926
0.516965 0.515993 0.517048
0.520377 0.501153 0.504237
0.520471 0.503275 0.506359
0.520565 0.505398 0.508481
0.520659 0.507520 0.510604
0.520754 0.509642 0.512726
0.520848 0.511764 0.514848
0.520942 0.513887 0.516970
0.521037 0.516009 0.519092
0.521131 0.518131 0.521215
0.487855 0.484855 0.469687
0.487949 0.486977 0.471810
0.488043 0.489099 0.473932
0.488138 0.491221 0.476054
0.488232 0.493344 0.478176
0.488326 0.495466 0.480298
0.488421 0.497588 0.482421
0.488515 0.499710 0.484543
0.488609 0.501833 0.486665
0.492021 0.486993 0.473854
0.492115 0.489115 0.475976
0.492210 0.491238 0.478098
0.492304 0.493360 0.480220
0.492398 0.495482 0.482343
0.492493 0.497604 0.484465
0.492587 0.499727 0.486587
0.492681 0.501849 0.488709
0.492776 0.503971 0.490831
0.496188 0.489132 0.478020
0.496282 0.491254 0.480142
0.496376 0.493376 0.482264
0.496470 0.495498 0.484387
0.496565 0.497621 0.486509
0.496659 0.499743 0.488631
0.496753 0.501865 0.490753
0.496848 0.503987 0.492876
0.496942 0.506109 0.494998
0.500354 0.491270 0.482186
0.500448 0.493392 0.484309
0.500543 0.495515 0.486431
0.500637 0.497637 0.488553
0.500731 0.499759 0.490675
0.500825 0.501881 0.492797
0.500920 0.504003 0.494920
0.501014 0.506126 0.497042
0.501108 0.508248 0.499164
0.504520 0.493409 0.486353
0.504615 0.495531 0.488475
0.504709 0.497653 0.490597
0.504803 0.499775 0.492719
0.504897 0.501897 0.494842
0.504992 0.504020 0.496964
0.505086 0.506142 0.499086
0.505180 0.508264 0.501208
0.505275 0.510386 0.503330
0.508687 0.495547 0.490519
0.508781 0.497669 0.492641
0.508875 0.499791 0.494764
0.508970 0.501914 0.496886
0.509064 0.504036 0.499008
0.509158 0.506158 0.501130
0.509252 0.508280 0.503252
0.509347 0.510403 0.505375
0.509441 0.512525 0.507497
0.512853 0.497685 0.494685
0.512947 0.499808 0.496808
0.513042 0.501930 0.498930
0.513136 0.504052 0.501052
0.513230 0.506174 0.503174
0.513324 0.508297 0.505297
0.513419 0.510419 0.507419
0.513513 0.512541 0.509541
0.513607 0.514663 0.511663
0.517019 0.499824 0.498852
0.517114 0.501946 0.500974
0.517208 0.504068 0.503096
0.517302 0.506191 0.505218
0.517397 0.508313 0.507341
0.517491 0.510435 0.509463
0.517585 0.512557 0.511585
0.517679 0.514679 0.513707
0.517774 0.516802 0.515830
0.521186 0.501962 0.503018
0.521280 0.504085 0.505140
0.521374 0.506207 0.507263
0.521469 0.508329 0.509385
0.521563 0.510451 0.511507
0.521657 0.512573 0.513629
0.521752 0.514696 0.515752
0.521846 0.516818 0.517874
0.521940 0.518940 0.519996
0.488664 0.485664 0.468469
0.488758 0.487786 0.470591
0.488853 0.489908 0.472713
0.488947 0.492031 0.474835
0.489041 0.494153 0.476957
0.489135 0.496275 0.479080
0.489230 0.498397 0.481202
0.489324 0.500519 0.483324
0.489418 0.502642 0.485446
0.492830 0.487802 0.472635
0.492925 0.489925 0.474757
0.493019 0.492047 0.476879
0.493113 0.494169 0.479002
0.493208 0.496291 0.481124
0.493302 0.498414 0.483246
0.493396 0.500536 0.485368
0.493490 0.502658 0.487490
0.493585 0.504780 0.489613
0.496997 0.489941 0.476801
0.497091 0.492063 0.478923
0.497185 0.494185 0.481046
0.497280 0.496308 0.483168
0.497374 0.498430 0.485290
0.497468 0.500552 0.487412
0.497562 0.502674 0.489535
0.497657 0.504796 0.491657
0.497751 0.506919 0.493779
0.501163 0.492079 0.480968
0.501257 0.494202 0.483090
0.501352 0.496324 0.485212
0.501446 0.498446 0.487334
0.501540 0.500568 0.489456
0.501635 0.502690 0.491579
0.501729 0.504813 0.493701
0.501823 0.506935 0.495823
0.501917 0.509057 0.497945
0.505329 0.494218 0.485134
0.505424 0.496340 0.487256
0.505518 0.498462 0.489378
0.505612 0.500584 0.491501
0.505707 0.502707 0.493623
0.505801 0.504829 0.495745
0.505895 0.506951 0.497867
0.505990 0.509073 0.499990
0.506084 0.511195 0.502112
0.509496 0.496356 0.489300
0.509590 0.498478 0.491423
0.509684 0.500601 0.493545
0.509779 0.502723 0.495667
0.509873 0.504845 0.497789
0.509967 0.506967 0.499911
0.510062 0.509089 0.502034
0.510156 0.511212 0.504156
0.510250 0.513334 0.506278
0.513662 0.498495 0.493467
0.513756 0.500617 0.495589
0.513851 0.502739 0.497711
0.513945 0.504861 0.499833
0.514039 0.506983 0.501956
0.514134 0.509106 0.504078
0.514228 0.511228 0.506200
0.514322 0.513350 0.508322
0.514417 0.515472 0.510444
0.517828 0.500633 0.497633
0.517923 0.502755 0.499755
0.518017 0.504877 0.501877
0.518111 0.507000 0.504000
0.518206 0.509122 0.506122
0.518300 0.511244 0.508244
0.518394 0.513366 0.510366
0.518489 0.515489 0.512489
0.518583 0.517611 0.514611
0.521995 0.502772 0.501799
0.522089 0.504894 0.503922
0.522183 0.507016 0.506044
0.522278 0.509138 0.508166
0.522372 0.511260 0.510288
0.522466 0.513383 0.512411
0.522561 0.515505 0.514533
0.522655 0.517627 0.516655
0.522749 0.519749 0.518777
0.489473 0.486473 0.467250
0.489567 0.488595 0.469372
0.489662 0.490718 0.471494
0.489756 0.492840 0.473616
0.489850 0.494962 0.475739
0.489945 0.497084 0.477861
0.490039 0.499206 0.479983
0.490133 0.501329 0.482105
0.490228 0.503451 0.484228
0.493639 0.488612 0.471416
0.493734 0.490734 0.473538
0.493828 0.492856 0.475661
0.493922 0.494978 0.477783
0.494017 0.497100 0.479905
0.494111 0.499223 0.482027
0.494205 0.501345 0.484149
0.494300 0.503467 0.486272
0.494394 0.505589 0.488394
0.497806 0.490750 0.475582
0.497900 0.492872 0.477705
0.497994 0.494994 0.479827
0.498089 0.497117 0.481949
0.498183 0.499239 0.484071
0.498277 0.501361 0.486194
0.498372 0.503483 0.488316
0.498466 0.505606 0.490438
0.498560 0.507728 0.492560
0.501972 0.492888 0.479749
0.502066 0.495011 0.481871
0.502161 0.497133 0.483993
0.502255 0.499255 0.486115
0.502349 0.501377 0.488238
0.502444 0.503500 0.490360
0.502538 0.505622 0.492482
0.502632 0.507744 0.494604
0.502727 0.509866 0.496727
0.506139 0.495027 0.483915
0.506233 0.497149 0.486037
0.506327 0.499271 0.488160
0.506421 0.501394 0.490282
0.506516 0.503516 0.492404
0.506610 0.505638 0.494526
0.506704 0.507760 0.496649
0.506799 0.509882 0.498771
0.506893 0.512005 0.500893
0.510305 0.497165 0.488082
0.510399 0.499288 0.490204
0.510494 0.501410 0.492326
0.510588 0.503532 0.494448
0.510682 0.505654 0.496570
0.510776 0.507776 0.498693
0.510871 0.509899 0.500815
0.510965 0.512021 0.502937
0.511059 0.514143 0.505059
0.514471 0.499304 0.492248
0.514566 0.501426 0.494370
0.514660 0.503548 0.496492
0.514754 0.505670 0.498615
0.514848 0.507793 0.500737
0.514943 0.509915 0.502859
0.515037 0.512037 0.504981
0.515131 0.514159 0.507103
0.515226 0.516281 0.509226
0.518638 0.501442 0.496414
0.518732 0.503564 0.498536
0.518826 0.505687 0.500659
0.518921 0.507809 0.502781
0.519015 0.509931 0.504903
0.519109 0.512053 0.507025
0.519203 0.514176 0.509148
0.519298 0.516298 0.511270
0.519392 0.518420 0.513392
0.522804 0.503581 0.500581
0.522898 0.505703 0.502703
0.522993 0.507825 0.504825
0.523087 0.509947 0.506947
0.523181 0.512070 0.509070
0.523275 0.514192 0.511192
0.523370 0.516314 0.513314
0.523464 0.518436 0.515436
0.523558 0.520558 0.517558
