shared/src/main/assets/luts/drama_royal_gold.cube
TITLE "DALUR Royal Gold"
LUT_3D_SIZE 9
DOMAIN_MIN 0.0 0.0 0.0
DOMAIN_MAX 1.0 1.0 1.0
0.470800 0.460000 0.449200
0.474258 0.462941 0.452141
0.477717 0.465881 0.455081
0.481175 0.468822 0.458022
0.484633 0.471763 0.460963
0.488092 0.474703 0.463903
0.491550 0.477644 0.466844
0.495008 0.480585 0.469785
0.498466 0.483525 0.472725
0.476573 0.466291 0.454973
0.480031 0.469231 0.457914
0.483490 0.472172 0.460854
0.486948 0.475113 0.463795
0.490406 0.478053 0.466736
0.493865 0.480994 0.469677
0.497323 0.483935 0.472617
0.500781 0.486875 0.475558
0.504240 0.489816 0.478499
0.482346 0.472582 0.460746
0.485805 0.475522 0.463687
0.489263 0.478463 0.466628
0.492721 0.481404 0.469568
0.496180 0.484344 0.472509
0.499638 0.487285 0.475450
0.503096 0.490226 0.478390
0.506554 0.493166 0.481331
0.510013 0.496107 0.484272
0.488119 0.478872 0.466519
0.491578 0.481813 0.469460
0.495036 0.484754 0.472401
0.498494 0.487694 0.475341
0.501953 0.490635 0.478282
0.505411 0.493576 0.481223
0.508869 0.496516 0.484163
0.512328 0.499457 0.487104
0.515786 0.502398 0.490045
0.493893 0.485163 0.472293
0.497351 0.488104 0.475233
0.500809 0.491044 0.478174
0.504268 0.493985 0.481115
0.507726 0.496926 0.484055
0.511184 0.499866 0.486996
0.514642 0.502807 0.489937
0.518101 0.505748 0.492877
0.521559 0.508689 0.495818
0.499666 0.491454 0.478066
0.503124 0.494395 0.481006
0.506582 0.497335 0.483947
0.510041 0.500276 0.486888
0.513499 0.503217 0.489828
0.516957 0.506157 0.492769
0.520416 0.509098 0.495710
0.523874 0.512039 0.498650
0.527332 0.514979 0.501591
0.505439 0.497745 0.483839
0.508897 0.500685 0.486780
0.512356 0.503626 0.489720
0.515814 0.506567 0.492661
0.519272 0.509507 0.495602
0.522730 0.512448 0.498542
0.526189 0.515389 0.501483
0.529647 0.518329 0.504424
0.533105 0.521270 0.507364
0.511212 0.504036 0.489612
0.514670 0.506976 0.492553
0.518129 0.509917 0.495493
0.521587 0.512858 0.498434
0.525045 0.515798 0.501375
0.528504 0.518739 0.504315
0.531962 0.521680 0.507256
0.535420 0.524620 0.510197
0.538879 0.527561 0.513137
0.516985 0.510326 0.495385
0.520444 0.513267 0.498326
0.523902 0.516208 0.501267
0.527360 0.519148 0.504207
0.530818 0.522089 0.507148
0.534277 0.525030 0.510089
0.537735 0.527970 0.513029
0.541193 0.530911 0.515970
0.544652 0.533852 0.518911
0.471921 0.461121 0.450839
0.475379 0.464062 0.453779
0.478838 0.467003 0.456720
0.482296 0.469943 0.459661
0.485754 0.472884 0.462602
0.489213 0.475825 0.465542
0.492671 0.478765 0.468483
0.496129 0.481706 0.471424
0.499588 0.484647 0.474364
0.477694 0.467412 0.456612
0.481153 0.470353 0.459553
0.484611 0.473293 0.462493
0.488069 0.476234 0.465434
0.491528 0.479175 0.468375
0.494986 0.482115 0.471315
0.498444 0.485056 0.474256
0.501902 0.487997 0.477197
0.505361 0.490937 0.480137
0.483468 0.473703 0.462385
0.486926 0.476643 0.465326
0.490384 0.479584 0.468266
0.493842 0.482525 0.471207
0.497301 0.485465 0.474148
0.500759 0.488406 0.477088
0.504217 0.491347 0.480029
0.507676 0.494287 0.482970
0.511134 0.497228 0.485910
0.489241 0.479994 0.468158
0.492699 0.482934 0.471099
0.496157 0.485875 0.474040
0.499616 0.488816 0.476980
0.503074 0.491756 0.479921
0.506532 0.494697 0.482862
0.509990 0.497638 0.485802
0.513449 0.500578 0.488743
0.516907 0.503519 0.491684
0.495014 0.486284 0.473931
0.498472 0.489225 0.476872
0.501930 0.492166 0.479813
0.505389 0.495106 0.482753
0.508847 0.498047 0.485694
0.512305 0.500988 0.488635
0.515764 0.503928 0.491575
0.519222 0.506869 0.494516
0.522680 0.509810 0.497457
0.500787 0.492575 0.479705
0.504245 0.495516 0.482645
0.507704 0.498456 0.485586
0.511162 0.501397 0.488527
0.514620 0.504338 0.491467
0.518078 0.507278 0.494408
0.521537 0.510219 0.497349
0.524995 0.513160 0.500289
0.528453 0.516100 0.503230
0.506560 0.498866 0.485478
0.510018 0.501807 0.488418
0.513477 0.504747 0.491359
0.516935 0.507688 0.494300
0.520393 0.510629 0.497240
0.523852 0.513569 0.500181
0.527310 0.516510 0.503122
0.530768 0.519451 0.506062
0.534227 0.522391 0.509003
0.512333 0.505157 0.491251
0.515792 0.508097 0.494192
0.519250 0.511038 0.497132
0.522708 0.513979 0.500073
0.526166 0.516919 0.503014
0.529625 0.519860 0.505954
0.533083 0.522801 0.508895
0.536541 0.525741 0.511836
0.540000 0.528682 0.514776
0.518106 0.511447 0.497024
0.521565 0.514388 0.499965
0.525023 0.517329 0.502905
0.528481 0.520270 0.505846
0.531940 0.523210 0.508787
0.535398 0.526151 0.511727
0.538856 0.529092 0.514668
0.542315 0.532032 0.517609
0.545773 0.534973 0.520549
0.473042 0.462242 0.452478
0.476501 0.465183 0.455418
0.479959 0.468124 0.458359
0.483417 0.471064 0.461300
0.486876 0.474005 0.464240
0.490334 0.476946 0.467181
0.493792 0.479886 0.470122
0.497251 0.482827 0.473062
0.500709 0.485768 0.476003
0.478816 0.468533 0.458251
0.482274 0.471474 0.461191
0.485732 0.474415 0.464132
0.489190 0.477355 0.467073
0.492649 0.480296 0.470013
0.496107 0.483237 0.472954
0.499565 0.486177 0.475895
0.503024 0.489118 0.478835
0.506482 0.492059 0.481776
0.484589 0.474824 0.464024
0.488047 0.477765 0.466965
0.491505 0.480705 0.469905
0.494964 0.483646 0.472846
0.498422 0.486587 0.475787
0.501880 0.489527 0.478727
0.505339 0.492468 0.481668
0.508797 0.495409 0.484609
0.512255 0.498349 0.487549
0.490362 0.481115 0.469797
0.493820 0.484055 0.472738
0.497278 0.486996 0.475678
0.500737 0.489937 0.478619
0.504195 0.492877 0.481560
0.507653 0.495818 0.484500
0.511112 0.498759 0.487441
0.514570 0.501699 0.490382
0.518028 0.504640 0.493322
0.496135 0.487406 0.475570
0.499593 0.490346 0.478511
0.503052 0.493287 0.481452
0.506510 0.496228 0.484392
0.509968 0.499168 0.487333
0.513427 0.502109 0.490274
0.516885 0.505050 0.493214
0.520343 0.507990 0.496155
0.523801 0.510931 0.499096
0.501908 0.493696 0.481343
0.505366 0.496637 0.484284
0.508825 0.499578 0.487225
0.512283 0.502518 0.490165
0.515741 0.505459 0.493106
0.519200 0.508400 0.496047
0.522658 0.511340 0.498987
0.526116 0.514281 0.501928
0.529575 0.517222 0.504869
0.507681 0.499987 0.487117
0.511140 0.502928 0.490057
0.514598 0.505868 0.492998
0.518056 0.508809 0.495939
0.521515 0.511750 0.498879
0.524973 0.514690 0.501820
0.528431 0.517631 0.504761
0.531889 0.520572 0.507701
0.535348 0.523512 0.510642
0.513454 0.506278 0.492890
0.516913 0.509219 0.495830
0.520371 0.512159 0.498771
0.523829 0.515100 0.501712
0.527288 0.518041 0.504652
0.530746 0.520981 0.507593
0.534204 0.523922 0.510534
0.537663 0.526863 0.513474
0.541121 0.529803 0.516415
0.519228 0.512569 0.498663
0.522686 0.515509 0.501604
0.526144 0.518450 0.504544
0.529603 0.521391 0.507485
0.533061 0.524331 0.510426
0.536519 0.527272 0.513366
0.539977 0.530213 0.516307
0.543436 0.533153 0.519248
0.546894 0.536094 0.522188
0.474164 0.463364 0.454116
0.477622 0.466304 0.457057
0.481080 0.469245 0.459998
0.484538 0.472186 0.462938
0.487997 0.475126 0.465879
0.491455 0.478067 0.468820
0.494913 0.481008 0.471760
0.498372 0.483948 0.474701
0.501830 0.486889 0.477642
0.479937 0.469654 0.459890
0.483395 0.472595 0.462830
0.486853 0.475536 0.465771
0.490312 0.478476 0.468712
0.493770 0.481417 0.471652
0.497228 0.484358 0.474593
0.500687 0.487298 0.477534
0.504145 0.490239 0.480474
0.507603 0.493180 0.483415
0.485710 0.475945 0.465663
0.489168 0.478886 0.468603
0.492626 0.481826 0.471544
0.496085 0.484767 0.474485
0.499543 0.487708 0.477425
0.503001 0.490649 0.480366
0.506460 0.493589 0.483307
0.509918 0.496530 0.486247
0.513376 0.499471 0.489188
0.491483 0.482236 0.471436
0.494941 0.485177 0.474377
0.498400 0.488117 0.477317
0.501858 0.491058 0.480258
0.505316 0.493999 0.483199
0.508775 0.496939 0.486139
0.512233 0.499880 0.489080
0.515691 0.502821 0.492021
0.519149 0.505761 0.494961
0.497256 0.488527 0.477209
0.500714 0.491467 0.480150
0.504173 0.494408 0.483090
0.507631 0.497349 0.486031
0.511089 0.500289 0.488972
0.514548 0.503230 0.491912
0.518006 0.506171 0.494853
0.521464 0.509111 0.497794
0.524923 0.512052 0.500734
0.503029 0.494818 0.482982
0.506488 0.497758 0.485923
0.509946 0.500699 0.488864
0.513404 0.503640 0.491804
0.516863 0.506580 0.494745
0.520321 0.509521 0.497686
0.523779 0.512462 0.500626
0.527237 0.515402 0.503567
0.530696 0.518343 0.506508
0.508803 0.501108 0.488755
0.512261 0.504049 0.491696
0.515719 0.506990 0.494637
0.519177 0.509930 0.497577
0.522636 0.512871 0.500518
0.526094 0.515812 0.503459
0.529552 0.518752 0.506399
0.533011 0.521693 0.509340
0.536469 0.524634 0.512281
0.514576 0.507399 0.494529
0.518034 0.510340 0.497469
0.521492 0.513280 0.500410
0.524951 0.516221 0.503351
0.528409 0.519162 0.506291
0.531867 0.522102 0.509232
0.535325 0.525043 0.512173
0.538784 0.527984 0.515113
0.542242 0.530924 0.518054
0.520349 0.513690 0.500302
0.523807 0.516631 0.503242
0.527265 0.519571 0.506183
0.530724 0.522512 0.509124
0.534182 0.525453 0.512064
0.537640 0.528393 0.515005
0.541099 0.531334 0.517946
0.544557 0.534275 0.520886
0.548015 0.537215 0.523827
0.475285 0.464485 0.455755
0.478743 0.467425 0.458696
0.482201 0.470366 0.461637
0.485660 0.473307 0.464577
0.489118 0.476247 0.467518
0.492576 0.479188 0.470459
0.496035 0.482129 0.473399
0.499493 0.485069 0.476340
0.502951 0.488010 0.479281
0.481058 0.470776 0.461528
0.484516 0.473716 0.464469
0.487975 0.476657 0.467410
0.491433 0.479598 0.470350
0.494891 0.482538 0.473291
0.498349 0.485479 0.476232
0.501808 0.488420 0.479172
0.505266 0.491360 0.482113
0.508724 0.494301 0.485054
0.486831 0.477066 0.467302
0.490289 0.480007 0.470242
0.493748 0.482948 0.473183
0.497206 0.485888 0.476124
0.500664 0.488829 0.479064
0.504123 0.491770 0.482005
0.507581 0.494710 0.484946
0.511039 0.497651 0.487886
0.514497 0.500592 0.490827
0.492604 0.483357 0.473075
0.496063 0.486298 0.476015
0.499521 0.489238 0.478956
0.502979 0.492179 0.481897
0.506437 0.495120 0.484837
0.509896 0.498060 0.487778
0.513354 0.501001 0.490719
0.516812 0.503942 0.493659
0.520271 0.506882 0.496600
0.498377 0.489648 0.478848
0.501836 0.492589 0.481789
0.505294 0.495529 0.484729
0.508752 0.498470 0.487670
0.512211 0.501411 0.490611
0.515669 0.504351 0.493551
0.519127 0.507292 0.496492
0.522586 0.510233 0.499433
0.526044 0.513173 0.502373
0.504151 0.495939 0.484621
0.507609 0.498879 0.487562
0.511067 0.501820 0.490502
0.514525 0.504761 0.493443
0.517984 0.507701 0.496384
0.521442 0.510642 0.499324
0.524900 0.513583 0.502265
0.528359 0.516523 0.505206
0.531817 0.519464 0.508146
0.509924 0.502229 0.490394
0.513382 0.505170 0.493335
0.516840 0.508111 0.496276
0.520299 0.511052 0.499216
0.523757 0.513992 0.502157
0.527215 0.516933 0.505098
0.530674 0.519874 0.508038
0.534132 0.522814 0.510979
0.537590 0.525755 0.513920
0.515697 0.508520 0.496167
0.519155 0.511461 0.499108
0.522613 0.514402 0.502049
0.526072 0.517342 0.504989
0.529530 0.520283 0.507930
0.532988 0.523224 0.510871
0.536447 0.526164 0.513811
0.539905 0.529105 0.516752
0.543363 0.532046 0.519693
0.521470 0.514811 0.501941
0.524928 0.517752 0.504881
0.528387 0.520692 0.507822
0.531845 0.523633 0.510763
0.535303 0.526574 0.513703
0.538762 0.529514 0.516644
0.542220 0.532455 0.519585
0.545678 0.535396 0.522525
0.549136 0.538336 0.525466
0.476406 0.465606 0.457394
0.479864 0.468547 0.460335
0.483323 0.471487 0.463275
0.486781 0.474428 0.466216
0.490239 0.477369 0.469157
0.493697 0.480309 0.472097
0.497156 0.483250 0.475038
0.500614 0.486191 0.477979
0.504072 0.489131 0.480919
0.482179 0.471897 0.463167
0.485637 0.474837 0.466108
0.489096 0.477778 0.469049
0.492554 0.480719 0.471989
0.496012 0.483659 0.474930
0.499471 0.486600 0.477871
0.502929 0.489541 0.480811
0.506387 0.492481 0.483752
0.509846 0.495422 0.486693
0.487952 0.478188 0.468940
0.491411 0.481128 0.471881
0.494869 0.484069 0.474822
0.498327 0.487010 0.477762
0.501785 0.489950 0.480703
0.505244 0.492891 0.483644
0.508702 0.495832 0.486584
0.512160 0.498772 0.489525
0.515619 0.501713 0.492466
0.493725 0.484478 0.474714
0.497184 0.487419 0.477654
0.500642 0.490360 0.480595
0.504100 0.493300 0.483536
0.507559 0.496241 0.486476
0.511017 0.499182 0.489417
0.514475 0.502122 0.492358
0.517934 0.505063 0.495298
0.521392 0.508004 0.498239
0.499499 0.490769 0.480487
0.502957 0.493710 0.483427
0.506415 0.496650 0.486368
0.509873 0.499591 0.489309
0.513332 0.502532 0.492249
0.516790 0.505472 0.495190
0.520248 0.508413 0.498131
0.523707 0.511354 0.501071
0.527165 0.514294 0.504012
0.505272 0.497060 0.486260
0.508730 0.500001 0.489201
0.512188 0.502941 0.492141
0.515647 0.505882 0.495082
0.519105 0.508823 0.498023
0.522563 0.511763 0.500963
0.526022 0.514704 0.503904
0.529480 0.517645 0.506845
0.532938 0.520585 0.509785
0.511045 0.503351 0.492033
0.514503 0.506291 0.494974
0.517961 0.509232 0.497914
0.521420 0.512173 0.500855
0.524878 0.515113 0.503796
0.528336 0.518054 0.506736
0.531795 0.520995 0.509677
0.535253 0.523935 0.512618
0.538711 0.526876 0.515558
0.516818 0.509641 0.497806
0.520276 0.512582 0.500747
0.523735 0.515523 0.503688
0.527193 0.518463 0.506628
0.530651 0.521404 0.509569
0.534110 0.524345 0.512510
0.537568 0.527285 0.515450
0.541026 0.530226 0.518391
0.544484 0.533167 0.521332
0.522591 0.515932 0.503579
0.526050 0.518873 0.506520
0.529508 0.521814 0.509461
0.532966 0.524754 0.512401
0.536424 0.527695 0.515342
0.539883 0.530636 0.518283
0.543341 0.533576 0.521223
0.546799 0.536517 0.524164
0.550258 0.539458 0.527105
0.477527 0.466727 0.459033
0.480985 0.469668 0.461974
0.484444 0.472608 0.464914
0.487902 0.475549 0.467855
0.491360 0.478490 0.470796
0.494819 0.481431 0.473736
0.498277 0.484371 0.476677
0.501735 0.487312 0.479618
0.505194 0.490253 0.482558
0.483300 0.473018 0.464806
0.486759 0.475959 0.467747
0.490217 0.478899 0.470687
0.493675 0.481840 0.473628
0.497134 0.484781 0.476569
0.500592 0.487721 0.479509
0.504050 0.490662 0.482450
0.507508 0.493603 0.485391
0.510967 0.496543 0.488331
0.489073 0.479309 0.470579
0.492532 0.482249 0.473520
0.495990 0.485190 0.476461
0.499448 0.488131 0.479401
0.502907 0.491071 0.482342
0.506365 0.494012 0.485283
0.509823 0.496953 0.488223
0.513282 0.499893 0.491164
0.516740 0.502834 0.494105
0.494847 0.485600 0.476352
0.498305 0.488540 0.479293
0.501763 0.491481 0.482234
0.505222 0.494422 0.485174
0.508680 0.497362 0.488115
0.512138 0.500303 0.491056
0.515596 0.503244 0.493996
0.519055 0.506184 0.496937
0.522513 0.509125 0.499878
0.500620 0.491890 0.482126
0.504078 0.494831 0.485066
0.507536 0.497772 0.488007
0.510995 0.500712 0.490948
0.514453 0.503653 0.493888
0.517911 0.506594 0.496829
0.521370 0.509534 0.499770
0.524828 0.512475 0.502710
0.528286 0.515416 0.505651
0.506393 0.498181 0.487899
0.509851 0.501122 0.490839
0.513310 0.504062 0.493780
0.516768 0.507003 0.496721
0.520226 0.509944 0.499661
0.523684 0.512884 0.502602
0.527143 0.515825 0.505543
0.530601 0.518766 0.508483
0.534059 0.521706 0.511424
0.512166 0.504472 0.493672
0.515624 0.507413 0.496613
0.519083 0.510353 0.499553
0.522541 0.513294 0.502494
0.525999 0.516235 0.505435
0.529458 0.519175 0.508375
0.532916 0.522116 0.511316
0.536374 0.525057 0.514257
0.539833 0.527997 0.517197
0.517939 0.510763 0.499445
0.521398 0.513703 0.502386
0.524856 0.516644 0.505326
0.528314 0.519585 0.508267
0.531772 0.522525 0.511208
0.535231 0.525466 0.514148
0.538689 0.528407 0.517089
0.542147 0.531347 0.520030
0.545606 0.534288 0.522970
0.523712 0.517053 0.505218
0.527171 0.519994 0.508159
0.530629 0.522935 0.511100
0.534087 0.525875 0.514040
0.537546 0.528816 0.516981
0.541004 0.531757 0.519922
0.544462 0.534697 0.522862
0.547921 0.537638 0.525803
0.551379 0.540579 0.528744
0.478648 0.467848 0.460672
0.482107 0.470789 0.463612
0.485565 0.473730 0.466553
0.489023 0.476670 0.469494
0.492482 0.479611 0.472434
0.495940 0.482552 0.475375
0.499398 0.485492 0.478316
0.502856 0.488433 0.481256
0.506315 0.491374 0.484197
0.484421 0.474139 0.466445
0.487880 0.477080 0.469386
0.491338 0.480020 0.472326
0.494796 0.482961 0.475267
0.498255 0.485902 0.478208
0.501713 0.488842 0.481148
0.505171 0.491783 0.484089
0.508630 0.494724 0.487030
0.512088 0.497664 0.489970
0.490195 0.480430 0.472218
0.493653 0.483371 0.475159
0.497111 0.486311 0.478099
0.500570 0.489252 0.481040
0.504028 0.492193 0.483981
0.507486 0.495133 0.486921
0.510944 0.498074 0.489862
0.514403 0.501015 0.492803
0.517861 0.503955 0.495743
0.495968 0.486721 0.477991
0.499426 0.489661 0.480932
0.502884 0.492602 0.483873
0.506343 0.495543 0.486813
0.509801 0.498483 0.489754
0.513259 0.501424 0.492695
0.516718 0.504365 0.495635
0.520176 0.507305 0.498576
0.523634 0.510246 0.501517
0.501741 0.493011 0.483764
0.505199 0.495952 0.486705
0.508658 0.498893 0.489646
0.512116 0.501834 0.492586
0.515574 0.504774 0.495527
0.519032 0.507715 0.498468
0.522491 0.510656 0.501408
0.525949 0.513596 0.504349
0.529407 0.516537 0.507290
0.507514 0.499302 0.489538
0.510972 0.502243 0.492478
0.514431 0.505184 0.495419
0.517889 0.508124 0.498360
0.521347 0.511065 0.501300
0.524806 0.514006 0.504241
0.528264 0.516946 0.507182
0.531722 0.519887 0.510122
0.535181 0.522828 0.513063
0.513287 0.505593 0.495311
0.516746 0.508534 0.498251
0.520204 0.511474 0.501192
0.523662 0.514415 0.504133
0.527120 0.517356 0.507073
0.530579 0.520296 0.510014
0.534037 0.523237 0.512955
0.537495 0.526178 0.515895
0.540954 0.529118 0.518836
0.519060 0.511884 0.501084
0.522519 0.514825 0.504025
0.525977 0.517765 0.506965
0.529435 0.520706 0.509906
0.532894 0.523647 0.512847
0.536352 0.526587 0.515787
0.539810 0.529528 0.518728
0.543269 0.532469 0.521669
0.546727 0.535409 0.524609
0.524834 0.518175 0.506857
0.528292 0.521115 0.509798
0.531750 0.524056 0.512738
0.535208 0.526997 0.515679
0.538667 0.529937 0.518620
0.542125 0.532878 0.521560
0.545583 0.535819 0.524501
0.549042 0.538759 0.527442
0.552500 0.541700 0.530382
0.479770 0.468970 0.462311
0.483228 0.471910 0.465251
0.486686 0.474851 0.468192
0.490144 0.477792 0.471133
0.493603 0.480732 0.474073
0.497061 0.483673 0.477014
0.500519 0.486614 0.479955
0.503978 0.489554 0.482895
0.507436 0.492495 0.485836
0.485543 0.475260 0.468084
0.489001 0.478201 0.471024
0.492459 0.481142 0.473965
0.495918 0.484082 0.476906
0.499376 0.487023 0.479846
0.502834 0.489964 0.482787
0.506293 0.492904 0.485728
0.509751 0.495845 0.488668
0.513209 0.498786 0.491609
0.491316 0.481551 0.473857
0.494774 0.484492 0.476798
0.498232 0.487432 0.479738
0.501691 0.490373 0.482679
0.505149 0.493314 0.485620
0.508607 0.496254 0.488560
0.512066 0.499195 0.491501
0.515524 0.502136 0.494442
0.518982 0.505076 0.497382
0.497089 0.487842 0.479630
0.500547 0.490783 0.482571
0.504006 0.493723 0.485511
0.507464 0.496664 0.488452
0.510922 0.499605 0.491393
0.514381 0.502545 0.494333
0.517839 0.505486 0.497274
0.521297 0.508427 0.500215
0.524755 0.511367 0.503155
0.502862 0.494133 0.485403
0.506320 0.497073 0.488344
0.509779 0.500014 0.491285
0.513237 0.502955 0.494225
0.516695 0.505895 0.497166
0.520154 0.508836 0.500107
0.523612 0.511777 0.503047
0.527070 0.514717 0.505988
0.530529 0.517658 0.508929
0.508635 0.500423 0.491176
0.512094 0.503364 0.494117
0.515552 0.506305 0.497058
0.519010 0.509245 0.499998
0.522469 0.512186 0.502939
0.525927 0.515127 0.505880
0.529385 0.518067 0.508820
0.532843 0.521008 0.511761
0.536302 0.523949 0.514702
0.514408 0.506714 0.496950
0.517867 0.509655 0.499890
0.521325 0.512596 0.502831
0.524783 0.515536 0.505772
0.528242 0.518477 0.508712
0.531700 0.521418 0.511653
0.535158 0.524358 0.514594
0.538617 0.527299 0.517534
0.542075 0.530240 0.520475
0.520182 0.513005 0.502723
0.523640 0.515946 0.505663
0.527098 0.518886 0.508604
0.530557 0.521827 0.511545
0.534015 0.524768 0.514485
0.537473 0.527708 0.517426
0.540931 0.530649 0.520367
0.544390 0.533590 0.523307
0.547848 0.536530 0.526248
0.525955 0.519296 0.508496
0.529413 0.522237 0.511437
0.532871 0.525177 0.514377
0.536330 0.528118 0.517318
0.539788 0.531059 0.520259
0.543246 0.533999 0.523199
0.546705 0.536940 0.526140
0.550163 0.539881 0.529081
0.553621 0.542821 0.532021
