shared/src/main/assets/luts/film_frozen_earth.cube
TITLE "DALUR Frozen Earth"
LUT_3D_SIZE 9
DOMAIN_MIN 0.0 0.0 0.0
DOMAIN_MAX 1.0 1.0 1.0
0.419000 0.440000 0.461000
0.419777 0.445849 0.466849
0.420555 0.451697 0.472697
0.421332 0.457546 0.478546
0.422109 0.463394 0.484394
0.422887 0.469243 0.490243
0.423664 0.475091 0.496091
0.424441 0.480940 0.501940
0.425219 0.486788 0.507788
0.430482 0.446411 0.472482
0.431259 0.452259 0.478330
0.432037 0.458108 0.484179
0.432814 0.463956 0.490027
0.433591 0.469805 0.495876
0.434369 0.475653 0.501724
0.435146 0.481502 0.507573
0.435923 0.487350 0.513421
0.436701 0.493199 0.519270
0.441964 0.452821 0.483964
0.442741 0.458670 0.489812
0.443518 0.464518 0.495661
0.444296 0.470367 0.501509
0.445073 0.476215 0.507358
0.445850 0.482064 0.513206
0.446628 0.487912 0.519055
0.447405 0.493761 0.524903
0.448182 0.499609 0.530752
0.453446 0.459232 0.495446
0.454223 0.465081 0.501294
0.455000 0.470929 0.507143
0.455778 0.476778 0.512991
0.456555 0.482626 0.518840
0.457332 0.488475 0.524688
0.458110 0.494323 0.530537
0.458887 0.500172 0.536385
0.459664 0.506020 0.542234
0.464927 0.465643 0.506927
0.465705 0.471491 0.512776
0.466482 0.477340 0.518624
0.467259 0.483188 0.524473
0.468037 0.489037 0.530321
0.468814 0.494885 0.536170
0.469591 0.500734 0.542018
0.470369 0.506582 0.547867
0.471146 0.512431 0.553715
0.476409 0.472053 0.518409
0.477187 0.477902 0.524258
0.477964 0.483750 0.530106
0.478741 0.489599 0.535955
0.479519 0.495447 0.541803
0.480296 0.501296 0.547652
0.481073 0.507144 0.553500
0.481851 0.512993 0.559349
0.482628 0.518841 0.565197
0.487891 0.478464 0.529891
0.488668 0.484313 0.535740
0.489446 0.490161 0.541588
0.490223 0.496010 0.547437
0.491000 0.501858 0.553285
0.491778 0.507707 0.559134
0.492555 0.513555 0.564982
0.493332 0.519404 0.570831
0.494110 0.525252 0.576679
0.499373 0.484875 0.541373
0.500150 0.490723 0.547221
0.500928 0.496572 0.553070
0.501705 0.502420 0.558918
0.502482 0.508269 0.564767
0.503260 0.514117 0.570615
0.504037 0.519966 0.576464
0.504814 0.525814 0.582312
0.505592 0.531663 0.588161
0.510855 0.491285 0.552855
0.511632 0.497134 0.558703
0.512409 0.502982 0.564552
0.513187 0.508831 0.570400
0.513964 0.514679 0.576249
0.514741 0.520528 0.582097
0.515519 0.526376 0.587946
0.516296 0.532225 0.593794
0.517073 0.538073 0.599643
0.421230 0.442230 0.458159
0.422007 0.448078 0.464007
0.422785 0.453927 0.469856
0.423562 0.459775 0.475704
0.424339 0.465624 0.481553
0.425117 0.471472 0.487401
0.425894 0.477321 0.493250
0.426671 0.483169 0.499098
0.427449 0.489018 0.504947
0.432712 0.448641 0.469641
0.433489 0.454489 0.475489
0.434266 0.460338 0.481338
0.435044 0.466186 0.487186
0.435821 0.472035 0.493035
0.436598 0.477883 0.498883
0.437376 0.483732 0.504732
0.438153 0.489580 0.510580
0.438930 0.495429 0.516429
0.444194 0.455051 0.481122
0.444971 0.460900 0.486971
0.445748 0.466748 0.492819
0.446526 0.472597 0.498668
0.447303 0.478445 0.504516
0.448080 0.484294 0.510365
0.448858 0.490142 0.516213
0.449635 0.495991 0.522062
0.450412 0.501839 0.527910
0.455675 0.461462 0.492604
0.456453 0.467310 0.498453
0.457230 0.473159 0.504301
0.458007 0.479007 0.510150
0.458785 0.484856 0.515998
0.459562 0.490704 0.521847
0.460339 0.496553 0.527695
0.461117 0.502401 0.533544
0.461894 0.508250 0.539392
0.467157 0.467873 0.504086
0.467935 0.473721 0.509935
0.468712 0.479570 0.515783
0.469489 0.485418 0.521632
0.470267 0.491267 0.527480
0.471044 0.497115 0.533329
0.471821 0.502964 0.539177
0.472599 0.508812 0.545026
0.473376 0.514661 0.550874
0.478639 0.474283 0.515568
0.479416 0.480132 0.521416
0.480194 0.485980 0.527265
0.480971 0.491829 0.533113
0.481748 0.497677 0.538962
0.482526 0.503526 0.544810
0.483303 0.509374 0.550659
0.484080 0.515223 0.556507
0.484858 0.521071 0.562356
0.490121 0.480694 0.527050
0.490898 0.486542 0.532898
0.491676 0.492391 0.538747
0.492453 0.498239 0.544595
0.493230 0.504088 0.550444
0.494008 0.509936 0.556292
0.494785 0.515785 0.562141
0.495562 0.521633 0.567989
0.496340 0.527482 0.573838
0.501603 0.487105 0.538532
0.502380 0.492953 0.544380
0.503157 0.498802 0.550229
0.503935 0.504650 0.556077
0.504712 0.510499 0.561926
0.505489 0.516347 0.567774
0.506267 0.522196 0.573623
0.507044 0.528044 0.579471
0.507821 0.533893 0.585320
0.513085 0.493515 0.550013
0.513862 0.499364 0.555862
0.514639 0.505212 0.561710
0.515417 0.511061 0.567559
0.516194 0.516909 0.573407
0.516971 0.522758 0.579256
0.517749 0.528606 0.585104
0.518526 0.534455 0.590953
0.519303 0.540303 0.596801
0.423460 0.444460 0.455317
0.424237 0.450308 0.461166
0.425014 0.456157 0.467014
0.425792 0.462005 0.472863
0.426569 0.467854 0.478711
0.427346 0.473702 0.484560
0.428124 0.479551 0.490408
0.428901 0.485399 0.496257
0.429678 0.491248 0.502105
0.434942 0.450870 0.466799
0.435719 0.456719 0.472648
0.436496 0.462567 0.478496
0.437274 0.468416 0.484345
0.438051 0.474264 0.490193
0.438828 0.480113 0.496042
0.439606 0.485961 0.501890
0.440383 0.491810 0.507739
0.441160 0.497658 0.513587
0.446423 0.457281 0.478281
0.447201 0.463130 0.484130
0.447978 0.468978 0.489978
0.448755 0.474827 0.495827
0.449533 0.480675 0.501675
0.450310 0.486524 0.507524
0.451087 0.492372 0.513372
0.451865 0.498221 0.519221
0.452642 0.504069 0.525069
0.457905 0.463692 0.489763
0.458683 0.469540 0.495611
0.459460 0.475389 0.501460
0.460237 0.481237 0.507308
0.461015 0.487086 0.513157
0.461792 0.492934 0.519005
0.462569 0.498783 0.524854
0.463347 0.504631 0.530702
0.464124 0.510480 0.536551
0.469387 0.470102 0.501245
0.470164 0.475951 0.507093
0.470942 0.481799 0.512942
0.471719 0.487648 0.518790
0.472496 0.493496 0.524639
0.473274 0.499345 0.530487
0.474051 0.505193 0.536336
0.474828 0.511042 0.542184
0.475606 0.516890 0.548033
0.480869 0.476513 0.512727
0.481646 0.482362 0.518575
0.482424 0.488210 0.524424
0.483201 0.494059 0.530272
0.483978 0.499907 0.536121
0.484756 0.505756 0.541969
0.485533 0.511604 0.547818
0.486310 0.517453 0.553666
0.487088 0.523301 0.559515
0.492351 0.482924 0.524208
0.493128 0.488772 0.530057
0.493905 0.494621 0.535905
0.494683 0.500469 0.541754
0.495460 0.506318 0.547602
0.496237 0.512166 0.553451
0.497015 0.518015 0.559299
0.497792 0.523863 0.565148
0.498569 0.529712 0.570996
0.503833 0.489334 0.535690
0.504610 0.495183 0.541539
0.505387 0.501031 0.547387
0.506165 0.506880 0.553236
0.506942 0.512728 0.559084
0.507719 0.518577 0.564933
0.508497 0.524425 0.570781
0.509274 0.530274 0.576630
0.510051 0.536122 0.582478
0.515314 0.495745 0.547172
0.516092 0.501594 0.553021
0.516869 0.507442 0.558869
0.517646 0.513291 0.564718
0.518424 0.519139 0.570566
0.519201 0.524988 0.576415
0.519979 0.530836 0.582263
0.520756 0.536685 0.588112
0.521533 0.542533 0.593960
0.425690 0.446690 0.452476
0.426467 0.452538 0.458325
0.427244 0.458387 0.464173
0.428022 0.464235 0.470022
0.428799 0.470084 0.475870
0.429576 0.475932 0.481719
0.430354 0.481781 0.487567
0.431131 0.487629 0.493416
0.431908 0.493478 0.499264
0.437171 0.453100 0.463958
0.437949 0.458949 0.469806
0.438726 0.464797 0.475655
0.439503 0.470646 0.481503
0.440281 0.476494 0.487352
0.441058 0.482343 0.493200
0.441835 0.488191 0.499049
0.442613 0.494040 0.504897
0.443390 0.499888 0.510746
0.448653 0.459511 0.475440
0.449431 0.465359 0.481288
0.450208 0.471208 0.487137
0.450985 0.477056 0.492985
0.451763 0.482905 0.498834
0.452540 0.488753 0.504682
0.453317 0.494602 0.510531
0.454095 0.500450 0.516379
0.454872 0.506299 0.522228
0.460135 0.465922 0.486922
0.460912 0.471770 0.492770
0.461690 0.477619 0.498619
0.462467 0.483467 0.504467
0.463244 0.489316 0.510316
0.464022 0.495164 0.516164
0.464799 0.501013 0.522013
0.465576 0.506861 0.527861
0.466354 0.512710 0.533710
0.471617 0.472332 0.498403
0.472394 0.478181 0.504252
0.473172 0.484029 0.510100
0.473949 0.489878 0.515949
0.474726 0.495726 0.521797
0.475504 0.501575 0.527646
0.476281 0.507423 0.533494
0.477058 0.513272 0.539343
0.477836 0.519120 0.545191
0.483099 0.478743 0.509885
0.483876 0.484591 0.515734
0.484653 0.490440 0.521582
0.485431 0.496288 0.527431
0.486208 0.502137 0.533279
0.486985 0.507985 0.539128
0.487763 0.513834 0.544976
0.488540 0.519683 0.550825
0.489318 0.525531 0.556673
0.494581 0.485154 0.521367
0.495358 0.491002 0.527216
0.496135 0.496851 0.533064
0.496913 0.502699 0.538913
0.497690 0.508548 0.544761
0.498467 0.514396 0.550610
0.499245 0.520245 0.556458
0.500022 0.526093 0.562307
0.500799 0.531942 0.568155
0.506062 0.491564 0.532849
0.506840 0.497413 0.538698
0.507617 0.503261 0.544546
0.508395 0.509110 0.550395
0.509172 0.514958 0.556243
0.509949 0.520807 0.562092
0.510727 0.526655 0.567940
0.511504 0.532504 0.573789
0.512281 0.538352 0.579637
0.517544 0.497975 0.544331
0.518322 0.503824 0.550179
0.519099 0.509672 0.556028
0.519876 0.515521 0.561876
0.520654 0.521369 0.567725
0.521431 0.527218 0.573573
0.522208 0.533066 0.579422
0.522986 0.538915 0.585270
0.523763 0.544763 0.591119
0.427919 0.448919 0.449635
0.428697 0.454768 0.455483
0.429474 0.460616 0.461332
0.430251 0.466465 0.467180
0.431029 0.472313 0.473029
0.431806 0.478162 0.478877
0.432583 0.484010 0.484726
0.433361 0.489859 0.490574
0.434138 0.495707 0.496423
0.439401 0.455330 0.461117
0.440179 0.461179 0.466965
0.440956 0.467027 0.472814
0.441733 0.472876 0.478662
0.442511 0.478724 0.484511
0.443288 0.484573 0.490359
0.444065 0.490421 0.496208
0.444843 0.496270 0.502056
0.445620 0.502118 0.507905
0.450883 0.461741 0.472598
0.451660 0.467589 0.478447
0.452438 0.473438 0.484295
0.453215 0.479286 0.490144
0.453992 0.485135 0.495992
0.454770 0.490983 0.501841
0.455547 0.496832 0.507689
0.456325 0.502680 0.513538
0.457102 0.508529 0.519387
0.462365 0.468151 0.484080
0.463142 0.474000 0.489929
0.463920 0.479848 0.495777
0.464697 0.485697 0.501626
0.465474 0.491546 0.507474
0.466252 0.497394 0.513323
0.467029 0.503243 0.519171
0.467806 0.509091 0.525020
0.468584 0.514940 0.530868
0.473847 0.474562 0.495562
0.474624 0.480411 0.501411
0.475402 0.486259 0.507259
0.476179 0.492108 0.513108
0.476956 0.497956 0.518956
0.477734 0.503805 0.524805
0.478511 0.509653 0.530653
0.479288 0.515502 0.536502
0.480066 0.521350 0.542350
0.485329 0.480973 0.507044
0.486106 0.486821 0.512893
0.486883 0.492670 0.518741
0.487661 0.498518 0.524590
0.488438 0.504367 0.530438
0.489215 0.510215 0.536287
0.489993 0.516064 0.542135
0.490770 0.521912 0.547984
0.491547 0.527761 0.553832
0.496811 0.487384 0.518526
0.497588 0.493232 0.524374
0.498365 0.499081 0.530223
0.499143 0.504929 0.536071
0.499920 0.510778 0.541920
0.500697 0.516626 0.547768
0.501475 0.522475 0.553617
0.502252 0.528323 0.559465
0.503029 0.534172 0.565314
0.508292 0.493794 0.530008
0.509070 0.499643 0.535856
0.509847 0.505491 0.541705
0.510624 0.511340 0.547553
0.511402 0.517188 0.553402
0.512179 0.523037 0.559250
0.512956 0.528885 0.565099
0.513734 0.534734 0.570947
0.514511 0.540582 0.576796
0.519774 0.500205 0.541490
0.520552 0.506053 0.547338
0.521329 0.511902 0.553187
0.522106 0.517750 0.559035
0.522884 0.523599 0.564884
0.523661 0.529447 0.570732
0.524438 0.535296 0.576581
0.525216 0.541144 0.582429
0.525993 0.546993 0.588278
0.430149 0.451149 0.446793
0.430927 0.456998 0.452642
0.431704 0.462846 0.458490
0.432481 0.468695 0.464339
0.433259 0.474543 0.470188
0.434036 0.480392 0.476036
0.434813 0.486240 0.481885
0.435591 0.492089 0.487733
0.436368 0.497937 0.493582
0.441631 0.457560 0.458275
0.442409 0.463409 0.464124
0.443186 0.469257 0.469972
0.443963 0.475106 0.475821
0.444741 0.480954 0.481669
0.445518 0.486803 0.487518
0.446295 0.492651 0.493366
0.447073 0.498500 0.499215
0.447850 0.504348 0.505063
0.453113 0.463971 0.469757
0.453890 0.469819 0.475606
0.454668 0.475668 0.481454
0.455445 0.481516 0.487303
0.456222 0.487365 0.493151
0.457000 0.493213 0.499000
0.457777 0.499062 0.504848
0.458554 0.504910 0.510697
0.459332 0.510759 0.516545
0.464595 0.470381 0.481239
0.465372 0.476230 0.487088
0.466150 0.482078 0.492936
0.466927 0.487927 0.498785
0.467704 0.493775 0.504633
0.468482 0.499624 0.510482
0.469259 0.505472 0.516330
0.470036 0.511321 0.522179
0.470814 0.517169 0.528027
0.476077 0.476792 0.492721
0.476854 0.482641 0.498569
0.477631 0.488489 0.504418
0.478409 0.494338 0.510266
0.479186 0.500186 0.516115
0.479963 0.506035 0.521963
0.480741 0.511883 0.527812
0.481518 0.517732 0.533660
0.482295 0.523580 0.539509
0.487559 0.483203 0.504203
0.488336 0.489051 0.510051
0.489113 0.494900 0.515900
0.489891 0.500748 0.521748
0.490668 0.506597 0.527597
0.491445 0.512445 0.533445
0.492223 0.518294 0.539294
0.493000 0.524142 0.545142
0.493777 0.529991 0.550991
0.499040 0.489613 0.515685
0.499818 0.495462 0.521533
0.500595 0.501310 0.527382
0.501372 0.507159 0.533230
0.502150 0.513007 0.539079
0.502927 0.518856 0.544927
0.503704 0.524704 0.550776
0.504482 0.530553 0.556624
0.505259 0.536401 0.562473
0.510522 0.496024 0.527166
0.511300 0.501873 0.533015
0.512077 0.507721 0.538863
0.512854 0.513570 0.544712
0.513632 0.519418 0.550560
0.514409 0.525267 0.556409
0.515186 0.531115 0.562257
0.515964 0.536964 0.568106
0.516741 0.542812 0.573954
0.522004 0.502435 0.538648
0.522781 0.508283 0.544497
0.523559 0.514132 0.550345
0.524336 0.519980 0.556194
0.525113 0.525829 0.562042
0.525891 0.531677 0.567891
0.526668 0.537526 0.573739
0.527445 0.543374 0.579588
0.528223 0.549223 0.585436
0.432379 0.453379 0.443952
0.433157 0.459228 0.449801
0.433934 0.465076 0.455649
0.434711 0.470925 0.461498
0.435489 0.476773 0.467346
0.436266 0.482622 0.473195
0.437043 0.488470 0.479043
0.437821 0.494319 0.484892
0.438598 0.500167 0.490740
0.443861 0.459790 0.455434
0.444638 0.465638 0.461283
0.445416 0.471487 0.467131
0.446193 0.477335 0.472980
0.446970 0.483184 0.478828
0.447748 0.489032 0.484677
0.448525 0.494881 0.490525
0.449302 0.500729 0.496374
0.450080 0.506578 0.502222
0.455343 0.466201 0.466916
0.456120 0.472049 0.472764
0.456898 0.477898 0.478613
0.457675 0.483746 0.484461
0.458452 0.489595 0.490310
0.459230 0.495443 0.496158
0.460007 0.501292 0.502007
0.460784 0.507140 0.507855
0.461562 0.512989 0.513704
0.466825 0.472611 0.478398
0.467602 0.478460 0.484246
0.468379 0.484308 0.490095
0.469157 0.490157 0.495943
0.469934 0.496005 0.501792
0.470711 0.501854 0.507640
0.471489 0.507702 0.513489
0.472266 0.513551 0.519337
0.473043 0.519399 0.525186
0.478307 0.479022 0.489880
0.479084 0.484870 0.495728
0.479861 0.490719 0.501577
0.480639 0.496567 0.507425
0.481416 0.502416 0.513274
0.482193 0.508264 0.519122
0.482971 0.514113 0.524971
0.483748 0.519961 0.530819
0.484525 0.525810 0.536668
0.489788 0.485433 0.501361
0.490566 0.491281 0.507210
0.491343 0.497130 0.513058
0.492120 0.502978 0.518907
0.492898 0.508827 0.524755
0.493675 0.514675 0.530604
0.494452 0.520524 0.536452
0.495230 0.526372 0.542301
0.496007 0.532221 0.548149
0.501270 0.491843 0.512843
0.502048 0.497692 0.518692
0.502825 0.503540 0.524540
0.503602 0.509389 0.530389
0.504380 0.515237 0.536237
0.505157 0.521086 0.542086
0.505934 0.526934 0.547934
0.506712 0.532783 0.553783
0.507489 0.538631 0.559631
0.512752 0.498254 0.524325
0.513529 0.504102 0.530174
0.514307 0.509951 0.536022
0.515084 0.515799 0.541871
0.515861 0.521648 0.547719
0.516639 0.527496 0.553568
0.517416 0.533345 0.559416
0.518193 0.539193 0.565265
0.518971 0.545042 0.571113
0.524234 0.504665 0.535807
0.525011 0.510513 0.541655
0.525789 0.516362 0.547504
0.526566 0.522210 0.553352
0.527343 0.528059 0.559201
0.528121 0.533907 0.565049
0.528898 0.539756 0.570898
0.529675 0.545604 0.576746
0.530453 0.551453 0.582595
0.434609 0.455609 0.441111
0.435386 0.461458 0.446959
0.436164 0.467306 0.452808
0.436941 0.473155 0.458656
0.437718 0.479003 0.464505
0.438496 0.484852 0.470353
0.439273 0.490700 0.476202
0.440050 0.496549 0.482050
0.440828 0.502397 0.487899
0.446091 0.462020 0.452593
0.446868 0.467868 0.458441
0.447646 0.473717 0.464290
0.448423 0.479565 0.470138
0.449200 0.485414 0.475987
0.449978 0.491262 0.481835
0.450755 0.497111 0.487684
0.451532 0.502959 0.493532
0.452310 0.508808 0.499381
0.457573 0.468430 0.464075
0.458350 0.474279 0.469923
0.459127 0.480127 0.475772
0.459905 0.485976 0.481620
0.460682 0.491824 0.487469
0.461459 0.497673 0.493317
0.462237 0.503521 0.499166
0.463014 0.509370 0.505014
0.463791 0.515218 0.510863
0.469055 0.474841 0.475556
0.469832 0.480690 0.481405
0.470609 0.486538 0.487253
0.471387 0.492387 0.493102
0.472164 0.498235 0.498950
0.472941 0.504084 0.504799
0.473719 0.509932 0.510647
0.474496 0.515781 0.516496
0.475273 0.521629 0.522344
0.480536 0.481252 0.487038
0.481314 0.487100 0.492887
0.482091 0.492949 0.498735
0.482868 0.498797 0.504584
0.483646 0.504646 0.510432
0.484423 0.510494 0.516281
0.485200 0.516343 0.522129
0.485978 0.522191 0.527978
0.486755 0.528040 0.533826
0.492018 0.487662 0.498520
0.492796 0.493511 0.504369
0.493573 0.499359 0.510217
0.494350 0.505208 0.516066
0.495128 0.511056 0.521914
0.495905 0.516905 0.527763
0.496682 0.522753 0.533611
0.497460 0.528602 0.539460
0.498237 0.534450 0.545308
0.503500 0.494073 0.510002
0.504277 0.499922 0.515850
0.505055 0.505770 0.521699
0.505832 0.511619 0.527547
0.506609 0.517467 0.533396
0.507387 0.523316 0.539244
0.508164 0.529164 0.545093
0.508941 0.535013 0.550941
0.509719 0.540861 0.556790
0.514982 0.500484 0.521484
0.515759 0.506332 0.527332
0.516537 0.512181 0.533181
0.517314 0.518029 0.539029
0.518091 0.523878 0.544878
0.518869 0.529726 0.550726
0.519646 0.535575 0.556575
0.520423 0.541423 0.562423
0.521201 0.547272 0.568272
0.526464 0.506894 0.532966
0.527241 0.512743 0.538814
0.528018 0.518591 0.544663
0.528796 0.524440 0.550511
0.529573 0.530288 0.556360
0.530350 0.536137 0.562208
0.531128 0.541985 0.568057
0.531905 0.547834 0.573905
0.532682 0.553682 0.579754
0.436839 0.457839 0.438270
0.437616 0.463687 0.444118
0.438394 0.469536 0.449967
0.439171 0.475384 0.455815
0.439948 0.481233 0.461664
0.440726 0.487081 0.467512
0.441503 0.492930 0.473361
0.442280 0.498778 0.479209
0.443058 0.504627 0.485058
0.448321 0.464250 0.449751
0.449098 0.470098 0.455600
0.449875 0.475947 0.461448
0.450653 0.481795 0.467297
0.451430 0.487644 0.473145
0.452207 0.493492 0.478994
0.452985 0.499341 0.484842
0.453762 0.505189 0.490691
0.454539 0.511038 0.496539
0.459803 0.470660 0.461233
0.460580 0.476509 0.467082
0.461357 0.482357 0.472930
0.462135 0.488206 0.478779
0.462912 0.494054 0.484627
0.463689 0.499903 0.490476
0.464467 0.505751 0.496324
0.465244 0.511600 0.502173
0.466021 0.517448 0.508021
0.471284 0.477071 0.472715
0.472062 0.482919 0.478564
0.472839 0.488768 0.484412
0.473616 0.494616 0.490261
0.474394 0.500465 0.496109
0.475171 0.506313 0.501958
0.475948 0.512162 0.507806
0.476726 0.518010 0.513655
0.477503 0.523859 0.519503
0.482766 0.483482 0.484197
0.483544 0.489330 0.490045
0.484321 0.495179 0.495894
0.485098 0.501027 0.501742
0.485876 0.506876 0.507591
0.486653 0.512724 0.513439
0.487430 0.518573 0.519288
0.488208 0.524421 0.525136
0.488985 0.530270 0.530985
0.494248 0.489892 0.495679
0.495025 0.495741 0.501527
0.495803 0.501589 0.507376
0.496580 0.507438 0.513224
0.497357 0.513286 0.519073
0.498135 0.519135 0.524921
0.498912 0.524983 0.530770
0.499689 0.530832 0.536618
0.500467 0.536680 0.542467
0.505730 0.496303 0.507161
0.506507 0.502151 0.513009
0.507285 0.508000 0.518858
0.508062 0.513848 0.524706
0.508839 0.519697 0.530555
0.509617 0.525545 0.536403
0.510394 0.531394 0.542252
0.511171 0.537243 0.548100
0.511949 0.543091 0.553949
0.517212 0.502714 0.518642
0.517989 0.508562 0.524491
0.518766 0.514411 0.530339
0.519544 0.520259 0.536188
0.520321 0.526108 0.542037
0.521099 0.531956 0.547885
0.521876 0.537805 0.553734
0.522653 0.543653 0.559582
0.523431 0.549502 0.565431
0.528694 0.509124 0.530124
0.529471 0.514973 0.535973
0.530248 0.520821 0.541821
0.531026 0.526670 0.547670
0.531803 0.532518 0.553518
0.532580 0.538367 0.559367
0.533358 0.544215 0.565215
0.534135 0.550064 0.571064
0.534912 0.555912 0.576912
