shared/src/main/assets/luts/film_desert_chrome.cube
TITLE "DALUR Desert Chrome"
LUT_3D_SIZE 5
DOMAIN_MIN 0.0 0.0 0.0
DOMAIN_MAX 1.0 1.0 1.0
0.438000 0.420000 0.402000
0.456188 0.429905 0.411905
0.474375 0.439811 0.421811
0.492563 0.449716 0.431716
0.510750 0.459622 0.441622
0.457446 0.447729 0.421446
0.475634 0.457634 0.431352
0.493821 0.467539 0.441257
0.512009 0.477445 0.451163
0.530197 0.487350 0.461068
0.476893 0.475457 0.440893
0.495080 0.485362 0.450798
0.513268 0.495268 0.460704
0.531455 0.505173 0.470609
0.549643 0.515079 0.480514
0.496339 0.503186 0.460339
0.514527 0.513091 0.470245
0.532714 0.522996 0.480150
0.550902 0.532902 0.490055
0.569089 0.542807 0.499961
0.515786 0.530914 0.479786
0.533973 0.540820 0.489691
0.552161 0.550725 0.499596
0.570348 0.560630 0.509502
0.588536 0.570536 0.519407
0.441777 0.423777 0.414059
0.459964 0.433682 0.423964
0.478152 0.443587 0.433870
0.496339 0.453493 0.443775
0.514527 0.463398 0.453680
0.461223 0.451505 0.433505
0.479411 0.461411 0.443411
0.497598 0.471316 0.453316
0.515786 0.481221 0.463221
0.533973 0.491127 0.473127
0.480669 0.479234 0.452952
0.498857 0.489139 0.462857
0.517045 0.499045 0.472762
0.535232 0.508950 0.482668
0.553420 0.518855 0.492573
0.500116 0.506962 0.472398
0.518303 0.516868 0.482303
0.536491 0.526773 0.492209
0.554678 0.536678 0.502114
0.572866 0.546584 0.512020
0.519562 0.534691 0.491844
0.537750 0.544596 0.501750
0.555937 0.554502 0.511655
0.574125 0.564407 0.521561
0.592312 0.574312 0.531466
0.445553 0.427553 0.426118
0.463741 0.437459 0.436023
0.481928 0.447364 0.445928
0.500116 0.457270 0.455834
0.518303 0.467175 0.465739
0.465000 0.455282 0.445564
0.483187 0.465187 0.455469
0.501375 0.475093 0.465375
0.519562 0.484998 0.475280
0.537750 0.494903 0.485186
0.484446 0.483010 0.465010
0.502634 0.492916 0.474916
0.520821 0.502821 0.484821
0.539009 0.512727 0.494727
0.557196 0.522632 0.504632
0.503893 0.510739 0.484457
0.522080 0.520644 0.494362
0.540268 0.530550 0.504268
0.558455 0.540455 0.514173
0.576643 0.550361 0.524078
0.523339 0.538467 0.503903
0.541526 0.548373 0.513809
0.559714 0.558278 0.523714
0.577902 0.568184 0.533619
0.596089 0.578089 0.543525
0.449330 0.431330 0.438176
0.467517 0.441235 0.448082
0.485705 0.451141 0.457987
0.503893 0.461046 0.467893
0.522080 0.470952 0.477798
0.468776 0.459058 0.457623
0.486964 0.468964 0.467528
0.505151 0.478869 0.477434
0.523339 0.488775 0.487339
0.541526 0.498680 0.497244
0.488223 0.486787 0.477069
0.506410 0.496692 0.486975
0.524598 0.506598 0.496880
0.542785 0.516503 0.506785
0.560973 0.526409 0.516691
0.507669 0.514516 0.496516
0.525857 0.524421 0.506421
0.544044 0.534326 0.516326
0.562232 0.544232 0.526232
0.580419 0.554137 0.536137
0.527116 0.542244 0.515962
0.545303 0.552149 0.525867
0.563491 0.562055 0.535773
0.581678 0.571960 0.545678
0.599866 0.581866 0.555584
0.453107 0.435107 0.450235
0.471294 0.445012 0.460140
0.489482 0.454917 0.470046
0.507669 0.464823 0.479951
0.525857 0.474728 0.489857
0.472553 0.462835 0.469681
0.490741 0.472741 0.479587
0.508928 0.482646 0.489492
0.527116 0.492551 0.499398
0.545303 0.502457 0.509303
0.491999 0.490564 0.489128
0.510187 0.500469 0.499033
0.528374 0.510374 0.508939
0.546562 0.520280 0.518844
0.564750 0.530185 0.528750
0.511446 0.518292 0.508574
0.529633 0.528198 0.518480
0.547821 0.538103 0.528385
0.566008 0.548008 0.538291
0.584196 0.557914 0.548196
0.530892 0.546021 0.528021
0.549080 0.555926 0.537926
0.567267 0.565832 0.547832
0.585455 0.575737 0.557737
0.603642 0.585642 0.567642
