shared/src/main/assets/luts/film_clean_tension.cube
TITLE "DALUR Clean Tension"
LUT_3D_SIZE 5
DOMAIN_MIN 0.0 0.0 0.0
DOMAIN_MAX 1.0 1.0 1.0
0.451200 0.454000 0.448800
0.457799 0.461849 0.456649
0.464397 0.469697 0.464498
0.470996 0.477546 0.472346
0.477595 0.485395 0.480195
0.466609 0.468159 0.464209
0.473207 0.476007 0.472057
0.479806 0.483856 0.479906
0.486405 0.491705 0.487755
0.493004 0.499554 0.495604
0.482017 0.482318 0.479618
0.488616 0.490166 0.487466
0.495215 0.498015 0.495315
0.501814 0.505864 0.503164
0.508412 0.513713 0.511012
0.497426 0.496476 0.495026
0.504025 0.504325 0.502875
0.510624 0.512174 0.510724
0.517222 0.520022 0.518572
0.523821 0.527871 0.526421
0.512835 0.510635 0.510435
0.519434 0.518484 0.518284
0.526033 0.526333 0.526133
0.532631 0.534181 0.533981
0.539230 0.542030 0.541830
0.454192 0.456992 0.450543
0.460791 0.464841 0.458391
0.467390 0.472690 0.466240
0.473989 0.480539 0.474089
0.480587 0.488387 0.481937
0.469601 0.471151 0.465951
0.476200 0.479000 0.473800
0.482799 0.486849 0.481649
0.489397 0.494697 0.489497
0.495996 0.502546 0.497346
0.485010 0.485310 0.481360
0.491609 0.493159 0.489209
0.498207 0.501007 0.497057
0.504806 0.508856 0.504906
0.511405 0.516705 0.512755
0.500419 0.499469 0.496769
0.507017 0.507317 0.504617
0.513616 0.515166 0.512466
0.520215 0.523015 0.520315
0.526814 0.530864 0.528164
0.515827 0.513628 0.512178
0.522426 0.521476 0.520026
0.529025 0.529325 0.527875
0.535624 0.537174 0.535724
0.542223 0.545023 0.543573
0.457185 0.459985 0.452285
0.463784 0.467834 0.460134
0.470382 0.475682 0.467982
0.476981 0.483531 0.475831
0.483580 0.491380 0.483680
0.472594 0.474144 0.467694
0.479192 0.481992 0.475542
0.485791 0.489841 0.483391
0.492390 0.497690 0.491240
0.498989 0.505539 0.499089
0.488002 0.488302 0.483102
0.494601 0.496151 0.490951
0.501200 0.504000 0.498800
0.507799 0.511849 0.506649
0.514397 0.519698 0.514498
0.503411 0.502461 0.498511
0.510010 0.510310 0.506360
0.516609 0.518159 0.514209
0.523207 0.526007 0.522058
0.529806 0.533856 0.529906
0.518820 0.516620 0.513920
0.525419 0.524469 0.521769
0.532018 0.532318 0.529618
0.538616 0.540166 0.537466
0.545215 0.548015 0.545315
0.460178 0.462978 0.454028
0.466776 0.470826 0.461876
0.473375 0.478675 0.469725
0.479974 0.486524 0.477574
0.486572 0.494372 0.485423
0.475586 0.477136 0.469436
0.482185 0.484985 0.477285
0.488784 0.492834 0.485134
0.495382 0.500682 0.492982
0.501981 0.508531 0.500831
0.490995 0.491295 0.484845
0.497594 0.499144 0.492694
0.504192 0.506992 0.500542
0.510791 0.514841 0.508391
0.517390 0.522690 0.516240
0.506404 0.505454 0.500254
0.513002 0.513302 0.508102
0.519601 0.521151 0.515951
0.526200 0.529000 0.523800
0.532799 0.536849 0.531649
0.521813 0.519613 0.515663
0.528411 0.527461 0.523511
0.535010 0.535310 0.531360
0.541609 0.543159 0.539209
0.548207 0.551007 0.547058
0.463170 0.465970 0.455770
0.469769 0.473819 0.463619
0.476367 0.481667 0.471467
0.482966 0.489516 0.479316
0.489565 0.497365 0.487165
0.478579 0.480129 0.471179
0.485177 0.487977 0.479027
0.491776 0.495826 0.486876
0.498375 0.503675 0.494725
0.504974 0.511524 0.502574
0.493988 0.494288 0.486588
0.500586 0.502136 0.494436
0.507185 0.509985 0.502285
0.513784 0.517834 0.510134
0.520382 0.525682 0.517983
0.509396 0.508446 0.501996
0.515995 0.516295 0.509845
0.522594 0.524144 0.517694
0.529192 0.531992 0.525542
0.535791 0.539841 0.533391
0.524805 0.522605 0.517405
0.531404 0.530454 0.525254
0.538003 0.538303 0.533103
0.544601 0.546151 0.540951
0.551200 0.554000 0.548800
