shared/src/main/assets/luts/film_electric_red.cube
TITLE "DALUR Electric Red"
LUT_3D_SIZE 5
DOMAIN_MIN 0.0 0.0 0.0
DOMAIN_MAX 1.0 1.0 1.0
0.430000 0.423000 0.430000
0.448403 0.429571 0.436571
0.466807 0.436141 0.443141
0.485210 0.442712 0.449712
0.503613 0.449282 0.456282
0.442899 0.447732 0.442899
0.461303 0.454303 0.449470
0.479706 0.460873 0.456040
0.498109 0.467444 0.462611
0.516512 0.474014 0.469182
0.455799 0.472464 0.455799
0.474202 0.479035 0.462369
0.492605 0.485605 0.468940
0.511008 0.492176 0.475510
0.529412 0.498746 0.482081
0.468698 0.497196 0.468698
0.487101 0.503767 0.475269
0.505505 0.510337 0.481839
0.523908 0.516908 0.488410
0.542311 0.523478 0.494980
0.481597 0.521928 0.481597
0.500001 0.528499 0.488168
0.518404 0.535069 0.494739
0.536807 0.541640 0.501309
0.555210 0.548210 0.507880
0.432505 0.425505 0.444338
0.450908 0.432076 0.450908
0.469312 0.438646 0.457479
0.487715 0.445217 0.464049
0.506118 0.451787 0.470620
0.445405 0.450237 0.457237
0.463808 0.456808 0.463808
0.482211 0.463378 0.470378
0.500614 0.469949 0.476949
0.519018 0.476519 0.483519
0.458304 0.474969 0.470137
0.476707 0.481540 0.476707
0.495110 0.488110 0.483278
0.513514 0.494681 0.489848
0.531917 0.501251 0.496419
0.471203 0.499701 0.483036
0.489606 0.506272 0.489606
0.508010 0.512842 0.496177
0.526413 0.519413 0.502748
0.544816 0.525984 0.509318
0.484103 0.524433 0.495935
0.502506 0.531004 0.502506
0.520909 0.537575 0.509076
0.539312 0.544145 0.515647
0.557716 0.550716 0.522217
0.435010 0.428010 0.458676
0.453414 0.434581 0.465246
0.471817 0.441151 0.471817
0.490220 0.447722 0.478387
0.508623 0.454292 0.484958
0.447910 0.452742 0.471575
0.466313 0.459313 0.478146
0.484716 0.465883 0.484716
0.503119 0.472454 0.491287
0.521523 0.479025 0.497857
0.460809 0.477474 0.484474
0.479212 0.484045 0.491045
0.497616 0.490616 0.497616
0.516019 0.497186 0.504186
0.534422 0.503757 0.510757
0.473708 0.502207 0.497374
0.492112 0.508777 0.503944
0.510515 0.515348 0.510515
0.528918 0.521918 0.517085
0.547321 0.528489 0.523656
0.486608 0.526939 0.510273
0.505011 0.533509 0.516844
0.523414 0.540080 0.523414
0.541818 0.546650 0.529985
0.560221 0.553221 0.536555
0.437515 0.430515 0.473014
0.455919 0.437086 0.479584
0.474322 0.443657 0.486155
0.492725 0.450227 0.492725
0.511129 0.456798 0.499296
0.450415 0.455248 0.485913
0.468818 0.461818 0.492484
0.487221 0.468389 0.499054
0.505625 0.474959 0.505625
0.524028 0.481530 0.512195
0.463314 0.479980 0.498812
0.481717 0.486550 0.505383
0.500121 0.493121 0.511953
0.518524 0.499691 0.518524
0.536927 0.506262 0.525094
0.476214 0.504712 0.511712
0.494617 0.511282 0.518282
0.513020 0.517853 0.524853
0.531423 0.524423 0.531423
0.549827 0.530994 0.537994
0.489113 0.529444 0.524611
0.507516 0.536014 0.531182
0.525919 0.542585 0.537752
0.544323 0.549155 0.544323
0.562726 0.555726 0.550893
0.440021 0.433021 0.487352
0.458424 0.439591 0.493922
0.476827 0.446162 0.500493
0.495230 0.452732 0.507063
0.513634 0.459303 0.513634
0.452920 0.457753 0.500251
0.471323 0.464323 0.506821
0.489726 0.470894 0.513392
0.508130 0.477464 0.519962
0.526533 0.484035 0.526533
0.465819 0.482485 0.513150
0.484223 0.489055 0.519721
0.502626 0.495626 0.526291
0.521029 0.502196 0.532862
0.539432 0.508767 0.539432
0.478719 0.507217 0.526050
0.497122 0.513787 0.532620
0.515525 0.520358 0.539191
0.533928 0.526928 0.545761
0.552332 0.533499 0.552332
0.491618 0.531949 0.538949
0.510021 0.538519 0.545519
0.528425 0.545090 0.552090
0.546828 0.551661 0.558661
0.565231 0.558231 0.565231
