shared/src/main/assets/luts/film_paris_dream.cube
TITLE "DALUR Paris Dream"
LUT_3D_SIZE 5
DOMAIN_MIN 0.0 0.0 0.0
DOMAIN_MAX 1.0 1.0 1.0
0.467200 0.462000 0.452800
0.477745 0.466334 0.457134
0.488290 0.470667 0.461467
0.498836 0.475001 0.465801
0.509381 0.479334 0.470134
0.475708 0.476719 0.461308
0.486253 0.481053 0.465641
0.496798 0.485387 0.469975
0.507343 0.489720 0.474309
0.517889 0.494054 0.478642
0.484216 0.491439 0.469816
0.494761 0.495772 0.474149
0.505306 0.500106 0.478483
0.515851 0.504440 0.482816
0.526396 0.508773 0.487150
0.492723 0.506158 0.478323
0.503269 0.510492 0.482657
0.513814 0.514825 0.486991
0.524359 0.519159 0.491324
0.534904 0.523493 0.495658
0.501231 0.520878 0.486831
0.511776 0.525211 0.491165
0.522322 0.529545 0.495498
0.532867 0.533878 0.499832
0.543412 0.538212 0.504166
0.468852 0.463652 0.460664
0.479397 0.467986 0.464997
0.489943 0.472320 0.469331
0.500488 0.476653 0.473665
0.511033 0.480987 0.477998
0.477360 0.478372 0.469172
0.487905 0.482705 0.473505
0.498451 0.487039 0.477839
0.508996 0.491373 0.482173
0.519541 0.495706 0.486506
0.485868 0.493091 0.477679
0.496413 0.497425 0.482013
0.506958 0.501758 0.486347
0.517504 0.506092 0.490680
0.528049 0.510426 0.495014
0.494376 0.507810 0.486187
0.504921 0.512144 0.490521
0.515466 0.516478 0.494855
0.526011 0.520811 0.499188
0.536557 0.525145 0.503522
0.502884 0.522530 0.494695
0.513429 0.526863 0.499029
0.523974 0.531197 0.503362
0.534519 0.535531 0.507696
0.545064 0.539864 0.512030
0.470505 0.465305 0.468528
0.481050 0.469638 0.472861
0.491595 0.473972 0.477195
0.502140 0.478305 0.481529
0.512685 0.482639 0.485862
0.479012 0.480024 0.477036
0.489558 0.484358 0.481369
0.500103 0.488691 0.485703
0.510648 0.493025 0.490036
0.521193 0.497358 0.494370
0.487520 0.494743 0.485543
0.498065 0.499077 0.489877
0.508611 0.503411 0.494211
0.519156 0.507744 0.498544
0.529701 0.512078 0.502878
0.496028 0.509463 0.494051
0.506573 0.513796 0.498385
0.517118 0.518130 0.502718
0.527664 0.522464 0.507052
0.538209 0.526797 0.511386
0.504536 0.524182 0.502559
0.515081 0.528516 0.506893
0.525626 0.532849 0.511226
0.536171 0.537183 0.515560
0.546717 0.541517 0.519893
0.472157 0.466957 0.476392
0.482702 0.471290 0.480725
0.493247 0.475624 0.485059
0.503792 0.479958 0.489392
0.514338 0.484291 0.493726
0.480665 0.481676 0.484899
0.491210 0.486010 0.489233
0.501755 0.490343 0.493567
0.512300 0.494677 0.497900
0.522845 0.499011 0.502234
0.489172 0.496396 0.493407
0.499718 0.500729 0.497741
0.510263 0.505063 0.502074
0.520808 0.509396 0.506408
0.531353 0.513730 0.510742
0.497680 0.511115 0.501915
0.508225 0.515449 0.506249
0.518771 0.519782 0.510582
0.529316 0.524116 0.514916
0.539861 0.528450 0.519250
0.506188 0.525834 0.510423
0.516733 0.530168 0.514756
0.527278 0.534502 0.519090
0.537824 0.538835 0.523424
0.548369 0.543169 0.527757
0.473809 0.468609 0.484255
0.484354 0.472943 0.488589
0.494900 0.477276 0.492923
0.505445 0.481610 0.497256
0.515990 0.485944 0.501590
0.482317 0.483329 0.492763
0.492862 0.487662 0.497097
0.503407 0.491996 0.501431
0.513953 0.496329 0.505764
0.524498 0.500663 0.510098
0.490825 0.498048 0.501271
0.501370 0.502382 0.505605
0.511915 0.506715 0.509938
0.522460 0.511049 0.514272
0.533006 0.515382 0.518606
0.499333 0.512767 0.509779
0.509878 0.517101 0.514113
0.520423 0.521435 0.518446
0.530968 0.525768 0.522780
0.541513 0.530102 0.527113
0.507840 0.527487 0.518287
0.518386 0.531820 0.522620
0.528931 0.536154 0.526954
0.539476 0.540488 0.531288
0.550021 0.544821 0.535621
