shared/src/main/assets/luts/film_amber_shadow.cube
TITLE "DALUR Amber Shadow"
LUT_3D_SIZE 5
DOMAIN_MIN 0.0 0.0 0.0
DOMAIN_MAX 1.0 1.0 1.0
0.435000 0.419000 0.405000
0.443425 0.431106 0.417106
0.451850 0.443212 0.429212
0.460276 0.455318 0.441318
0.468701 0.467424 0.453424
0.458767 0.439086 0.428767
0.467192 0.451192 0.440873
0.475617 0.463298 0.452979
0.484042 0.475404 0.465085
0.492468 0.487510 0.477191
0.482533 0.459172 0.452533
0.490958 0.471278 0.464639
0.499384 0.483384 0.476745
0.507809 0.495490 0.488851
0.516234 0.507596 0.500957
0.506300 0.479258 0.476300
0.514725 0.491364 0.488406
0.523150 0.503470 0.500512
0.531576 0.515576 0.512618
0.540001 0.527682 0.524724
0.530066 0.499343 0.500066
0.538492 0.511449 0.512172
0.546917 0.523555 0.524278
0.555342 0.535661 0.536384
0.563767 0.547767 0.548490
0.439616 0.423616 0.405935
0.448041 0.435722 0.418041
0.456466 0.447828 0.430147
0.464891 0.459934 0.442253
0.473317 0.472040 0.454359
0.463382 0.443702 0.429702
0.471808 0.455808 0.441808
0.480233 0.467913 0.453913
0.488658 0.480019 0.466019
0.497083 0.492125 0.478125
0.487149 0.463787 0.453468
0.495574 0.475893 0.465574
0.503999 0.487999 0.477680
0.512425 0.500105 0.489786
0.520850 0.512211 0.501892
0.510915 0.483873 0.477235
0.519341 0.495979 0.489341
0.527766 0.508085 0.501447
0.536191 0.520191 0.513553
0.544616 0.532297 0.525659
0.534682 0.503959 0.501001
0.543107 0.516065 0.513107
0.551533 0.528171 0.525213
0.559958 0.540277 0.537319
0.568383 0.552383 0.549425
0.444231 0.428231 0.406870
0.452657 0.440337 0.418976
0.461082 0.452443 0.431082
0.469507 0.464549 0.443188
0.477932 0.476655 0.455294
0.467998 0.448317 0.430636
0.476423 0.460423 0.442742
0.484848 0.472529 0.454848
0.493274 0.484635 0.466954
0.501699 0.496741 0.479060
0.491765 0.468403 0.454403
0.500190 0.480509 0.466509
0.508615 0.492615 0.478615
0.517040 0.504721 0.490721
0.525465 0.516827 0.502827
0.515531 0.488489 0.478170
0.523956 0.500595 0.490276
0.532382 0.512701 0.502382
0.540807 0.524807 0.514488
0.549232 0.536913 0.526594
0.539298 0.508575 0.501936
0.547723 0.520681 0.514042
0.556148 0.532787 0.526148
0.564573 0.544893 0.538254
0.572999 0.556999 0.550360
0.448847 0.432847 0.407805
0.457272 0.444953 0.419911
0.465697 0.457059 0.432017
0.474123 0.469165 0.444123
0.482548 0.481271 0.456229
0.472614 0.452933 0.431571
0.481039 0.465039 0.443677
0.489464 0.477145 0.455783
0.497889 0.489251 0.467889
0.506315 0.501357 0.479995
0.496380 0.473019 0.455338
0.504805 0.485125 0.467444
0.513231 0.497231 0.479550
0.521656 0.509337 0.491656
0.530081 0.521443 0.503762
0.520147 0.493105 0.479105
0.528572 0.505211 0.491211
0.536997 0.517317 0.503317
0.545423 0.529423 0.515423
0.553848 0.541529 0.527529
0.543913 0.513190 0.502871
0.552339 0.525296 0.514977
0.560764 0.537402 0.527083
0.569189 0.549508 0.539189
0.577614 0.561614 0.551295
0.453463 0.437463 0.408740
0.461888 0.449569 0.420846
0.470313 0.461675 0.432952
0.478738 0.473781 0.445058
0.487164 0.485887 0.457164
0.477229 0.457549 0.432506
0.485654 0.469654 0.444612
0.494080 0.481760 0.456718
0.502505 0.493866 0.468824
0.510930 0.505972 0.480930
0.500996 0.477634 0.456273
0.509421 0.489740 0.468379
0.517846 0.501846 0.480485
0.526272 0.513952 0.492591
0.534697 0.526058 0.504697
0.524762 0.497720 0.480039
0.533188 0.509826 0.492145
0.541613 0.521932 0.504251
0.550038 0.534038 0.516357
0.558463 0.546144 0.528463
0.548529 0.517806 0.503806
0.556954 0.529912 0.515912
0.565380 0.542018 0.528018
0.573805 0.554124 0.540124
0.582230 0.566230 0.552230
