shared/src/main/assets/luts/film_neon_night.cube
TITLE "DALUR Neon Night"
LUT_3D_SIZE 5
DOMAIN_MIN 0.0 0.0 0.0
DOMAIN_MAX 1.0 1.0 1.0
0.412800 0.414000 0.427200
0.431808 0.421811 0.435011
0.450815 0.429623 0.442823
0.469823 0.437434 0.450634
0.488831 0.445245 0.458445
0.428135 0.440532 0.442535
0.447143 0.448343 0.450347
0.466151 0.456154 0.458158
0.485159 0.463966 0.465969
0.504166 0.471777 0.473781
0.443471 0.467063 0.457871
0.462478 0.474875 0.465682
0.481486 0.482686 0.473493
0.500494 0.490498 0.481305
0.519502 0.498309 0.489116
0.458806 0.493595 0.473206
0.477814 0.501407 0.481017
0.496821 0.509218 0.488829
0.515829 0.517029 0.496640
0.534837 0.524841 0.504451
0.474141 0.520127 0.488541
0.493149 0.527938 0.496353
0.512157 0.535750 0.504164
0.531165 0.543561 0.511975
0.550172 0.551372 0.519787
0.415778 0.416978 0.441375
0.434786 0.424790 0.449186
0.453794 0.432601 0.456997
0.472801 0.440412 0.464809
0.491809 0.448224 0.472620
0.431114 0.443510 0.456710
0.450121 0.451321 0.464521
0.469129 0.459133 0.472333
0.488137 0.466944 0.480144
0.507145 0.474755 0.487955
0.446449 0.470042 0.472045
0.465457 0.477853 0.479857
0.484464 0.485664 0.487668
0.503472 0.493476 0.495479
0.522480 0.501287 0.503291
0.461784 0.496573 0.487381
0.480792 0.504385 0.495192
0.499800 0.512196 0.503003
0.518807 0.520007 0.510815
0.537815 0.527819 0.518626
0.477120 0.523105 0.502716
0.496127 0.530916 0.510527
0.515135 0.538728 0.518339
0.534143 0.546539 0.526150
0.553151 0.554351 0.533961
0.418756 0.419956 0.455549
0.437764 0.427768 0.463361
0.456772 0.435579 0.471172
0.475780 0.443391 0.478983
0.494787 0.451202 0.486795
0.434092 0.446488 0.470885
0.453100 0.454300 0.478696
0.472107 0.462111 0.486507
0.491115 0.469922 0.494319
0.510123 0.477734 0.502130
0.449427 0.473020 0.486220
0.468435 0.480831 0.494031
0.487443 0.488643 0.501843
0.506450 0.496454 0.509654
0.525458 0.504265 0.517465
0.464762 0.499552 0.501555
0.483770 0.507363 0.509367
0.502778 0.515174 0.517178
0.521786 0.522986 0.524989
0.540793 0.530797 0.532801
0.480098 0.526083 0.516891
0.499106 0.533895 0.524702
0.518113 0.541706 0.532513
0.537121 0.549517 0.540325
0.556129 0.557329 0.548136
0.421735 0.422935 0.469724
0.440742 0.430746 0.477535
0.459750 0.438557 0.485347
0.478758 0.446369 0.493158
0.497766 0.454180 0.500969
0.437070 0.449466 0.485059
0.456078 0.457278 0.492871
0.475086 0.465089 0.500682
0.494093 0.472901 0.508493
0.513101 0.480712 0.516305
0.452405 0.475998 0.500395
0.471413 0.483810 0.508206
0.490421 0.491621 0.516017
0.509429 0.499432 0.523829
0.528436 0.507244 0.531640
0.467741 0.502530 0.515730
0.486748 0.510341 0.523541
0.505756 0.518153 0.531353
0.524764 0.525964 0.539164
0.543772 0.533775 0.546975
0.483076 0.529062 0.531065
0.502084 0.536873 0.538877
0.521092 0.544684 0.546688
0.540099 0.552496 0.554499
0.559107 0.560307 0.562311
0.424713 0.425913 0.483899
0.443721 0.433724 0.491710
0.462728 0.441536 0.499521
0.481736 0.449347 0.507333
0.500744 0.457158 0.515144
0.440048 0.452445 0.499234
0.459056 0.460256 0.507045
0.478064 0.468067 0.514857
0.497072 0.475879 0.522668
0.516079 0.483690 0.530479
0.455384 0.478976 0.514569
0.474391 0.486788 0.522381
0.493399 0.494599 0.530192
0.512407 0.502410 0.538003
0.531415 0.510222 0.545815
0.470719 0.505508 0.529905
0.489727 0.513319 0.537716
0.508734 0.521131 0.545527
0.527742 0.528942 0.553339
0.546750 0.536754 0.561150
0.486054 0.532040 0.545240
0.505062 0.539851 0.553051
0.524070 0.547663 0.560863
0.543078 0.555474 0.568674
0.562085 0.563285 0.576485
