shared/src/main/assets/luts/film_warm_desire.cube
TITLE "DALUR Warm Desire"
LUT_3D_SIZE 9
DOMAIN_MIN 0.0 0.0 0.0
DOMAIN_MAX 1.0 1.0 1.0
0.466800 0.447500 0.433200
0.471852 0.450677 0.436377
0.476904 0.453854 0.439554
0.481956 0.457031 0.442731
0.487007 0.460207 0.445908
0.492059 0.463384 0.449084
0.497111 0.466561 0.452261
0.502163 0.469738 0.455438
0.507215 0.472915 0.458615
0.473037 0.455612 0.439437
0.478089 0.458789 0.442614
0.483141 0.461966 0.445791
0.488192 0.465143 0.448968
0.493244 0.468319 0.452144
0.498296 0.471496 0.455321
0.503348 0.474673 0.458498
0.508400 0.477850 0.461675
0.513452 0.481027 0.464852
0.479274 0.463724 0.445674
0.484326 0.466901 0.448851
0.489377 0.470077 0.452027
0.494429 0.473254 0.455204
0.499481 0.476431 0.458381
0.504533 0.479608 0.461558
0.509585 0.482785 0.464735
0.514637 0.485962 0.467912
0.519689 0.489139 0.471089
0.485511 0.471836 0.451911
0.490563 0.475013 0.455088
0.495614 0.478189 0.458264
0.500666 0.481366 0.461441
0.505718 0.484543 0.464618
0.510770 0.487720 0.467795
0.515822 0.490897 0.470972
0.520874 0.494074 0.474149
0.525926 0.497251 0.477326
0.491748 0.479947 0.458148
0.496799 0.483124 0.461324
0.501851 0.486301 0.464501
0.506903 0.489478 0.467678
0.511955 0.492655 0.470855
0.517007 0.495832 0.474032
0.522059 0.499009 0.477209
0.527111 0.502186 0.480386
0.532162 0.505363 0.483562
0.497984 0.488059 0.464384
0.503036 0.491236 0.467561
0.508088 0.494413 0.470738
0.513140 0.497590 0.473915
0.518192 0.500767 0.477092
0.523244 0.503944 0.480269
0.528296 0.507121 0.483446
0.533347 0.510297 0.486622
0.538399 0.513474 0.489799
0.504221 0.496171 0.470621
0.509273 0.499348 0.473798
0.514325 0.502525 0.476975
0.519377 0.505702 0.480152
0.524429 0.508879 0.483329
0.529481 0.512056 0.486506
0.534532 0.515232 0.489682
0.539584 0.518409 0.492859
0.544636 0.521586 0.496036
0.510458 0.504283 0.476858
0.515510 0.507460 0.480035
0.520562 0.510637 0.483212
0.525614 0.513814 0.486389
0.530666 0.516991 0.489566
0.535717 0.520168 0.492742
0.540769 0.523344 0.495919
0.545821 0.526521 0.499096
0.550873 0.529698 0.502273
0.516695 0.512395 0.483095
0.521747 0.515572 0.486272
0.526799 0.518749 0.489449
0.531851 0.521926 0.492626
0.536903 0.525103 0.495803
0.541954 0.528279 0.498979
0.547006 0.531456 0.502156
0.552058 0.534633 0.505333
0.557110 0.537810 0.508510
0.468011 0.448711 0.436286
0.473063 0.451888 0.439463
0.478115 0.455065 0.442640
0.483167 0.458242 0.445817
0.488219 0.461419 0.448994
0.493271 0.464596 0.452171
0.498323 0.467772 0.455348
0.503374 0.470949 0.458524
0.508426 0.474126 0.461701
0.474248 0.456823 0.442523
0.479300 0.460000 0.445700
0.484352 0.463177 0.448877
0.489404 0.466354 0.452054
0.494456 0.469531 0.455231
0.499507 0.472708 0.458408
0.504559 0.475884 0.461584
0.509611 0.479061 0.464761
0.514663 0.482238 0.467938
0.480485 0.464935 0.448760
0.485537 0.468112 0.451937
0.490589 0.471289 0.455114
0.495641 0.474466 0.458291
0.500692 0.477642 0.461467
0.505744 0.480819 0.464644
0.510796 0.483996 0.467821
0.515848 0.487173 0.470998
0.520900 0.490350 0.474175
0.486722 0.473047 0.454997
0.491774 0.476224 0.458174
0.496826 0.479401 0.461351
0.501877 0.482577 0.464528
0.506929 0.485754 0.467704
0.511981 0.488931 0.470881
0.517033 0.492108 0.474058
0.522085 0.495285 0.477235
0.527137 0.498462 0.480412
0.492959 0.481159 0.461234
0.498011 0.484336 0.464411
0.503062 0.487512 0.467587
0.508114 0.490689 0.470764
0.513166 0.493866 0.473941
0.518218 0.497043 0.477118
0.523270 0.500220 0.480295
0.528322 0.503397 0.483472
0.533374 0.506574 0.486649
0.499196 0.489271 0.467471
0.504248 0.492447 0.470648
0.509299 0.495624 0.473824
0.514351 0.498801 0.477001
0.519403 0.501978 0.480178
0.524455 0.505155 0.483355
0.529507 0.508332 0.486532
0.534559 0.511509 0.489709
0.539611 0.514686 0.492886
0.505433 0.497383 0.473708
0.510484 0.500559 0.476884
0.515536 0.503736 0.480061
0.520588 0.506913 0.483238
0.525640 0.510090 0.486415
0.530692 0.513267 0.489592
0.535744 0.516444 0.492769
0.540796 0.519621 0.495946
0.545848 0.522798 0.499122
0.511669 0.505494 0.479944
0.516721 0.508671 0.483121
0.521773 0.511848 0.486298
0.526825 0.515025 0.489475
0.531877 0.518202 0.492652
0.536929 0.521379 0.495829
0.541981 0.524556 0.499006
0.547032 0.527732 0.502182
0.552084 0.530909 0.505359
0.517906 0.513606 0.486181
0.522958 0.516783 0.489358
0.528010 0.519960 0.492535
0.533062 0.523137 0.495712
0.538114 0.526314 0.498889
0.543166 0.529491 0.502066
0.548218 0.532668 0.505243
0.553269 0.535844 0.508419
0.558321 0.539021 0.511596
0.469222 0.449923 0.439372
0.474274 0.453099 0.442549
0.479326 0.456276 0.445726
0.484378 0.459453 0.448903
0.489430 0.462630 0.452080
0.494482 0.465807 0.455257
0.499534 0.468984 0.458434
0.504586 0.472161 0.461611
0.509637 0.475337 0.464787
0.475459 0.458034 0.445609
0.480511 0.461211 0.448786
0.485563 0.464388 0.451963
0.490615 0.467565 0.455140
0.495667 0.470742 0.458317
0.500719 0.473919 0.461494
0.505771 0.477096 0.464671
0.510822 0.480272 0.467847
0.515874 0.483449 0.471024
0.481696 0.466146 0.451846
0.486748 0.469323 0.455023
0.491800 0.472500 0.458200
0.496852 0.475677 0.461377
0.501904 0.478854 0.464554
0.506956 0.482031 0.467731
0.512007 0.485207 0.470907
0.517059 0.488384 0.474084
0.522111 0.491561 0.477261
0.487933 0.474258 0.458083
0.492985 0.477435 0.461260
0.498037 0.480612 0.464437
0.503089 0.483789 0.467614
0.508141 0.486966 0.470791
0.513192 0.490142 0.473967
0.518244 0.493319 0.477144
0.523296 0.496496 0.480321
0.528348 0.499673 0.483498
0.494170 0.482370 0.464320
0.499222 0.485547 0.467497
0.504274 0.488724 0.470674
0.509326 0.491901 0.473851
0.514377 0.495077 0.477027
0.519429 0.498254 0.480204
0.524481 0.501431 0.483381
0.529533 0.504608 0.486558
0.534585 0.507785 0.489735
0.500407 0.490482 0.470557
0.505459 0.493659 0.473734
0.510511 0.496836 0.476911
0.515563 0.500013 0.480088
0.520614 0.503189 0.483264
0.525666 0.506366 0.486441
0.530718 0.509543 0.489618
0.535770 0.512720 0.492795
0.540822 0.515897 0.495972
0.506644 0.498594 0.476794
0.511696 0.501771 0.479971
0.516748 0.504947 0.483148
0.521799 0.508124 0.486324
0.526851 0.511301 0.489501
0.531903 0.514478 0.492678
0.536955 0.517655 0.495855
0.542007 0.520832 0.499032
0.547059 0.524009 0.502209
0.512881 0.506706 0.483031
0.517933 0.509883 0.486208
0.522984 0.513059 0.489384
0.528036 0.516236 0.492561
0.533088 0.519413 0.495738
0.538140 0.522590 0.498915
0.543192 0.525767 0.502092
0.548244 0.528944 0.505269
0.553296 0.532121 0.508446
0.519118 0.514818 0.489268
0.524169 0.517994 0.492444
0.529221 0.521171 0.495621
0.534273 0.524348 0.498798
0.539325 0.527525 0.501975
0.544377 0.530702 0.505152
0.549429 0.533879 0.508329
0.554481 0.537056 0.511506
0.559533 0.540233 0.514683
0.470434 0.451134 0.442459
0.475486 0.454311 0.445636
0.480537 0.457487 0.448812
0.485589 0.460664 0.451989
0.490641 0.463841 0.455166
0.495693 0.467018 0.458343
0.500745 0.470195 0.461520
0.505797 0.473372 0.464697
0.510849 0.476549 0.467874
0.476671 0.459246 0.448696
0.481722 0.462423 0.451873
0.486774 0.465599 0.455049
0.491826 0.468776 0.458226
0.496878 0.471953 0.461403
0.501930 0.475130 0.464580
0.506982 0.478307 0.467757
0.512034 0.481484 0.470934
0.517086 0.484661 0.474111
0.482907 0.467357 0.454933
0.487959 0.470534 0.458109
0.493011 0.473711 0.461286
0.498063 0.476888 0.464463
0.503115 0.480065 0.467640
0.508167 0.483242 0.470817
0.513219 0.486419 0.473994
0.518271 0.489596 0.477171
0.523323 0.492772 0.480347
0.489144 0.475469 0.461169
0.494196 0.478646 0.464346
0.499248 0.481823 0.467523
0.504300 0.485000 0.470700
0.509352 0.488177 0.473877
0.514404 0.491354 0.477054
0.519456 0.494531 0.480231
0.524508 0.497707 0.483407
0.529559 0.500884 0.486584
0.495381 0.483581 0.467406
0.500433 0.486758 0.470583
0.505485 0.489935 0.473760
0.510537 0.493112 0.476937
0.515589 0.496289 0.480114
0.520641 0.499466 0.483291
0.525693 0.502643 0.486467
0.530744 0.505819 0.489644
0.535796 0.508996 0.492821
0.501618 0.491693 0.473643
0.506670 0.494870 0.476820
0.511722 0.498047 0.479997
0.516774 0.501224 0.483174
0.521826 0.504401 0.486351
0.526877 0.507578 0.489527
0.531929 0.510754 0.492704
0.536981 0.513931 0.495881
0.542033 0.517108 0.499058
0.507855 0.499805 0.479880
0.512907 0.502982 0.483057
0.517959 0.506159 0.486234
0.523011 0.509336 0.489411
0.528062 0.512513 0.492588
0.533114 0.515689 0.495764
0.538166 0.518866 0.498941
0.543218 0.522043 0.502118
0.548270 0.525220 0.505295
0.514092 0.507917 0.486117
0.519144 0.511094 0.489294
0.524196 0.514271 0.492471
0.529248 0.517448 0.495648
0.534299 0.520624 0.498824
0.539351 0.523801 0.502001
0.544403 0.526978 0.505178
0.549455 0.530155 0.508355
0.554507 0.533332 0.511532
0.520329 0.516029 0.492354
0.525381 0.519206 0.495531
0.530433 0.522383 0.498708
0.535484 0.525559 0.501884
0.540536 0.528736 0.505061
0.545588 0.531913 0.508238
0.550640 0.535090 0.511415
0.555692 0.538267 0.514592
0.560744 0.541444 0.517769
0.471645 0.452345 0.445545
0.476697 0.455522 0.448722
0.481749 0.458699 0.451899
0.486801 0.461876 0.455076
0.491852 0.465052 0.458253
0.496904 0.468229 0.461429
0.501956 0.471406 0.464606
0.507008 0.474583 0.467783
0.512060 0.477760 0.470960
0.477882 0.460457 0.451782
0.482934 0.463634 0.454959
0.487986 0.466811 0.458136
0.493037 0.469988 0.461313
0.498089 0.473164 0.464489
0.503141 0.476341 0.467666
0.508193 0.479518 0.470843
0.513245 0.482695 0.474020
0.518297 0.485872 0.477197
0.484119 0.468569 0.458019
0.489171 0.471746 0.461196
0.494222 0.474922 0.464372
0.499274 0.478099 0.467549
0.504326 0.481276 0.470726
0.509378 0.484453 0.473903
0.514430 0.487630 0.477080
0.519482 0.490807 0.480257
0.524534 0.493984 0.483434
0.490356 0.476681 0.464256
0.495408 0.479857 0.467433
0.500459 0.483034 0.470609
0.505511 0.486211 0.473786
0.510563 0.489388 0.476963
0.515615 0.492565 0.480140
0.520667 0.495742 0.483317
0.525719 0.498919 0.486494
0.530771 0.502096 0.489671
0.496592 0.484792 0.470492
0.501644 0.487969 0.473669
0.506696 0.491146 0.476846
0.511748 0.494323 0.480023
0.516800 0.497500 0.483200
0.521852 0.500677 0.486377
0.526904 0.503854 0.489554
0.531956 0.507031 0.492731
0.537008 0.510208 0.495908
0.502829 0.492904 0.476729
0.507881 0.496081 0.479906
0.512933 0.499258 0.483083
0.517985 0.502435 0.486260
0.523037 0.505612 0.489437
0.528089 0.508789 0.492614
0.533141 0.511966 0.495791
0.538192 0.515143 0.498967
0.543244 0.518319 0.502144
0.509066 0.501016 0.482966
0.514118 0.504193 0.486143
0.519170 0.507370 0.489320
0.524222 0.510547 0.492497
0.529274 0.513724 0.495674
0.534326 0.516901 0.498851
0.539378 0.520078 0.502027
0.544429 0.523254 0.505204
0.549481 0.526431 0.508381
0.515303 0.509128 0.489203
0.520355 0.512305 0.492380
0.525407 0.515482 0.495557
0.530459 0.518659 0.498734
0.535511 0.521836 0.501911
0.540562 0.525012 0.505087
0.545614 0.528189 0.508264
0.550666 0.531366 0.511441
0.555718 0.534543 0.514618
0.521540 0.517240 0.495440
0.526592 0.520417 0.498617
0.531644 0.523594 0.501794
0.536696 0.526771 0.504971
0.541748 0.529948 0.508148
0.546799 0.533124 0.511324
0.551851 0.536301 0.514501
0.556903 0.539478 0.517678
0.561955 0.542655 0.520855
0.472856 0.453556 0.448631
0.477908 0.456733 0.451808
0.482960 0.459910 0.454985
0.488012 0.463087 0.458162
0.493064 0.466264 0.461339
0.498116 0.469441 0.464516
0.503167 0.472617 0.467693
0.508219 0.475794 0.470869
0.513271 0.478971 0.474046
0.479093 0.461668 0.454868
0.484145 0.464845 0.458045
0.489197 0.468022 0.461222
0.494249 0.471199 0.464399
0.499301 0.474376 0.467576
0.504352 0.477552 0.470752
0.509404 0.480729 0.473929
0.514456 0.483906 0.477106
0.519508 0.487083 0.480283
0.485330 0.469780 0.461105
0.490382 0.472957 0.464282
0.495434 0.476134 0.467459
0.500486 0.479311 0.470636
0.505537 0.482487 0.473812
0.510589 0.485664 0.476989
0.515641 0.488841 0.480166
0.520693 0.492018 0.483343
0.525745 0.495195 0.486520
0.491567 0.477892 0.467342
0.496619 0.481069 0.470519
0.501671 0.484246 0.473696
0.506722 0.487422 0.476873
0.511774 0.490599 0.480049
0.516826 0.493776 0.483226
0.521878 0.496953 0.486403
0.526930 0.500130 0.489580
0.531982 0.503307 0.492757
0.497804 0.486004 0.473579
0.502856 0.489181 0.476756
0.507907 0.492357 0.479932
0.512959 0.495534 0.483109
0.518011 0.498711 0.486286
0.523063 0.501888 0.489463
0.528115 0.505065 0.492640
0.533167 0.508242 0.495817
0.538219 0.511419 0.498994
0.504041 0.494116 0.479816
0.509093 0.497292 0.482992
0.514144 0.500469 0.486169
0.519196 0.503646 0.489346
0.524248 0.506823 0.492523
0.529300 0.510000 0.495700
0.534352 0.513177 0.498877
0.539404 0.516354 0.502054
0.544456 0.519531 0.505231
0.510278 0.502228 0.486052
0.515329 0.505404 0.489229
0.520381 0.508581 0.492406
0.525433 0.511758 0.495583
0.530485 0.514935 0.498760
0.535537 0.518112 0.501937
0.540589 0.521289 0.505114
0.545641 0.524466 0.508291
0.550692 0.527643 0.511467
0.516514 0.510339 0.492289
0.521566 0.513516 0.495466
0.526618 0.516693 0.498643
0.531670 0.519870 0.501820
0.536722 0.523047 0.504997
0.541774 0.526224 0.508174
0.546826 0.529401 0.511351
0.551878 0.532578 0.514527
0.556929 0.535754 0.517704
0.522751 0.518451 0.498526
0.527803 0.521628 0.501703
0.532855 0.524805 0.504880
0.537907 0.527982 0.508057
0.542959 0.531159 0.511234
0.548011 0.534336 0.514411
0.553063 0.537513 0.517587
0.558114 0.540689 0.520764
0.563166 0.543866 0.523941
0.474067 0.454767 0.451718
0.479119 0.457944 0.454894
0.484171 0.461121 0.458071
0.489223 0.464298 0.461248
0.494275 0.467475 0.464425
0.499327 0.470652 0.467602
0.504379 0.473829 0.470779
0.509431 0.477006 0.473956
0.514483 0.480183 0.477133
0.480304 0.462879 0.457954
0.485356 0.466056 0.461131
0.490408 0.469233 0.464308
0.495460 0.472410 0.467485
0.500512 0.475587 0.470662
0.505564 0.478764 0.473839
0.510616 0.481941 0.477016
0.515667 0.485117 0.480193
0.520719 0.488294 0.483369
0.486541 0.470991 0.464191
0.491593 0.474168 0.467368
0.496645 0.477345 0.470545
0.501697 0.480522 0.473722
0.506749 0.483699 0.476899
0.511801 0.486876 0.480076
0.516853 0.490053 0.483253
0.521904 0.493229 0.486429
0.526956 0.496406 0.489606
0.492778 0.479103 0.470428
0.497830 0.482280 0.473605
0.502882 0.485457 0.476782
0.507934 0.488634 0.479959
0.512986 0.491811 0.483136
0.518038 0.494987 0.486312
0.523089 0.498164 0.489489
0.528141 0.501341 0.492666
0.533193 0.504518 0.495843
0.499015 0.487215 0.476665
0.504067 0.490392 0.479842
0.509119 0.493569 0.483019
0.514171 0.496746 0.486196
0.519222 0.499922 0.489372
0.524274 0.503099 0.492549
0.529326 0.506276 0.495726
0.534378 0.509453 0.498903
0.539430 0.512630 0.502080
0.505252 0.495327 0.482902
0.510304 0.498504 0.486079
0.515356 0.501681 0.489256
0.520408 0.504857 0.492432
0.525459 0.508034 0.495609
0.530511 0.511211 0.498786
0.535563 0.514388 0.501963
0.540615 0.517565 0.505140
0.545667 0.520742 0.508317
0.511489 0.503439 0.489139
0.516541 0.506616 0.492316
0.521592 0.509792 0.495492
0.526644 0.512969 0.498669
0.531696 0.516146 0.501846
0.536748 0.519323 0.505023
0.541800 0.522500 0.508200
0.546852 0.525677 0.511377
0.551904 0.528854 0.514554
0.517726 0.511551 0.495376
0.522778 0.514728 0.498553
0.527829 0.517904 0.501729
0.532881 0.521081 0.504906
0.537933 0.524258 0.508083
0.542985 0.527435 0.511260
0.548037 0.530612 0.514437
0.553089 0.533789 0.517614
0.558141 0.536966 0.520791
0.523962 0.519663 0.501612
0.529014 0.522839 0.504789
0.534066 0.526016 0.507966
0.539118 0.529193 0.511143
0.544170 0.532370 0.514320
0.549222 0.535547 0.517497
0.554274 0.538724 0.520674
0.559326 0.541901 0.523851
0.564378 0.545078 0.527027
0.475279 0.455979 0.454804
0.480331 0.459156 0.457981
0.485382 0.462332 0.461157
0.490434 0.465509 0.464334
0.495486 0.468686 0.467511
0.500538 0.471863 0.470688
0.505590 0.475040 0.473865
0.510642 0.478217 0.477042
0.515694 0.481394 0.480219
0.481516 0.464091 0.461041
0.486567 0.467268 0.464218
0.491619 0.470444 0.467394
0.496671 0.473621 0.470571
0.501723 0.476798 0.473748
0.506775 0.479975 0.476925
0.511827 0.483152 0.480102
0.516879 0.486329 0.483279
0.521931 0.489506 0.486456
0.487752 0.472203 0.467278
0.492804 0.475379 0.470454
0.497856 0.478556 0.473631
0.502908 0.481733 0.476808
0.507960 0.484910 0.479985
0.513012 0.488087 0.483162
0.518064 0.491264 0.486339
0.523116 0.494441 0.489516
0.528168 0.497617 0.492692
0.493989 0.480314 0.473514
0.499041 0.483491 0.476691
0.504093 0.486668 0.479868
0.509145 0.489845 0.483045
0.514197 0.493022 0.486222
0.519249 0.496199 0.489399
0.524301 0.499376 0.492576
0.529353 0.502553 0.495752
0.534404 0.505729 0.498929
0.500226 0.488426 0.479751
0.505278 0.491603 0.482928
0.510330 0.494780 0.486105
0.515382 0.497957 0.489282
0.520434 0.501134 0.492459
0.525486 0.504311 0.495636
0.530537 0.507487 0.498812
0.535589 0.510664 0.501989
0.540641 0.513841 0.505166
0.506463 0.496538 0.485988
0.511515 0.499715 0.489165
0.516567 0.502892 0.492342
0.521619 0.506069 0.495519
0.526671 0.509246 0.498696
0.531722 0.512423 0.501872
0.536774 0.515599 0.505049
0.541826 0.518776 0.508226
0.546878 0.521953 0.511403
0.512700 0.504650 0.492225
0.517752 0.507827 0.495402
0.522804 0.511004 0.498579
0.527856 0.514181 0.501756
0.532907 0.517358 0.504932
0.537959 0.520534 0.508109
0.543011 0.523711 0.511286
0.548063 0.526888 0.514463
0.553115 0.530065 0.517640
0.518937 0.512762 0.498462
0.523989 0.515939 0.501639
0.529041 0.519116 0.504816
0.534092 0.522293 0.507992
0.539144 0.525469 0.511169
0.544196 0.528646 0.514346
0.549248 0.531823 0.517523
0.554300 0.535000 0.520700
0.559352 0.538177 0.523877
0.525174 0.520874 0.504699
0.530226 0.524051 0.507876
0.535278 0.527228 0.511053
0.540329 0.530404 0.514229
0.545381 0.533581 0.517406
0.550433 0.536758 0.520583
0.555485 0.539935 0.523760
0.560537 0.543112 0.526937
0.565589 0.546289 0.530114
0.476490 0.457190 0.457890
0.481542 0.460367 0.461067
0.486594 0.463544 0.464244
0.491646 0.466721 0.467421
0.496697 0.469897 0.470597
0.501749 0.473074 0.473774
0.506801 0.476251 0.476951
0.511853 0.479428 0.480128
0.516905 0.482605 0.483305
0.482727 0.465302 0.464127
0.487779 0.468479 0.467304
0.492831 0.471656 0.470481
0.497882 0.474832 0.473658
0.502934 0.478009 0.476834
0.507986 0.481186 0.480011
0.513038 0.484363 0.483188
0.518090 0.487540 0.486365
0.523142 0.490717 0.489542
0.488964 0.473414 0.470364
0.494016 0.476591 0.473541
0.499067 0.479767 0.476717
0.504119 0.482944 0.479894
0.509171 0.486121 0.483071
0.514223 0.489298 0.486248
0.519275 0.492475 0.489425
0.524327 0.495652 0.492602
0.529379 0.498829 0.495779
0.495201 0.481526 0.476601
0.500252 0.484702 0.479778
0.505304 0.487879 0.482954
0.510356 0.491056 0.486131
0.515408 0.494233 0.489308
0.520460 0.497410 0.492485
0.525512 0.500587 0.495662
0.530564 0.503764 0.498839
0.535616 0.506941 0.502016
0.501437 0.489638 0.482838
0.506489 0.492814 0.486014
0.511541 0.495991 0.489191
0.516593 0.499168 0.492368
0.521645 0.502345 0.495545
0.526697 0.505522 0.498722
0.531749 0.508699 0.501899
0.536801 0.511876 0.505076
0.541852 0.515053 0.508252
0.507674 0.497749 0.489074
0.512726 0.500926 0.492251
0.517778 0.504103 0.495428
0.522830 0.507280 0.498605
0.527882 0.510457 0.501782
0.532934 0.513634 0.504959
0.537986 0.516811 0.508136
0.543038 0.519988 0.511312
0.548089 0.523164 0.514489
0.513911 0.505861 0.495311
0.518963 0.509038 0.498488
0.524015 0.512215 0.501665
0.529067 0.515392 0.504842
0.534119 0.518569 0.508019
0.539171 0.521746 0.511196
0.544222 0.524922 0.514372
0.549274 0.528099 0.517549
0.554326 0.531276 0.520726
0.520148 0.513973 0.501548
0.525200 0.517150 0.504725
0.530252 0.520327 0.507902
0.535304 0.523504 0.511079
0.540356 0.526681 0.514256
0.545408 0.529857 0.517432
0.550459 0.533034 0.520609
0.555511 0.536211 0.523786
0.560563 0.539388 0.526963
0.526385 0.522085 0.507785
0.531437 0.525262 0.510962
0.536489 0.528439 0.514139
0.541541 0.531616 0.517316
0.546593 0.534793 0.520493
0.551644 0.537969 0.523669
0.556696 0.541146 0.526846
0.561748 0.544323 0.530023
0.566800 0.547500 0.533200
