shared/src/main/assets/luts/film_electric_red.cube
TITLE "DALUR Electric Red"
LUT_3D_SIZE 17
DOMAIN_MIN 0.0 0.0 0.0
DOMAIN_MAX 1.0 1.0 1.0
0.430000 0.423000 0.430000
0.434601 0.424643 0.431643
0.439202 0.426285 0.433285
0.443802 0.427928 0.434928
0.448403 0.429571 0.436571
0.453004 0.431213 0.438213
0.457605 0.432856 0.439856
0.462206 0.434498 0.441498
0.466807 0.436141 0.443141
0.471407 0.437784 0.444784
0.476008 0.439426 0.446426
0.480609 0.441069 0.448069
0.485210 0.442712 0.449712
0.489811 0.444354 0.451354
0.494411 0.445997 0.452997
0.499012 0.447640 0.454640
0.503613 0.449282 0.456282
0.433225 0.429183 0.433225
0.437826 0.430826 0.434867
0.442426 0.432468 0.436510
0.447027 0.434111 0.438153
0.451628 0.435754 0.439795
0.456229 0.437396 0.441438
0.460830 0.439039 0.443081
0.465431 0.440681 0.444723
0.470031 0.442324 0.446366
0.474632 0.443967 0.448009
0.479233 0.445609 0.449651
0.483834 0.447252 0.451294
0.488435 0.448895 0.452936
0.493035 0.450537 0.454579
0.497636 0.452180 0.456222
0.502237 0.453823 0.457864
0.506838 0.455465 0.459507
0.436450 0.435366 0.436450
0.441050 0.437009 0.438092
0.445651 0.438651 0.439735
0.450252 0.440294 0.441378
0.454853 0.441937 0.443020
0.459454 0.443579 0.444663
0.464055 0.445222 0.446305
0.468655 0.446864 0.447948
0.473256 0.448507 0.449591
0.477857 0.450150 0.451233
0.482458 0.451792 0.452876
0.487059 0.453435 0.454519
0.491659 0.455078 0.456161
0.496260 0.456720 0.457804
0.500861 0.458363 0.459447
0.505462 0.460006 0.461089
0.510063 0.461648 0.462732
0.439675 0.441549 0.439675
0.444275 0.443192 0.441317
0.448876 0.444834 0.442960
0.453477 0.446477 0.444602
0.458078 0.448120 0.446245
0.462679 0.449762 0.447888
0.467279 0.451405 0.449530
0.471880 0.453048 0.451173
0.476481 0.454690 0.452816
0.481082 0.456333 0.454458
0.485683 0.457975 0.456101
0.490283 0.459618 0.457744
0.494884 0.461261 0.459386
0.499485 0.462903 0.461029
0.504086 0.464546 0.462671
0.508687 0.466189 0.464314
0.513288 0.467831 0.465957
0.442899 0.447732 0.442899
0.447500 0.449375 0.444542
0.452101 0.451017 0.446185
0.456702 0.452660 0.447827
0.461303 0.454303 0.449470
0.465903 0.455945 0.451113
0.470504 0.457588 0.452755
0.475105 0.459231 0.454398
0.479706 0.460873 0.456040
0.484307 0.462516 0.457683
0.488908 0.464158 0.459326
0.493508 0.465801 0.460968
0.498109 0.467444 0.462611
0.502710 0.469086 0.464254
0.507311 0.470729 0.465896
0.511912 0.472372 0.467539
0.516512 0.474014 0.469182
0.446124 0.453915 0.446124
0.450725 0.455558 0.447767
0.455326 0.457200 0.449409
0.459927 0.458843 0.451052
0.464527 0.460486 0.452695
0.469128 0.462128 0.454337
0.473729 0.463771 0.455980
0.478330 0.465414 0.457623
0.482931 0.467056 0.459265
0.487532 0.468699 0.460908
0.492132 0.470341 0.462551
0.496733 0.471984 0.464193
0.501334 0.473627 0.465836
0.505935 0.475269 0.467478
0.510536 0.476912 0.469121
0.515136 0.478555 0.470764
0.519737 0.480197 0.472406
0.449349 0.460098 0.449349
0.453950 0.461741 0.450992
0.458551 0.463383 0.452634
0.463151 0.465026 0.454277
0.467752 0.466669 0.455920
0.472353 0.468311 0.457562
0.476954 0.469954 0.459205
0.481555 0.471597 0.460847
0.486156 0.473239 0.462490
0.490756 0.474882 0.464133
0.495357 0.476524 0.465775
0.499958 0.478167 0.467418
0.504559 0.479810 0.469061
0.509160 0.481452 0.470703
0.513760 0.483095 0.472346
0.518361 0.484738 0.473989
0.522962 0.486380 0.475631
0.452574 0.466281 0.452574
0.457175 0.467924 0.454217
0.461776 0.469566 0.455859
0.466376 0.471209 0.457502
0.470977 0.472852 0.459144
0.475578 0.474494 0.460787
0.480179 0.476137 0.462430
0.484780 0.477780 0.464072
0.489380 0.479422 0.465715
0.493981 0.481065 0.467358
0.498582 0.482707 0.469000
0.503183 0.484350 0.470643
0.507784 0.485993 0.472285
0.512384 0.487635 0.473928
0.516985 0.489278 0.475571
0.521586 0.490921 0.477213
0.526187 0.492563 0.478856
0.455799 0.472464 0.455799
0.460400 0.474107 0.457441
0.465000 0.475749 0.459084
0.469601 0.477392 0.460727
0.474202 0.479035 0.462369
0.478803 0.480677 0.464012
0.483404 0.482320 0.465655
0.488004 0.483963 0.467297
0.492605 0.485605 0.468940
0.497206 0.487248 0.470582
0.501807 0.488891 0.472225
0.506408 0.490533 0.473868
0.511008 0.492176 0.475510
0.515609 0.493818 0.477153
0.520210 0.495461 0.478796
0.524811 0.497104 0.480438
0.529412 0.498746 0.482081
0.459024 0.478647 0.459024
0.463624 0.480290 0.460666
0.468225 0.481932 0.462309
0.472826 0.483575 0.463951
0.477427 0.485218 0.465594
0.482028 0.486860 0.467237
0.486628 0.488503 0.468879
0.491229 0.490146 0.470522
0.495830 0.491788 0.472165
0.500431 0.493431 0.473807
0.505032 0.495074 0.475450
0.509633 0.496716 0.477093
0.514233 0.498359 0.478735
0.518834 0.500001 0.480378
0.523435 0.501644 0.482020
0.528036 0.503287 0.483663
0.532637 0.504929 0.485306
0.462248 0.484830 0.462248
0.466849 0.486473 0.463891
0.471450 0.488115 0.465534
0.476051 0.489758 0.467176
0.480652 0.491401 0.468819
0.485252 0.493043 0.470462
0.489853 0.494686 0.472104
0.494454 0.496329 0.473747
0.499055 0.497971 0.475389
0.503656 0.499614 0.477032
0.508257 0.501257 0.478675
0.512857 0.502899 0.480317
0.517458 0.504542 0.481960
0.522059 0.506184 0.483603
0.526660 0.507827 0.485245
0.531261 0.509470 0.486888
0.535861 0.511112 0.488531
0.465473 0.491013 0.465473
0.470074 0.492656 0.467116
0.474675 0.494298 0.468758
0.479276 0.495941 0.470401
0.483876 0.497584 0.472044
0.488477 0.499226 0.473686
0.493078 0.500869 0.475329
0.497679 0.502512 0.476972
0.502280 0.504154 0.478614
0.506881 0.505797 0.480257
0.511481 0.507440 0.481900
0.516082 0.509082 0.483542
0.520683 0.510725 0.485185
0.525284 0.512367 0.486827
0.529885 0.514010 0.488470
0.534485 0.515653 0.490113
0.539086 0.517295 0.491755
0.468698 0.497196 0.468698
0.473299 0.498839 0.470341
0.477900 0.500481 0.471983
0.482501 0.502124 0.473626
0.487101 0.503767 0.475269
0.491702 0.505409 0.476911
0.496303 0.507052 0.478554
0.500904 0.508695 0.480197
0.505505 0.510337 0.481839
0.510105 0.511980 0.483482
0.514706 0.513623 0.485124
0.519307 0.515265 0.486767
0.523908 0.516908 0.488410
0.528509 0.518550 0.490052
0.533109 0.520193 0.491695
0.537710 0.521836 0.493338
0.542311 0.523478 0.494980
0.471923 0.503379 0.471923
0.476524 0.505022 0.473566
0.481125 0.506665 0.475208
0.485725 0.508307 0.476851
0.490326 0.509950 0.478493
0.494927 0.511592 0.480136
0.499528 0.513235 0.481779
0.504129 0.514878 0.483421
0.508729 0.516520 0.485064
0.513330 0.518163 0.486707
0.517931 0.519806 0.488349
0.522532 0.521448 0.489992
0.527133 0.523091 0.491635
0.531734 0.524734 0.493277
0.536334 0.526376 0.494920
0.540935 0.528019 0.496562
0.545536 0.529661 0.498205
0.475148 0.509562 0.475148
0.479749 0.511205 0.476790
0.484349 0.512848 0.478433
0.488950 0.514490 0.480076
0.493551 0.516133 0.481718
0.498152 0.517775 0.483361
0.502753 0.519418 0.485004
0.507353 0.521061 0.486646
0.511954 0.522703 0.488289
0.516555 0.524346 0.489931
0.521156 0.525989 0.491574
0.525757 0.527631 0.493217
0.530358 0.529274 0.494859
0.534958 0.530917 0.496502
0.539559 0.532559 0.498145
0.544160 0.534202 0.499787
0.548761 0.535844 0.501430
0.478373 0.515745 0.478373
0.482973 0.517388 0.480015
0.487574 0.519031 0.481658
0.492175 0.520673 0.483300
0.496776 0.522316 0.484943
0.501377 0.523958 0.486586
0.505977 0.525601 0.488228
0.510578 0.527244 0.489871
0.515179 0.528886 0.491514
0.519780 0.530529 0.493156
0.524381 0.532172 0.494799
0.528982 0.533814 0.496442
0.533582 0.535457 0.498084
0.538183 0.537100 0.499727
0.542784 0.538742 0.501369
0.547385 0.540385 0.503012
0.551986 0.542027 0.504655
0.481597 0.521928 0.481597
0.486198 0.523571 0.483240
0.490799 0.525214 0.484883
0.495400 0.526856 0.486525
0.500001 0.528499 0.488168
0.504601 0.530141 0.489811
0.509202 0.531784 0.491453
0.513803 0.533427 0.493096
0.518404 0.535069 0.494739
0.523005 0.536712 0.496381
0.527606 0.538355 0.498024
0.532206 0.539997 0.499666
0.536807 0.541640 0.501309
0.541408 0.543283 0.502952
0.546009 0.544925 0.504594
0.550610 0.546568 0.506237
0.555210 0.548210 0.507880
0.430626 0.423626 0.433584
0.435227 0.425269 0.435227
0.439828 0.426912 0.436870
0.444429 0.428554 0.438512
0.449030 0.430197 0.440155
0.453630 0.431839 0.441798
0.458231 0.433482 0.443440
0.462832 0.435125 0.445083
0.467433 0.436767 0.446726
0.472034 0.438410 0.448368
0.476634 0.440053 0.450011
0.481235 0.441695 0.451653
0.485836 0.443338 0.453296
0.490437 0.444981 0.454939
0.495038 0.446623 0.456581
0.499639 0.448266 0.458224
0.504239 0.449908 0.459867
0.433851 0.429809 0.436809
0.438452 0.431452 0.438452
0.443053 0.433095 0.440095
0.447654 0.434737 0.441737
0.452254 0.436380 0.443380
0.456855 0.438022 0.445022
0.461456 0.439665 0.446665
0.466057 0.441308 0.448308
0.470658 0.442950 0.449950
0.475258 0.444593 0.451593
0.479859 0.446236 0.453236
0.484460 0.447878 0.454878
0.489061 0.449521 0.456521
0.493662 0.451164 0.458164
0.498263 0.452806 0.459806
0.502863 0.454449 0.461449
0.507464 0.456091 0.463091
0.437076 0.435992 0.440034
0.441677 0.437635 0.441677
0.446278 0.439278 0.443319
0.450878 0.440920 0.444962
0.455479 0.442563 0.446605
0.460080 0.444206 0.448247
0.464681 0.445848 0.449890
0.469282 0.447491 0.451533
0.473882 0.449133 0.453175
0.478483 0.450776 0.454818
0.483084 0.452419 0.456460
0.487685 0.454061 0.458103
0.492286 0.455704 0.459746
0.496887 0.457347 0.461388
0.501487 0.458989 0.463031
0.506088 0.460632 0.464674
0.510689 0.462274 0.466316
0.440301 0.442175 0.443259
0.444902 0.443818 0.444902
0.449502 0.445461 0.446544
0.454103 0.447103 0.448187
0.458704 0.448746 0.449830
0.463305 0.450389 0.451472
0.467906 0.452031 0.453115
0.472507 0.453674 0.454757
0.477107 0.455316 0.456400
0.481708 0.456959 0.458043
0.486309 0.458602 0.459685
0.490910 0.460244 0.461328
0.495511 0.461887 0.462971
0.500111 0.463530 0.464613
0.504712 0.465172 0.466256
0.509313 0.466815 0.467899
0.513914 0.468458 0.469541
0.443526 0.448358 0.446484
0.448126 0.450001 0.448126
0.452727 0.451644 0.449769
0.457328 0.453286 0.451412
0.461929 0.454929 0.453054
0.466530 0.456572 0.454697
0.471131 0.458214 0.456340
0.475731 0.459857 0.457982
0.480332 0.461499 0.459625
0.484933 0.463142 0.461268
0.489534 0.464785 0.462910
0.494135 0.466427 0.464553
0.498735 0.468070 0.466195
0.503336 0.469713 0.467838
0.507937 0.471355 0.469481
0.512538 0.472998 0.471123
0.517139 0.474641 0.472766
0.446750 0.454541 0.449709
0.451351 0.456184 0.451351
0.455952 0.457827 0.452994
0.460553 0.459469 0.454637
0.465154 0.461112 0.456279
0.469755 0.462755 0.457922
0.474355 0.464397 0.459564
0.478956 0.466040 0.461207
0.483557 0.467682 0.462850
0.488158 0.469325 0.464492
0.492759 0.470968 0.466135
0.497359 0.472610 0.467778
0.501960 0.474253 0.469420
0.506561 0.475896 0.471063
0.511162 0.477538 0.472706
0.515763 0.479181 0.474348
0.520364 0.480824 0.475991
0.449975 0.460724 0.452934
0.454576 0.462367 0.454576
0.459177 0.464010 0.456219
0.463778 0.465652 0.457861
0.468379 0.467295 0.459504
0.472979 0.468938 0.461147
0.477580 0.470580 0.462789
0.482181 0.472223 0.464432
0.486782 0.473865 0.466075
0.491383 0.475508 0.467717
0.495983 0.477151 0.469360
0.500584 0.478793 0.471002
0.505185 0.480436 0.472645
0.509786 0.482079 0.474288
0.514387 0.483721 0.475930
0.518988 0.485364 0.477573
0.523588 0.487007 0.479216
0.453200 0.466907 0.456158
0.457801 0.468550 0.457801
0.462402 0.470193 0.459444
0.467003 0.471835 0.461086
0.471603 0.473478 0.462729
0.476204 0.475121 0.464372
0.480805 0.476763 0.466014
0.485406 0.478406 0.467657
0.490007 0.480049 0.469299
0.494607 0.481691 0.470942
0.499208 0.483334 0.472585
0.503809 0.484976 0.474227
0.508410 0.486619 0.475870
0.513011 0.488262 0.477513
0.517612 0.489904 0.479155
0.522212 0.491547 0.480798
0.526813 0.493190 0.482441
0.456425 0.473090 0.459383
0.461026 0.474733 0.461026
0.465627 0.476376 0.462668
0.470227 0.478018 0.464311
0.474828 0.479661 0.465954
0.479429 0.481304 0.467596
0.484030 0.482946 0.469239
0.488631 0.484589 0.470882
0.493232 0.486232 0.472524
0.497832 0.487874 0.474167
0.502433 0.489517 0.475810
0.507034 0.491159 0.477452
0.511635 0.492802 0.479095
0.516236 0.494445 0.480737
0.520836 0.496087 0.482380
0.525437 0.497730 0.484023
0.530038 0.499373 0.485665
0.459650 0.479273 0.462608
0.464251 0.480916 0.464251
0.468851 0.482559 0.465893
0.473452 0.484201 0.467536
0.478053 0.485844 0.469179
0.482654 0.487487 0.470821
0.487255 0.489129 0.472464
0.491856 0.490772 0.474106
0.496456 0.492415 0.475749
0.501057 0.494057 0.477392
0.505658 0.495700 0.479034
0.510259 0.497342 0.480677
0.514860 0.498985 0.482320
0.519460 0.500628 0.483962
0.524061 0.502270 0.485605
0.528662 0.503913 0.487248
0.533263 0.505556 0.488890
0.462875 0.485456 0.465833
0.467475 0.487099 0.467475
0.472076 0.488742 0.469118
0.476677 0.490384 0.470761
0.481278 0.492027 0.472403
0.485879 0.493670 0.474046
0.490480 0.495312 0.475689
0.495080 0.496955 0.477331
0.499681 0.498598 0.478974
0.504282 0.500240 0.480617
0.508883 0.501883 0.482259
0.513484 0.503525 0.483902
0.518084 0.505168 0.485544
0.522685 0.506811 0.487187
0.527286 0.508453 0.488830
0.531887 0.510096 0.490472
0.536488 0.511739 0.492115
0.466100 0.491639 0.469058
0.470700 0.493282 0.470700
0.475301 0.494925 0.472343
0.479902 0.496567 0.473986
0.484503 0.498210 0.475628
0.489104 0.499853 0.477271
0.493704 0.501495 0.478914
0.498305 0.503138 0.480556
0.502906 0.504781 0.482199
0.507507 0.506423 0.483841
0.512108 0.508066 0.485484
0.516708 0.509708 0.487127
0.521309 0.511351 0.488769
0.525910 0.512994 0.490412
0.530511 0.514636 0.492055
0.535112 0.516279 0.493697
0.539713 0.517922 0.495340
0.469324 0.497823 0.472283
0.473925 0.499465 0.473925
0.478526 0.501108 0.475568
0.483127 0.502750 0.477210
0.487728 0.504393 0.478853
0.492328 0.506036 0.480496
0.496929 0.507678 0.482138
0.501530 0.509321 0.483781
0.506131 0.510964 0.485424
0.510732 0.512606 0.487066
0.515333 0.514249 0.488709
0.519933 0.515892 0.490352
0.524534 0.517534 0.491994
0.529135 0.519177 0.493637
0.533736 0.520819 0.495279
0.538337 0.522462 0.496922
0.542937 0.524105 0.498565
0.472549 0.504006 0.475507
0.477150 0.505648 0.477150
0.481751 0.507291 0.478793
0.486352 0.508933 0.480435
0.490952 0.510576 0.482078
0.495553 0.512219 0.483721
0.500154 0.513861 0.485363
0.504755 0.515504 0.487006
0.509356 0.517147 0.488648
0.513957 0.518789 0.490291
0.518557 0.520432 0.491934
0.523158 0.522075 0.493576
0.527759 0.523717 0.495219
0.532360 0.525360 0.496862
0.536961 0.527002 0.498504
0.541561 0.528645 0.500147
0.546162 0.530288 0.501790
0.475774 0.510189 0.478732
0.480375 0.511831 0.480375
0.484976 0.513474 0.482017
0.489576 0.515116 0.483660
0.494177 0.516759 0.485303
0.498778 0.518402 0.486945
0.503379 0.520044 0.488588
0.507980 0.521687 0.490231
0.512581 0.523330 0.491873
0.517181 0.524972 0.493516
0.521782 0.526615 0.495159
0.526383 0.528258 0.496801
0.530984 0.529900 0.498444
0.535585 0.531543 0.500086
0.540185 0.533185 0.501729
0.544786 0.534828 0.503372
0.549387 0.536471 0.505014
0.478999 0.516372 0.481957
0.483600 0.518014 0.483600
0.488201 0.519657 0.485242
0.492801 0.521299 0.486885
0.497402 0.522942 0.488528
0.502003 0.524585 0.490170
0.506604 0.526227 0.491813
0.511205 0.527870 0.493455
0.515805 0.529513 0.495098
0.520406 0.531155 0.496741
0.525007 0.532798 0.498383
0.529608 0.534441 0.500026
0.534209 0.536083 0.501669
0.538809 0.537726 0.503311
0.543410 0.539368 0.504954
0.548011 0.541011 0.506597
0.552612 0.542654 0.508239
0.482224 0.522555 0.485182
0.486825 0.524197 0.486825
0.491425 0.525840 0.488467
0.496026 0.527482 0.490110
0.500627 0.529125 0.491752
0.505228 0.530768 0.493395
0.509829 0.532410 0.495038
0.514429 0.534053 0.496680
0.519030 0.535696 0.498323
0.523631 0.537338 0.499966
0.528232 0.538981 0.501608
0.532833 0.540624 0.503251
0.537433 0.542266 0.504894
0.542034 0.543909 0.506536
0.546635 0.545551 0.508179
0.551236 0.547194 0.509821
0.555837 0.548837 0.511464
0.431253 0.424253 0.437169
0.435853 0.425895 0.438812
0.440454 0.427538 0.440454
0.445055 0.429180 0.442097
0.449656 0.430823 0.443739
0.454257 0.432466 0.445382
0.458857 0.434108 0.447025
0.463458 0.435751 0.448667
0.468059 0.437394 0.450310
0.472660 0.439036 0.451953
0.477261 0.440679 0.453595
0.481862 0.442322 0.455238
0.486462 0.443964 0.456881
0.491063 0.445607 0.458523
0.495664 0.447249 0.460166
0.500265 0.448892 0.461808
0.504866 0.450535 0.463451
0.434477 0.430436 0.440394
0.439078 0.432078 0.442036
0.443679 0.433721 0.443679
0.448280 0.435364 0.445322
0.452881 0.437006 0.446964
0.457481 0.438649 0.448607
0.462082 0.440291 0.450250
0.466683 0.441934 0.451892
0.471284 0.443577 0.453535
0.475885 0.445219 0.455177
0.480486 0.446862 0.456820
0.485086 0.448505 0.458463
0.489687 0.450147 0.460105
0.494288 0.451790 0.461748
0.498889 0.453432 0.463391
0.503490 0.455075 0.465033
0.508090 0.456718 0.466676
0.437702 0.436619 0.443619
0.442303 0.438261 0.445261
0.446904 0.439904 0.446904
0.451505 0.441547 0.448547
0.456106 0.443189 0.450189
0.460706 0.444832 0.451832
0.465307 0.446474 0.453474
0.469908 0.448117 0.455117
0.474509 0.449760 0.456760
0.479110 0.451402 0.458402
0.483710 0.453045 0.460045
0.488311 0.454688 0.461688
0.492912 0.456330 0.463330
0.497513 0.457973 0.464973
0.502114 0.459616 0.466616
0.506714 0.461258 0.468258
0.511315 0.462901 0.469901
0.440927 0.442802 0.446843
0.445528 0.444444 0.448486
0.450129 0.446087 0.450129
0.454730 0.447730 0.451771
0.459330 0.449372 0.453414
0.463931 0.451015 0.455057
0.468532 0.452657 0.456699
0.473133 0.454300 0.458342
0.477734 0.455943 0.459985
0.482334 0.457585 0.461627
0.486935 0.459228 0.463270
0.491536 0.460871 0.464912
0.496137 0.462513 0.466555
0.500738 0.464156 0.468198
0.505339 0.465799 0.469840
0.509939 0.467441 0.471483
0.514540 0.469084 0.473126
0.444152 0.448985 0.450068
0.448753 0.450627 0.451711
0.453354 0.452270 0.453354
0.457954 0.453913 0.454996
0.462555 0.455555 0.456639
0.467156 0.457198 0.458281
0.471757 0.458840 0.459924
0.476358 0.460483 0.461567
0.480958 0.462126 0.463209
0.485559 0.463768 0.464852
0.490160 0.465411 0.466495
0.494761 0.467054 0.468137
0.499362 0.468696 0.469780
0.503963 0.470339 0.471423
0.508563 0.471982 0.473065
0.513164 0.473624 0.474708
0.517765 0.475267 0.476350
0.447377 0.455168 0.453293
0.451978 0.456810 0.454936
0.456578 0.458453 0.456578
0.461179 0.460096 0.458221
0.465780 0.461738 0.459864
0.470381 0.463381 0.461506
0.474982 0.465023 0.463149
0.479582 0.466666 0.464792
0.484183 0.468309 0.466434
0.488784 0.469951 0.468077
0.493385 0.471594 0.469719
0.497986 0.473237 0.471362
0.502587 0.474879 0.473005
0.507187 0.476522 0.474647
0.511788 0.478165 0.476290
0.516389 0.479807 0.477933
0.520990 0.481450 0.479575
0.450602 0.461351 0.456518
0.455202 0.462993 0.458161
0.459803 0.464636 0.459803
0.464404 0.466279 0.461446
0.469005 0.467921 0.463089
0.473606 0.469564 0.464731
0.478207 0.471207 0.466374
0.482807 0.472849 0.468016
0.487408 0.474492 0.469659
0.492009 0.476134 0.471302
0.496610 0.477777 0.472944
0.501211 0.479420 0.474587
0.505811 0.481062 0.476230
0.510412 0.482705 0.477872
0.515013 0.484348 0.479515
0.519614 0.485990 0.481157
0.524215 0.487633 0.482800
0.453826 0.467534 0.459743
0.458427 0.469176 0.461385
0.463028 0.470819 0.463028
0.467629 0.472462 0.464671
0.472230 0.474104 0.466313
0.476831 0.475747 0.467956
0.481431 0.477390 0.469599
0.486032 0.479032 0.471241
0.490633 0.480675 0.472884
0.495234 0.482317 0.474527
0.499835 0.483960 0.476169
0.504435 0.485603 0.477812
0.509036 0.487245 0.479454
0.513637 0.488888 0.481097
0.518238 0.490531 0.482740
0.522839 0.492173 0.484382
0.527439 0.493816 0.486025
0.457051 0.473717 0.462968
0.461652 0.475359 0.464610
0.466253 0.477002 0.466253
0.470854 0.478645 0.467896
0.475455 0.480287 0.469538
0.480055 0.481930 0.471181
0.484656 0.483573 0.472823
0.489257 0.485215 0.474466
0.493858 0.486858 0.476109
0.498459 0.488500 0.477751
0.503059 0.490143 0.479394
0.507660 0.491786 0.481037
0.512261 0.493428 0.482679
0.516862 0.495071 0.484322
0.521463 0.496714 0.485965
0.526064 0.498356 0.487607
0.530664 0.499999 0.489250
0.460276 0.479900 0.466192
0.464877 0.481542 0.467835
0.469478 0.483185 0.469478
0.474079 0.484828 0.471120
0.478679 0.486470 0.472763
0.483280 0.488113 0.474406
0.487881 0.489756 0.476048
0.492482 0.491398 0.477691
0.497083 0.493041 0.479334
0.501683 0.494683 0.480976
0.506284 0.496326 0.482619
0.510885 0.497969 0.484261
0.515486 0.499611 0.485904
0.520087 0.501254 0.487547
0.524688 0.502897 0.489189
0.529288 0.504539 0.490832
0.533889 0.506182 0.492475
0.463501 0.486083 0.469417
0.468102 0.487725 0.471060
0.472703 0.489368 0.472703
0.477303 0.491011 0.474345
0.481904 0.492653 0.475988
0.486505 0.494296 0.477631
0.491106 0.495939 0.479273
0.495707 0.497581 0.480916
0.500307 0.499224 0.482558
0.504908 0.500866 0.484201
0.509509 0.502509 0.485844
0.514110 0.504152 0.487486
0.518711 0.505794 0.489129
0.523312 0.507437 0.490772
0.527912 0.509080 0.492414
0.532513 0.510722 0.494057
0.537114 0.512365 0.495699
0.466726 0.492266 0.472642
0.471327 0.493908 0.474285
0.475927 0.495551 0.475927
0.480528 0.497194 0.477570
0.485129 0.498836 0.479213
0.489730 0.500479 0.480855
0.494331 0.502122 0.482498
0.498932 0.503764 0.484141
0.503532 0.505407 0.485783
0.508133 0.507050 0.487426
0.512734 0.508692 0.489069
0.517335 0.510335 0.490711
0.521936 0.511977 0.492354
0.526536 0.513620 0.493996
0.531137 0.515263 0.495639
0.535738 0.516905 0.497282
0.540339 0.518548 0.498924
0.469951 0.498449 0.475867
0.474551 0.500091 0.477510
0.479152 0.501734 0.479152
0.483753 0.503377 0.480795
0.488354 0.505019 0.482438
0.492955 0.506662 0.484080
0.497556 0.508305 0.485723
0.502156 0.509947 0.487365
0.506757 0.511590 0.489008
0.511358 0.513233 0.490651
0.515959 0.514875 0.492293
0.520560 0.516518 0.493936
0.525160 0.518160 0.495579
0.529761 0.519803 0.497221
0.534362 0.521446 0.498864
0.538963 0.523088 0.500507
0.543564 0.524731 0.502149
0.473175 0.504632 0.479092
0.477776 0.506274 0.480734
0.482377 0.507917 0.482377
0.486978 0.509560 0.484020
0.491579 0.511202 0.485662
0.496180 0.512845 0.487305
0.500780 0.514488 0.488948
0.505381 0.516130 0.490590
0.509982 0.517773 0.492233
0.514583 0.519416 0.493876
0.519184 0.521058 0.495518
0.523784 0.522701 0.497161
0.528385 0.524343 0.498803
0.532986 0.525986 0.500446
0.537587 0.527629 0.502089
0.542188 0.529271 0.503731
0.546789 0.530914 0.505374
0.476400 0.510815 0.482317
0.481001 0.512457 0.483959
0.485602 0.514100 0.485602
0.490203 0.515743 0.487245
0.494804 0.517385 0.488887
0.499404 0.519028 0.490530
0.504005 0.520671 0.492172
0.508606 0.522313 0.493815
0.513207 0.523956 0.495458
0.517808 0.525599 0.497100
0.522408 0.527241 0.498743
0.527009 0.528884 0.500386
0.531610 0.530526 0.502028
0.536211 0.532169 0.503671
0.540812 0.533812 0.505314
0.545413 0.535454 0.506956
0.550013 0.537097 0.508599
0.479625 0.516998 0.485542
0.484226 0.518640 0.487184
0.488827 0.520283 0.488827
0.493428 0.521926 0.490469
0.498028 0.523568 0.492112
0.502629 0.525211 0.493755
0.507230 0.526854 0.495397
0.511831 0.528496 0.497040
0.516432 0.530139 0.498683
0.521032 0.531782 0.500325
0.525633 0.533424 0.501968
0.530234 0.535067 0.503611
0.534835 0.536709 0.505253
0.539436 0.538352 0.506896
0.544037 0.539995 0.508538
0.548637 0.541637 0.510181
0.553238 0.543280 0.511824
0.482850 0.523181 0.488766
0.487451 0.524824 0.490409
0.492052 0.526466 0.492052
0.496652 0.528109 0.493694
0.501253 0.529751 0.495337
0.505854 0.531394 0.496980
0.510455 0.533037 0.498622
0.515056 0.534679 0.500265
0.519657 0.536322 0.501907
0.524257 0.537965 0.503550
0.528858 0.539607 0.505193
0.533459 0.541250 0.506835
0.538060 0.542893 0.508478
0.542661 0.544535 0.510121
0.547261 0.546178 0.511763
0.551862 0.547820 0.513406
0.556463 0.549463 0.515049
0.431879 0.424879 0.440753
0.436480 0.426522 0.442396
0.441080 0.428164 0.444039
0.445681 0.429807 0.445681
0.450282 0.431449 0.447324
0.454883 0.433092 0.448967
0.459484 0.434735 0.450609
0.464085 0.436377 0.452252
0.468685 0.438020 0.453894
0.473286 0.439663 0.455537
0.477887 0.441305 0.457180
0.482488 0.442948 0.458822
0.487089 0.444590 0.460465
0.491689 0.446233 0.462108
0.496290 0.447876 0.463750
0.500891 0.449518 0.465393
0.505492 0.451161 0.467036
0.435104 0.431062 0.443978
