shared/src/main/assets/luts/film_retro_neon.cube
TITLE "DALUR Retro Neon"
LUT_3D_SIZE 9
DOMAIN_MIN 0.0 0.0 0.0
DOMAIN_MAX 1.0 1.0 1.0
0.434000 0.443000 0.446000
0.439348 0.446899 0.449899
0.444696 0.450798 0.453798
0.450044 0.454697 0.457697
0.455392 0.458596 0.461596
0.460740 0.462495 0.465495
0.466087 0.466394 0.469394
0.471435 0.470293 0.473293
0.476783 0.474192 0.477192
0.441655 0.452103 0.453655
0.447002 0.456002 0.457554
0.452350 0.459901 0.461453
0.457698 0.463800 0.465352
0.463046 0.467699 0.469251
0.468394 0.471598 0.473150
0.473742 0.475497 0.477049
0.479090 0.479396 0.480948
0.484438 0.483295 0.484847
0.449309 0.461207 0.461309
0.454657 0.465106 0.465208
0.460005 0.469005 0.469107
0.465353 0.472904 0.473006
0.470701 0.476803 0.476905
0.476049 0.480702 0.480804
0.481397 0.484601 0.484703
0.486744 0.488500 0.488602
0.492092 0.492399 0.492501
0.456964 0.470310 0.468964
0.462312 0.474209 0.472863
0.467660 0.478108 0.476762
0.473007 0.482007 0.480661
0.478355 0.485906 0.484560
0.483703 0.489805 0.488459
0.489051 0.493704 0.492358
0.494399 0.497603 0.496257
0.499747 0.501502 0.500156
0.464618 0.479414 0.476618
0.469966 0.483313 0.480517
0.475314 0.487212 0.484416
0.480662 0.491111 0.488315
0.486010 0.495010 0.492214
0.491358 0.498909 0.496113
0.496706 0.502808 0.500012
0.502054 0.506707 0.503911
0.507402 0.510606 0.507810
0.472273 0.488517 0.484273
0.477621 0.492416 0.488172
0.482969 0.496315 0.492071
0.488317 0.500214 0.495970
0.493664 0.504113 0.499869
0.499012 0.508012 0.503768
0.504360 0.511911 0.507667
0.509708 0.515810 0.511566
0.515056 0.519709 0.515465
0.479927 0.497621 0.491927
0.485275 0.501520 0.495826
0.490623 0.505419 0.499725
0.495971 0.509318 0.503624
0.501319 0.513217 0.507523
0.506667 0.517116 0.511422
0.512015 0.521015 0.515321
0.517363 0.524914 0.519220
0.522711 0.528813 0.523119
0.487582 0.506724 0.499582
0.492930 0.510623 0.503481
0.498278 0.514522 0.507380
0.503626 0.518421 0.511279
0.508974 0.522320 0.515178
0.514321 0.526219 0.519077
0.519669 0.530118 0.522976
0.525017 0.534017 0.526875
0.530365 0.537916 0.530774
0.495236 0.515828 0.507236
0.500584 0.519727 0.511136
0.505932 0.523626 0.515035
0.511280 0.527525 0.518934
0.516628 0.531424 0.522833
0.521976 0.535323 0.526732
0.527324 0.539222 0.530631
0.532672 0.543121 0.534530
0.538020 0.547020 0.538429
0.435487 0.444487 0.448935
0.440834 0.448386 0.452834
0.446182 0.452285 0.456733
0.451530 0.456184 0.460632
0.456878 0.460083 0.464531
0.462226 0.463982 0.468430
0.467574 0.467881 0.472329
0.472922 0.471780 0.476228
0.478270 0.475679 0.480127
0.443141 0.453590 0.456590
0.448489 0.457489 0.460489
0.453837 0.461388 0.464388
0.459185 0.465287 0.468287
0.464533 0.469186 0.472186
0.469881 0.473085 0.476085
0.475229 0.476984 0.479984
0.480576 0.480883 0.483883
0.485924 0.484782 0.487782
0.450796 0.462694 0.464245
0.456144 0.466593 0.468144
0.461492 0.470492 0.472043
0.466839 0.474391 0.475942
0.472187 0.478290 0.479841
0.477535 0.482189 0.483740
0.482883 0.486088 0.487639
0.488231 0.489987 0.491538
0.493579 0.493886 0.495437
0.458450 0.471797 0.471899
0.463798 0.475696 0.475798
0.469146 0.479595 0.479697
0.474494 0.483494 0.483596
0.479842 0.487393 0.487495
0.485190 0.491292 0.491394
0.490538 0.495191 0.495293
0.495886 0.499090 0.499192
0.501234 0.502989 0.503091
0.466105 0.480900 0.479554
0.471453 0.484799 0.483453
0.476801 0.488698 0.487352
0.482149 0.492597 0.491251
0.487496 0.496496 0.495150
0.492844 0.500395 0.499049
0.498192 0.504294 0.502948
0.503540 0.508193 0.506847
0.508888 0.512092 0.510746
0.473759 0.490004 0.487208
0.479107 0.493903 0.491107
0.484455 0.497802 0.495006
0.489803 0.501701 0.498905
0.495151 0.505600 0.502804
0.500499 0.509499 0.506703
0.505847 0.513398 0.510602
0.511195 0.517297 0.514501
0.516543 0.521196 0.518400
0.481414 0.499107 0.494863
0.486762 0.503006 0.498762
0.492110 0.506905 0.502661
0.497458 0.510804 0.506560
0.502806 0.514703 0.510459
0.508153 0.518602 0.514358
0.513501 0.522501 0.518257
0.518849 0.526400 0.522156
0.524197 0.530299 0.526055
0.489069 0.508211 0.502517
0.494416 0.512110 0.506416
0.499764 0.516009 0.510315
0.505112 0.519908 0.514214
0.510460 0.523807 0.518113
0.515808 0.527706 0.522012
0.521156 0.531605 0.525911
0.526504 0.535504 0.529810
0.531852 0.539403 0.533709
0.496723 0.517314 0.510172
0.502071 0.521213 0.514071
0.507419 0.525112 0.517970
0.512767 0.529011 0.521869
0.518115 0.532910 0.525768
0.523463 0.536809 0.529667
0.528811 0.540708 0.533566
0.534158 0.544607 0.537465
0.539506 0.548506 0.541364
0.436973 0.445973 0.451871
0.442321 0.449872 0.455770
0.447669 0.453771 0.459669
0.453017 0.457670 0.463568
0.458365 0.461569 0.467467
0.463713 0.465468 0.471366
0.469061 0.469367 0.475265
0.474408 0.473266 0.479164
0.479756 0.477165 0.483063
0.444628 0.455077 0.459526
0.449976 0.458976 0.463425
0.455324 0.462875 0.467324
0.460671 0.466774 0.471223
0.466019 0.470673 0.475122
0.471367 0.474572 0.479021
0.476715 0.478471 0.482920
0.482063 0.482370 0.486819
0.487411 0.486269 0.490718
0.452282 0.464180 0.467180
0.457630 0.468079 0.471079
0.462978 0.471978 0.474978
0.468326 0.475877 0.478877
0.473674 0.479776 0.482776
0.479022 0.483675 0.486675
0.484370 0.487574 0.490574
0.489718 0.491473 0.494473
0.495066 0.495372 0.498372
0.459937 0.473284 0.474835
0.465285 0.477183 0.478734
0.470633 0.481082 0.482633
0.475981 0.484981 0.486532
0.481328 0.488880 0.490431
0.486676 0.492779 0.494330
0.492024 0.496678 0.498229
0.497372 0.500577 0.502128
0.502720 0.504476 0.506027
0.467591 0.482387 0.482489
0.472939 0.486286 0.486388
0.478287 0.490185 0.490287
0.483635 0.494084 0.494186
0.488983 0.497983 0.498085
0.494331 0.501882 0.501984
0.499679 0.505781 0.505883
0.505027 0.509680 0.509782
0.510375 0.513579 0.513681
0.475246 0.491490 0.490144
0.480594 0.495389 0.494043
0.485942 0.499288 0.497942
0.491290 0.503187 0.501841
0.496638 0.507086 0.505740
0.501985 0.510985 0.509639
0.507333 0.514884 0.513538
0.512681 0.518784 0.517437
0.518029 0.522683 0.521336
0.482901 0.500594 0.497798
0.488248 0.504493 0.501697
0.493596 0.508392 0.505596
0.498944 0.512291 0.509495
0.504292 0.516190 0.513394
0.509640 0.520089 0.517293
0.514988 0.523988 0.521192
0.520336 0.527887 0.525091
0.525684 0.531786 0.528990
0.490555 0.509697 0.505453
0.495903 0.513596 0.509352
0.501251 0.517495 0.513251
0.506599 0.521394 0.517150
0.511947 0.525293 0.521049
0.517295 0.529192 0.524948
0.522643 0.533091 0.528847
0.527990 0.536990 0.532746
0.533338 0.540889 0.536645
0.498210 0.518801 0.513107
0.503558 0.522700 0.517006
0.508905 0.526599 0.520905
0.514253 0.530498 0.524804
0.519601 0.534397 0.528703
0.524949 0.538296 0.532602
0.530297 0.542195 0.536501
0.535645 0.546094 0.540400
0.540993 0.549993 0.544299
0.438460 0.447460 0.454806
0.443808 0.451359 0.458705
0.449156 0.455258 0.462604
0.454503 0.459157 0.466503
0.459851 0.463056 0.470402
0.465199 0.466955 0.474301
0.470547 0.470854 0.478200
0.475895 0.474753 0.482099
0.481243 0.478652 0.485998
0.446114 0.456563 0.462461
0.451462 0.460462 0.466360
0.456810 0.464361 0.470259
0.462158 0.468260 0.474158
0.467506 0.472159 0.478057
0.472854 0.476058 0.481956
0.478202 0.479957 0.485855
0.483550 0.483856 0.489754
0.488898 0.487755 0.493653
0.453769 0.465667 0.470116
0.459117 0.469566 0.474015
0.464465 0.473465 0.477914
0.469813 0.477364 0.481813
0.475160 0.481263 0.485712
0.480508 0.485162 0.489611
0.485856 0.489061 0.493510
0.491204 0.492960 0.497409
0.496552 0.496859 0.501308
0.461423 0.474770 0.477770
0.466771 0.478669 0.481669
0.472119 0.482568 0.485568
0.477467 0.486467 0.489467
0.482815 0.490366 0.493366
0.488163 0.494265 0.497265
0.493511 0.498164 0.501164
0.498859 0.502063 0.505063
0.504207 0.505962 0.508962
0.469078 0.483874 0.485425
0.474426 0.487773 0.489324
0.479774 0.491672 0.493223
0.485122 0.495571 0.497122
0.490470 0.499470 0.501021
0.495818 0.503369 0.504920
0.501165 0.507268 0.508819
0.506513 0.511167 0.512718
0.511861 0.515066 0.516617
0.476733 0.492977 0.493079
0.482080 0.496876 0.496978
0.487428 0.500775 0.500877
0.492776 0.504674 0.504776
0.498124 0.508573 0.508675
0.503472 0.512472 0.512574
0.508820 0.516371 0.516473
0.514168 0.520270 0.520372
0.519516 0.524169 0.524271
0.484387 0.502081 0.500734
0.489735 0.505980 0.504633
0.495083 0.509879 0.508532
0.500431 0.513778 0.512431
0.505779 0.517677 0.516330
0.511127 0.521576 0.520229
0.516475 0.525475 0.524128
0.521822 0.529374 0.528027
0.527170 0.533273 0.531926
0.492042 0.511184 0.508388
0.497390 0.515083 0.512287
0.502737 0.518982 0.516186
0.508085 0.522881 0.520085
0.513433 0.526780 0.523984
0.518781 0.530679 0.527883
0.524129 0.534578 0.531782
0.529477 0.538477 0.535681
0.534825 0.542376 0.539580
0.499696 0.520287 0.516043
0.505044 0.524186 0.519942
0.510392 0.528085 0.523841
0.515740 0.531984 0.527740
0.521088 0.535883 0.531639
0.526436 0.539782 0.535538
0.531784 0.543681 0.539437
0.537132 0.547580 0.543336
0.542479 0.551479 0.547235
0.439946 0.448946 0.457742
0.445294 0.452845 0.461641
0.450642 0.456744 0.465540
0.455990 0.460643 0.469439
0.461338 0.464542 0.473338
0.466686 0.468441 0.477237
0.472034 0.472340 0.481136
0.477382 0.476239 0.485035
0.482730 0.480138 0.488934
0.447601 0.458050 0.465396
0.452949 0.461949 0.469295
0.458297 0.465848 0.473194
0.463645 0.469747 0.477093
0.468992 0.473646 0.480992
0.474340 0.477545 0.484891
0.479688 0.481444 0.488790
0.485036 0.485343 0.492689
0.490384 0.489242 0.496589
0.455255 0.467153 0.473051
0.460603 0.471052 0.476950
0.465951 0.474951 0.480849
0.471299 0.478850 0.484748
0.476647 0.482749 0.488647
0.481995 0.486648 0.492546
0.487343 0.490547 0.496445
0.492691 0.494446 0.500344
0.498039 0.498345 0.504243
0.462910 0.476257 0.480706
0.468258 0.480156 0.484605
0.473606 0.484055 0.488504
0.478954 0.487954 0.492403
0.484302 0.491853 0.496302
0.489650 0.495752 0.500201
0.494997 0.499651 0.504100
0.500345 0.503550 0.507999
0.505693 0.507449 0.511898
0.470565 0.485360 0.488360
0.475912 0.489259 0.492259
0.481260 0.493158 0.496158
0.486608 0.497057 0.500057
0.491956 0.500956 0.503956
0.497304 0.504855 0.507855
0.502652 0.508754 0.511754
0.508000 0.512653 0.515653
0.513348 0.516552 0.519552
0.478219 0.494464 0.496015
0.483567 0.498363 0.499914
0.488915 0.502262 0.503813
0.494263 0.506161 0.507712
0.499611 0.510060 0.511611
0.504959 0.513959 0.515510
0.510307 0.517858 0.519409
0.515654 0.521757 0.523308
0.521002 0.525656 0.527207
0.485874 0.503567 0.503669
0.491222 0.507466 0.507568
0.496569 0.511365 0.511467
0.501917 0.515264 0.515366
0.507265 0.519163 0.519265
0.512613 0.523062 0.523164
0.517961 0.526961 0.527063
0.523309 0.530860 0.530962
0.528657 0.534759 0.534861
0.493528 0.512671 0.511324
0.498876 0.516570 0.515223
0.504224 0.520469 0.519122
0.509572 0.524368 0.523021
0.514920 0.528267 0.526920
0.520268 0.532166 0.530819
0.525616 0.536065 0.534718
0.530964 0.539964 0.538617
0.536311 0.543863 0.542516
0.501183 0.521774 0.518978
0.506531 0.525673 0.522877
0.511879 0.529572 0.526776
0.517227 0.533471 0.530675
0.522574 0.537370 0.534574
0.527922 0.541269 0.538473
0.533270 0.545168 0.542372
0.538618 0.549067 0.546271
0.543966 0.552966 0.550170
0.441433 0.450433 0.460677
0.446781 0.454332 0.464576
0.452129 0.458231 0.468475
0.457477 0.462130 0.472374
0.462825 0.466029 0.476273
0.468172 0.469928 0.480172
0.473520 0.473827 0.484071
0.478868 0.477726 0.487970
0.484216 0.481625 0.491869
0.449087 0.459536 0.468332
0.454435 0.463435 0.472231
0.459783 0.467334 0.476130
0.465131 0.471233 0.480029
0.470479 0.475132 0.483928
0.475827 0.479031 0.487827
0.481175 0.482930 0.491726
0.486523 0.486829 0.495625
0.491871 0.490728 0.499524
0.456742 0.468640 0.475987
0.462090 0.472539 0.479886
0.467438 0.476438 0.483785
0.472786 0.480337 0.487684
0.478134 0.484236 0.491583
0.483482 0.488135 0.495482
0.488829 0.492034 0.499381
0.494177 0.495933 0.503280
0.499525 0.499832 0.507179
0.464397 0.477743 0.483641
0.469744 0.481642 0.487540
0.475092 0.485541 0.491439
0.480440 0.489440 0.495338
0.485788 0.493339 0.499237
0.491136 0.497238 0.503136
0.496484 0.501137 0.507035
0.501832 0.505036 0.510934
0.507180 0.508935 0.514833
0.472051 0.486847 0.491296
0.477399 0.490746 0.495195
0.482747 0.494645 0.499094
0.488095 0.498544 0.502993
0.493443 0.502443 0.506892
0.498791 0.506342 0.510791
0.504139 0.510241 0.514690
0.509486 0.514140 0.518589
0.514834 0.518039 0.522488
0.479706 0.495950 0.498950
0.485054 0.499849 0.502849
0.490402 0.503748 0.506748
0.495749 0.507647 0.510647
0.501097 0.511546 0.514546
0.506445 0.515445 0.518445
0.511793 0.519344 0.522344
0.517141 0.523243 0.526243
0.522489 0.527142 0.530142
0.487360 0.505054 0.506605
0.492708 0.508953 0.510504
0.498056 0.512852 0.514403
0.503404 0.516751 0.518302
0.508752 0.520650 0.522201
0.514100 0.524549 0.526100
0.519448 0.528448 0.529999
0.524796 0.532347 0.533898
0.530144 0.536246 0.537797
0.495015 0.514157 0.514259
0.500363 0.518056 0.518158
0.505711 0.521955 0.522057
0.511059 0.525854 0.525956
0.516406 0.529753 0.529855
0.521754 0.533652 0.533754
0.527102 0.537551 0.537653
0.532450 0.541450 0.541552
0.537798 0.545349 0.545451
0.502669 0.523261 0.521914
0.508017 0.527160 0.525813
0.513365 0.531059 0.529712
0.518713 0.534958 0.533611
0.524061 0.538857 0.537510
0.529409 0.542756 0.541409
0.534757 0.546655 0.545308
0.540105 0.550554 0.549207
0.545453 0.554453 0.553106
0.442919 0.451919 0.463613
0.448267 0.455818 0.467512
0.453615 0.459717 0.471411
0.458963 0.463616 0.475310
0.464311 0.467515 0.479209
0.469659 0.471414 0.483108
0.475007 0.475313 0.487007
0.480355 0.479212 0.490906
0.485703 0.483111 0.494805
0.450574 0.461023 0.471267
0.455922 0.464922 0.475166
0.461270 0.468821 0.479065
0.466618 0.472720 0.482964
0.471966 0.476619 0.486863
0.477314 0.480518 0.490762
0.482661 0.484417 0.494661
0.488009 0.488316 0.498560
0.493357 0.492215 0.502459
0.458229 0.470126 0.478922
0.463576 0.474025 0.482821
0.468924 0.477924 0.486720
0.474272 0.481823 0.490619
0.479620 0.485722 0.494518
0.484968 0.489621 0.498417
0.490316 0.493520 0.502316
0.495664 0.497419 0.506215
0.501012 0.501318 0.510114
0.465883 0.479230 0.486577
0.471231 0.483129 0.490476
0.476579 0.487028 0.494375
0.481927 0.490927 0.498274
0.487275 0.494826 0.502173
0.492623 0.498725 0.506072
0.497971 0.502624 0.509971
0.503318 0.506523 0.513870
0.508666 0.510422 0.517769
0.473538 0.488333 0.494231
0.478886 0.492232 0.498130
0.484234 0.496131 0.502029
0.489581 0.500030 0.505928
0.494929 0.503929 0.509827
0.500277 0.507828 0.513726
0.505625 0.511727 0.517625
0.510973 0.515626 0.521524
0.516321 0.519525 0.525423
0.481192 0.497437 0.501886
0.486540 0.501336 0.505785
0.491888 0.505235 0.509684
0.497236 0.509134 0.513583
0.502584 0.513033 0.517482
0.507932 0.516932 0.521381
0.513280 0.520831 0.525280
0.518628 0.524730 0.529179
0.523976 0.528629 0.533078
0.488847 0.506540 0.509540
0.494195 0.510439 0.513439
0.499543 0.514338 0.517338
0.504891 0.518237 0.521237
0.510238 0.522136 0.525136
0.515586 0.526035 0.529035
0.520934 0.529934 0.532934
0.526282 0.533833 0.536833
0.531630 0.537732 0.540732
0.496501 0.515644 0.517195
0.501849 0.519543 0.521094
0.507197 0.523442 0.524993
0.512545 0.527341 0.528892
0.517893 0.531240 0.532791
0.523241 0.535139 0.536690
0.528589 0.539038 0.540589
0.533937 0.542937 0.544488
0.539285 0.546836 0.548387
0.504156 0.524747 0.524849
0.509504 0.528646 0.528748
0.514852 0.532545 0.532647
0.520200 0.536444 0.536546
0.525548 0.540343 0.540445
0.530895 0.544242 0.544344
0.536243 0.548141 0.548243
0.541591 0.552040 0.552142
0.546939 0.555939 0.556041
0.444406 0.453406 0.466548
0.449754 0.457305 0.470447
0.455102 0.461204 0.474346
0.460450 0.465103 0.478245
0.465798 0.469002 0.482144
0.471146 0.472901 0.486043
0.476493 0.476800 0.489942
0.481841 0.480699 0.493841
0.487189 0.484598 0.497740
0.452061 0.462509 0.474203
0.457409 0.466409 0.478102
0.462756 0.470308 0.482001
0.468104 0.474207 0.485900
0.473452 0.478106 0.489799
0.478800 0.482005 0.493698
0.484148 0.485904 0.497597
0.489496 0.489803 0.501496
0.494844 0.493702 0.505395
0.459715 0.471613 0.481857
0.465063 0.475512 0.485756
0.470411 0.479411 0.489655
0.475759 0.483310 0.493554
0.481107 0.487209 0.497453
0.486455 0.491108 0.501352
0.491803 0.495007 0.505252
0.497151 0.498906 0.509151
0.502498 0.502805 0.513050
0.467370 0.480716 0.489512
0.472718 0.484615 0.493411
0.478066 0.488514 0.497310
0.483413 0.492413 0.501209
0.488761 0.496312 0.505108
0.494109 0.500211 0.509007
0.499457 0.504110 0.512906
0.504805 0.508009 0.516805
0.510153 0.511908 0.520704
0.475024 0.489820 0.497167
0.480372 0.493719 0.501066
0.485720 0.497618 0.504965
0.491068 0.501517 0.508864
0.496416 0.505416 0.512763
0.501764 0.509315 0.516662
0.507112 0.513214 0.520561
0.512460 0.517113 0.524460
0.517808 0.521012 0.528359
0.482679 0.498923 0.504821
0.488027 0.502822 0.508720
0.493375 0.506721 0.512619
0.498723 0.510620 0.516518
0.504070 0.514519 0.520417
0.509418 0.518418 0.524316
0.514766 0.522317 0.528215
0.520114 0.526216 0.532114
0.525462 0.530115 0.536013
0.490333 0.508027 0.512476
0.495681 0.511926 0.516375
0.501029 0.515825 0.520274
0.506377 0.519724 0.524173
0.511725 0.523623 0.528072
0.517073 0.527522 0.531971
0.522421 0.531421 0.535870
0.527769 0.535320 0.539769
0.533117 0.539219 0.543668
0.497988 0.517130 0.520130
0.503336 0.521029 0.524029
0.508684 0.524928 0.527928
0.514032 0.528827 0.531827
0.519380 0.532726 0.535726
0.524728 0.536625 0.539625
0.530075 0.540524 0.543524
0.535423 0.544423 0.547423
0.540771 0.548322 0.551322
0.505643 0.526234 0.527785
0.510990 0.530133 0.531684
0.516338 0.534032 0.535583
0.521686 0.537931 0.539482
0.527034 0.541830 0.543381
0.532382 0.545729 0.547280
0.537730 0.549628 0.551179
0.543078 0.553527 0.555078
0.548426 0.557426 0.558977
0.445893 0.454893 0.469484
0.451241 0.458792 0.473383
0.456588 0.462691 0.477282
0.461936 0.466590 0.481181
0.467284 0.470489 0.485080
0.472632 0.474388 0.488979
0.477980 0.478287 0.492878
0.483328 0.482186 0.496777
0.488676 0.486085 0.500676
0.453547 0.463996 0.477138
0.458895 0.467895 0.481037
0.464243 0.471794 0.484936
0.469591 0.475693 0.488835
0.474939 0.479592 0.492734
0.480287 0.483491 0.496633
0.485635 0.487390 0.500532
0.490983 0.491289 0.504431
0.496330 0.495188 0.508330
0.461202 0.473100 0.484793
0.466550 0.476999 0.488692
0.471898 0.480898 0.492591
0.477245 0.484797 0.496490
0.482593 0.488696 0.500389
0.487941 0.492595 0.504288
0.493289 0.496494 0.508187
0.498637 0.500393 0.512086
0.503985 0.504292 0.515985
0.468856 0.482203 0.492448
0.474204 0.486102 0.496347
0.479552 0.490001 0.500246
0.484900 0.493900 0.504145
0.490248 0.497799 0.508044
0.495596 0.501698 0.511943
0.500944 0.505597 0.515842
0.506292 0.509496 0.519741
0.511640 0.513395 0.523640
0.476511 0.491306 0.500102
0.481859 0.495205 0.504001
0.487207 0.499104 0.507900
0.492555 0.503003 0.511799
0.497902 0.506902 0.515698
0.503250 0.510801 0.519597
0.508598 0.514700 0.523496
0.513946 0.518599 0.527395
0.519294 0.522498 0.531294
0.484165 0.500410 0.507757
0.489513 0.504309 0.511656
0.494861 0.508208 0.515555
0.500209 0.512107 0.519454
0.505557 0.516006 0.523353
0.510905 0.519905 0.527252
0.516253 0.523804 0.531151
0.521601 0.527703 0.535050
0.526949 0.531602 0.538949
0.491820 0.509513 0.515411
0.497168 0.513412 0.519310
0.502516 0.517311 0.523209
0.507864 0.521210 0.527108
0.513212 0.525109 0.531007
0.518560 0.529008 0.534906
0.523907 0.532907 0.538805
0.529255 0.536806 0.542704
0.534603 0.540705 0.546603
0.499475 0.518617 0.523066
0.504822 0.522516 0.526965
0.510170 0.526415 0.530864
0.515518 0.530314 0.534763
0.520866 0.534213 0.538662
0.526214 0.538112 0.542561
0.531562 0.542011 0.546460
0.536910 0.545910 0.550359
0.542258 0.549809 0.554258
0.507129 0.527720 0.530720
0.512477 0.531619 0.534619
0.517825 0.535518 0.538518
0.523173 0.539417 0.542417
0.528521 0.543316 0.546316
0.533869 0.547215 0.550215
0.539217 0.551114 0.554114
0.544564 0.555013 0.558013
0.549912 0.558912 0.561912
