shared/src/main/assets/luts/film_paris_dream.cube
TITLE "DALUR Paris Dream"
LUT_3D_SIZE 9
DOMAIN_MIN 0.0 0.0 0.0
DOMAIN_MAX 1.0 1.0 1.0
0.467200 0.462000 0.452800
0.472473 0.464167 0.454967
0.477745 0.466334 0.457134
0.483018 0.468500 0.459300
0.488290 0.470667 0.461467
0.493563 0.472834 0.463634
0.498836 0.475001 0.465801
0.504108 0.477168 0.467968
0.509381 0.479334 0.470134
0.471454 0.469360 0.457054
0.476727 0.471527 0.459221
0.481999 0.473693 0.461388
0.487272 0.475860 0.463554
0.492544 0.478027 0.465721
0.497817 0.480194 0.467888
0.503090 0.482361 0.470055
0.508362 0.484527 0.472222
0.513635 0.486694 0.474388
0.475708 0.476719 0.461308
0.480980 0.478886 0.463475
0.486253 0.481053 0.465641
0.491526 0.483220 0.467808
0.496798 0.485387 0.469975
0.502071 0.487553 0.472142
0.507343 0.489720 0.474309
0.512616 0.491887 0.476475
0.517889 0.494054 0.478642
0.479962 0.484079 0.465562
0.485234 0.486246 0.467729
0.490507 0.488413 0.469895
0.495780 0.490580 0.472062
0.501052 0.492746 0.474229
0.506325 0.494913 0.476396
0.511597 0.497080 0.478563
0.516870 0.499247 0.480729
0.522143 0.501414 0.482896
0.484216 0.491439 0.469816
0.489488 0.493606 0.471982
0.494761 0.495772 0.474149
0.500033 0.497939 0.476316
0.505306 0.500106 0.478483
0.510579 0.502273 0.480650
0.515851 0.504440 0.482816
0.521124 0.506606 0.484983
0.526396 0.508773 0.487150
0.488470 0.498798 0.474070
0.493742 0.500965 0.476236
0.499015 0.503132 0.478403
0.504287 0.505299 0.480570
0.509560 0.507466 0.482737
0.514833 0.509633 0.484904
0.520105 0.511799 0.487070
0.525378 0.513966 0.489237
0.530650 0.516133 0.491404
0.492723 0.506158 0.478323
0.497996 0.508325 0.480490
0.503269 0.510492 0.482657
0.508541 0.512659 0.484824
0.513814 0.514825 0.486991
0.519086 0.516992 0.489157
0.524359 0.519159 0.491324
0.529632 0.521326 0.493491
0.534904 0.523493 0.495658
0.496977 0.513518 0.482577
0.502250 0.515685 0.484744
0.507523 0.517852 0.486911
0.512795 0.520018 0.489078
0.518068 0.522185 0.491245
0.523340 0.524352 0.493411
0.528613 0.526519 0.495578
0.533886 0.528686 0.497745
0.539158 0.530852 0.499912
0.501231 0.520878 0.486831
0.506504 0.523044 0.488998
0.511776 0.525211 0.491165
0.517049 0.527378 0.493332
0.522322 0.529545 0.495498
0.527594 0.531712 0.497665
0.532867 0.533878 0.499832
0.538139 0.536045 0.501999
0.543412 0.538212 0.504166
0.468026 0.462826 0.456732
0.473299 0.464993 0.458899
0.478571 0.467160 0.461066
0.483844 0.469327 0.463232
0.489117 0.471493 0.465399
0.494389 0.473660 0.467566
0.499662 0.475827 0.469733
0.504934 0.477994 0.471900
0.510207 0.480161 0.474066
0.472280 0.470186 0.460986
0.477553 0.472353 0.463153
0.482825 0.474519 0.465319
0.488098 0.476686 0.467486
0.493370 0.478853 0.469653
0.498643 0.481020 0.471820
0.503916 0.483187 0.473987
0.509188 0.485354 0.476154
0.514461 0.487520 0.478320
0.476534 0.477546 0.465240
0.481807 0.479712 0.467407
0.487079 0.481879 0.469573
0.492352 0.484046 0.471740
0.497624 0.486213 0.473907
0.502897 0.488380 0.476074
0.508170 0.490546 0.478241
0.513442 0.492713 0.480407
0.518715 0.494880 0.482574
0.480788 0.484905 0.469494
0.486060 0.487072 0.471660
0.491333 0.489239 0.473827
0.496606 0.491406 0.475994
0.501878 0.493572 0.478161
0.507151 0.495739 0.480328
0.512423 0.497906 0.482495
0.517696 0.500073 0.484661
0.522969 0.502240 0.486828
0.485042 0.492265 0.473748
0.490314 0.494432 0.475914
0.495587 0.496599 0.478081
0.500860 0.498765 0.480248
0.506132 0.500932 0.482415
0.511405 0.503099 0.484582
0.516677 0.505266 0.486748
0.521950 0.507433 0.488915
0.527223 0.509599 0.491082
0.489296 0.499625 0.478001
0.494568 0.501791 0.480168
0.499841 0.503958 0.482335
0.505113 0.506125 0.484502
0.510386 0.508292 0.486669
0.515659 0.510459 0.488836
0.520931 0.512625 0.491002
0.526204 0.514792 0.493169
0.531476 0.516959 0.495336
0.493550 0.506984 0.482255
0.498822 0.509151 0.484422
0.504095 0.511318 0.486589
0.509367 0.513485 0.488756
0.514640 0.515652 0.490923
0.519913 0.517818 0.493089
0.525185 0.519985 0.495256
0.530458 0.522152 0.497423
0.535730 0.524319 0.499590
0.497803 0.514344 0.486509
0.503076 0.516511 0.488676
0.508349 0.518678 0.490843
0.513621 0.520844 0.493010
0.518894 0.523011 0.495176
0.524166 0.525178 0.497343
0.529439 0.527345 0.499510
0.534712 0.529512 0.501677
0.539984 0.531679 0.503844
0.502057 0.521704 0.490763
0.507330 0.523871 0.492930
0.512603 0.526037 0.495097
0.517875 0.528204 0.497264
0.523148 0.530371 0.499430
0.528420 0.532538 0.501597
0.533693 0.534705 0.503764
0.538966 0.536871 0.505931
0.544238 0.539038 0.508098
0.468852 0.463652 0.460664
0.474125 0.465819 0.462831
0.479397 0.467986 0.464997
0.484670 0.470153 0.467164
0.489943 0.472320 0.469331
0.495215 0.474486 0.471498
0.500488 0.476653 0.473665
0.505761 0.478820 0.475832
0.511033 0.480987 0.477998
0.473106 0.471012 0.464918
0.478379 0.473179 0.467085
0.483651 0.475346 0.469251
0.488924 0.477512 0.471418
0.494197 0.479679 0.473585
0.499469 0.481846 0.475752
0.504742 0.484013 0.477919
0.510014 0.486180 0.480085
0.515287 0.488346 0.482252
0.477360 0.478372 0.469172
0.482633 0.480538 0.471338
0.487905 0.482705 0.473505
0.493178 0.484872 0.475672
0.498451 0.487039 0.477839
0.503723 0.489206 0.480006
0.508996 0.491373 0.482173
0.514268 0.493539 0.484339
0.519541 0.495706 0.486506
0.481614 0.485731 0.473426
0.486887 0.487898 0.475592
0.492159 0.490065 0.477759
0.497432 0.492232 0.479926
0.502704 0.494399 0.482093
0.507977 0.496565 0.484260
0.513250 0.498732 0.486426
0.518522 0.500899 0.488593
0.523795 0.503066 0.490760
0.485868 0.493091 0.477679
0.491141 0.495258 0.479846
0.496413 0.497425 0.482013
0.501686 0.499592 0.484180
0.506958 0.501758 0.486347
0.512231 0.503925 0.488514
0.517504 0.506092 0.490680
0.522776 0.508259 0.492847
0.528049 0.510426 0.495014
0.490122 0.500451 0.481933
0.495394 0.502618 0.484100
0.500667 0.504784 0.486267
0.505940 0.506951 0.488434
0.511212 0.509118 0.490601
0.516485 0.511285 0.492767
0.521757 0.513452 0.494934
0.527030 0.515618 0.497101
0.532303 0.517785 0.499268
0.494376 0.507810 0.486187
0.499648 0.509977 0.488354
0.504921 0.512144 0.490521
0.510194 0.514311 0.492688
0.515466 0.516478 0.494855
0.520739 0.518645 0.497021
0.526011 0.520811 0.499188
0.531284 0.522978 0.501355
0.536557 0.525145 0.503522
0.498630 0.515170 0.490441
0.503902 0.517337 0.492608
0.509175 0.519504 0.494775
0.514447 0.521671 0.496942
0.519720 0.523837 0.499108
0.524993 0.526004 0.501275
0.530265 0.528171 0.503442
0.535538 0.530338 0.505609
0.540810 0.532505 0.507776
0.502884 0.522530 0.494695
0.508156 0.524697 0.496862
0.513429 0.526863 0.499029
0.518701 0.529030 0.501196
0.523974 0.531197 0.503362
0.529247 0.533364 0.505529
0.534519 0.535531 0.507696
0.539792 0.537698 0.509863
0.545064 0.539864 0.512030
0.469678 0.464478 0.464596
0.474951 0.466645 0.466763
0.480224 0.468812 0.468929
0.485496 0.470979 0.471096
0.490769 0.473146 0.473263
0.496041 0.475312 0.475430
0.501314 0.477479 0.477597
0.506587 0.479646 0.479763
0.511859 0.481813 0.481930
0.473932 0.471838 0.468850
0.479205 0.474005 0.471017
0.484478 0.476172 0.473183
0.489750 0.478339 0.475350
0.495023 0.480505 0.477517
0.500295 0.482672 0.479684
0.505568 0.484839 0.481851
0.510841 0.487006 0.484017
0.516113 0.489173 0.486184
0.478186 0.479198 0.473104
0.483459 0.481365 0.475270
0.488731 0.483531 0.477437
0.494004 0.485698 0.479604
0.499277 0.487865 0.481771
0.504549 0.490032 0.483938
0.509822 0.492199 0.486104
0.515094 0.494365 0.488271
0.520367 0.496532 0.490438
0.482440 0.486558 0.477358
0.487713 0.488724 0.479524
0.492985 0.490891 0.481691
0.498258 0.493058 0.483858
0.503531 0.495225 0.486025
0.508803 0.497392 0.488192
0.514076 0.499558 0.490358
0.519348 0.501725 0.492525
0.524621 0.503892 0.494692
0.486694 0.493917 0.481611
0.491967 0.496084 0.483778
0.497239 0.498251 0.485945
0.502512 0.500418 0.488112
0.507784 0.502584 0.490279
0.513057 0.504751 0.492445
0.518330 0.506918 0.494612
0.523602 0.509085 0.496779
0.528875 0.511252 0.498946
0.490948 0.501277 0.485865
0.496221 0.503444 0.488032
0.501493 0.505611 0.490199
0.506766 0.507777 0.492366
0.512038 0.509944 0.494533
0.517311 0.512111 0.496699
0.522584 0.514278 0.498866
0.527856 0.516445 0.501033
0.533129 0.518611 0.503200
0.495202 0.508637 0.490119
0.500474 0.510803 0.492286
0.505747 0.512970 0.494453
0.511020 0.515137 0.496620
0.516292 0.517304 0.498786
0.521565 0.519471 0.500953
0.526837 0.521637 0.503120
0.532110 0.523804 0.505287
0.537383 0.525971 0.507454
0.499456 0.515996 0.494373
0.504728 0.518163 0.496540
0.510001 0.520330 0.498707
0.515274 0.522497 0.500874
0.520546 0.524664 0.503040
0.525819 0.526830 0.505207
0.531091 0.528997 0.507374
0.536364 0.531164 0.509541
0.541637 0.533331 0.511708
0.503710 0.523356 0.498627
0.508982 0.525523 0.500794
0.514255 0.527690 0.502961
0.519527 0.529856 0.505127
0.524800 0.532023 0.507294
0.530073 0.534190 0.509461
0.535345 0.536357 0.511628
0.540618 0.538524 0.513795
0.545890 0.540690 0.515962
0.470505 0.465305 0.468528
0.475777 0.467471 0.470695
0.481050 0.469638 0.472861
0.486322 0.471805 0.475028
0.491595 0.473972 0.477195
0.496868 0.476139 0.479362
0.502140 0.478305 0.481529
0.507413 0.480472 0.483695
0.512685 0.482639 0.485862
0.474758 0.472664 0.472782
0.480031 0.474831 0.474948
0.485304 0.476998 0.477115
0.490576 0.479165 0.479282
0.495849 0.481332 0.481449
0.501121 0.483498 0.483616
0.506394 0.485665 0.485783
0.511667 0.487832 0.487949
0.516939 0.489999 0.490116
0.479012 0.480024 0.477036
0.484285 0.482191 0.479202
0.489558 0.484358 0.481369
0.494830 0.486524 0.483536
0.500103 0.488691 0.485703
0.505375 0.490858 0.487870
0.510648 0.493025 0.490036
0.515921 0.495192 0.492203
0.521193 0.497358 0.494370
0.483266 0.487384 0.481289
0.488539 0.489550 0.483456
0.493811 0.491717 0.485623
0.499084 0.493884 0.487790
0.504357 0.496051 0.489957
0.509629 0.498218 0.492124
0.514902 0.500385 0.494290
0.520175 0.502551 0.496457
0.525447 0.504718 0.498624
0.487520 0.494743 0.485543
0.492793 0.496910 0.487710
0.498065 0.499077 0.489877
0.503338 0.501244 0.492044
0.508611 0.503411 0.494211
0.513883 0.505577 0.496377
0.519156 0.507744 0.498544
0.524428 0.509911 0.500711
0.529701 0.512078 0.502878
0.491774 0.502103 0.489797
0.497047 0.504270 0.491964
0.502319 0.506437 0.494131
0.507592 0.508603 0.496298
0.512865 0.510770 0.498465
0.518137 0.512937 0.500631
0.523410 0.515104 0.502798
0.528682 0.517271 0.504965
0.533955 0.519438 0.507132
0.496028 0.509463 0.494051
0.501301 0.511630 0.496218
0.506573 0.513796 0.498385
0.511846 0.515963 0.500552
0.517118 0.518130 0.502718
0.522391 0.520297 0.504885
0.527664 0.522464 0.507052
0.532936 0.524630 0.509219
0.538209 0.526797 0.511386
0.500282 0.516822 0.498305
0.505554 0.518989 0.500472
0.510827 0.521156 0.502639
0.516100 0.523323 0.504805
0.521372 0.525490 0.506972
0.526645 0.527657 0.509139
0.531918 0.529823 0.511306
0.537190 0.531990 0.513473
0.542463 0.534157 0.515640
0.504536 0.524182 0.502559
0.509808 0.526349 0.504726
0.515081 0.528516 0.506893
0.520354 0.530683 0.509059
0.525626 0.532849 0.511226
0.530899 0.535016 0.513393
0.536171 0.537183 0.515560
0.541444 0.539350 0.517727
0.546717 0.541517 0.519893
0.471331 0.466131 0.472460
0.476603 0.468298 0.474626
0.481876 0.470464 0.476793
0.487149 0.472631 0.478960
0.492421 0.474798 0.481127
0.497694 0.476965 0.483294
0.502966 0.479132 0.485461
0.508239 0.481298 0.487627
0.513512 0.483465 0.489794
0.475585 0.473490 0.476714
0.480857 0.475657 0.478880
0.486130 0.477824 0.481047
0.491402 0.479991 0.483214
0.496675 0.482158 0.485381
0.501948 0.484324 0.487548
0.507220 0.486491 0.489714
0.512493 0.488658 0.491881
0.517765 0.490825 0.494048
0.479839 0.480850 0.480967
0.485111 0.483017 0.483134
0.490384 0.485184 0.485301
0.495656 0.487351 0.487468
0.500929 0.489517 0.489635
0.506202 0.491684 0.491802
0.511474 0.493851 0.493968
0.516747 0.496018 0.496135
0.522019 0.498185 0.498302
0.484092 0.488210 0.485221
0.489365 0.490377 0.487388
0.494638 0.492543 0.489555
0.499910 0.494710 0.491722
0.505183 0.496877 0.493889
0.510455 0.499044 0.496055
0.515728 0.501211 0.498222
0.521001 0.503377 0.500389
0.526273 0.505544 0.502556
0.488346 0.495570 0.489475
0.493619 0.497736 0.491642
0.498892 0.499903 0.493809
0.504164 0.502070 0.495976
0.509437 0.504237 0.498143
0.514709 0.506404 0.500309
0.519982 0.508570 0.502476
0.525255 0.510737 0.504643
0.530527 0.512904 0.506810
0.492600 0.502929 0.493729
0.497873 0.505096 0.495896
0.503145 0.507263 0.498063
0.508418 0.509430 0.500230
0.513691 0.511596 0.502396
0.518963 0.513763 0.504563
0.524236 0.515930 0.506730
0.529508 0.518097 0.508897
0.534781 0.520264 0.511064
0.496854 0.510289 0.497983
0.502127 0.512456 0.500150
0.507399 0.514623 0.502317
0.512672 0.516789 0.504484
0.517945 0.518956 0.506650
0.523217 0.521123 0.508817
0.528490 0.523290 0.510984
0.533762 0.525457 0.513151
0.539035 0.527623 0.515318
0.501108 0.517649 0.502237
0.506381 0.519815 0.504404
0.511653 0.521982 0.506571
0.516926 0.524149 0.508737
0.522198 0.526316 0.510904
0.527471 0.528483 0.513071
0.532744 0.530649 0.515238
0.538016 0.532816 0.517405
0.543289 0.534983 0.519571
0.505362 0.525008 0.506491
0.510635 0.527175 0.508658
0.515907 0.529342 0.510825
0.521180 0.531509 0.512991
0.526452 0.533676 0.515158
0.531725 0.535842 0.517325
0.536998 0.538009 0.519492
0.542270 0.540176 0.521659
0.547543 0.542343 0.523825
0.472157 0.466957 0.476392
0.477429 0.469124 0.478558
0.482702 0.471290 0.480725
0.487975 0.473457 0.482892
0.493247 0.475624 0.485059
0.498520 0.477791 0.487226
0.503792 0.479958 0.489392
0.509065 0.482125 0.491559
0.514338 0.484291 0.493726
0.476411 0.474317 0.480646
0.481683 0.476483 0.482812
0.486956 0.478650 0.484979
0.492229 0.480817 0.487146
0.497501 0.482984 0.489313
0.502774 0.485151 0.491480
0.508046 0.487317 0.493646
0.513319 0.489484 0.495813
0.518592 0.491651 0.497980
0.480665 0.481676 0.484899
0.485937 0.483843 0.487066
0.491210 0.486010 0.489233
0.496482 0.488177 0.491400
0.501755 0.490343 0.493567
0.507028 0.492510 0.495733
0.512300 0.494677 0.497900
0.517573 0.496844 0.500067
0.522845 0.499011 0.502234
0.484919 0.489036 0.489153
0.490191 0.491203 0.491320
0.495464 0.493370 0.493487
0.500736 0.495536 0.495654
0.506009 0.497703 0.497821
0.511282 0.499870 0.499987
0.516554 0.502037 0.502154
0.521827 0.504204 0.504321
0.527099 0.506370 0.506488
0.489172 0.496396 0.493407
0.494445 0.498562 0.495574
0.499718 0.500729 0.497741
0.504990 0.502896 0.499908
0.510263 0.505063 0.502074
0.515535 0.507230 0.504241
0.520808 0.509396 0.506408
0.526081 0.511563 0.508575
0.531353 0.513730 0.510742
0.493426 0.503755 0.497661
0.498699 0.505922 0.499828
0.503972 0.508089 0.501995
0.509244 0.510256 0.504162
0.514517 0.512423 0.506328
0.519789 0.514589 0.508495
0.525062 0.516756 0.510662
0.530335 0.518923 0.512829
0.535607 0.521090 0.514996
0.497680 0.511115 0.501915
0.502953 0.513282 0.504082
0.508225 0.515449 0.506249
0.513498 0.517615 0.508415
0.518771 0.519782 0.510582
0.524043 0.521949 0.512749
0.529316 0.524116 0.514916
0.534588 0.526283 0.517083
0.539861 0.528450 0.519250
0.501934 0.518475 0.506169
0.507207 0.520642 0.508336
0.512479 0.522808 0.510503
0.517752 0.524975 0.512669
0.523025 0.527142 0.514836
0.528297 0.529309 0.517003
0.533570 0.531476 0.519170
0.538842 0.533642 0.521337
0.544115 0.535809 0.523503
0.506188 0.525834 0.510423
0.511461 0.528001 0.512590
0.516733 0.530168 0.514756
0.522006 0.532335 0.516923
0.527278 0.534502 0.519090
0.532551 0.536668 0.521257
0.537824 0.538835 0.523424
0.543096 0.541002 0.525591
0.548369 0.543169 0.527757
0.472983 0.467783 0.480324
0.478256 0.469950 0.482490
0.483528 0.472117 0.484657
0.488801 0.474283 0.486824
0.494073 0.476450 0.488991
0.499346 0.478617 0.491158
0.504619 0.480784 0.493324
0.509891 0.482951 0.495491
0.515164 0.485117 0.497658
0.477237 0.475143 0.484577
0.482509 0.477309 0.486744
0.487782 0.479476 0.488911
0.493055 0.481643 0.491078
0.498327 0.483810 0.493245
0.503600 0.485977 0.495412
0.508873 0.488144 0.497578
0.514145 0.490310 0.499745
0.519418 0.492477 0.501912
0.481491 0.482502 0.488831
0.486763 0.484669 0.490998
0.492036 0.486836 0.493165
0.497309 0.489003 0.495332
0.502581 0.491170 0.497499
0.507854 0.493336 0.499665
0.513126 0.495503 0.501832
0.518399 0.497670 0.503999
0.523672 0.499837 0.506166
0.485745 0.489862 0.493085
0.491017 0.492029 0.495252
0.496290 0.494196 0.497419
0.501563 0.496363 0.499586
0.506835 0.498529 0.501753
0.512108 0.500696 0.503919
0.517380 0.502863 0.506086
0.522653 0.505030 0.508253
0.527926 0.507197 0.510420
0.489999 0.497222 0.497339
0.495271 0.499389 0.499506
0.500544 0.501555 0.501673
0.505816 0.503722 0.503840
0.511089 0.505889 0.506006
0.516362 0.508056 0.508173
0.521634 0.510223 0.510340
0.526907 0.512389 0.512507
0.532179 0.514556 0.514674
0.494253 0.504581 0.501593
0.499525 0.506748 0.503760
0.504798 0.508915 0.505927
0.510070 0.511082 0.508093
0.515343 0.513249 0.510260
0.520616 0.515416 0.512427
0.525888 0.517582 0.514594
0.531161 0.519749 0.516761
0.536433 0.521916 0.518928
0.498506 0.511941 0.505847
0.503779 0.514108 0.508014
0.509052 0.516275 0.510181
0.514324 0.518442 0.512347
0.519597 0.520608 0.514514
0.524869 0.522775 0.516681
0.530142 0.524942 0.518848
0.535415 0.527109 0.521015
0.540687 0.529276 0.523181
0.502760 0.519301 0.510101
0.508033 0.521468 0.512268
0.513306 0.523634 0.514434
0.518578 0.525801 0.516601
0.523851 0.527968 0.518768
0.529123 0.530135 0.520935
0.534396 0.532302 0.523102
0.539669 0.534469 0.525269
0.544941 0.536635 0.527435
0.507014 0.526661 0.514355
0.512287 0.528827 0.516522
0.517559 0.530994 0.518688
0.522832 0.533161 0.520855
0.528105 0.535328 0.523022
0.533377 0.537495 0.525189
0.538650 0.539661 0.527356
0.543922 0.541828 0.529522
0.549195 0.543995 0.531689
0.473809 0.468609 0.484255
0.479082 0.470776 0.486422
0.484354 0.472943 0.488589
0.489627 0.475110 0.490756
0.494900 0.477276 0.492923
0.500172 0.479443 0.495090
0.505445 0.481610 0.497256
0.510717 0.483777 0.499423
0.515990 0.485944 0.501590
0.478063 0.475969 0.488509
0.483336 0.478136 0.490676
0.488608 0.480302 0.492843
0.493881 0.482469 0.495010
0.499153 0.484636 0.497177
0.504426 0.486803 0.499343
0.509699 0.488970 0.501510
0.514971 0.491136 0.503677
0.520244 0.493303 0.505844
0.482317 0.483329 0.492763
0.487590 0.485495 0.494930
0.492862 0.487662 0.497097
0.498135 0.489829 0.499264
0.503407 0.491996 0.501431
0.508680 0.494163 0.503597
0.513953 0.496329 0.505764
0.519225 0.498496 0.507931
0.524498 0.500663 0.510098
0.486571 0.490688 0.497017
0.491843 0.492855 0.499184
0.497116 0.495022 0.501351
0.502389 0.497189 0.503518
0.507661 0.499355 0.505684
0.512934 0.501522 0.507851
0.518206 0.503689 0.510018
0.523479 0.505856 0.512185
0.528752 0.508023 0.514352
0.490825 0.498048 0.501271
0.496097 0.500215 0.503438
0.501370 0.502382 0.505605
0.506643 0.504548 0.507772
0.511915 0.506715 0.509938
0.517188 0.508882 0.512105
0.522460 0.511049 0.514272
0.527733 0.513216 0.516439
0.533006 0.515382 0.518606
0.495079 0.505408 0.505525
0.500351 0.507574 0.507692
0.505624 0.509741 0.509859
0.510896 0.511908 0.512025
0.516169 0.514075 0.514192
0.521442 0.516242 0.516359
0.526714 0.518408 0.518526
0.531987 0.520575 0.520693
0.537259 0.522742 0.522859
0.499333 0.512767 0.509779
0.504605 0.514934 0.511946
0.509878 0.517101 0.514113
0.515150 0.519268 0.516279
0.520423 0.521435 0.518446
0.525696 0.523601 0.520613
0.530968 0.525768 0.522780
0.536241 0.527935 0.524947
0.541513 0.530102 0.527113
0.503586 0.520127 0.514033
0.508859 0.522294 0.516200
0.514132 0.524461 0.518366
0.519404 0.526627 0.520533
0.524677 0.528794 0.522700
0.529949 0.530961 0.524867
0.535222 0.533128 0.527034
0.540495 0.535295 0.529200
0.545767 0.537461 0.531367
0.507840 0.527487 0.518287
0.513113 0.529654 0.520454
0.518386 0.531820 0.522620
0.523658 0.533987 0.524787
0.528931 0.536154 0.526954
0.534203 0.538321 0.529121
0.539476 0.540488 0.531288
0.544749 0.542654 0.533454
0.550021 0.544821 0.535621
