shared/src/main/assets/luts/film_clean_tension.cube
TITLE "DALUR Clean Tension"
LUT_3D_SIZE 9
DOMAIN_MIN 0.0 0.0 0.0
DOMAIN_MAX 1.0 1.0 1.0
0.451200 0.454000 0.448800
0.454499 0.457924 0.452724
0.457799 0.461849 0.456649
0.461098 0.465773 0.460573
0.464397 0.469697 0.464498
0.467697 0.473622 0.468422
0.470996 0.477546 0.472346
0.474296 0.481471 0.476271
0.477595 0.485395 0.480195
0.458904 0.461079 0.456504
0.462204 0.465004 0.460429
0.465503 0.468928 0.464353
0.468803 0.472853 0.468278
0.472102 0.476777 0.472202
0.475401 0.480701 0.476126
0.478701 0.484626 0.480051
0.482000 0.488550 0.483975
0.485299 0.492474 0.487899
0.466609 0.468159 0.464209
0.469908 0.472083 0.468133
0.473207 0.476007 0.472057
0.476507 0.479932 0.475982
0.479806 0.483856 0.479906
0.483106 0.487781 0.483831
0.486405 0.491705 0.487755
0.489704 0.495629 0.491679
0.493004 0.499554 0.495604
0.474313 0.475238 0.471913
0.477612 0.479162 0.475838
0.480912 0.483087 0.479762
0.484211 0.487011 0.483686
0.487511 0.490936 0.487611
0.490810 0.494860 0.491535
0.494109 0.498784 0.495459
0.497409 0.502709 0.499384
0.500708 0.506633 0.503308
0.482017 0.482318 0.479618
0.485317 0.486242 0.483542
0.488616 0.490166 0.487466
0.491916 0.494091 0.491391
0.495215 0.498015 0.495315
0.498514 0.501939 0.499239
0.501814 0.505864 0.503164
0.505113 0.509788 0.507088
0.508412 0.513713 0.511012
0.489722 0.489397 0.487322
0.493021 0.493321 0.491246
0.496321 0.497246 0.495171
0.499620 0.501170 0.499095
0.502919 0.505094 0.503019
0.506219 0.509019 0.506944
0.509518 0.512943 0.510868
0.512817 0.516867 0.514792
0.516117 0.520792 0.518717
0.497426 0.496476 0.495026
0.500726 0.500401 0.498951
0.504025 0.504325 0.502875
0.507324 0.508249 0.506799
0.510624 0.512174 0.510724
0.513923 0.516098 0.514648
0.517222 0.520022 0.518572
0.520522 0.523947 0.522497
0.523821 0.527871 0.526421
0.505131 0.503556 0.502731
0.508430 0.507480 0.506655
0.511729 0.511404 0.510579
0.515029 0.515329 0.514504
0.518328 0.519253 0.518428
0.521627 0.523177 0.522352
0.524927 0.527102 0.526277
0.528226 0.531026 0.530201
0.531526 0.534951 0.534126
0.512835 0.510635 0.510435
0.516134 0.514559 0.514359
0.519434 0.518484 0.518284
0.522733 0.522408 0.522208
0.526033 0.526333 0.526133
0.529332 0.530257 0.530057
0.532631 0.534181 0.533981
0.535931 0.538106 0.537906
0.539230 0.542030 0.541830
0.452696 0.455496 0.449671
0.455996 0.459421 0.453596
0.459295 0.463345 0.457520
0.462594 0.467269 0.461444
0.465894 0.471194 0.465369
0.469193 0.475118 0.469293
0.472492 0.479042 0.473218
0.475792 0.482967 0.477142
0.479091 0.486891 0.481066
0.460401 0.462576 0.457376
0.463700 0.466500 0.461300
0.466999 0.470424 0.465224
0.470299 0.474349 0.469149
0.473598 0.478273 0.473073
0.476897 0.482198 0.476998
0.480197 0.486122 0.480922
0.483496 0.490046 0.484846
0.486796 0.493971 0.488771
0.468105 0.469655 0.465080
0.471404 0.473579 0.469004
0.474704 0.477504 0.472929
0.478003 0.481428 0.476853
0.481302 0.485352 0.480777
0.484602 0.489277 0.484702
0.487901 0.493201 0.488626
0.491201 0.497126 0.492551
0.494500 0.501050 0.496475
0.475809 0.476734 0.472784
0.479109 0.480659 0.476709
0.482408 0.484583 0.480633
0.485708 0.488508 0.484558
0.489007 0.492432 0.488482
0.492306 0.496356 0.492406
0.495606 0.500281 0.496331
0.498905 0.504205 0.500255
0.502204 0.508129 0.504179
0.483514 0.483814 0.480489
0.486813 0.487738 0.484413
0.490112 0.491662 0.488337
0.493412 0.495587 0.492262
0.496711 0.499511 0.496186
0.500011 0.503436 0.500111
0.503310 0.507360 0.504035
0.506609 0.511284 0.507959
0.509909 0.515209 0.511884
0.491218 0.490893 0.488193
0.494517 0.494818 0.492118
0.497817 0.498742 0.496042
0.501116 0.502666 0.499966
0.504416 0.506591 0.503891
0.507715 0.510515 0.507815
0.511014 0.514439 0.511739
0.514314 0.518364 0.515664
0.517613 0.522288 0.519588
0.498922 0.497972 0.495898
0.502222 0.501897 0.499822
0.505521 0.505821 0.503746
0.508821 0.509746 0.507671
0.512120 0.513670 0.511595
0.515419 0.517594 0.515519
0.518719 0.521519 0.519444
0.522018 0.525443 0.523368
0.525317 0.529367 0.527293
0.506627 0.505052 0.503602
0.509926 0.508976 0.507526
0.513226 0.512901 0.511451
0.516525 0.516825 0.515375
0.519824 0.520749 0.519299
0.523124 0.524674 0.523224
0.526423 0.528598 0.527148
0.529722 0.532522 0.531072
0.533022 0.536447 0.534997
0.514331 0.512131 0.511306
0.517631 0.516056 0.515231
0.520930 0.519980 0.519155
0.524229 0.523904 0.523079
0.527529 0.527829 0.527004
0.530828 0.531753 0.530928
0.534128 0.535678 0.534853
0.537427 0.539602 0.538777
0.540726 0.543526 0.542701
0.454192 0.456992 0.450543
0.457492 0.460917 0.454467
0.460791 0.464841 0.458391
0.464091 0.468766 0.462316
0.467390 0.472690 0.466240
0.470689 0.476614 0.470164
0.473989 0.480539 0.474089
0.477288 0.484463 0.478013
0.480587 0.488387 0.481937
0.461897 0.464072 0.458247
0.465196 0.467996 0.462171
0.468496 0.471921 0.466096
0.471795 0.475845 0.470020
0.475094 0.479769 0.473944
0.478394 0.483694 0.477869
0.481693 0.487618 0.481793
0.484992 0.491542 0.485717
0.488292 0.495467 0.489642
0.469601 0.471151 0.465951
0.472901 0.475076 0.469876
0.476200 0.479000 0.473800
0.479499 0.482924 0.477724
0.482799 0.486849 0.481649
0.486098 0.490773 0.485573
0.489397 0.494697 0.489497
0.492697 0.498622 0.493422
0.495996 0.502546 0.497346
0.477306 0.478231 0.473656
0.480605 0.482155 0.477580
0.483904 0.486079 0.481504
0.487204 0.490004 0.485429
0.490503 0.493928 0.489353
0.493802 0.497852 0.493277
0.497102 0.501777 0.497202
0.500401 0.505701 0.501126
0.503701 0.509626 0.505051
0.485010 0.485310 0.481360
0.488309 0.489234 0.485284
0.491609 0.493159 0.489209
0.494908 0.497083 0.493133
0.498207 0.501007 0.497057
0.501507 0.504932 0.500982
0.504806 0.508856 0.504906
0.508106 0.512781 0.508831
0.511405 0.516705 0.512755
0.492714 0.492389 0.489064
0.496014 0.496314 0.492989
0.499313 0.500238 0.496913
0.502613 0.504163 0.500838
0.505912 0.508087 0.504762
0.509211 0.512011 0.508686
0.512511 0.515936 0.512611
0.515810 0.519860 0.516535
0.519109 0.523784 0.520459
0.500419 0.499469 0.496769
0.503718 0.503393 0.500693
0.507017 0.507317 0.504617
0.510317 0.511242 0.508542
0.513616 0.515166 0.512466
0.516916 0.519091 0.516391
0.520215 0.523015 0.520315
0.523514 0.526939 0.524239
0.526814 0.530864 0.528164
0.508123 0.506548 0.504473
0.511423 0.510472 0.508398
0.514722 0.514397 0.512322
0.518021 0.518321 0.516246
0.521321 0.522246 0.520171
0.524620 0.526170 0.524095
0.527919 0.530094 0.528019
0.531219 0.534019 0.531944
0.534518 0.537943 0.535868
0.515827 0.513628 0.512178
0.519127 0.517552 0.516102
0.522426 0.521476 0.520026
0.525726 0.525401 0.523951
0.529025 0.529325 0.527875
0.532324 0.533249 0.531799
0.535624 0.537174 0.535724
0.538923 0.541098 0.539648
0.542223 0.545023 0.543573
0.455689 0.458489 0.451414
0.458988 0.462413 0.455338
0.462287 0.466337 0.459262
0.465587 0.470262 0.463187
0.468886 0.474186 0.467111
0.472186 0.478111 0.471036
0.475485 0.482035 0.474960
0.478784 0.485959 0.478884
0.482084 0.489884 0.482809
0.463393 0.465568 0.459118
0.466692 0.469492 0.463043
0.469992 0.473417 0.466967
0.473291 0.477341 0.470891
0.476591 0.481266 0.474816
0.479890 0.485190 0.478740
0.483189 0.489114 0.482664
0.486489 0.493039 0.486589
0.489788 0.496963 0.490513
0.471097 0.472647 0.466822
0.474397 0.476572 0.470747
0.477696 0.480496 0.474671
0.480996 0.484421 0.478596
0.484295 0.488345 0.482520
0.487594 0.492269 0.486444
0.490894 0.496194 0.490369
0.494193 0.500118 0.494293
0.497492 0.504042 0.498217
0.478802 0.479727 0.474527
0.482101 0.483651 0.478451
0.485401 0.487576 0.482376
0.488700 0.491500 0.486300
0.491999 0.495424 0.490224
0.495299 0.499349 0.494149
0.498598 0.503273 0.498073
0.501897 0.507197 0.501997
0.505197 0.511122 0.505922
0.486506 0.486806 0.482231
0.489806 0.490731 0.486156
0.493105 0.494655 0.490080
0.496404 0.498579 0.494004
0.499704 0.502504 0.497929
0.503003 0.506428 0.501853
0.506302 0.510352 0.505777
0.509602 0.514277 0.509702
0.512901 0.518201 0.513626
0.494211 0.493886 0.489936
0.497510 0.497810 0.493860
0.500809 0.501734 0.497784
0.504109 0.505659 0.501709
0.507408 0.509583 0.505633
0.510707 0.513507 0.509557
0.514007 0.517432 0.513482
0.517306 0.521356 0.517406
0.520606 0.525281 0.521331
0.501915 0.500965 0.497640
0.505214 0.504889 0.501564
0.508514 0.508814 0.505489
0.511813 0.512738 0.509413
0.515112 0.516663 0.513338
0.518412 0.520587 0.517262
0.521711 0.524511 0.521186
0.525011 0.528436 0.525111
0.528310 0.532360 0.529035
0.509619 0.508044 0.505344
0.512919 0.511969 0.509269
0.516218 0.515893 0.513193
0.519517 0.519818 0.517118
0.522817 0.523742 0.521042
0.526116 0.527666 0.524966
0.529416 0.531591 0.528891
0.532715 0.535515 0.532815
0.536014 0.539439 0.536739
0.517324 0.515124 0.513049
0.520623 0.519048 0.516973
0.523923 0.522973 0.520898
0.527222 0.526897 0.524822
0.530521 0.530821 0.528746
0.533821 0.534746 0.532671
0.537120 0.538670 0.536595
0.540419 0.542594 0.540519
0.543719 0.546519 0.544444
0.457185 0.459985 0.452285
0.460484 0.463909 0.456209
0.463784 0.467834 0.460134
0.467083 0.471758 0.464058
0.470382 0.475682 0.467982
0.473682 0.479607 0.471907
0.476981 0.483531 0.475831
0.480281 0.487456 0.479756
0.483580 0.491380 0.483680
0.464889 0.467064 0.459989
0.468189 0.470989 0.463914
0.471488 0.474913 0.467838
0.474787 0.478838 0.471763
0.478087 0.482762 0.475687
0.481386 0.486686 0.479611
0.484686 0.490611 0.483536
0.487985 0.494535 0.487460
0.491284 0.498459 0.491384
0.472594 0.474144 0.467694
0.475893 0.478068 0.471618
0.479192 0.481992 0.475542
0.482492 0.485917 0.479467
0.485791 0.489841 0.483391
0.489091 0.493766 0.487316
0.492390 0.497690 0.491240
0.495689 0.501614 0.495164
0.498989 0.505539 0.499089
0.480298 0.481223 0.475398
0.483597 0.485148 0.479322
0.486897 0.489072 0.483247
0.490196 0.492996 0.487171
0.493496 0.496921 0.491096
0.496795 0.500845 0.495020
0.500094 0.504769 0.498944
0.503394 0.508694 0.502869
0.506693 0.512618 0.506793
0.488002 0.488302 0.483102
0.491302 0.492227 0.487027
0.494601 0.496151 0.490951
0.497901 0.500076 0.494876
0.501200 0.504000 0.498800
0.504499 0.507924 0.502724
0.507799 0.511849 0.506649
0.511098 0.515773 0.510573
0.514397 0.519698 0.514498
0.495707 0.495382 0.490807
0.499006 0.499306 0.494731
0.502306 0.503231 0.498656
0.505605 0.507155 0.502580
0.508904 0.511079 0.506504
0.512204 0.515004 0.510429
0.515503 0.518928 0.514353
0.518802 0.522852 0.518277
0.522102 0.526777 0.522202
0.503411 0.502461 0.498511
0.506711 0.506386 0.502436
0.510010 0.510310 0.506360
0.513309 0.514234 0.510284
0.516609 0.518159 0.514209
0.519908 0.522083 0.518133
0.523207 0.526007 0.522058
0.526507 0.529932 0.525982
0.529806 0.533856 0.529906
0.511116 0.509541 0.506216
0.514415 0.513465 0.510140
0.517714 0.517389 0.514064
0.521014 0.521314 0.517989
0.524313 0.525238 0.521913
0.527612 0.529162 0.525837
0.530912 0.533087 0.529762
0.534211 0.537011 0.533686
0.537511 0.540936 0.537611
0.518820 0.516620 0.513920
0.522119 0.520544 0.517844
0.525419 0.524469 0.521769
0.528718 0.528393 0.525693
0.532018 0.532318 0.529618
0.535317 0.536242 0.533542
0.538616 0.540166 0.537466
0.541916 0.544091 0.541391
0.545215 0.548015 0.545315
0.458681 0.461481 0.453156
0.461981 0.465406 0.457081
0.465280 0.469330 0.461005
0.468579 0.473254 0.464929
0.471879 0.477179 0.468854
0.475178 0.481103 0.472778
0.478477 0.485028 0.476702
0.481777 0.488952 0.480627
0.485076 0.492876 0.484551
0.466386 0.468561 0.460861
0.469685 0.472485 0.464785
0.472984 0.476409 0.468709
0.476284 0.480334 0.472634
0.479583 0.484258 0.476558
0.482882 0.488182 0.480482
0.486182 0.492107 0.484407
0.489481 0.496031 0.488331
0.492781 0.499956 0.492256
0.474090 0.475640 0.468565
0.477389 0.479564 0.472489
0.480689 0.483489 0.476414
0.483988 0.487413 0.480338
0.487287 0.491337 0.484262
0.490587 0.495262 0.488187
0.493886 0.499186 0.492111
0.497186 0.503111 0.496036
0.500485 0.507035 0.499960
0.481794 0.482719 0.476269
0.485094 0.486644 0.480194
0.488393 0.490568 0.484118
0.491692 0.494493 0.488043
0.494992 0.498417 0.491967
0.498291 0.502341 0.495891
0.501591 0.506266 0.499816
0.504890 0.510190 0.503740
0.508189 0.514114 0.507664
0.489499 0.489799 0.483974
0.492798 0.493723 0.487898
0.496097 0.497647 0.491822
0.499397 0.501572 0.495747
0.502696 0.505496 0.499671
0.505996 0.509421 0.503596
0.509295 0.513345 0.507520
0.512594 0.517269 0.511444
0.515894 0.521194 0.515369
0.497203 0.496878 0.491678
0.500502 0.500802 0.495603
0.503802 0.504727 0.499527
0.507101 0.508651 0.503451
0.510401 0.512576 0.507376
0.513700 0.516500 0.511300
0.516999 0.520424 0.515224
0.520299 0.524349 0.519149
0.523598 0.528273 0.523073
0.504907 0.503957 0.499382
0.508207 0.507882 0.503307
0.511506 0.511806 0.507231
0.514806 0.515731 0.511156
0.518105 0.519655 0.515080
0.521404 0.523579 0.519004
0.524704 0.527504 0.522929
0.528003 0.531428 0.526853
0.531302 0.535352 0.530777
0.512612 0.511037 0.507087
0.515911 0.514961 0.511011
0.519211 0.518886 0.514936
0.522510 0.522810 0.518860
0.525809 0.526734 0.522784
0.529109 0.530659 0.526709
0.532408 0.534583 0.530633
0.535707 0.538507 0.534558
0.539007 0.542432 0.538482
0.520316 0.518116 0.514791
0.523616 0.522041 0.518716
0.526915 0.525965 0.522640
0.530214 0.529889 0.526564
0.533514 0.533814 0.530489
0.536813 0.537738 0.534413
0.540112 0.541663 0.538338
0.543412 0.545587 0.542262
0.546711 0.549511 0.546186
0.460178 0.462978 0.454028
0.463477 0.466902 0.457952
0.466776 0.470826 0.461876
0.470076 0.474751 0.465801
0.473375 0.478675 0.469725
0.476674 0.482599 0.473649
0.479974 0.486524 0.477574
0.483273 0.490448 0.481498
0.486572 0.494372 0.485423
0.467882 0.470057 0.461732
0.471181 0.473981 0.465656
0.474481 0.477906 0.469581
0.477780 0.481830 0.473505
0.481079 0.485754 0.477429
0.484379 0.489679 0.481354
0.487678 0.493603 0.485278
0.490977 0.497528 0.489202
0.494277 0.501452 0.493127
0.475586 0.477136 0.469436
0.478886 0.481061 0.473361
0.482185 0.484985 0.477285
0.485484 0.488909 0.481209
0.488784 0.492834 0.485134
0.492083 0.496758 0.489058
0.495382 0.500682 0.492982
0.498682 0.504607 0.496907
0.501981 0.508531 0.500831
0.483291 0.484216 0.477141
0.486590 0.488140 0.481065
0.489889 0.492064 0.484989
0.493189 0.495989 0.488914
0.496488 0.499913 0.492838
0.499787 0.503837 0.496762
0.503087 0.507762 0.500687
0.506386 0.511686 0.504611
0.509686 0.515611 0.508536
0.490995 0.491295 0.484845
0.494294 0.495219 0.488769
0.497594 0.499144 0.492694
0.500893 0.503068 0.496618
0.504192 0.506992 0.500542
0.507492 0.510917 0.504467
0.510791 0.514841 0.508391
0.514091 0.518766 0.512316
0.517390 0.522690 0.516240
0.498699 0.498374 0.492549
0.501999 0.502299 0.496474
0.505298 0.506223 0.500398
0.508597 0.510147 0.504323
0.511897 0.514072 0.508247
0.515196 0.517996 0.512171
0.518496 0.521921 0.516096
0.521795 0.525845 0.520020
0.525094 0.529769 0.523944
0.506404 0.505454 0.500254
0.509703 0.509378 0.504178
0.513002 0.513302 0.508102
0.516302 0.517227 0.512027
0.519601 0.521151 0.515951
0.522901 0.525076 0.519876
0.526200 0.529000 0.523800
0.529499 0.532924 0.527724
0.532799 0.536849 0.531649
0.514108 0.512533 0.507958
0.517407 0.516457 0.511882
0.520707 0.520382 0.515807
0.524006 0.524306 0.519731
0.527306 0.528231 0.523656
0.530605 0.532155 0.527580
0.533904 0.536079 0.531504
0.537204 0.540004 0.535429
0.540503 0.543928 0.539353
0.521813 0.519613 0.515663
0.525112 0.523537 0.519587
0.528411 0.527461 0.523511
0.531711 0.531386 0.527436
0.535010 0.535310 0.531360
0.538309 0.539234 0.535284
0.541609 0.543159 0.539209
0.544908 0.547083 0.543133
0.548207 0.551007 0.547058
0.461674 0.464474 0.454899
0.464973 0.468398 0.458823
0.468272 0.472322 0.462747
0.471572 0.476247 0.466672
0.474871 0.480171 0.470596
0.478171 0.484096 0.474521
0.481470 0.488020 0.478445
0.484769 0.491944 0.482369
0.488069 0.495869 0.486294
0.469378 0.471553 0.462603
0.472678 0.475478 0.466528
0.475977 0.479402 0.470452
0.479276 0.483326 0.474376
0.482576 0.487251 0.478301
0.485875 0.491175 0.482225
0.489174 0.495099 0.486149
0.492474 0.499024 0.490074
0.495773 0.502948 0.493998
0.477083 0.478633 0.470308
0.480382 0.482557 0.474232
0.483681 0.486481 0.478156
0.486981 0.490406 0.482081
0.490280 0.494330 0.486005
0.493579 0.498254 0.489929
0.496879 0.502179 0.493854
0.500178 0.506103 0.497778
0.503477 0.510027 0.501702
0.484787 0.485712 0.478012
0.488086 0.489636 0.481936
0.491386 0.493561 0.485861
0.494685 0.497485 0.489785
0.497984 0.501409 0.493709
0.501284 0.505334 0.497634
0.504583 0.509258 0.501558
0.507883 0.513182 0.505483
0.511182 0.517107 0.509407
0.492491 0.492791 0.485716
0.495791 0.496716 0.489641
0.499090 0.500640 0.493565
0.502389 0.504564 0.497489
0.505689 0.508489 0.501414
0.508988 0.512413 0.505338
0.512287 0.516337 0.509262
0.515587 0.520262 0.513187
0.518886 0.524186 0.517111
0.500196 0.499871 0.493421
0.503495 0.503795 0.497345
0.506794 0.507719 0.501269
0.510094 0.511644 0.505194
0.513393 0.515568 0.509118
0.516692 0.519493 0.513042
0.519992 0.523417 0.516967
0.523291 0.527341 0.520891
0.526591 0.531266 0.524816
0.507900 0.506950 0.501125
0.511199 0.510874 0.505049
0.514499 0.514799 0.508974
0.517798 0.518723 0.512898
0.521097 0.522647 0.516822
0.524397 0.526572 0.520747
0.527696 0.530496 0.524671
0.530996 0.534421 0.528596
0.534295 0.538345 0.532520
0.515604 0.514029 0.508829
0.518904 0.517954 0.512754
0.522203 0.521878 0.516678
0.525502 0.525802 0.520602
0.528802 0.529727 0.524527
0.532101 0.533651 0.528451
0.535401 0.537576 0.532376
0.538700 0.541500 0.536300
0.541999 0.545424 0.540224
0.523309 0.521109 0.516534
0.526608 0.525033 0.520458
0.529907 0.528957 0.524383
0.533207 0.532882 0.528307
0.536506 0.536806 0.532231
0.539806 0.540731 0.536156
0.543105 0.544655 0.540080
0.546404 0.548579 0.544004
0.549704 0.552504 0.547929
0.463170 0.465970 0.455770
0.466469 0.469894 0.459694
0.469769 0.473819 0.463619
0.473068 0.477743 0.467543
0.476367 0.481667 0.471467
0.479667 0.485592 0.475392
0.482966 0.489516 0.479316
0.486266 0.493441 0.483241
0.489565 0.497365 0.487165
0.470874 0.473049 0.463474
0.474174 0.476974 0.467399
0.477473 0.480898 0.471323
0.480772 0.484822 0.475247
0.484072 0.488747 0.479172
0.487371 0.492671 0.483096
0.490671 0.496596 0.487021
0.493970 0.500520 0.490945
0.497269 0.504444 0.494869
0.478579 0.480129 0.471179
0.481878 0.484053 0.475103
0.485177 0.487977 0.479027
0.488477 0.491902 0.482952
0.491776 0.495826 0.486876
0.495076 0.499751 0.490801
0.498375 0.503675 0.494725
0.501674 0.507599 0.498649
0.504974 0.511524 0.502574
0.486283 0.487208 0.478883
0.489582 0.491132 0.482808
0.492882 0.495057 0.486732
0.496181 0.498981 0.490656
0.499481 0.502906 0.494581
0.502780 0.506830 0.498505
0.506079 0.510754 0.502429
0.509379 0.514679 0.506354
0.512678 0.518603 0.510278
0.493988 0.494288 0.486588
0.497287 0.498212 0.490512
0.500586 0.502136 0.494436
0.503886 0.506061 0.498361
0.507185 0.509985 0.502285
0.510484 0.513909 0.506209
0.513784 0.517834 0.510134
0.517083 0.521758 0.514058
0.520382 0.525682 0.517983
0.501692 0.501367 0.494292
0.504991 0.505291 0.498216
0.508291 0.509216 0.502141
0.511590 0.513140 0.506065
0.514889 0.517064 0.509989
0.518189 0.520989 0.513914
0.521488 0.524913 0.517838
0.524787 0.528837 0.521763
0.528087 0.532762 0.525687
0.509396 0.508446 0.501996
0.512696 0.512371 0.505921
0.515995 0.516295 0.509845
0.519294 0.520219 0.513769
0.522594 0.524144 0.517694
0.525893 0.528068 0.521618
0.529192 0.531992 0.525542
0.532492 0.535917 0.529467
0.535791 0.539841 0.533391
0.517101 0.515526 0.509701
0.520400 0.519450 0.513625
0.523699 0.523374 0.517549
0.526999 0.527299 0.521474
0.530298 0.531223 0.525398
0.533597 0.535147 0.529323
0.536897 0.539072 0.533247
0.540196 0.542996 0.537171
0.543496 0.546921 0.541096
0.524805 0.522605 0.517405
0.528104 0.526529 0.521329
0.531404 0.530454 0.525254
0.534703 0.534378 0.529178
0.538003 0.538303 0.533103
0.541302 0.542227 0.537027
0.544601 0.546151 0.540951
0.547901 0.550076 0.544876
0.551200 0.554000 0.548800
