shared/src/main/assets/luts/film_toxic_gotham.cube
TITLE "DALUR Toxic Gotham"
LUT_3D_SIZE 5
DOMAIN_MIN 0.0 0.0 0.0
DOMAIN_MAX 1.0 1.0 1.0
0.407000 0.416000 0.413000
0.424567 0.427047 0.424047
0.442134 0.438094 0.435094
0.459702 0.449142 0.446142
0.477269 0.460189 0.457189
0.428688 0.444208 0.434688
0.446255 0.455255 0.445735
0.463822 0.466302 0.456782
0.481390 0.477350 0.467829
0.498957 0.488397 0.478877
0.450376 0.472416 0.456376
0.467943 0.483463 0.467423
0.485510 0.494510 0.478470
0.503078 0.505558 0.489517
0.520645 0.516605 0.500565
0.472064 0.500624 0.478064
0.489631 0.511671 0.489111
0.507198 0.522718 0.500158
0.524766 0.533766 0.511205
0.542333 0.544813 0.522252
0.493752 0.528832 0.499752
0.511319 0.539879 0.510799
0.528886 0.550926 0.521846
0.546453 0.561974 0.532893
0.564021 0.573021 0.543940
0.411212 0.420212 0.423732
0.428779 0.431259 0.434779
0.446346 0.442306 0.445826
0.463914 0.453353 0.456874
0.481481 0.464401 0.467921
0.432900 0.448420 0.445420
0.450467 0.459467 0.456467
0.468034 0.470514 0.467514
0.485602 0.481561 0.478561
0.503169 0.492609 0.489609
0.454588 0.476628 0.467108
0.472155 0.487675 0.478155
0.489722 0.498722 0.489202
0.507290 0.509769 0.500249
0.524857 0.520817 0.511297
0.476276 0.504836 0.488796
0.493843 0.515883 0.499843
0.511410 0.526930 0.510890
0.528977 0.537977 0.521937
0.546545 0.549025 0.532985
0.497964 0.533044 0.510484
0.515531 0.544091 0.521531
0.533098 0.555138 0.532578
0.550665 0.566185 0.543625
0.568233 0.577233 0.554672
0.415424 0.424424 0.434464
0.432991 0.435471 0.445511
0.450558 0.446518 0.456558
0.468126 0.457565 0.467606
0.485693 0.468613 0.478653
0.437112 0.452632 0.456152
0.454679 0.463679 0.467199
0.472246 0.474726 0.478246
0.489814 0.485773 0.489294
0.507381 0.496821 0.500341
0.458800 0.480840 0.477840
0.476367 0.491887 0.488887
0.493934 0.502934 0.499934
0.511502 0.513981 0.510981
0.529069 0.525029 0.522029
0.480488 0.509048 0.499528
0.498055 0.520095 0.510575
0.515622 0.531142 0.521622
0.533189 0.542189 0.532669
0.550757 0.553237 0.543717
0.502176 0.537256 0.521216
0.519743 0.548303 0.532263
0.537310 0.559350 0.543310
0.554877 0.570397 0.554357
0.572445 0.581445 0.565404
0.419636 0.428636 0.445196
0.437203 0.439683 0.456243
0.454770 0.450730 0.467290
0.472338 0.461777 0.478338
0.489905 0.472825 0.489385
0.441324 0.456844 0.466884
0.458891 0.467891 0.477931
0.476458 0.478938 0.488978
0.494026 0.489985 0.500026
0.511593 0.501033 0.511073
0.463012 0.485052 0.488572
0.480579 0.496099 0.499619
0.498146 0.507146 0.510666
0.515713 0.518193 0.521713
0.533281 0.529241 0.532761
0.484700 0.513260 0.510260
0.502267 0.524307 0.521307
0.519834 0.535354 0.532354
0.537401 0.546401 0.543401
0.554969 0.557449 0.554449
0.506388 0.541468 0.531948
0.523955 0.552515 0.542995
0.541522 0.563562 0.554042
0.559089 0.574609 0.565089
0.576657 0.585657 0.576137
0.423848 0.432848 0.455928
0.441415 0.443895 0.466975
0.458982 0.454942 0.478022
0.476550 0.465989 0.489070
0.494117 0.477037 0.500117
0.445536 0.461056 0.477616
0.463103 0.472103 0.488663
0.480670 0.483150 0.499710
0.498238 0.494197 0.510758
0.515805 0.505245 0.521805
0.467224 0.489264 0.499304
0.484791 0.500311 0.510351
0.502358 0.511358 0.521398
0.519925 0.522405 0.532446
0.537493 0.533453 0.543493
0.488912 0.517472 0.520992
0.506479 0.528519 0.532039
0.524046 0.539566 0.543086
0.541613 0.550613 0.554133
0.559181 0.561661 0.565181
0.510600 0.545680 0.542680
0.528167 0.556727 0.553727
0.545734 0.567774 0.564774
0.563301 0.578821 0.575821
0.580869 0.589869 0.586869
