shared/src/main/assets/luts/film_clean_tension.cube
TITLE "DALUR Clean Tension"
LUT_3D_SIZE 17
DOMAIN_MIN 0.0 0.0 0.0
DOMAIN_MAX 1.0 1.0 1.0
0.451200 0.454000 0.448800
0.452850 0.455962 0.450762
0.454499 0.457924 0.452724
0.456149 0.459887 0.454687
0.457799 0.461849 0.456649
0.459448 0.463811 0.458611
0.461098 0.465773 0.460573
0.462748 0.467735 0.462535
0.464397 0.469697 0.464498
0.466047 0.471660 0.466460
0.467697 0.473622 0.468422
0.469347 0.475584 0.470384
0.470996 0.477546 0.472346
0.472646 0.479508 0.474308
0.474296 0.481471 0.476271
0.475945 0.483433 0.478233
0.477595 0.485395 0.480195
0.455052 0.457540 0.452652
0.456702 0.459502 0.454614
0.458352 0.461464 0.456577
0.460001 0.463426 0.458539
0.461651 0.465388 0.460501
0.463301 0.467351 0.462463
0.464950 0.469313 0.464425
0.466600 0.471275 0.466388
0.468250 0.473237 0.468350
0.469899 0.475199 0.470312
0.471549 0.477162 0.472274
0.473199 0.479124 0.474236
0.474848 0.481086 0.476198
0.476498 0.483048 0.478161
0.478148 0.485010 0.480123
0.479797 0.486973 0.482085
0.481447 0.488935 0.484047
0.458904 0.461079 0.456504
0.460554 0.463042 0.458467
0.462204 0.465004 0.460429
0.463853 0.466966 0.462391
0.465503 0.468928 0.464353
0.467153 0.470890 0.466315
0.468803 0.472853 0.468278
0.470452 0.474815 0.470240
0.472102 0.476777 0.472202
0.473752 0.478739 0.474164
0.475401 0.480701 0.476126
0.477051 0.482663 0.478088
0.478701 0.484626 0.480051
0.480350 0.486588 0.482013
0.482000 0.488550 0.483975
0.483650 0.490512 0.485937
0.485299 0.492474 0.487899
0.462757 0.464619 0.460357
0.464406 0.466581 0.462319
0.466056 0.468543 0.464281
0.467706 0.470506 0.466243
0.469355 0.472468 0.468205
0.471005 0.474430 0.470168
0.472655 0.476392 0.472130
0.474304 0.478354 0.474092
0.475954 0.480317 0.476054
0.477604 0.482279 0.478016
0.479253 0.484241 0.479978
0.480903 0.486203 0.481941
0.482553 0.488165 0.483903
0.484202 0.490127 0.485865
0.485852 0.492090 0.487827
0.487502 0.494052 0.489789
0.489152 0.496014 0.491752
0.466609 0.468159 0.464209
0.468258 0.470121 0.466171
0.469908 0.472083 0.468133
0.471558 0.474045 0.470095
0.473207 0.476007 0.472057
0.474857 0.477970 0.474020
0.476507 0.479932 0.475982
0.478157 0.481894 0.477944
0.479806 0.483856 0.479906
0.481456 0.485818 0.481868
0.483106 0.487781 0.483831
0.484755 0.489743 0.485793
0.486405 0.491705 0.487755
0.488055 0.493667 0.489717
0.489704 0.495629 0.491679
0.491354 0.497592 0.493642
0.493004 0.499554 0.495604
0.470461 0.471698 0.468061
0.472111 0.473661 0.470023
0.473760 0.475623 0.471985
0.475410 0.477585 0.473948
0.477060 0.479547 0.475910
0.478709 0.481509 0.477872
0.480359 0.483472 0.479834
0.482009 0.485434 0.481796
0.483658 0.487396 0.483758
0.485308 0.489358 0.485721
0.486958 0.491320 0.487683
0.488607 0.493283 0.489645
0.490257 0.495245 0.491607
0.491907 0.497207 0.493569
0.493557 0.499169 0.495532
0.495206 0.501131 0.497494
0.496856 0.503093 0.499456
0.474313 0.475238 0.471913
0.475963 0.477200 0.473875
0.477612 0.479162 0.475838
0.479262 0.481125 0.477800
0.480912 0.483087 0.479762
0.482562 0.485049 0.481724
0.484211 0.487011 0.483686
0.485861 0.488973 0.485648
0.487511 0.490936 0.487611
0.489160 0.492898 0.489573
0.490810 0.494860 0.491535
0.492460 0.496822 0.493497
0.494109 0.498784 0.495459
0.495759 0.500747 0.497422
0.497409 0.502709 0.499384
0.499058 0.504671 0.501346
0.500708 0.506633 0.503308
0.478165 0.478778 0.475765
0.479815 0.480740 0.477727
0.481465 0.482702 0.479690
0.483114 0.484664 0.481652
0.484764 0.486627 0.483614
0.486414 0.488589 0.485576
0.488063 0.490551 0.487538
0.489713 0.492513 0.489501
0.491363 0.494475 0.491463
0.493012 0.496437 0.493425
0.494662 0.498400 0.495387
0.496312 0.500362 0.497349
0.497962 0.502324 0.499312
0.499611 0.504286 0.501274
0.501261 0.506248 0.503236
0.502911 0.508211 0.505198
0.504560 0.510173 0.507160
0.482017 0.482318 0.479618
0.483667 0.484280 0.481580
0.485317 0.486242 0.483542
0.486967 0.488204 0.485504
0.488616 0.490166 0.487466
0.490266 0.492128 0.489428
0.491916 0.494091 0.491391
0.493565 0.496053 0.493353
0.495215 0.498015 0.495315
0.496865 0.499977 0.497277
0.498514 0.501939 0.499239
0.500164 0.503902 0.501202
0.501814 0.505864 0.503164
0.503463 0.507826 0.505126
0.505113 0.509788 0.507088
0.506763 0.511750 0.509050
0.508412 0.513713 0.511012
0.485870 0.485857 0.483470
0.487519 0.487819 0.485432
0.489169 0.489782 0.487394
0.490819 0.491744 0.489356
0.492468 0.493706 0.491318
0.494118 0.495668 0.493281
0.495768 0.497630 0.495243
0.497417 0.499592 0.497205
0.499067 0.501555 0.499167
0.500717 0.503517 0.501129
0.502367 0.505479 0.503092
0.504016 0.507441 0.505054
0.505666 0.509403 0.507016
0.507316 0.511366 0.508978
0.508965 0.513328 0.510940
0.510615 0.515290 0.512903
0.512265 0.517252 0.514865
0.489722 0.489397 0.487322
0.491372 0.491359 0.489284
0.493021 0.493321 0.491246
0.494671 0.495283 0.493208
0.496321 0.497246 0.495171
0.497970 0.499208 0.497133
0.499620 0.501170 0.499095
0.501270 0.503132 0.501057
0.502919 0.505094 0.503019
0.504569 0.507057 0.504982
0.506219 0.509019 0.506944
0.507868 0.510981 0.508906
0.509518 0.512943 0.510868
0.511168 0.514905 0.512830
0.512817 0.516867 0.514792
0.514467 0.518830 0.516755
0.516117 0.520792 0.518717
0.493574 0.492937 0.491174
0.495224 0.494899 0.493136
0.496873 0.496861 0.495098
0.498523 0.498823 0.497061
0.500173 0.500785 0.499023
0.501823 0.502748 0.500985
0.503472 0.504710 0.502947
0.505122 0.506672 0.504909
0.506772 0.508634 0.506872
0.508421 0.510596 0.508834
0.510071 0.512558 0.510796
0.511721 0.514521 0.512758
0.513370 0.516483 0.514720
0.515020 0.518445 0.516683
0.516670 0.520407 0.518645
0.518319 0.522369 0.520607
0.519969 0.524332 0.522569
0.497426 0.496476 0.495026
0.499076 0.498438 0.496988
0.500726 0.500401 0.498951
0.502375 0.502363 0.500913
0.504025 0.504325 0.502875
0.505675 0.506287 0.504837
0.507324 0.508249 0.506799
0.508974 0.510212 0.508762
0.510624 0.512174 0.510724
0.512273 0.514136 0.512686
0.513923 0.516098 0.514648
0.515573 0.518060 0.516610
0.517222 0.520022 0.518572
0.518872 0.521985 0.520535
0.520522 0.523947 0.522497
0.522172 0.525909 0.524459
0.523821 0.527871 0.526421
0.501278 0.500016 0.498878
0.502928 0.501978 0.500841
0.504578 0.503940 0.502803
0.506227 0.505902 0.504765
0.507877 0.507865 0.506727
0.509527 0.509827 0.508689
0.511177 0.511789 0.510652
0.512826 0.513751 0.512614
0.514476 0.515713 0.514576
0.516126 0.517676 0.516538
0.517775 0.519638 0.518500
0.519425 0.521600 0.520463
0.521075 0.523562 0.522425
0.522724 0.525524 0.524387
0.524374 0.527487 0.526349
0.526024 0.529449 0.528311
0.527673 0.531411 0.530273
0.505131 0.503556 0.502731
0.506780 0.505518 0.504693
0.508430 0.507480 0.506655
0.510080 0.509442 0.508617
0.511729 0.511404 0.510579
0.513379 0.513367 0.512542
0.515029 0.515329 0.514504
0.516678 0.517291 0.516466
0.518328 0.519253 0.518428
0.519978 0.521215 0.520390
0.521627 0.523177 0.522352
0.523277 0.525140 0.524315
0.524927 0.527102 0.526277
0.526577 0.529064 0.528239
0.528226 0.531026 0.530201
0.529876 0.532988 0.532163
0.531526 0.534951 0.534126
0.508983 0.507095 0.506583
0.510632 0.509057 0.508545
0.512282 0.511020 0.510507
0.513932 0.512982 0.512469
0.515582 0.514944 0.514432
0.517231 0.516906 0.516394
0.518881 0.518868 0.518356
0.520531 0.520831 0.520318
0.522180 0.522793 0.522280
0.523830 0.524755 0.524242
0.525480 0.526717 0.526205
0.527129 0.528679 0.528167
0.528779 0.530642 0.530129
0.530429 0.532604 0.532091
0.532078 0.534566 0.534053
0.533728 0.536528 0.536016
0.535378 0.538490 0.537978
0.512835 0.510635 0.510435
0.514485 0.512597 0.512397
0.516134 0.514559 0.514359
0.517784 0.516522 0.516322
0.519434 0.518484 0.518284
0.521083 0.520446 0.520246
0.522733 0.522408 0.522208
0.524383 0.524370 0.524170
0.526033 0.526333 0.526133
0.527682 0.528295 0.528095
0.529332 0.530257 0.530057
0.530982 0.532219 0.532019
0.532631 0.534181 0.533981
0.534281 0.536143 0.535943
0.535931 0.538106 0.537906
0.537580 0.540068 0.539868
0.539230 0.542030 0.541830
0.451948 0.454748 0.449236
0.453598 0.456710 0.451198
0.455248 0.458673 0.453160
0.456897 0.460635 0.455122
0.458547 0.462597 0.457084
0.460197 0.464559 0.459047
0.461846 0.466521 0.461009
0.463496 0.468483 0.462971
0.465146 0.470446 0.464933
0.466795 0.472408 0.466895
0.468445 0.474370 0.468857
0.470095 0.476332 0.470820
0.471744 0.478294 0.472782
0.473394 0.480257 0.474744
0.475044 0.482219 0.476706
0.476693 0.484181 0.478668
0.478343 0.486143 0.480631
0.455800 0.458288 0.453088
0.457450 0.460250 0.455050
0.459100 0.462212 0.457012
0.460749 0.464174 0.458974
0.462399 0.466137 0.460937
0.464049 0.468099 0.462899
0.465698 0.470061 0.464861
0.467348 0.472023 0.466823
0.468998 0.473985 0.468785
0.470647 0.475948 0.470748
0.472297 0.477910 0.472710
0.473947 0.479872 0.474672
0.475597 0.481834 0.476634
0.477246 0.483796 0.478596
0.478896 0.485758 0.480558
0.480546 0.487721 0.482521
0.482195 0.489683 0.484483
0.459653 0.461828 0.456940
0.461302 0.463790 0.458902
0.462952 0.465752 0.460864
0.464602 0.467714 0.462827
0.466251 0.469676 0.464789
0.467901 0.471638 0.466751
0.469551 0.473601 0.468713
0.471200 0.475563 0.470675
0.472850 0.477525 0.472637
0.474500 0.479487 0.474600
0.476149 0.481449 0.476562
0.477799 0.483412 0.478524
0.479449 0.485374 0.480486
0.481098 0.487336 0.482448
0.482748 0.489298 0.484411
0.484398 0.491260 0.486373
0.486047 0.493223 0.488335
0.463505 0.465367 0.460792
0.465154 0.467329 0.462754
0.466804 0.469292 0.464717
0.468454 0.471254 0.466679
0.470103 0.473216 0.468641
0.471753 0.475178 0.470603
0.473403 0.477140 0.472565
0.475052 0.479102 0.474528
0.476702 0.481065 0.476490
0.478352 0.483027 0.478452
0.480002 0.484989 0.480414
0.481651 0.486951 0.482376
0.483301 0.488913 0.484338
0.484951 0.490876 0.486301
0.486600 0.492838 0.488263
0.488250 0.494800 0.490225
0.489900 0.496762 0.492187
0.467357 0.468907 0.464644
0.469007 0.470869 0.466607
0.470656 0.472831 0.468569
0.472306 0.474793 0.470531
0.473956 0.476756 0.472493
0.475605 0.478718 0.474455
0.477255 0.480680 0.476418
0.478905 0.482642 0.478380
0.480554 0.484604 0.480342
0.482204 0.486567 0.482304
0.483854 0.488529 0.484266
0.485503 0.490491 0.486228
0.487153 0.492453 0.488191
0.488803 0.494415 0.490153
0.490452 0.496377 0.492115
0.492102 0.498340 0.494077
0.493752 0.500302 0.496039
0.471209 0.472447 0.468497
0.472859 0.474409 0.470459
0.474508 0.476371 0.472421
0.476158 0.478333 0.474383
0.477808 0.480295 0.476345
0.479457 0.482258 0.478307
0.481107 0.484220 0.480270
0.482757 0.486182 0.482232
0.484407 0.488144 0.484194
0.486056 0.490106 0.486156
0.487706 0.492068 0.488118
0.489356 0.494031 0.490081
0.491005 0.495993 0.492043
0.492655 0.497955 0.494005
0.494305 0.499917 0.495967
0.495954 0.501879 0.497929
0.497604 0.503842 0.499892
0.475061 0.475986 0.472349
0.476711 0.477948 0.474311
0.478361 0.479911 0.476273
0.480010 0.481873 0.478235
0.481660 0.483835 0.480197
0.483310 0.485797 0.482160
0.484959 0.487759 0.484122
0.486609 0.489722 0.486084
0.488259 0.491684 0.488046
0.489908 0.493646 0.490008
0.491558 0.495608 0.491971
0.493208 0.497570 0.493933
0.494857 0.499532 0.495895
0.496507 0.501495 0.497857
0.498157 0.503457 0.499819
0.499807 0.505419 0.501782
0.501456 0.507381 0.503744
0.478913 0.479526 0.476201
0.480563 0.481488 0.478163
0.482213 0.483450 0.480125
0.483862 0.485412 0.482088
0.485512 0.487375 0.484050
0.487162 0.489337 0.486012
0.488812 0.491299 0.487974
0.490461 0.493261 0.489936
0.492111 0.495223 0.491898
0.493761 0.497186 0.493861
0.495410 0.499148 0.495823
0.497060 0.501110 0.497785
0.498710 0.503072 0.499747
0.500359 0.505034 0.501709
0.502009 0.506997 0.503672
0.503659 0.508959 0.505634
0.505308 0.510921 0.507596
0.482766 0.483066 0.480053
0.484415 0.485028 0.482015
0.486065 0.486990 0.483978
0.487715 0.488952 0.485940
0.489364 0.490914 0.487902
0.491014 0.492877 0.489864
0.492664 0.494839 0.491826
0.494313 0.496801 0.493788
0.495963 0.498763 0.495751
0.497613 0.500725 0.497713
0.499262 0.502687 0.499675
0.500912 0.504650 0.501637
0.502562 0.506612 0.503599
0.504212 0.508574 0.505562
0.505861 0.510536 0.507524
0.507511 0.512498 0.509486
0.509161 0.514461 0.511448
0.486618 0.486605 0.483905
0.488267 0.488567 0.485868
0.489917 0.490530 0.487830
0.491567 0.492492 0.489792
0.493217 0.494454 0.491754
0.494866 0.496416 0.493716
0.496516 0.498378 0.495678
0.498166 0.500341 0.497641
0.499815 0.502303 0.499603
0.501465 0.504265 0.501565
0.503115 0.506227 0.503527
0.504764 0.508189 0.505489
0.506414 0.510152 0.507452
0.508064 0.512114 0.509414
0.509713 0.514076 0.511376
0.511363 0.516038 0.513338
0.513013 0.518000 0.515300
0.490470 0.490145 0.487758
0.492120 0.492107 0.489720
0.493769 0.494069 0.491682
0.495419 0.496032 0.493644
0.497069 0.497994 0.495606
0.498718 0.499956 0.497568
0.500368 0.501918 0.499531
0.502018 0.503880 0.501493
0.503667 0.505842 0.503455
0.505317 0.507805 0.505417
0.506967 0.509767 0.507379
0.508617 0.511729 0.509342
0.510266 0.513691 0.511304
0.511916 0.515653 0.513266
0.513566 0.517616 0.515228
0.515215 0.519578 0.517190
0.516865 0.521540 0.519153
0.494322 0.493685 0.491610
0.495972 0.495647 0.493572
0.497622 0.497609 0.495534
0.499271 0.499571 0.497496
0.500921 0.501533 0.499458
0.502571 0.503496 0.501421
0.504220 0.505458 0.503383
0.505870 0.507420 0.505345
0.507520 0.509382 0.507307
0.509169 0.511344 0.509269
0.510819 0.513307 0.511232
0.512469 0.515269 0.513194
0.514118 0.517231 0.515156
0.515768 0.519193 0.517118
0.517418 0.521155 0.519080
0.519068 0.523118 0.521043
0.520717 0.525080 0.523005
0.498174 0.497224 0.495462
0.499824 0.499187 0.497424
0.501474 0.501149 0.499386
0.503123 0.503111 0.501348
0.504773 0.505073 0.503311
0.506423 0.507035 0.505273
0.508073 0.508997 0.507235
0.509722 0.510960 0.509197
0.511372 0.512922 0.511159
0.513022 0.514884 0.513122
0.514671 0.516846 0.515084
0.516321 0.518808 0.517046
0.517971 0.520771 0.519008
0.519620 0.522733 0.520970
0.521270 0.524695 0.522932
0.522920 0.526657 0.524895
0.524569 0.528619 0.526857
0.502027 0.500764 0.499314
0.503676 0.502726 0.501276
0.505326 0.504688 0.503238
0.506976 0.506651 0.505201
0.508625 0.508613 0.507163
0.510275 0.510575 0.509125
0.511925 0.512537 0.511087
0.513574 0.514499 0.513049
0.515224 0.516462 0.515012
0.516874 0.518424 0.516974
0.518523 0.520386 0.518936
0.520173 0.522348 0.520898
0.521823 0.524310 0.522860
0.523472 0.526272 0.524822
0.525122 0.528235 0.526785
0.526772 0.530197 0.528747
0.528422 0.532159 0.530709
0.505879 0.504304 0.503166
0.507528 0.506266 0.505128
0.509178 0.508228 0.507091
0.510828 0.510190 0.509053
0.512477 0.512152 0.511015
0.514127 0.514115 0.512977
0.515777 0.516077 0.514939
0.517427 0.518039 0.516902
0.519076 0.520001 0.518864
0.520726 0.521963 0.520826
0.522376 0.523926 0.522788
0.524025 0.525888 0.524750
0.525675 0.527850 0.526713
0.527325 0.529812 0.528675
0.528974 0.531774 0.530637
0.530624 0.533737 0.532599
0.532274 0.535699 0.534561
0.509731 0.507843 0.507018
0.511381 0.509806 0.508981
0.513030 0.511768 0.510943
0.514680 0.513730 0.512905
0.516330 0.515692 0.514867
0.517979 0.517654 0.516829
0.519629 0.519617 0.518792
0.521279 0.521579 0.520754
0.522928 0.523541 0.522716
0.524578 0.525503 0.524678
0.526228 0.527465 0.526640
0.527877 0.529427 0.528602
0.529527 0.531390 0.530565
0.531177 0.533352 0.532527
0.532827 0.535314 0.534489
0.534476 0.537276 0.536451
0.536126 0.539238 0.538413
0.513583 0.511383 0.510871
0.515233 0.513345 0.512833
0.516883 0.515308 0.514795
0.518532 0.517270 0.516757
0.520182 0.519232 0.518719
0.521832 0.521194 0.520682
0.523481 0.523156 0.522644
0.525131 0.525118 0.524606
0.526781 0.527081 0.526568
0.528430 0.529043 0.528530
0.530080 0.531005 0.530493
0.531730 0.532967 0.532455
0.533379 0.534929 0.534417
0.535029 0.536892 0.536379
0.536679 0.538854 0.538341
0.538328 0.540816 0.540303
0.539978 0.542778 0.542266
0.452696 0.455496 0.449671
0.454346 0.457458 0.451633
0.455996 0.459421 0.453596
0.457645 0.461383 0.455558
0.459295 0.463345 0.457520
0.460945 0.465307 0.459482
0.462594 0.467269 0.461444
0.464244 0.469232 0.463407
0.465894 0.471194 0.465369
0.467543 0.473156 0.467331
0.469193 0.475118 0.469293
0.470843 0.477080 0.471255
0.472492 0.479042 0.473218
0.474142 0.481005 0.475180
0.475792 0.482967 0.477142
0.477442 0.484929 0.479104
0.479091 0.486891 0.481066
0.456548 0.459036 0.453523
0.458198 0.460998 0.455486
0.459848 0.462960 0.457448
0.461498 0.464923 0.459410
0.463147 0.466885 0.461372
0.464797 0.468847 0.463334
0.466447 0.470809 0.465297
0.468096 0.472771 0.467259
0.469746 0.474733 0.469221
0.471396 0.476696 0.471183
0.473045 0.478658 0.473145
0.474695 0.480620 0.475108
0.476345 0.482582 0.477070
0.477994 0.484544 0.479032
0.479644 0.486507 0.480994
0.481294 0.488469 0.482956
0.482943 0.490431 0.484918
0.460401 0.462576 0.457376
0.462050 0.464538 0.459338
0.463700 0.466500 0.461300
0.465350 0.468462 0.463262
0.466999 0.470424 0.465224
0.468649 0.472387 0.467187
0.470299 0.474349 0.469149
0.471948 0.476311 0.471111
0.473598 0.478273 0.473073
0.475248 0.480235 0.475035
0.476897 0.482198 0.476998
0.478547 0.484160 0.478960
0.480197 0.486122 0.480922
0.481847 0.488084 0.482884
0.483496 0.490046 0.484846
0.485146 0.492008 0.486808
0.486796 0.493971 0.488771
0.464253 0.466115 0.461228
0.465902 0.468077 0.463190
0.467552 0.470040 0.465152
0.469202 0.472002 0.467114
0.470852 0.473964 0.469077
0.472501 0.475926 0.471039
0.474151 0.477888 0.473001
0.475801 0.479851 0.474963
0.477450 0.481813 0.476925
0.479100 0.483775 0.478888
0.480750 0.485737 0.480850
0.482399 0.487699 0.482812
0.484049 0.489662 0.484774
0.485699 0.491624 0.486736
0.487348 0.493586 0.488698
0.488998 0.495548 0.490661
0.490648 0.497510 0.492623
0.468105 0.469655 0.465080
0.469755 0.471617 0.467042
0.471404 0.473579 0.469004
0.473054 0.475542 0.470967
0.474704 0.477504 0.472929
0.476353 0.479466 0.474891
0.478003 0.481428 0.476853
0.479653 0.483390 0.478815
0.481302 0.485352 0.480777
0.482952 0.487315 0.482740
0.484602 0.489277 0.484702
0.486252 0.491239 0.486664
0.487901 0.493201 0.488626
0.489551 0.495163 0.490588
0.491201 0.497126 0.492551
0.492850 0.499088 0.494513
0.494500 0.501050 0.496475
0.471957 0.473195 0.468932
0.473607 0.475157 0.470894
0.475257 0.477119 0.472857
0.476906 0.479081 0.474819
0.478556 0.481043 0.476781
0.480206 0.483006 0.478743
0.481855 0.484968 0.480705
0.483505 0.486930 0.482668
0.485155 0.488892 0.484630
0.486804 0.490854 0.486592
0.488454 0.492817 0.488554
0.490104 0.494779 0.490516
0.491753 0.496741 0.492478
0.493403 0.498703 0.494441
0.495053 0.500665 0.496403
0.496702 0.502628 0.498365
0.498352 0.504590 0.500327
0.475809 0.476734 0.472784
0.477459 0.478697 0.474747
0.479109 0.480659 0.476709
0.480758 0.482621 0.478671
0.482408 0.484583 0.480633
0.484058 0.486545 0.482595
0.485708 0.488508 0.484558
0.487357 0.490470 0.486520
0.489007 0.492432 0.488482
0.490657 0.494394 0.490444
0.492306 0.496356 0.492406
0.493956 0.498318 0.494368
0.495606 0.500281 0.496331
0.497255 0.502243 0.498293
0.498905 0.504205 0.500255
0.500555 0.506167 0.502217
0.502204 0.508129 0.504179
0.479662 0.480274 0.476637
0.481311 0.482236 0.478599
0.482961 0.484198 0.480561
0.484611 0.486161 0.482523
0.486260 0.488123 0.484485
0.487910 0.490085 0.486448
0.489560 0.492047 0.488410
0.491209 0.494009 0.490372
0.492859 0.495972 0.492334
0.494509 0.497934 0.494296
0.496158 0.499896 0.496258
0.497808 0.501858 0.498221
0.499458 0.503820 0.500183
0.501107 0.505782 0.502145
0.502757 0.507745 0.504107
0.504407 0.509707 0.506069
0.506057 0.511669 0.508032
0.483514 0.483814 0.480489
0.485163 0.485776 0.482451
0.486813 0.487738 0.484413
0.488463 0.489700 0.486375
0.490112 0.491662 0.488337
0.491762 0.493625 0.490300
0.493412 0.495587 0.492262
0.495062 0.497549 0.494224
0.496711 0.499511 0.496186
0.498361 0.501473 0.498148
0.500011 0.503436 0.500111
0.501660 0.505398 0.502073
0.503310 0.507360 0.504035
0.504960 0.509322 0.505997
0.506609 0.511284 0.507959
0.508259 0.513247 0.509922
0.509909 0.515209 0.511884
0.487366 0.487353 0.484341
0.489016 0.489316 0.486303
0.490665 0.491278 0.488265
0.492315 0.493240 0.490227
0.493965 0.495202 0.492190
0.495614 0.497164 0.494152
0.497264 0.499127 0.496114
0.498914 0.501089 0.498076
0.500563 0.503051 0.500038
0.502213 0.505013 0.502001
0.503863 0.506975 0.503963
0.505513 0.508938 0.505925
0.507162 0.510900 0.507887
0.508812 0.512862 0.509849
0.510462 0.514824 0.511812
0.512111 0.516786 0.513774
0.513761 0.518748 0.515736
0.491218 0.490893 0.488193
0.492868 0.492855 0.490155
0.494517 0.494818 0.492118
0.496167 0.496780 0.494080
0.497817 0.498742 0.496042
0.499467 0.500704 0.498004
0.501116 0.502666 0.499966
0.502766 0.504628 0.501928
0.504416 0.506591 0.503891
0.506065 0.508553 0.505853
0.507715 0.510515 0.507815
0.509365 0.512477 0.509777
0.511014 0.514439 0.511739
0.512664 0.516402 0.513702
0.514314 0.518364 0.515664
0.515963 0.520326 0.517626
0.517613 0.522288 0.519588
0.495070 0.494433 0.492045
0.496720 0.496395 0.494008
0.498370 0.498357 0.495970
0.500019 0.500319 0.497932
0.501669 0.502282 0.499894
0.503319 0.504244 0.501856
0.504968 0.506206 0.503818
0.506618 0.508168 0.505781
0.508268 0.510130 0.507743
0.509918 0.512093 0.509705
0.511567 0.514055 0.511667
0.513217 0.516017 0.513629
0.514867 0.517979 0.515592
0.516516 0.519941 0.517554
0.518166 0.521903 0.519516
0.519816 0.523866 0.521478
0.521465 0.525828 0.523440
0.498922 0.497972 0.495898
0.500572 0.499935 0.497860
0.502222 0.501897 0.499822
0.503872 0.503859 0.501784
0.505521 0.505821 0.503746
0.507171 0.507783 0.505708
0.508821 0.509746 0.507671
0.510470 0.511708 0.509633
0.512120 0.513670 0.511595
0.513770 0.515632 0.513557
0.515419 0.517594 0.515519
0.517069 0.519557 0.517482
0.518719 0.521519 0.519444
0.520368 0.523481 0.521406
0.522018 0.525443 0.523368
0.523668 0.527405 0.525330
0.525317 0.529367 0.527293
0.502775 0.501512 0.499750
0.504424 0.503474 0.501712
0.506074 0.505437 0.503674
0.507724 0.507399 0.505636
0.509373 0.509361 0.507598
0.511023 0.511323 0.509561
0.512673 0.513285 0.511523
0.514323 0.515247 0.513485
0.515972 0.517210 0.515447
0.517622 0.519172 0.517409
0.519272 0.521134 0.519372
0.520921 0.523096 0.521334
0.522571 0.525058 0.523296
0.524221 0.527021 0.525258
0.525870 0.528983 0.527220
0.527520 0.530945 0.529183
0.529170 0.532907 0.531145
0.506627 0.505052 0.503602
0.508277 0.507014 0.505564
0.509926 0.508976 0.507526
0.511576 0.510938 0.509488
0.513226 0.512901 0.511451
0.514875 0.514863 0.513413
0.516525 0.516825 0.515375
0.518175 0.518787 0.517337
0.519824 0.520749 0.519299
0.521474 0.522712 0.521262
0.523124 0.524674 0.523224
0.524773 0.526636 0.525186
0.526423 0.528598 0.527148
0.528073 0.530560 0.529110
0.529722 0.532522 0.531072
0.531372 0.534485 0.533035
0.533022 0.536447 0.534997
0.510479 0.508592 0.507454
0.512129 0.510554 0.509416
0.513778 0.512516 0.511378
0.515428 0.514478 0.513341
0.517078 0.516440 0.515303
0.518727 0.518402 0.517265
0.520377 0.520365 0.519227
0.522027 0.522327 0.521189
0.523677 0.524289 0.523152
0.525326 0.526251 0.525114
0.526976 0.528213 0.527076
0.528626 0.530176 0.529038
0.530275 0.532138 0.531000
0.531925 0.534100 0.532963
0.533575 0.536062 0.534925
0.535224 0.538024 0.536887
0.536874 0.539987 0.538849
0.514331 0.512131 0.511306
0.515981 0.514093 0.513268
0.517631 0.516056 0.515231
0.519280 0.518018 0.517193
0.520930 0.519980 0.519155
0.522580 0.521942 0.521117
0.524229 0.523904 0.523079
0.525879 0.525867 0.525042
0.527529 0.527829 0.527004
0.529178 0.529791 0.528966
0.530828 0.531753 0.530928
0.532478 0.533715 0.532890
0.534128 0.535678 0.534853
0.535777 0.537640 0.536815
0.537427 0.539602 0.538777
0.539077 0.541564 0.540739
0.540726 0.543526 0.542701
0.453444 0.456244 0.450107
0.455094 0.458207 0.452069
0.456744 0.460169 0.454031
0.458393 0.462131 0.455993
0.460043 0.464093 0.457956
0.461693 0.466055 0.459918
0.463343 0.468018 0.461880
0.464992 0.469980 0.463842
0.466642 0.471942 0.465804
0.468292 0.473904 0.467767
0.469941 0.475866 0.469729
0.471591 0.477828 0.471691
0.473241 0.479791 0.473653
0.474890 0.481753 0.475615
0.476540 0.483715 0.477577
0.478190 0.485677 0.479540
0.479839 0.487639 0.481502
0.457297 0.459784 0.453959
