shared/src/main/assets/luts/film_warm_desire.cube
TITLE "DALUR Warm Desire"
LUT_3D_SIZE 5
DOMAIN_MIN 0.0 0.0 0.0
DOMAIN_MAX 1.0 1.0 1.0
0.466800 0.447500 0.433200
0.476904 0.453854 0.439554
0.487007 0.460207 0.445908
0.497111 0.466561 0.452261
0.507215 0.472915 0.458615
0.479274 0.463724 0.445674
0.489377 0.470077 0.452027
0.499481 0.476431 0.458381
0.509585 0.482785 0.464735
0.519689 0.489139 0.471089
0.491748 0.479947 0.458148
0.501851 0.486301 0.464501
0.511955 0.492655 0.470855
0.522059 0.499009 0.477209
0.532162 0.505363 0.483562
0.504221 0.496171 0.470621
0.514325 0.502525 0.476975
0.524429 0.508879 0.483329
0.534532 0.515232 0.489682
0.544636 0.521586 0.496036
0.516695 0.512395 0.483095
0.526799 0.518749 0.489449
0.536903 0.525103 0.495803
0.547006 0.531456 0.502156
0.557110 0.537810 0.508510
0.469222 0.449923 0.439372
0.479326 0.456276 0.445726
0.489430 0.462630 0.452080
0.499534 0.468984 0.458434
0.509637 0.475337 0.464787
0.481696 0.466146 0.451846
0.491800 0.472500 0.458200
0.501904 0.478854 0.464554
0.512007 0.485207 0.470907
0.522111 0.491561 0.477261
0.494170 0.482370 0.464320
0.504274 0.488724 0.470674
0.514377 0.495077 0.477027
0.524481 0.501431 0.483381
0.534585 0.507785 0.489735
0.506644 0.498594 0.476794
0.516748 0.504947 0.483148
0.526851 0.511301 0.489501
0.536955 0.517655 0.495855
0.547059 0.524009 0.502209
0.519118 0.514818 0.489268
0.529221 0.521171 0.495621
0.539325 0.527525 0.501975
0.549429 0.533879 0.508329
0.559533 0.540233 0.514683
0.471645 0.452345 0.445545
0.481749 0.458699 0.451899
0.491852 0.465052 0.458253
0.501956 0.471406 0.464606
0.512060 0.477760 0.470960
0.484119 0.468569 0.458019
0.494222 0.474922 0.464372
0.504326 0.481276 0.470726
0.514430 0.487630 0.477080
0.524534 0.493984 0.483434
0.496592 0.484792 0.470492
0.506696 0.491146 0.476846
0.516800 0.497500 0.483200
0.526904 0.503854 0.489554
0.537008 0.510208 0.495908
0.509066 0.501016 0.482966
0.519170 0.507370 0.489320
0.529274 0.513724 0.495674
0.539378 0.520078 0.502027
0.549481 0.526431 0.508381
0.521540 0.517240 0.495440
0.531644 0.523594 0.501794
0.541748 0.529948 0.508148
0.551851 0.536301 0.514501
0.561955 0.542655 0.520855
0.474067 0.454767 0.451718
0.484171 0.461121 0.458071
0.494275 0.467475 0.464425
0.504379 0.473829 0.470779
0.514483 0.480183 0.477133
0.486541 0.470991 0.464191
0.496645 0.477345 0.470545
0.506749 0.483699 0.476899
0.516853 0.490053 0.483253
0.526956 0.496406 0.489606
0.499015 0.487215 0.476665
0.509119 0.493569 0.483019
0.519222 0.499922 0.489372
0.529326 0.506276 0.495726
0.539430 0.512630 0.502080
0.511489 0.503439 0.489139
0.521592 0.509792 0.495492
0.531696 0.516146 0.501846
0.541800 0.522500 0.508200
0.551904 0.528854 0.514554
0.523962 0.519663 0.501612
0.534066 0.526016 0.507966
0.544170 0.532370 0.514320
0.554274 0.538724 0.520674
0.564378 0.545078 0.527027
0.476490 0.457190 0.457890
0.486594 0.463544 0.464244
0.496697 0.469897 0.470597
0.506801 0.476251 0.476951
0.516905 0.482605 0.483305
0.488964 0.473414 0.470364
0.499067 0.479767 0.476717
0.509171 0.486121 0.483071
0.519275 0.492475 0.489425
0.529379 0.498829 0.495779
0.501437 0.489638 0.482838
0.511541 0.495991 0.489191
0.521645 0.502345 0.495545
0.531749 0.508699 0.501899
0.541852 0.515053 0.508252
0.513911 0.505861 0.495311
0.524015 0.512215 0.501665
0.534119 0.518569 0.508019
0.544222 0.524922 0.514372
0.554326 0.531276 0.520726
0.526385 0.522085 0.507785
0.536489 0.528439 0.514139
0.546593 0.534793 0.520493
0.556696 0.541146 0.526846
0.566800 0.547500 0.533200
