shared/src/main/assets/luts/film_blue_intimacy.cube
TITLE "DALUR Blue Intimacy"
LUT_3D_SIZE 5
DOMAIN_MIN 0.0 0.0 0.0
DOMAIN_MAX 1.0 1.0 1.0
0.432000 0.448000 0.468000
0.440067 0.454859 0.474859
0.448134 0.461719 0.481719
0.456200 0.468578 0.488578
0.464267 0.475437 0.495437
0.445466 0.462674 0.481466
0.453533 0.469533 0.488326
0.461600 0.476392 0.495185
0.469667 0.483252 0.502044
0.477733 0.490111 0.508904
0.458933 0.477348 0.494933
0.466999 0.484207 0.501792
0.475066 0.491066 0.508651
0.483133 0.497926 0.515511
0.491200 0.504785 0.522370
0.472399 0.492021 0.508399
0.480466 0.498881 0.515258
0.488533 0.505740 0.522118
0.496599 0.512599 0.528977
0.504666 0.519459 0.535837
0.485865 0.506695 0.521865
0.493932 0.513554 0.528725
0.501999 0.520414 0.535584
0.510066 0.527273 0.542444
0.518133 0.534133 0.549303
0.434615 0.450615 0.471823
0.442682 0.457475 0.478682
0.450749 0.464334 0.485541
0.458816 0.471193 0.492401
0.466882 0.478053 0.499260
0.448082 0.465289 0.485289
0.456148 0.472148 0.492148
0.464215 0.479008 0.499008
0.472282 0.485867 0.505867
0.480349 0.492726 0.512726
0.461548 0.479963 0.498755
0.469615 0.486822 0.505615
0.477682 0.493682 0.512474
0.485748 0.500541 0.519333
0.493815 0.507400 0.526193
0.475014 0.494637 0.512222
0.483081 0.501496 0.519081
0.491148 0.508355 0.525940
0.499215 0.515215 0.532800
0.507281 0.522074 0.539659
0.488481 0.509310 0.525688
0.496547 0.516170 0.532547
0.504614 0.523029 0.539407
0.512681 0.529888 0.546266
0.520748 0.536748 0.553126
0.437231 0.453231 0.475645
0.445297 0.460090 0.482505
0.453364 0.466949 0.489364
0.461431 0.473809 0.496223
0.469498 0.480668 0.503083
0.450697 0.467904 0.489112
0.458764 0.474764 0.495971
0.466830 0.481623 0.502830
0.474897 0.488482 0.509690
0.482964 0.495342 0.516549
0.464163 0.482578 0.502578
0.472230 0.489437 0.509437
0.480297 0.496297 0.516297
0.488364 0.503156 0.523156
0.496430 0.510016 0.530016
0.477630 0.497252 0.516044
0.485696 0.504111 0.522904
0.493763 0.510971 0.529763
0.501830 0.517830 0.536623
0.509897 0.524689 0.543482
0.491096 0.511926 0.529511
0.499163 0.518785 0.536370
0.507230 0.525644 0.543230
0.515296 0.532504 0.550089
0.523363 0.539363 0.556948
0.439846 0.455846 0.479468
0.447913 0.462705 0.486327
0.455979 0.469565 0.493187
0.464046 0.476424 0.500046
0.472113 0.483283 0.506906
0.453312 0.470520 0.492934
0.461379 0.477379 0.499794
0.469446 0.484238 0.506653
0.477513 0.491098 0.513513
0.485579 0.497957 0.520372
0.466779 0.485193 0.506401
0.474845 0.492053 0.513260
0.482912 0.498912 0.520120
0.490979 0.505771 0.526979
0.499046 0.512631 0.533838
0.480245 0.499867 0.519867
0.488312 0.506727 0.526727
0.496378 0.513586 0.533586
0.504445 0.520445 0.540445
0.512512 0.527305 0.547305
0.493711 0.514541 0.533334
0.501778 0.521400 0.540193
0.509845 0.528260 0.547052
0.517912 0.535119 0.553912
0.525978 0.541978 0.560771
0.442461 0.458461 0.483291
0.450528 0.465320 0.490150
0.458595 0.472180 0.497009
0.466661 0.479039 0.503869
0.474728 0.485899 0.510728
0.455927 0.473135 0.496757
0.463994 0.479994 0.503616
0.472061 0.486854 0.510476
0.480128 0.493713 0.517335
0.488195 0.500572 0.524195
0.469394 0.487809 0.510223
0.477461 0.494668 0.517083
0.485527 0.501527 0.523942
0.493594 0.508387 0.530802
0.501661 0.515246 0.537661
0.482860 0.502482 0.523690
0.490927 0.509342 0.530549
0.498994 0.516201 0.537409
0.507060 0.523060 0.544268
0.515127 0.529920 0.551127
0.496327 0.517156 0.537156
0.504393 0.524016 0.544016
0.512460 0.530875 0.550875
0.520527 0.537734 0.557734
0.528594 0.544594 0.564594
