shared/src/main/assets/luts/film_digital_green.cube
TITLE "DALUR Digital Green"
LUT_3D_SIZE 17
DOMAIN_MIN 0.0 0.0 0.0
DOMAIN_MAX 1.0 1.0 1.0
0.416000 0.430000 0.434000
0.418922 0.432485 0.436485
0.421844 0.434969 0.438969
0.424766 0.437454 0.441454
0.427688 0.439939 0.443939
0.430610 0.442423 0.446423
0.433532 0.444908 0.448908
0.436454 0.447392 0.451392
0.439376 0.449877 0.453877
0.442298 0.452362 0.456362
0.445220 0.454846 0.458846
0.448142 0.457331 0.461331
0.451064 0.459816 0.463816
0.453986 0.462300 0.466300
0.456908 0.464785 0.468785
0.459830 0.467270 0.471270
0.462752 0.469754 0.473754
0.420878 0.435315 0.438878
0.423800 0.437800 0.441363
0.426722 0.440285 0.443847
0.429644 0.442769 0.446332
0.432566 0.445254 0.448816
0.435488 0.447738 0.451301
0.438410 0.450223 0.453786
0.441332 0.452708 0.456270
0.444254 0.455192 0.458755
0.447176 0.457677 0.461240
0.450098 0.460162 0.463724
0.453020 0.462646 0.466209
0.455942 0.465131 0.468694
0.458864 0.467616 0.471178
0.461786 0.470100 0.473663
0.464708 0.472585 0.476147
0.467630 0.475069 0.478632
0.425756 0.440630 0.443756
0.428678 0.443115 0.446240
0.431600 0.445600 0.448725
0.434522 0.448084 0.451210
0.437444 0.450569 0.453694
0.440366 0.453054 0.456179
0.443288 0.455538 0.458664
0.446210 0.458023 0.461148
0.449132 0.460508 0.463633
0.452054 0.462992 0.466117
0.454976 0.465477 0.468602
0.457898 0.467961 0.471087
0.460820 0.470446 0.473571
0.463742 0.472931 0.476056
0.466664 0.475415 0.478541
0.469586 0.477900 0.481025
0.472508 0.480385 0.483510
0.430634 0.445946 0.448634
0.433556 0.448430 0.451118
0.436478 0.450915 0.453603
0.439400 0.453400 0.456088
0.442322 0.455884 0.458572
0.445244 0.458369 0.461057
0.448166 0.460854 0.463541
0.451088 0.463338 0.466026
0.454010 0.465823 0.468511
0.456932 0.468307 0.470995
0.459854 0.470792 0.473480
0.462776 0.473277 0.475965
0.465698 0.475761 0.478449
0.468620 0.478246 0.480934
0.471542 0.480731 0.483419
0.474464 0.483215 0.485903
0.477386 0.485700 0.488388
0.435511 0.451261 0.453511
0.438433 0.453746 0.455996
0.441355 0.456230 0.458481
0.444277 0.458715 0.460965
0.447199 0.461199 0.463450
0.450121 0.463684 0.465935
0.453043 0.466169 0.468419
0.455965 0.468653 0.470904
0.458887 0.471138 0.473389
0.461809 0.473623 0.475873
0.464731 0.476107 0.478358
0.467653 0.478592 0.480842
0.470575 0.481077 0.483327
0.473497 0.483561 0.485812
0.476419 0.486046 0.488296
0.479341 0.488530 0.490781
0.482263 0.491015 0.493266
0.440389 0.456576 0.458389
0.443311 0.459061 0.460874
0.446233 0.461545 0.463359
0.449155 0.464030 0.465843
0.452077 0.466515 0.468328
0.454999 0.468999 0.470813
0.457921 0.471484 0.473297
0.460843 0.473969 0.475782
0.463765 0.476453 0.478266
0.466687 0.478938 0.480751
0.469609 0.481423 0.483236
0.472531 0.483907 0.485720
0.475453 0.486392 0.488205
0.478375 0.488876 0.490690
0.481297 0.491361 0.493174
0.484219 0.493846 0.495659
0.487141 0.496330 0.498144
0.445267 0.461891 0.463267
0.448189 0.464376 0.465752
0.451111 0.466861 0.468236
0.454033 0.469345 0.470721
0.456955 0.471830 0.473206
0.459877 0.474315 0.475690
0.462799 0.476799 0.478175
0.465721 0.479284 0.480660
0.468643 0.481768 0.483144
0.471565 0.484253 0.485629
0.474487 0.486738 0.488114
0.477409 0.489222 0.490598
0.480331 0.491707 0.493083
0.483253 0.494192 0.495567
0.486175 0.496676 0.498052
0.489097 0.499161 0.500537
0.492019 0.501646 0.503021
0.450145 0.467207 0.468145
0.453067 0.469691 0.470630
0.455989 0.472176 0.473114
0.458911 0.474660 0.475599
0.461833 0.477145 0.478084
0.464755 0.479630 0.480568
0.467677 0.482114 0.483053
0.470599 0.484599 0.485538
0.473521 0.487084 0.488022
0.476443 0.489568 0.490507
0.479365 0.492053 0.492991
0.482287 0.494538 0.495476
0.485209 0.497022 0.497961
0.488131 0.499507 0.500445
0.491053 0.501992 0.502930
0.493975 0.504476 0.505415
0.496897 0.506961 0.507899
0.455023 0.472522 0.473023
0.457945 0.475006 0.475508
0.460867 0.477491 0.477992
0.463789 0.479976 0.480477
0.466711 0.482460 0.482961
0.469633 0.484945 0.485446
0.472555 0.487430 0.487931
0.475477 0.489914 0.490415
0.478399 0.492399 0.492900
0.481321 0.494884 0.495385
0.484243 0.497368 0.497869
0.487165 0.499853 0.500354
0.490087 0.502337 0.502839
0.493009 0.504822 0.505323
0.495931 0.507307 0.507808
0.498853 0.509791 0.510293
0.501775 0.512276 0.512777
0.459901 0.477837 0.477901
0.462823 0.480322 0.480385
0.465745 0.482806 0.482870
0.468667 0.485291 0.485355
0.471589 0.487776 0.487839
0.474511 0.490260 0.490324
0.477433 0.492745 0.492809
0.480355 0.495230 0.495293
0.483277 0.497714 0.497778
0.486199 0.500199 0.500263
0.489121 0.502683 0.502747
0.492043 0.505168 0.505232
0.494965 0.507653 0.507716
0.497887 0.510137 0.510201
0.500809 0.512622 0.512686
0.503731 0.515107 0.515170
0.506653 0.517591 0.517655
0.464779 0.483152 0.482779
0.467701 0.485637 0.485263
0.470623 0.488122 0.487748
0.473545 0.490606 0.490233
0.476467 0.493091 0.492717
0.479389 0.495575 0.495202
0.482311 0.498060 0.497686
0.485233 0.500545 0.500171
0.488155 0.503029 0.502656
0.491077 0.505514 0.505140
0.493999 0.507999 0.507625
0.496921 0.510483 0.510110
0.499843 0.512968 0.512594
0.502765 0.515453 0.515079
0.505687 0.517937 0.517564
0.508609 0.520422 0.520048
0.511531 0.522906 0.522533
0.469657 0.488467 0.487657
0.472579 0.490952 0.490141
0.475501 0.493437 0.492626
0.478423 0.495921 0.495110
0.481345 0.498406 0.497595
0.484267 0.500891 0.500080
0.487189 0.503375 0.502564
0.490111 0.505860 0.505049
0.493033 0.508345 0.507534
0.495955 0.510829 0.510018
0.498877 0.513314 0.512503
0.501799 0.515799 0.514988
0.504721 0.518283 0.517472
0.507643 0.520768 0.519957
0.510564 0.523252 0.522441
0.513486 0.525737 0.524926
0.516408 0.528222 0.527411
0.474534 0.493783 0.492534
0.477456 0.496267 0.495019
0.480378 0.498752 0.497504
0.483300 0.501237 0.499988
0.486222 0.503721 0.502473
0.489144 0.506206 0.504958
0.492066 0.508691 0.507442
0.494988 0.511175 0.509927
0.497910 0.513660 0.512412
0.500832 0.516144 0.514896
0.503754 0.518629 0.517381
0.506676 0.521114 0.519865
0.509598 0.523598 0.522350
0.512520 0.526083 0.524835
0.515442 0.528568 0.527319
0.518364 0.531052 0.529804
0.521286 0.533537 0.532289
0.479412 0.499098 0.497412
0.482334 0.501583 0.499897
0.485256 0.504067 0.502382
0.488178 0.506552 0.504866
0.491100 0.509036 0.507351
0.494022 0.511521 0.509835
0.496944 0.514006 0.512320
0.499866 0.516490 0.514805
0.502788 0.518975 0.517289
0.505710 0.521460 0.519774
0.508632 0.523944 0.522259
0.511554 0.526429 0.524743
0.514476 0.528914 0.527228
0.517398 0.531398 0.529713
0.520320 0.533883 0.532197
0.523242 0.536368 0.534682
0.526164 0.538852 0.537166
0.484290 0.504413 0.502290
0.487212 0.506898 0.504775
0.490134 0.509382 0.507259
0.493056 0.511867 0.509744
0.495978 0.514352 0.512229
0.498900 0.516836 0.514713
0.501822 0.519321 0.517198
0.504744 0.521806 0.519683
0.507666 0.524290 0.522167
0.510588 0.526775 0.524652
0.513510 0.529260 0.527137
0.516432 0.531744 0.529621
0.519354 0.534229 0.532106
0.522276 0.536713 0.534590
0.525198 0.539198 0.537075
0.528120 0.541683 0.539560
0.531042 0.544167 0.542044
0.489168 0.509728 0.507168
0.492090 0.512213 0.509653
0.495012 0.514698 0.512137
0.497934 0.517182 0.514622
0.500856 0.519667 0.517107
0.503778 0.522152 0.519591
0.506700 0.524636 0.522076
0.509622 0.527121 0.524560
0.512544 0.529605 0.527045
0.515466 0.532090 0.529530
0.518388 0.534575 0.532014
0.521310 0.537059 0.534499
0.524232 0.539544 0.536984
0.527154 0.542029 0.539468
0.530076 0.544513 0.541953
0.532998 0.546998 0.544438
0.535920 0.549483 0.546922
0.494046 0.515044 0.512046
0.496968 0.517528 0.514531
0.499890 0.520013 0.517015
0.502812 0.522498 0.519500
0.505734 0.524982 0.521984
0.508656 0.527467 0.524469
0.511578 0.529951 0.526954
0.514500 0.532436 0.529438
0.517422 0.534921 0.531923
0.520344 0.537405 0.534408
0.523266 0.539890 0.536892
0.526188 0.542375 0.539377
0.529110 0.544859 0.541862
0.532032 0.547344 0.544346
0.534954 0.549829 0.546831
0.537876 0.552313 0.549315
0.540798 0.554798 0.551800
0.416947 0.430947 0.435385
0.419869 0.433432 0.437869
0.422791 0.435917 0.440354
0.425713 0.438401 0.442839
0.428635 0.440886 0.445323
0.431557 0.443371 0.447808
0.434479 0.445855 0.450293
0.437401 0.448340 0.452777
0.440323 0.450824 0.455262
0.443245 0.453309 0.457746
0.446167 0.455794 0.460231
0.449089 0.458278 0.462716
0.452011 0.460763 0.465200
0.454933 0.463248 0.467685
0.457855 0.465732 0.470170
0.460777 0.468217 0.472654
0.463699 0.470702 0.475139
0.421825 0.436263 0.440263
0.424747 0.438747 0.442747
0.427669 0.441232 0.445232
0.430591 0.443716 0.447716
0.433513 0.446201 0.450201
0.436435 0.448686 0.452686
0.439357 0.451170 0.455170
0.442279 0.453655 0.457655
0.445201 0.456140 0.460140
0.448123 0.458624 0.462624
0.451045 0.461109 0.465109
0.453967 0.463594 0.467594
0.456889 0.466078 0.470078
0.459811 0.468563 0.472563
0.462733 0.471047 0.475047
0.465655 0.473532 0.477532
0.468577 0.476017 0.480017
0.426703 0.441578 0.445140
0.429625 0.444062 0.447625
0.432547 0.446547 0.450110
0.435469 0.449032 0.452594
0.438391 0.451516 0.455079
0.441313 0.454001 0.457564
0.444235 0.456486 0.460048
0.447157 0.458970 0.462533
0.450079 0.461455 0.465018
0.453001 0.463940 0.467502
0.455923 0.466424 0.469987
0.458845 0.468909 0.472471
0.461767 0.471393 0.474956
0.464689 0.473878 0.477441
0.467611 0.476363 0.479925
0.470533 0.478847 0.482410
0.473455 0.481332 0.484895
0.431581 0.446893 0.450018
0.434503 0.449378 0.452503
0.437425 0.451862 0.454988
0.440347 0.454347 0.457472
0.443269 0.456832 0.459957
0.446191 0.459316 0.462441
0.449113 0.461801 0.464926
0.452035 0.464285 0.467411
0.454957 0.466770 0.469895
0.457879 0.469255 0.472380
0.460801 0.471739 0.474865
0.463723 0.474224 0.477349
0.466645 0.476709 0.479834
0.469567 0.479193 0.482319
0.472489 0.481678 0.484803
0.475411 0.484163 0.487288
0.478333 0.486647 0.489772
0.436459 0.452208 0.454896
0.439381 0.454693 0.457381
0.442303 0.457178 0.459865
0.445225 0.459662 0.462350
0.448147 0.462147 0.464835
0.451069 0.464631 0.467319
0.453991 0.467116 0.469804
0.456913 0.469601 0.472289
0.459835 0.472085 0.474773
0.462757 0.474570 0.477258
0.465679 0.477055 0.479743
0.468601 0.479539 0.482227
0.471523 0.482024 0.484712
0.474445 0.484509 0.487196
0.477367 0.486993 0.489681
0.480289 0.489478 0.492166
0.483211 0.491962 0.494650
0.441337 0.457523 0.459774
0.444259 0.460008 0.462259
0.447181 0.462493 0.464743
0.450103 0.464977 0.467228
0.453025 0.467462 0.469713
0.455947 0.469947 0.472197
0.458869 0.472431 0.474682
0.461791 0.474916 0.477166
0.464713 0.477401 0.479651
0.467635 0.479885 0.482136
0.470557 0.482370 0.484620
0.473479 0.484854 0.487105
0.476401 0.487339 0.489590
0.479323 0.489824 0.492074
0.482245 0.492308 0.494559
0.485167 0.494793 0.497044
0.488089 0.497278 0.499528
0.446215 0.462839 0.464652
0.449137 0.465323 0.467137
0.452059 0.467808 0.469621
0.454981 0.470293 0.472106
0.457903 0.472777 0.474590
0.460825 0.475262 0.477075
0.463747 0.477747 0.479560
0.466669 0.480231 0.482044
0.469590 0.482716 0.484529
0.472512 0.485200 0.487014
0.475434 0.487685 0.489498
0.478356 0.490170 0.491983
0.481278 0.492654 0.494468
0.484200 0.495139 0.496952
0.487122 0.497624 0.499437
0.490044 0.500108 0.501921
0.492966 0.502593 0.504406
0.451092 0.468154 0.469530
0.454014 0.470639 0.472014
0.456936 0.473123 0.474499
0.459858 0.475608 0.476984
0.462780 0.478092 0.479468
0.465702 0.480577 0.481953
0.468624 0.483062 0.484438
0.471546 0.485546 0.486922
0.474468 0.488031 0.489407
0.477390 0.490516 0.491891
0.480312 0.493000 0.494376
0.483234 0.495485 0.496861
0.486156 0.497970 0.499345
0.489078 0.500454 0.501830
0.492000 0.502939 0.504315
0.494922 0.505423 0.506799
0.497844 0.507908 0.509284
0.455970 0.473469 0.474408
0.458892 0.475954 0.476892
0.461814 0.478438 0.479377
0.464736 0.480923 0.481862
0.467658 0.483408 0.484346
0.470580 0.485892 0.486831
0.473502 0.488377 0.489315
0.476424 0.490862 0.491800
0.479346 0.493346 0.494285
0.482268 0.495831 0.496769
0.485190 0.498316 0.499254
0.488112 0.500800 0.501739
0.491034 0.503285 0.504223
0.493956 0.505769 0.506708
0.496878 0.508254 0.509193
0.499800 0.510739 0.511677
0.502722 0.513223 0.514162
0.460848 0.478784 0.479285
0.463770 0.481269 0.481770
0.466692 0.483754 0.484255
0.469614 0.486238 0.486739
0.472536 0.488723 0.489224
0.475458 0.491208 0.491709
0.478380 0.493692 0.494193
0.481302 0.496177 0.496678
0.484224 0.498661 0.499163
0.487146 0.501146 0.501647
0.490068 0.503631 0.504132
0.492990 0.506115 0.506616
0.495912 0.508600 0.509101
0.498834 0.511085 0.511586
0.501756 0.513569 0.514070
0.504678 0.516054 0.516555
0.507600 0.518539 0.519040
0.465726 0.484100 0.484163
0.468648 0.486584 0.486648
0.471570 0.489069 0.489133
0.474492 0.491553 0.491617
0.477414 0.494038 0.494102
0.480336 0.496523 0.496587
0.483258 0.499007 0.499071
0.486180 0.501492 0.501556
0.489102 0.503977 0.504040
0.492024 0.506461 0.506525
0.494946 0.508946 0.509010
0.497868 0.511431 0.511494
0.500790 0.513915 0.513979
0.503712 0.516400 0.516464
0.506634 0.518885 0.518948
0.509556 0.521369 0.521433
0.512478 0.523854 0.523918
0.470604 0.489415 0.489041
0.473526 0.491899 0.491526
0.476448 0.494384 0.494010
0.479370 0.496869 0.496495
0.482292 0.499353 0.498980
0.485214 0.501838 0.501464
0.488136 0.504323 0.503949
0.491058 0.506807 0.506434
0.493980 0.509292 0.508918
0.496902 0.511777 0.511403
0.499824 0.514261 0.513888
0.502746 0.516746 0.516372
0.505668 0.519230 0.518857
0.508590 0.521715 0.521342
0.511512 0.524200 0.523826
0.514434 0.526684 0.526311
0.517356 0.529169 0.528795
0.475482 0.494730 0.493919
0.478404 0.497215 0.496404
0.481326 0.499699 0.498888
0.484248 0.502184 0.501373
0.487170 0.504669 0.503858
0.490092 0.507153 0.506342
0.493014 0.509638 0.508827
0.495936 0.512123 0.511312
0.498858 0.514607 0.513796
0.501780 0.517092 0.516281
0.504702 0.519576 0.518765
0.507624 0.522061 0.521250
0.510546 0.524546 0.523735
0.513468 0.527030 0.526219
0.516390 0.529515 0.528704
0.519312 0.532000 0.531189
0.522234 0.534484 0.533673
0.480360 0.500045 0.498797
0.483282 0.502530 0.501282
0.486204 0.505015 0.503766
0.489126 0.507499 0.506251
0.492048 0.509984 0.508736
0.494970 0.512468 0.511220
0.497892 0.514953 0.513705
0.500814 0.517438 0.516189
0.503736 0.519922 0.518674
0.506658 0.522407 0.521159
0.509580 0.524892 0.523643
0.512502 0.527376 0.526128
0.515424 0.529861 0.528613
0.518346 0.532346 0.531097
0.521268 0.534830 0.533582
0.524190 0.537315 0.536067
0.527112 0.539799 0.538551
0.485237 0.505360 0.503675
0.488159 0.507845 0.506159
0.491081 0.510330 0.508644
0.494003 0.512814 0.511129
0.496925 0.515299 0.513613
0.499847 0.517784 0.516098
0.502769 0.520268 0.518583
0.505691 0.522753 0.521067
0.508613 0.525238 0.523552
0.511535 0.527722 0.526037
0.514457 0.530207 0.528521
0.517379 0.532692 0.531006
0.520301 0.535176 0.533490
0.523223 0.537661 0.535975
0.526145 0.540145 0.538460
0.529067 0.542630 0.540944
0.531989 0.545115 0.543429
0.490115 0.510676 0.508553
0.493037 0.513160 0.511037
0.495959 0.515645 0.513522
0.498881 0.518130 0.516007
0.501803 0.520614 0.518491
0.504725 0.523099 0.520976
0.507647 0.525584 0.523461
0.510569 0.528068 0.525945
0.513491 0.530553 0.528430
0.516413 0.533037 0.530914
0.519335 0.535522 0.533399
0.522257 0.538007 0.535884
0.525179 0.540491 0.538368
0.528101 0.542976 0.540853
0.531023 0.545461 0.543338
0.533945 0.547945 0.545822
0.536867 0.550430 0.548307
0.494993 0.515991 0.513431
0.497915 0.518476 0.515915
0.500837 0.520960 0.518400
0.503759 0.523445 0.520884
0.506681 0.525929 0.523369
0.509603 0.528414 0.525854
0.512525 0.530899 0.528338
0.515447 0.533383 0.530823
0.518369 0.535868 0.533308
0.521291 0.538353 0.535792
0.524213 0.540837 0.538277
0.527135 0.543322 0.540762
0.530057 0.545807 0.543246
0.532979 0.548291 0.545731
0.535901 0.550776 0.548215
0.538823 0.553261 0.550700
0.541745 0.555745 0.553185
0.417895 0.431895 0.436769
0.420817 0.434379 0.439254
0.423739 0.436864 0.441739
0.426661 0.439349 0.444223
0.429583 0.441833 0.446708
0.432505 0.444318 0.449193
0.435427 0.446802 0.451677
0.438349 0.449287 0.454162
0.441271 0.451772 0.456646
0.444193 0.454256 0.459131
0.447115 0.456741 0.461616
0.450037 0.459226 0.464100
0.452959 0.461710 0.466585
0.455881 0.464195 0.469070
0.458803 0.466680 0.471554
0.461725 0.469164 0.474039
0.464647 0.471649 0.476524
0.422773 0.437210 0.441647
0.425695 0.439695 0.444132
0.428617 0.442179 0.446617
0.431538 0.444664 0.449101
0.434460 0.447148 0.451586
0.437382 0.449633 0.454070
0.440304 0.452118 0.456555
0.443226 0.454602 0.459040
0.446148 0.457087 0.461524
0.449070 0.459572 0.464009
0.451992 0.462056 0.466494
0.454914 0.464541 0.468978
0.457836 0.467026 0.471463
0.460758 0.469510 0.473948
0.463680 0.471995 0.476432
0.466602 0.474479 0.478917
0.469524 0.476964 0.481401
0.427650 0.442525 0.446525
0.430572 0.445010 0.449010
0.433494 0.447494 0.451494
0.436416 0.449979 0.453979
0.439338 0.452464 0.456464
0.442260 0.454948 0.458948
0.445182 0.457433 0.461433
0.448104 0.459918 0.463918
0.451026 0.462402 0.466402
0.453948 0.464887 0.468887
0.456870 0.467371 0.471371
0.459792 0.469856 0.473856
0.462714 0.472341 0.476341
0.465636 0.474825 0.478825
0.468558 0.477310 0.481310
0.471480 0.479795 0.483795
0.474402 0.482279 0.486279
0.432528 0.447840 0.451403
0.435450 0.450325 0.453888
0.438372 0.452810 0.456372
0.441294 0.455294 0.458857
0.444216 0.457779 0.461342
0.447138 0.460264 0.463826
0.450060 0.462748 0.466311
0.452982 0.465233 0.468795
0.455904 0.467717 0.471280
0.458826 0.470202 0.473765
0.461748 0.472687 0.476249
0.464670 0.475171 0.478734
0.467592 0.477656 0.481219
0.470514 0.480141 0.483703
0.473436 0.482625 0.486188
0.476358 0.485110 0.488673
0.479280 0.487595 0.491157
0.437406 0.453156 0.456281
0.440328 0.455640 0.458765
0.443250 0.458125 0.461250
0.446172 0.460609 0.463735
0.449094 0.463094 0.466219
0.452016 0.465579 0.468704
0.454938 0.468063 0.471189
0.457860 0.470548 0.473673
0.460782 0.473033 0.476158
0.463704 0.475517 0.478643
0.466626 0.478002 0.481127
0.469548 0.480487 0.483612
0.472470 0.482971 0.486096
0.475392 0.485456 0.488581
0.478314 0.487940 0.491066
0.481236 0.490425 0.493550
0.484158 0.492910 0.496035
0.442284 0.458471 0.461159
0.445206 0.460955 0.463643
0.448128 0.463440 0.466128
0.451050 0.465925 0.468613
0.453972 0.468409 0.471097
0.456894 0.470894 0.473582
0.459816 0.473379 0.476067
0.462738 0.475863 0.478551
0.465660 0.478348 0.481036
0.468582 0.480833 0.483520
0.471504 0.483317 0.486005
0.474426 0.485802 0.488490
0.477348 0.488286 0.490974
0.480270 0.490771 0.493459
0.483192 0.493256 0.495944
0.486114 0.495740 0.498428
0.489036 0.498225 0.500913
0.447162 0.463786 0.466037
0.450084 0.466271 0.468521
0.453006 0.468755 0.471006
0.455928 0.471240 0.473490
0.458850 0.473725 0.475975
0.461772 0.476209 0.478460
0.464694 0.478694 0.480944
0.467616 0.481178 0.483429
0.470538 0.483663 0.485914
0.473460 0.486148 0.488398
0.476382 0.488632 0.490883
0.479304 0.491117 0.493368
0.482226 0.493602 0.495852
0.485148 0.496086 0.498337
0.488070 0.498571 0.500821
0.490992 0.501056 0.503306
0.493914 0.503540 0.505791
0.452040 0.469101 0.470914
0.454962 0.471586 0.473399
0.457884 0.474071 0.475884
0.460806 0.476555 0.478368
0.463728 0.479040 0.480853
0.466650 0.481524 0.483338
0.469572 0.484009 0.485822
0.472494 0.486494 0.488307
0.475416 0.488978 0.490792
0.478338 0.491463 0.493276
0.481260 0.493948 0.495761
0.484182 0.496432 0.498245
0.487104 0.498917 0.500730
0.490026 0.501402 0.503215
0.492948 0.503886 0.505699
0.495870 0.506371 0.508184
0.498792 0.508855 0.510669
0.456918 0.474416 0.475792
0.459840 0.476901 0.478277
0.462762 0.479386 0.480762
0.465684 0.481870 0.483246
0.468606 0.484355 0.485731
0.471528 0.486840 0.488215
0.474450 0.489324 0.490700
0.477372 0.491809 0.493185
0.480294 0.494294 0.495669
0.483216 0.496778 0.498154
0.486138 0.499263 0.500639
0.489060 0.501747 0.503123
0.491982 0.504232 0.505608
0.494904 0.506717 0.508093
0.497826 0.509201 0.510577
0.500748 0.511686 0.513062
0.503670 0.514171 0.515547
0.461795 0.479732 0.480670
0.464717 0.482216 0.483155
0.467639 0.484701 0.485639
0.470561 0.487186 0.488124
0.473483 0.489670 0.490609
0.476405 0.492155 0.493093
0.479327 0.494640 0.495578
0.482249 0.497124 0.498063
0.485171 0.499609 0.500547
0.488093 0.502093 0.503032
0.491015 0.504578 0.505517
0.493937 0.507063 0.508001
0.496859 0.509547 0.510486
0.499781 0.512032 0.512970
0.502703 0.514517 0.515455
0.505625 0.517001 0.517940
0.508547 0.519486 0.520424
0.466673 0.485047 0.485548
0.469595 0.487532 0.488033
0.472517 0.490016 0.490517
0.475439 0.492501 0.493002
0.478361 0.494985 0.495487
0.481283 0.497470 0.497971
0.484205 0.499955 0.500456
0.487127 0.502439 0.502940
0.490049 0.504924 0.505425
0.492971 0.507409 0.507910
0.495893 0.509893 0.510394
0.498815 0.512378 0.512879
0.501737 0.514863 0.515364
0.504659 0.517347 0.517848
0.507581 0.519832 0.520333
0.510503 0.522316 0.522818
0.513425 0.524801 0.525302
0.471551 0.490362 0.490426
0.474473 0.492847 0.492911
0.477395 0.495331 0.495395
0.480317 0.497816 0.497880
0.483239 0.500301 0.500364
0.486161 0.502785 0.502849
0.489083 0.505270 0.505334
0.492005 0.507755 0.507818
0.494927 0.510239 0.510303
0.497849 0.512724 0.512788
0.500771 0.515209 0.515272
0.503693 0.517693 0.517757
0.506615 0.520178 0.520242
0.509537 0.522662 0.522726
0.512459 0.525147 0.525211
0.515381 0.527632 0.527695
0.518303 0.530116 0.530180
0.476429 0.495677 0.495304
0.479351 0.498162 0.497788
0.482273 0.500647 0.500273
0.485195 0.503131 0.502758
0.488117 0.505616 0.505242
0.491039 0.508101 0.507727
0.493961 0.510585 0.510212
0.496883 0.513070 0.512696
0.499805 0.515554 0.515181
0.502727 0.518039 0.517666
0.505649 0.520524 0.520150
0.508571 0.523008 0.522635
0.511493 0.525493 0.525119
0.514415 0.527978 0.527604
0.517337 0.530462 0.530089
0.520259 0.532947 0.532573
0.523181 0.535432 0.535058
0.481307 0.500993 0.500182
0.484229 0.503477 0.502666
0.487151 0.505962 0.505151
0.490073 0.508446 0.507636
0.492995 0.510931 0.510120
0.495917 0.513416 0.512605
0.498839 0.515900 0.515089
0.501761 0.518385 0.517574
0.504683 0.520870 0.520059
0.507605 0.523354 0.522543
0.510527 0.525839 0.525028
0.513449 0.528324 0.527513
0.516371 0.530808 0.529997
0.519293 0.533293 0.532482
0.522215 0.535778 0.534967
0.525137 0.538262 0.537451
0.528059 0.540747 0.539936
0.486185 0.506308 0.505060
0.489107 0.508792 0.507544
0.492029 0.511277 0.510029
0.494951 0.513762 0.512513
0.497873 0.516246 0.514998
0.500795 0.518731 0.517483
0.503717 0.521216 0.519967
0.506639 0.523700 0.522452
0.509561 0.526185 0.524937
0.512483 0.528670 0.527421
0.515405 0.531154 0.529906
0.518327 0.533639 0.532391
0.521249 0.536123 0.534875
0.524171 0.538608 0.537360
0.527093 0.541093 0.539844
0.530015 0.543577 0.542329
0.532937 0.546062 0.544814
0.491063 0.511623 0.509937
0.493985 0.514108 0.512422
0.496907 0.516592 0.514907
0.499829 0.519077 0.517391
0.502751 0.521562 0.519876
0.505673 0.524046 0.522361
0.508595 0.526531 0.524845
0.511517 0.529016 0.527330
0.514439 0.531500 0.529814
0.517361 0.533985 0.532299
0.520283 0.536469 0.534784
0.523205 0.538954 0.537268
0.526127 0.541439 0.539753
0.529049 0.543923 0.542238
0.531971 0.546408 0.544722
0.534893 0.548893 0.547207
0.537815 0.551377 0.549692
0.495941 0.516938 0.514815
0.498863 0.519423 0.517300
0.501785 0.521908 0.519785
0.504707 0.524392 0.522269
0.507629 0.526877 0.524754
0.510551 0.529361 0.527238
0.513472 0.531846 0.529723
0.516394 0.534331 0.532208
0.519316 0.536815 0.534692
0.522238 0.539300 0.537177
0.525160 0.541785 0.539662
0.528082 0.544269 0.542146
0.531004 0.546754 0.544631
0.533926 0.549239 0.547116
0.536848 0.551723 0.549600
0.539770 0.554208 0.552085
0.542692 0.556692 0.554569
0.418842 0.432842 0.438154
0.421764 0.435327 0.440639
0.424686 0.437811 0.443123
0.427608 0.440296 0.445608
0.430530 0.442781 0.448093
0.433452 0.445265 0.450577
0.436374 0.447750 0.453062
0.439296 0.450234 0.455547
0.442218 0.452719 0.458031
0.445140 0.455204 0.460516
0.448062 0.457688 0.463000
0.450984 0.460173 0.465485
0.453906 0.462658 0.467970
0.456828 0.465142 0.470454
0.459750 0.467627 0.472939
0.462672 0.470112 0.475424
0.465594 0.472596 0.477908
0.423720 0.438157 0.443032
