shared/src/main/assets/luts/film_soft_coral.cube
TITLE "DALUR Soft Coral"
LUT_3D_SIZE 9
DOMAIN_MIN 0.0 0.0 0.0
DOMAIN_MAX 1.0 1.0 1.0
0.522000 0.507000 0.498000
0.520997 0.506269 0.497269
0.519994 0.505538 0.496538
0.518992 0.504807 0.495807
0.517989 0.504076 0.495076
0.516986 0.503344 0.494344
0.515983 0.502613 0.493613
0.514981 0.501882 0.492882
0.513978 0.501151 0.492151
0.520565 0.505293 0.496565
0.519562 0.504562 0.495834
0.518559 0.503831 0.495102
0.517556 0.503100 0.494371
0.516554 0.502369 0.493640
0.515551 0.501638 0.492909
0.514548 0.500906 0.492178
0.513545 0.500175 0.491447
0.512542 0.499444 0.490716
0.519129 0.503586 0.495129
0.518127 0.502855 0.494398
0.517124 0.502124 0.493667
0.516121 0.501393 0.492936
0.515118 0.500662 0.492205
0.514115 0.499931 0.491474
0.513113 0.499199 0.490743
0.512110 0.498468 0.490012
0.511107 0.497737 0.489281
0.517694 0.501879 0.493694
0.516691 0.501148 0.492963
0.515689 0.500417 0.492232
0.514686 0.499686 0.491501
0.513683 0.498955 0.490770
0.512680 0.498224 0.490039
0.511677 0.497492 0.489307
0.510675 0.496761 0.488576
0.509672 0.496030 0.487845
0.516259 0.500172 0.492259
0.515256 0.499441 0.491528
0.514253 0.498710 0.490797
0.513250 0.497979 0.490065
0.512248 0.497248 0.489334
0.511245 0.496517 0.488603
0.510242 0.495785 0.487872
0.509239 0.495054 0.487141
0.508237 0.494323 0.486410
0.514823 0.498465 0.490823
0.513821 0.497734 0.490092
0.512818 0.497003 0.489361
0.511815 0.496272 0.488630
0.510812 0.495541 0.487899
0.509810 0.494810 0.487168
0.508807 0.494078 0.486437
0.507804 0.493347 0.485706
0.506801 0.492616 0.484975
0.513388 0.496758 0.489388
0.512385 0.496027 0.488657
0.511383 0.495296 0.487926
0.510380 0.494565 0.487195
0.509377 0.493834 0.486464
0.508374 0.493103 0.485733
0.507371 0.492371 0.485002
0.506369 0.491640 0.484270
0.505366 0.490909 0.483539
0.511953 0.495051 0.487953
0.510950 0.494320 0.487222
0.509947 0.493589 0.486491
0.508945 0.492858 0.485760
0.507942 0.492127 0.485028
0.506939 0.491396 0.484297
0.505936 0.490664 0.483566
0.504933 0.489933 0.482835
0.503931 0.489202 0.482104
0.510518 0.493344 0.486518
0.509515 0.492613 0.485786
0.508512 0.491882 0.485055
0.507509 0.491151 0.484324
0.506506 0.490420 0.483593
0.505504 0.489689 0.482862
0.504501 0.488957 0.482131
0.503498 0.488226 0.481400
0.502495 0.487495 0.480669
0.521721 0.506721 0.497450
0.520718 0.505990 0.496718
0.519716 0.505259 0.495987
0.518713 0.504528 0.495256
0.517710 0.503797 0.494525
0.516707 0.503066 0.493794
0.515705 0.502335 0.493063
0.514702 0.501604 0.492332
0.513699 0.500872 0.491601
0.520286 0.505014 0.496014
0.519283 0.504283 0.495283
0.518280 0.503552 0.494552
0.517278 0.502821 0.493821
0.516275 0.502090 0.493090
0.515272 0.501359 0.492359
0.514269 0.500628 0.491628
0.513266 0.499897 0.490897
0.512264 0.499165 0.490165
0.518851 0.503307 0.494579
0.517848 0.502576 0.493848
0.516845 0.501845 0.493117
0.515842 0.501114 0.492386
0.514840 0.500383 0.491655
0.513837 0.499652 0.490923
0.512834 0.498921 0.490192
0.511831 0.498190 0.489461
0.510828 0.497458 0.488730
0.517415 0.501600 0.493144
0.516413 0.500869 0.492413
0.515410 0.500138 0.491681
0.514407 0.499407 0.490950
0.513404 0.498676 0.490219
0.512401 0.497945 0.489488
0.511399 0.497214 0.488757
0.510396 0.496483 0.488026
0.509393 0.495751 0.487295
0.515980 0.499893 0.491708
0.514977 0.499162 0.490977
0.513974 0.498431 0.490246
0.512972 0.497700 0.489515
0.511969 0.496969 0.488784
0.510966 0.496238 0.488053
0.509963 0.495507 0.487322
0.508961 0.494776 0.486591
0.507958 0.494044 0.485860
0.514545 0.498186 0.490273
0.513542 0.497455 0.489542
0.512539 0.496724 0.488811
0.511536 0.495993 0.488080
0.510534 0.495262 0.487349
0.509531 0.494531 0.486618
0.508528 0.493800 0.485886
0.507525 0.493069 0.485155
0.506522 0.492338 0.484424
0.513109 0.496479 0.488838
0.512107 0.495748 0.488107
0.511104 0.495017 0.487376
0.510101 0.494286 0.486644
0.509098 0.493555 0.485913
0.508095 0.492824 0.485182
0.507093 0.492093 0.484451
0.506090 0.491362 0.483720
0.505087 0.490631 0.482989
0.511674 0.494772 0.487402
0.510671 0.494041 0.486671
0.509669 0.493310 0.485940
0.508666 0.492579 0.485209
0.507663 0.491848 0.484478
0.506660 0.491117 0.483747
0.505657 0.490386 0.483016
0.504655 0.489655 0.482285
0.503652 0.488924 0.481554
0.510239 0.493065 0.485967
0.509236 0.492334 0.485236
0.508233 0.491603 0.484505
0.507230 0.490872 0.483774
0.506228 0.490141 0.483043
0.505225 0.489410 0.482312
0.504222 0.488679 0.481581
0.503219 0.487948 0.480849
0.502217 0.487217 0.480118
0.521443 0.506443 0.496899
0.520440 0.505711 0.496168
0.519437 0.504980 0.495437
0.518434 0.504249 0.494706
0.517431 0.503518 0.493975
0.516429 0.502787 0.493244
0.515426 0.502056 0.492513
0.514423 0.501325 0.491781
0.513420 0.500594 0.491050
0.520007 0.504736 0.495464
0.519004 0.504004 0.494733
0.518002 0.503273 0.494002
0.516999 0.502542 0.493271
0.515996 0.501811 0.492539
0.514993 0.501080 0.491808
0.513990 0.500349 0.491077
0.512988 0.499618 0.490346
0.511985 0.498887 0.489615
0.518572 0.503029 0.494029
0.517569 0.502297 0.493297
0.516566 0.501566 0.492566
0.515564 0.500835 0.491835
0.514561 0.500104 0.491104
0.513558 0.499373 0.490373
0.512555 0.498642 0.489642
0.511552 0.497911 0.488911
0.510550 0.497180 0.488180
0.517137 0.501322 0.492593
0.516134 0.500590 0.491862
0.515131 0.499859 0.491131
0.514128 0.499128 0.490400
0.513125 0.498397 0.489669
0.512123 0.497666 0.488938
0.511120 0.496935 0.488207
0.510117 0.496204 0.487476
0.509114 0.495473 0.486744
0.515701 0.499615 0.491158
0.514699 0.498883 0.490427
0.513696 0.498152 0.489696
0.512693 0.497421 0.488965
0.511690 0.496690 0.488234
0.510687 0.495959 0.487502
0.509685 0.495228 0.486771
0.508682 0.494497 0.486040
0.507679 0.493766 0.485309
0.514266 0.497908 0.489723
0.513263 0.497176 0.488992
0.512260 0.496445 0.488260
0.511258 0.495714 0.487529
0.510255 0.494983 0.486798
0.509252 0.494252 0.486067
0.508249 0.493521 0.485336
0.507246 0.492790 0.484605
0.506244 0.492059 0.483874
0.512831 0.496201 0.488287
0.511828 0.495469 0.487556
0.510825 0.494738 0.486825
0.509822 0.494007 0.486094
0.508820 0.493276 0.485363
0.507817 0.492545 0.484632
0.506814 0.491814 0.483901
0.505811 0.491083 0.483170
0.504808 0.490352 0.482439
0.511395 0.494494 0.486852
0.510393 0.493762 0.486121
0.509390 0.493031 0.485390
0.508387 0.492300 0.484659
0.507384 0.491569 0.483928
0.506381 0.490838 0.483196
0.505379 0.490107 0.482465
0.504376 0.489376 0.481734
0.503373 0.488645 0.481003
0.509960 0.492787 0.485417
0.508957 0.492055 0.484686
0.507954 0.491324 0.483954
0.506952 0.490593 0.483223
0.505949 0.489862 0.482492
0.504946 0.489131 0.481761
0.503943 0.488400 0.481030
0.502941 0.487669 0.480299
0.501938 0.486938 0.479568
0.521164 0.506164 0.496349
0.520161 0.505433 0.495618
0.519158 0.504702 0.494887
0.518155 0.503970 0.494155
0.517153 0.503239 0.493424
0.516150 0.502508 0.492693
0.515147 0.501777 0.491962
0.514144 0.501046 0.491231
0.513141 0.500315 0.490500
0.519728 0.504457 0.494913
0.518726 0.503726 0.494182
0.517723 0.502995 0.493451
0.516720 0.502263 0.492720
0.515717 0.501532 0.491989
0.514715 0.500801 0.491258
0.513712 0.500070 0.490527
0.512709 0.499339 0.489796
0.511706 0.498608 0.489065
0.518293 0.502750 0.493478
0.517290 0.502019 0.492747
0.516288 0.501288 0.492016
0.515285 0.500556 0.491285
0.514282 0.499825 0.490554
0.513279 0.499094 0.489823
0.512276 0.498363 0.489091
0.511274 0.497632 0.488360
0.510271 0.496901 0.487629
0.516858 0.501043 0.492043
0.515855 0.500312 0.491312
0.514852 0.499581 0.490581
0.513849 0.498849 0.489849
0.512847 0.498118 0.489118
0.511844 0.497387 0.488387
0.510841 0.496656 0.487656
0.509838 0.495925 0.486925
0.508836 0.495194 0.486194
0.515423 0.499336 0.490607
0.514420 0.498605 0.489876
0.513417 0.497874 0.489145
0.512414 0.497142 0.488414
0.511411 0.496411 0.487683
0.510409 0.495680 0.486952
0.509406 0.494949 0.486221
0.508403 0.494218 0.485490
0.507400 0.493487 0.484759
0.513987 0.497629 0.489172
0.512984 0.496898 0.488441
0.511982 0.496167 0.487710
0.510979 0.495436 0.486979
0.509976 0.494704 0.486248
0.508973 0.493973 0.485517
0.507971 0.493242 0.484786
0.506968 0.492511 0.484054
0.505965 0.491780 0.483323
0.512552 0.495922 0.487737
0.511549 0.495191 0.487006
0.510546 0.494460 0.486275
0.509544 0.493729 0.485544
0.508541 0.492997 0.484812
0.507538 0.492266 0.484081
0.506535 0.491535 0.483350
0.505532 0.490804 0.482619
0.504530 0.490073 0.481888
0.511117 0.494215 0.486302
0.510114 0.493484 0.485570
0.509111 0.492753 0.484839
0.508108 0.492022 0.484108
0.507105 0.491290 0.483377
0.506103 0.490559 0.482646
0.505100 0.489828 0.481915
0.504097 0.489097 0.481184
0.503094 0.488366 0.480453
0.509681 0.492508 0.484866
0.508679 0.491777 0.484135
0.507676 0.491046 0.483404
0.506673 0.490315 0.482673
0.505670 0.489583 0.481942
0.504667 0.488852 0.481211
0.503665 0.488121 0.480480
0.502662 0.487390 0.479749
0.501659 0.486659 0.479017
0.520885 0.505885 0.495798
0.519882 0.505154 0.495067
0.518879 0.504423 0.494336
0.517877 0.503692 0.493605
0.516874 0.502961 0.492874
0.515871 0.502230 0.492143
0.514868 0.501498 0.491412
0.513866 0.500767 0.490681
0.512863 0.500036 0.489949
0.519450 0.504178 0.494363
0.518447 0.503447 0.493632
0.517444 0.502716 0.492901
0.516441 0.501985 0.492170
0.515439 0.501254 0.491439
0.514436 0.500523 0.490707
0.513433 0.499791 0.489976
0.512430 0.499060 0.489245
0.511427 0.498329 0.488514
0.518014 0.502471 0.492928
0.517012 0.501740 0.492197
0.516009 0.501009 0.491465
0.515006 0.500278 0.490734
0.514003 0.499547 0.490003
0.513000 0.498816 0.489272
0.511998 0.498084 0.488541
0.510995 0.497353 0.487810
0.509992 0.496622 0.487079
0.516579 0.500764 0.491492
0.515576 0.500033 0.490761
0.514574 0.499302 0.490030
0.513571 0.498571 0.489299
0.512568 0.497840 0.488568
0.511565 0.497109 0.487837
0.510562 0.496377 0.487106
0.509560 0.495646 0.486375
0.508557 0.494915 0.485644
0.515144 0.499057 0.490057
0.514141 0.498326 0.489326
0.513138 0.497595 0.488595
0.512135 0.496864 0.487864
0.511133 0.496133 0.487133
0.510130 0.495402 0.486402
0.509127 0.494670 0.485670
0.508124 0.493939 0.484939
0.507122 0.493208 0.484208
0.513708 0.497350 0.488622
0.512706 0.496619 0.487891
0.511703 0.495888 0.487160
0.510700 0.495157 0.486428
0.509697 0.494426 0.485697
0.508695 0.493695 0.484966
0.507692 0.492963 0.484235
0.506689 0.492232 0.483504
0.505686 0.491501 0.482773
0.512273 0.495643 0.487186
0.511270 0.494912 0.486455
0.510268 0.494181 0.485724
0.509265 0.493450 0.484993
0.508262 0.492719 0.484262
0.507259 0.491988 0.483531
0.506256 0.491256 0.482800
0.505254 0.490525 0.482069
0.504251 0.489794 0.481338
0.510838 0.493936 0.485751
0.509835 0.493205 0.485020
0.508832 0.492474 0.484289
0.507830 0.491743 0.483558
0.506827 0.491012 0.482827
0.505824 0.490281 0.482096
0.504821 0.489549 0.481365
0.503818 0.488818 0.480633
0.502816 0.488087 0.479902
0.509403 0.492229 0.484316
0.508400 0.491498 0.483585
0.507397 0.490767 0.482854
0.506394 0.490036 0.482123
0.505391 0.489305 0.481391
0.504389 0.488574 0.480660
0.503386 0.487842 0.479929
0.502383 0.487111 0.479198
0.501380 0.486380 0.478467
0.520606 0.505606 0.495248
0.519603 0.504875 0.494517
0.518601 0.504144 0.493786
0.517598 0.503413 0.493055
0.516595 0.502682 0.492323
0.515592 0.501951 0.491592
0.514590 0.501220 0.490861
0.513587 0.500489 0.490130
0.512584 0.499757 0.489399
0.519171 0.503899 0.493813
0.518168 0.503168 0.493081
0.517165 0.502437 0.492350
0.516163 0.501706 0.491619
0.515160 0.500975 0.490888
0.514157 0.500244 0.490157
0.513154 0.499513 0.489426
0.512151 0.498782 0.488695
0.511149 0.498050 0.487964
0.517736 0.502192 0.492377
0.516733 0.501461 0.491646
0.515730 0.500730 0.490915
0.514727 0.499999 0.490184
0.513725 0.499268 0.489453
0.512722 0.498537 0.488722
0.511719 0.497806 0.487991
0.510716 0.497075 0.487260
0.509713 0.496343 0.486528
0.516300 0.500485 0.490942
0.515298 0.499754 0.490211
0.514295 0.499023 0.489480
0.513292 0.498292 0.488749
0.512289 0.497561 0.488018
0.511286 0.496830 0.487286
0.510284 0.496099 0.486555
0.509281 0.495368 0.485824
0.508278 0.494636 0.485093
0.514865 0.498778 0.489507
0.513862 0.498047 0.488776
0.512859 0.497316 0.488044
0.511857 0.496585 0.487313
0.510854 0.495854 0.486582
0.509851 0.495123 0.485851
0.508848 0.494392 0.485120
0.507846 0.493661 0.484389
0.506843 0.492930 0.483658
0.513430 0.497071 0.488071
0.512427 0.496340 0.487340
0.511424 0.495609 0.486609
0.510421 0.494878 0.485878
0.509419 0.494147 0.485147
0.508416 0.493416 0.484416
0.507413 0.492685 0.483685
0.506410 0.491954 0.482954
0.505407 0.491223 0.482223
0.511994 0.495364 0.486636
0.510992 0.494633 0.485905
0.509989 0.493902 0.485174
0.508986 0.493171 0.484443
0.507983 0.492440 0.483712
0.506981 0.491709 0.482981
0.505978 0.490978 0.482249
0.504975 0.490247 0.481518
0.503972 0.489516 0.480787
0.510559 0.493657 0.485201
0.509556 0.492926 0.484470
0.508554 0.492195 0.483739
0.507551 0.491464 0.483007
0.506548 0.490733 0.482276
0.505545 0.490002 0.481545
0.504542 0.489271 0.480814
0.503540 0.488540 0.480083
0.502537 0.487809 0.479352
0.509124 0.491950 0.483765
0.508121 0.491219 0.483034
0.507118 0.490488 0.482303
0.506115 0.489757 0.481572
0.505113 0.489026 0.480841
0.504110 0.488295 0.480110
0.503107 0.487564 0.479379
0.502104 0.486833 0.478648
0.501102 0.486102 0.477917
0.520328 0.505328 0.494697
0.519325 0.504596 0.493966
0.518322 0.503865 0.493235
0.517319 0.503134 0.492504
0.516316 0.502403 0.491773
0.515314 0.501672 0.491042
0.514311 0.500941 0.490311
0.513308 0.500210 0.489580
0.512305 0.499479 0.488849
0.518892 0.503621 0.493262
0.517889 0.502889 0.492531
0.516887 0.502158 0.491800
0.515884 0.501427 0.491069
0.514881 0.500696 0.490338
0.513878 0.499965 0.489607
0.512876 0.499234 0.488876
0.511873 0.498503 0.488144
0.510870 0.497772 0.487413
0.517457 0.501914 0.491827
0.516454 0.501182 0.491096
0.515451 0.500451 0.490365
0.514449 0.499720 0.489633
0.513446 0.498989 0.488902
0.512443 0.498258 0.488171
0.511440 0.497527 0.487440
0.510437 0.496796 0.486709
0.509435 0.496065 0.485978
0.516022 0.500207 0.490391
0.515019 0.499475 0.489660
0.514016 0.498744 0.488929
0.513013 0.498013 0.488198
0.512010 0.497282 0.487467
0.511008 0.496551 0.486736
0.510005 0.495820 0.486005
0.509002 0.495089 0.485274
0.507999 0.494358 0.484543
0.514586 0.498500 0.488956
0.513584 0.497768 0.488225
0.512581 0.497037 0.487494
0.511578 0.496306 0.486763
0.510575 0.495575 0.486032
0.509572 0.494844 0.485301
0.508570 0.494113 0.484570
0.507567 0.493382 0.483838
0.506564 0.492651 0.483107
0.513151 0.496793 0.487521
0.512148 0.496061 0.486790
0.511145 0.495330 0.486059
0.510143 0.494599 0.485328
0.509140 0.493868 0.484596
0.508137 0.493137 0.483865
0.507134 0.492406 0.483134
0.506131 0.491675 0.482403
0.505129 0.490944 0.481672
0.511716 0.495086 0.486086
0.510713 0.494354 0.485354
0.509710 0.493623 0.484623
0.508707 0.492892 0.483892
0.507705 0.492161 0.483161
0.506702 0.491430 0.482430
0.505699 0.490699 0.481699
0.504696 0.489968 0.480968
0.503693 0.489237 0.480237
0.510280 0.493379 0.484650
0.509278 0.492647 0.483919
0.508275 0.491916 0.483188
0.507272 0.491185 0.482457
0.506269 0.490454 0.481726
0.505266 0.489723 0.480995
0.504264 0.488992 0.480264
0.503261 0.488261 0.479533
0.502258 0.487530 0.478801
0.508845 0.491672 0.483215
0.507842 0.490941 0.482484
0.506840 0.490209 0.481753
0.505837 0.489478 0.481022
0.504834 0.488747 0.480291
0.503831 0.488016 0.479559
0.502828 0.487285 0.478828
0.501826 0.486554 0.478097
0.500823 0.485823 0.477366
0.520049 0.505049 0.494147
0.519046 0.504318 0.493416
0.518043 0.503587 0.492685
0.517040 0.502855 0.491954
0.516038 0.502124 0.491223
0.515035 0.501393 0.490491
0.514032 0.500662 0.489760
0.513029 0.499931 0.489029
0.512026 0.499200 0.488298
0.518613 0.503342 0.492712
0.517611 0.502611 0.491981
0.516608 0.501880 0.491249
0.515605 0.501148 0.490518
0.514602 0.500417 0.489787
0.513600 0.499686 0.489056
0.512597 0.498955 0.488325
0.511594 0.498224 0.487594
0.510591 0.497493 0.486863
0.517178 0.501635 0.491276
0.516175 0.500904 0.490545
0.515173 0.500173 0.489814
0.514170 0.499441 0.489083
0.513167 0.498710 0.488352
0.512164 0.497979 0.487621
0.511161 0.497248 0.486890
0.510159 0.496517 0.486159
0.509156 0.495786 0.485428
0.515743 0.499928 0.489841
0.514740 0.499197 0.489110
0.513737 0.498466 0.488379
0.512734 0.497734 0.487648
0.511732 0.497003 0.486917
0.510729 0.496272 0.486186
0.509726 0.495541 0.485454
0.508723 0.494810 0.484723
0.507721 0.494079 0.483992
0.514308 0.498221 0.488406
0.513305 0.497490 0.487675
0.512302 0.496759 0.486944
0.511299 0.496028 0.486212
0.510296 0.495296 0.485481
0.509294 0.494565 0.484750
0.508291 0.493834 0.484019
0.507288 0.493103 0.483288
0.506285 0.492372 0.482557
0.512872 0.496514 0.486970
0.511869 0.495783 0.486239
0.510867 0.495052 0.485508
0.509864 0.494321 0.484777
0.508861 0.493589 0.484046
0.507858 0.492858 0.483315
0.506856 0.492127 0.482584
0.505853 0.491396 0.481853
0.504850 0.490665 0.481122
0.511437 0.494807 0.485535
0.510434 0.494076 0.484804
0.509431 0.493345 0.484073
0.508429 0.492614 0.483342
0.507426 0.491882 0.482611
0.506423 0.491151 0.481880
0.505420 0.490420 0.481149
0.504417 0.489689 0.480417
0.503415 0.488958 0.479686
0.510002 0.493100 0.484100
0.508999 0.492369 0.483369
0.507996 0.491638 0.482638
0.506993 0.490907 0.481907
0.505990 0.490175 0.481175
0.504988 0.489444 0.480444
0.503985 0.488713 0.479713
0.502982 0.487982 0.478982
0.501979 0.487251 0.478251
0.508566 0.491393 0.482665
0.507564 0.490662 0.481933
0.506561 0.489931 0.481202
0.505558 0.489200 0.480471
0.504555 0.488468 0.479740
0.503552 0.487737 0.479009
0.502550 0.487006 0.478278
0.501547 0.486275 0.477547
0.500544 0.485544 0.476816
0.519770 0.504770 0.493597
0.518767 0.504039 0.492865
0.517764 0.503308 0.492134
0.516762 0.502577 0.491403
0.515759 0.501846 0.490672
0.514756 0.501115 0.489941
0.513753 0.500383 0.489210
0.512751 0.499652 0.488479
0.511748 0.498921 0.487748
0.518335 0.503063 0.492161
0.517332 0.502332 0.491430
0.516329 0.501601 0.490699
0.515326 0.500870 0.489968
0.514324 0.500139 0.489237
0.513321 0.499408 0.488506
0.512318 0.498676 0.487775
0.511315 0.497945 0.487044
0.510312 0.497214 0.486312
0.516899 0.501356 0.490726
0.515897 0.500625 0.489995
0.514894 0.499894 0.489264
0.513891 0.499163 0.488533
0.512888 0.498432 0.487802
0.511885 0.497701 0.487070
0.510883 0.496969 0.486339
0.509880 0.496238 0.485608
0.508877 0.495507 0.484877
0.515464 0.499649 0.489291
0.514461 0.498918 0.488560
0.513459 0.498187 0.487828
0.512456 0.497456 0.487097
0.511453 0.496725 0.486366
0.510450 0.495994 0.485635
0.509447 0.495262 0.484904
0.508445 0.494531 0.484173
0.507442 0.493800 0.483442
0.514029 0.497942 0.487855
0.513026 0.497211 0.487124
0.512023 0.496480 0.486393
0.511020 0.495749 0.485662
0.510018 0.495018 0.484931
0.509015 0.494287 0.484200
0.508012 0.493555 0.483469
0.507009 0.492824 0.482738
0.506007 0.492093 0.482007
0.512593 0.496235 0.486420
0.511591 0.495504 0.485689
0.510588 0.494773 0.484958
0.509585 0.494042 0.484227
0.508582 0.493311 0.483496
0.507580 0.492580 0.482765
0.506577 0.491848 0.482033
0.505574 0.491117 0.481302
0.504571 0.490386 0.480571
0.511158 0.494528 0.484985
0.510155 0.493797 0.484254
0.509153 0.493066 0.483523
0.508150 0.492335 0.482791
0.507147 0.491604 0.482060
0.506144 0.490873 0.481329
0.505141 0.490141 0.480598
0.504139 0.489410 0.479867
0.503136 0.488679 0.479136
0.509723 0.492821 0.483549
0.508720 0.492090 0.482818
0.507717 0.491359 0.482087
0.506715 0.490628 0.481356
0.505712 0.489897 0.480625
0.504709 0.489166 0.479894
0.503706 0.488434 0.479163
0.502703 0.487703 0.478432
0.501701 0.486972 0.477701
0.508288 0.491114 0.482114
0.507285 0.490383 0.481383
0.506282 0.489652 0.480652
0.505279 0.488921 0.479921
0.504276 0.488190 0.479190
0.503274 0.487459 0.478459
0.502271 0.486728 0.477728
0.501268 0.485996 0.476996
0.500265 0.485265 0.476265
