shared/src/main/assets/luts/film_blue_intimacy.cube
TITLE "DALUR Blue Intimacy"
LUT_3D_SIZE 9
DOMAIN_MIN 0.0 0.0 0.0
DOMAIN_MAX 1.0 1.0 1.0
0.432000 0.448000 0.468000
0.436033 0.451430 0.471430
0.440067 0.454859 0.474859
0.444100 0.458289 0.478289
0.448134 0.461719 0.481719
0.452167 0.465148 0.485148
0.456200 0.468578 0.488578
0.460234 0.472008 0.492008
0.464267 0.475437 0.495437
0.438733 0.455337 0.474733
0.442767 0.458767 0.478163
0.446800 0.462196 0.481593
0.450833 0.465626 0.485022
0.454867 0.469056 0.488452
0.458900 0.472485 0.491882
0.462934 0.475915 0.495311
0.466967 0.479345 0.498741
0.471000 0.482774 0.502171
0.445466 0.462674 0.481466
0.449500 0.466103 0.484896
0.453533 0.469533 0.488326
0.457567 0.472963 0.491755
0.461600 0.476392 0.495185
0.465633 0.479822 0.498615
0.469667 0.483252 0.502044
0.473700 0.486682 0.505474
0.477733 0.490111 0.508904
0.452200 0.470011 0.488200
0.456233 0.473440 0.491629
0.460266 0.476870 0.495059
0.464300 0.480300 0.498489
0.468333 0.483729 0.501918
0.472366 0.487159 0.505348
0.476400 0.490589 0.508778
0.480433 0.494018 0.512207
0.484467 0.497448 0.515637
0.458933 0.477348 0.494933
0.462966 0.480777 0.498362
0.466999 0.484207 0.501792
0.471033 0.487637 0.505222
0.475066 0.491066 0.508651
0.479100 0.494496 0.512081
0.483133 0.497926 0.515511
0.487166 0.501355 0.518940
0.491200 0.504785 0.522370
0.465666 0.484684 0.501666
0.469699 0.488114 0.505096
0.473733 0.491544 0.508525
0.477766 0.494973 0.511955
0.481799 0.498403 0.515385
0.485833 0.501833 0.518814
0.489866 0.505263 0.522244
0.493900 0.508692 0.525674
0.497933 0.512122 0.529103
0.472399 0.492021 0.508399
0.476432 0.495451 0.511829
0.480466 0.498881 0.515258
0.484499 0.502310 0.518688
0.488533 0.505740 0.522118
0.492566 0.509170 0.525547
0.496599 0.512599 0.528977
0.500633 0.516029 0.532407
0.504666 0.519459 0.535837
0.479132 0.499358 0.515132
0.483166 0.502788 0.518562
0.487199 0.506218 0.521992
0.491232 0.509647 0.525421
0.495266 0.513077 0.528851
0.499299 0.516507 0.532281
0.503333 0.519936 0.535710
0.507366 0.523366 0.539140
0.511399 0.526796 0.542570
0.485865 0.506695 0.521865
0.489899 0.510125 0.525295
0.493932 0.513554 0.528725
0.497966 0.516984 0.532154
0.501999 0.520414 0.535584
0.506032 0.523844 0.539014
0.510066 0.527273 0.542444
0.514099 0.530703 0.545873
0.518133 0.534133 0.549303
0.433308 0.449308 0.469911
0.437341 0.452737 0.473341
0.441374 0.456167 0.476771
0.445408 0.459597 0.480200
0.449441 0.463026 0.483630
0.453475 0.466456 0.487060
0.457508 0.469886 0.490489
0.461541 0.473315 0.493919
0.465575 0.476745 0.497349
0.440041 0.456645 0.476645
0.444074 0.460074 0.480074
0.448108 0.463504 0.483504
0.452141 0.466934 0.486934
0.456174 0.470363 0.490363
0.460208 0.473793 0.493793
0.464241 0.477223 0.497223
0.468275 0.480652 0.500652
0.472308 0.484082 0.504082
0.446774 0.463981 0.483378
0.450807 0.467411 0.486807
0.454841 0.470841 0.490237
0.458874 0.474270 0.493667
0.462908 0.477700 0.497096
0.466941 0.481130 0.500526
0.470974 0.484559 0.503956
0.475008 0.487989 0.507385
0.479041 0.491419 0.510815
0.453507 0.471318 0.490111
0.457541 0.474748 0.493541
0.461574 0.478178 0.496970
0.465607 0.481607 0.500400
0.469641 0.485037 0.503830
0.473674 0.488467 0.507259
0.477708 0.491896 0.510689
0.481741 0.495326 0.514119
0.485774 0.498756 0.517548
0.460240 0.478655 0.496844
0.464274 0.482085 0.500274
0.468307 0.485515 0.503703
0.472341 0.488944 0.507133
0.476374 0.492374 0.510563
0.480407 0.495804 0.513992
0.484441 0.499233 0.517422
0.488474 0.502663 0.520852
0.492507 0.506093 0.524281
0.466974 0.485992 0.503577
0.471007 0.489422 0.507007
0.475040 0.492851 0.510437
0.479074 0.496281 0.513866
0.483107 0.499711 0.517296
0.487140 0.503140 0.520726
0.491174 0.506570 0.524155
0.495207 0.510000 0.527585
0.499241 0.513430 0.531015
0.473707 0.493329 0.510310
0.477740 0.496759 0.513740
0.481773 0.500188 0.517170
0.485807 0.503618 0.520599
0.489840 0.507048 0.524029
0.493874 0.510477 0.527459
0.497907 0.513907 0.530888
0.501940 0.517337 0.534318
0.505974 0.520766 0.537748
0.480440 0.500666 0.517044
0.484473 0.504096 0.520473
0.488507 0.507525 0.523903
0.492540 0.510955 0.527333
0.496573 0.514385 0.530762
0.500607 0.517814 0.534192
0.504640 0.521244 0.537622
0.508674 0.524674 0.541051
0.512707 0.528103 0.544481
0.487173 0.508003 0.523777
0.491206 0.511432 0.527206
0.495240 0.514862 0.530636
0.499273 0.518292 0.534066
0.503307 0.521721 0.537495
0.507340 0.525151 0.540925
0.511373 0.528581 0.544355
0.515407 0.532011 0.547785
0.519440 0.535440 0.551214
0.434615 0.450615 0.471823
0.438649 0.454045 0.475252
0.442682 0.457475 0.478682
0.446715 0.460904 0.482112
0.450749 0.464334 0.485541
0.454782 0.467764 0.488971
0.458816 0.471193 0.492401
0.462849 0.474623 0.495830
0.466882 0.478053 0.499260
0.441348 0.457952 0.478556
0.445382 0.461382 0.481986
0.449415 0.464812 0.485415
0.453449 0.468241 0.488845
0.457482 0.471671 0.492275
0.461515 0.475101 0.495704
0.465549 0.478530 0.499134
0.469582 0.481960 0.502564
0.473616 0.485390 0.505993
0.448082 0.465289 0.485289
0.452115 0.468719 0.488719
0.456148 0.472148 0.492148
0.460182 0.475578 0.495578
0.464215 0.479008 0.499008
0.468249 0.482437 0.502437
0.472282 0.485867 0.505867
0.476315 0.489297 0.509297
0.480349 0.492726 0.512726
0.454815 0.472626 0.492022
0.458848 0.476056 0.495452
0.462882 0.479485 0.498882
0.466915 0.482915 0.502311
0.470948 0.486345 0.505741
0.474982 0.489774 0.509171
0.479015 0.493204 0.512600
0.483049 0.496634 0.516030
0.487082 0.500063 0.519460
0.461548 0.479963 0.498755
0.465581 0.483393 0.502185
0.469615 0.486822 0.505615
0.473648 0.490252 0.509044
0.477682 0.493682 0.512474
0.481715 0.497111 0.515904
0.485748 0.500541 0.519333
0.489782 0.503971 0.522763
0.493815 0.507400 0.526193
0.468281 0.487300 0.505489
0.472315 0.490729 0.508918
0.476348 0.494159 0.512348
0.480381 0.497589 0.515778
0.484415 0.501018 0.519207
0.488448 0.504448 0.522637
0.492481 0.507878 0.526067
0.496515 0.511307 0.529496
0.500548 0.514737 0.532926
0.475014 0.494637 0.512222
0.479048 0.498066 0.515651
0.483081 0.501496 0.519081
0.487115 0.504926 0.522511
0.491148 0.508355 0.525940
0.495181 0.511785 0.529370
0.499215 0.515215 0.532800
0.503248 0.518644 0.536230
0.507281 0.522074 0.539659
0.481748 0.501974 0.518955
0.485781 0.505403 0.522385
0.489814 0.508833 0.525814
0.493848 0.512263 0.529244
0.497881 0.515692 0.532674
0.501914 0.519122 0.536103
0.505948 0.522552 0.539533
0.509981 0.525981 0.542963
0.514015 0.529411 0.546392
0.488481 0.509310 0.525688
0.492514 0.512740 0.529118
0.496547 0.516170 0.532547
0.500581 0.519599 0.535977
0.504614 0.523029 0.539407
0.508648 0.526459 0.542837
0.512681 0.529888 0.546266
0.516714 0.533318 0.549696
0.520748 0.536748 0.553126
0.435923 0.451923 0.473734
0.439956 0.455353 0.477164
0.443990 0.458782 0.480593
0.448023 0.462212 0.484023
0.452056 0.465642 0.487453
0.456090 0.469071 0.490882
0.460123 0.472501 0.494312
0.464157 0.475931 0.497742
0.468190 0.479360 0.501171
0.442656 0.459260 0.480467
0.446689 0.462689 0.483897
0.450723 0.466119 0.487327
0.454756 0.469549 0.490756
0.458790 0.472979 0.494186
0.462823 0.476408 0.497616
0.466856 0.479838 0.501045
0.470890 0.483268 0.504475
0.474923 0.486697 0.507905
0.449389 0.466597 0.487200
0.453423 0.470026 0.490630
0.457456 0.473456 0.494060
0.461489 0.476886 0.497489
0.465523 0.480315 0.500919
0.469556 0.483745 0.504349
0.473590 0.487175 0.507778
0.477623 0.490604 0.511208
0.481656 0.494034 0.514638
0.456122 0.473934 0.493934
0.460156 0.477363 0.497363
0.464189 0.480793 0.500793
0.468223 0.484223 0.504223
0.472256 0.487652 0.507652
0.476289 0.491082 0.511082
0.480323 0.494512 0.514512
0.484356 0.497941 0.517941
0.488390 0.501371 0.521371
0.462856 0.481270 0.500667
0.466889 0.484700 0.504096
0.470922 0.488130 0.507526
0.474956 0.491560 0.510956
0.478989 0.494989 0.514385
0.483023 0.498419 0.517815
0.487056 0.501849 0.521245
0.491089 0.505278 0.524675
0.495123 0.508708 0.528104
0.469589 0.488607 0.507400
0.473622 0.492037 0.510830
0.477656 0.495467 0.514259
0.481689 0.498896 0.517689
0.485722 0.502326 0.521119
0.489756 0.505756 0.524548
0.493789 0.509185 0.527978
0.497823 0.512615 0.531408
0.501856 0.516045 0.534837
0.476322 0.495944 0.514133
0.480355 0.499374 0.517563
0.484389 0.502804 0.520992
0.488422 0.506233 0.524422
0.492456 0.509663 0.527852
0.496489 0.513093 0.531282
0.500522 0.516522 0.534711
0.504556 0.519952 0.538141
0.508589 0.523382 0.541571
0.483055 0.503281 0.520866
0.487089 0.506711 0.524296
0.491122 0.510140 0.527726
0.495155 0.513570 0.531155
0.499189 0.517000 0.534585
0.503222 0.520430 0.538015
0.507255 0.523859 0.541444
0.511289 0.527289 0.544874
0.515322 0.530719 0.548304
0.489788 0.510618 0.527599
0.493822 0.514048 0.531029
0.497855 0.517477 0.534459
0.501889 0.520907 0.537889
0.505922 0.524337 0.541318
0.509955 0.527766 0.544748
0.513989 0.531196 0.548178
0.518022 0.534626 0.551607
0.522055 0.538055 0.555037
0.437231 0.453231 0.475645
0.441264 0.456660 0.479075
0.445297 0.460090 0.482505
0.449331 0.463520 0.485934
0.453364 0.466949 0.489364
0.457397 0.470379 0.492794
0.461431 0.473809 0.496223
0.465464 0.477238 0.499653
0.469498 0.480668 0.503083
0.443964 0.460567 0.482379
0.447997 0.463997 0.485808
0.452031 0.467427 0.489238
0.456064 0.470856 0.492668
0.460097 0.474286 0.496097
0.464131 0.477716 0.499527
0.468164 0.481146 0.502957
0.472197 0.484575 0.506386
0.476231 0.488005 0.509816
0.450697 0.467904 0.489112
0.454730 0.471334 0.492541
0.458764 0.474764 0.495971
0.462797 0.478193 0.499401
0.466830 0.481623 0.502830
0.470864 0.485053 0.506260
0.474897 0.488482 0.509690
0.478931 0.491912 0.513119
0.482964 0.495342 0.516549
0.457430 0.475241 0.495845
0.461463 0.478671 0.499275
0.465497 0.482101 0.502704
0.469530 0.485530 0.506134
0.473564 0.488960 0.509564
0.477597 0.492390 0.512993
0.481630 0.495819 0.516423
0.485664 0.499249 0.519853
0.489697 0.502679 0.523282
0.464163 0.482578 0.502578
0.468197 0.486008 0.506008
0.472230 0.489437 0.509437
0.476263 0.492867 0.512867
0.480297 0.496297 0.516297
0.484330 0.499726 0.519726
0.488364 0.503156 0.523156
0.492397 0.506586 0.526586
0.496430 0.510016 0.530016
0.470896 0.489915 0.509311
0.474930 0.493345 0.512741
0.478963 0.496774 0.516171
0.482997 0.500204 0.519600
0.487030 0.503634 0.523030
0.491063 0.507063 0.526460
0.495097 0.510493 0.529889
0.499130 0.513923 0.533319
0.503164 0.517352 0.536749
0.477630 0.497252 0.516044
0.481663 0.500682 0.519474
0.485696 0.504111 0.522904
0.489730 0.507541 0.526333
0.493763 0.510971 0.529763
0.497797 0.514400 0.533193
0.501830 0.517830 0.536623
0.505863 0.521260 0.540052
0.509897 0.524689 0.543482
0.484363 0.504589 0.522778
0.488396 0.508018 0.526207
0.492430 0.511448 0.529637
0.496463 0.514878 0.533067
0.500496 0.518307 0.536496
0.504530 0.521737 0.539926
0.508563 0.525167 0.543356
0.512597 0.528597 0.546785
0.516630 0.532026 0.550215
0.491096 0.511926 0.529511
0.495129 0.515355 0.532941
0.499163 0.518785 0.536370
0.503196 0.522215 0.539800
0.507230 0.525644 0.543230
0.511263 0.529074 0.546659
0.515296 0.532504 0.550089
0.519330 0.535933 0.553519
0.523363 0.539363 0.556948
0.438538 0.454538 0.477557
0.442572 0.457968 0.480986
0.446605 0.461398 0.484416
0.450638 0.464827 0.487846
0.454672 0.468257 0.491275
0.458705 0.471687 0.494705
0.462739 0.475116 0.498135
0.466772 0.478546 0.501564
0.470805 0.481976 0.504994
0.445271 0.461875 0.484290
0.449305 0.465305 0.487720
0.453338 0.468734 0.491149
0.457372 0.472164 0.494579
0.461405 0.475594 0.498009
0.465438 0.479023 0.501438
0.469472 0.482453 0.504868
0.473505 0.485883 0.508298
0.477538 0.489312 0.511727
0.452005 0.469212 0.491023
0.456038 0.472642 0.494453
0.460071 0.476071 0.497882
0.464105 0.479501 0.501312
0.468138 0.482931 0.504742
0.472171 0.486360 0.508171
0.476205 0.489790 0.511601
0.480238 0.493220 0.515031
0.484272 0.496649 0.518461
0.458738 0.476549 0.497756
0.462771 0.479979 0.501186
0.466804 0.483408 0.504616
0.470838 0.486838 0.508045
0.474871 0.490268 0.511475
0.478905 0.493697 0.514905
0.482938 0.497127 0.518334
0.486971 0.500557 0.521764
0.491005 0.503986 0.525194
0.465471 0.483886 0.504489
0.469504 0.487315 0.507919
0.473538 0.490745 0.511349
0.477571 0.494175 0.514778
0.481604 0.497604 0.518208
0.485638 0.501034 0.521638
0.489671 0.504464 0.525068
0.493705 0.507893 0.528497
0.497738 0.511323 0.531927
0.472204 0.491223 0.511223
0.476237 0.494652 0.514652
0.480271 0.498082 0.518082
0.484304 0.501512 0.521512
0.488338 0.504941 0.524941
0.492371 0.508371 0.528371
0.496404 0.511801 0.531801
0.500438 0.515230 0.535230
0.504471 0.518660 0.538660
0.478937 0.498560 0.517956
0.482971 0.501989 0.521385
0.487004 0.505419 0.524815
0.491037 0.508849 0.528245
0.495071 0.512278 0.531675
0.499104 0.515708 0.535104
0.503138 0.519138 0.538534
0.507171 0.522567 0.541964
0.511204 0.525997 0.545393
0.485670 0.505896 0.524689
0.489704 0.509326 0.528119
0.493737 0.512756 0.531548
0.497771 0.516185 0.534978
0.501804 0.519615 0.538408
0.505837 0.523045 0.541837
0.509871 0.526474 0.545267
0.513904 0.529904 0.548697
0.517938 0.533334 0.552126
0.492404 0.513233 0.531422
0.496437 0.516663 0.534852
0.500470 0.520093 0.538282
0.504504 0.523522 0.541711
0.508537 0.526952 0.545141
0.512571 0.530382 0.548571
0.516604 0.533811 0.552000
0.520637 0.537241 0.555430
0.524671 0.540671 0.558860
0.439846 0.455846 0.479468
0.443879 0.459275 0.482898
0.447913 0.462705 0.486327
0.451946 0.466135 0.489757
0.455979 0.469565 0.493187
0.460013 0.472994 0.496616
0.464046 0.476424 0.500046
0.468080 0.479854 0.503476
0.472113 0.483283 0.506906
0.446579 0.463183 0.486201
0.450612 0.466612 0.489631
0.454646 0.470042 0.493061
0.458679 0.473472 0.496490
0.462713 0.476901 0.499920
0.466746 0.480331 0.503350
0.470779 0.483761 0.506779
0.474813 0.487190 0.510209
0.478846 0.490620 0.513639
0.453312 0.470520 0.492934
0.457346 0.473949 0.496364
0.461379 0.477379 0.499794
0.465412 0.480809 0.503223
0.469446 0.484238 0.506653
0.473479 0.487668 0.510083
0.477513 0.491098 0.513513
0.481546 0.494527 0.516942
0.485579 0.497957 0.520372
0.460045 0.477856 0.499668
0.464079 0.481286 0.503097
0.468112 0.484716 0.506527
0.472146 0.488146 0.509957
0.476179 0.491575 0.513386
0.480212 0.495005 0.516816
0.484246 0.498435 0.520246
0.488279 0.501864 0.523675
0.492312 0.505294 0.527105
0.466779 0.485193 0.506401
0.470812 0.488623 0.509830
0.474845 0.492053 0.513260
0.478879 0.495482 0.516690
0.482912 0.498912 0.520120
0.486945 0.502342 0.523549
0.490979 0.505771 0.526979
0.495012 0.509201 0.530409
0.499046 0.512631 0.533838
0.473512 0.492530 0.513134
0.477545 0.495960 0.516564
0.481578 0.499390 0.519993
0.485612 0.502819 0.523423
0.489645 0.506249 0.526853
0.493679 0.509679 0.530282
0.497712 0.513108 0.533712
0.501745 0.516538 0.537142
0.505779 0.519968 0.540571
0.480245 0.499867 0.519867
0.484278 0.503297 0.523297
0.488312 0.506727 0.526727
0.492345 0.510156 0.530156
0.496378 0.513586 0.533586
0.500412 0.517016 0.537016
0.504445 0.520445 0.540445
0.508479 0.523875 0.543875
0.512512 0.527305 0.547305
0.486978 0.507204 0.526600
0.491011 0.510634 0.530030
0.495045 0.514063 0.533460
0.499078 0.517493 0.536889
0.503112 0.520923 0.540319
0.507145 0.524352 0.543749
0.511178 0.527782 0.547178
0.515212 0.531212 0.550608
0.519245 0.534641 0.554038
0.493711 0.514541 0.533334
0.497745 0.517971 0.536763
0.501778 0.521400 0.540193
0.505811 0.524830 0.543623
0.509845 0.528260 0.547052
0.513878 0.531689 0.550482
0.517912 0.535119 0.553912
0.521945 0.538549 0.557341
0.525978 0.541978 0.560771
0.441153 0.457153 0.481379
0.445187 0.460583 0.484809
0.449220 0.464013 0.488239
0.453254 0.467442 0.491668
0.457287 0.470872 0.495098
0.461320 0.474302 0.498528
0.465354 0.477732 0.501957
0.469387 0.481161 0.505387
0.473421 0.484591 0.508817
0.447887 0.464490 0.488113
0.451920 0.467920 0.491542
0.455953 0.471350 0.494972
0.459987 0.474779 0.498402
0.464020 0.478209 0.501831
0.468054 0.481639 0.505261
0.472087 0.485068 0.508691
0.476120 0.488498 0.512120
0.480154 0.491928 0.515550
0.454620 0.471827 0.494846
0.458653 0.475257 0.498275
0.462687 0.478687 0.501705
0.466720 0.482116 0.505135
0.470753 0.485546 0.508564
0.474787 0.488976 0.511994
0.478820 0.492405 0.515424
0.482854 0.495835 0.518854
0.486887 0.499265 0.522283
0.461353 0.479164 0.501579
0.465386 0.482594 0.505009
0.469420 0.486023 0.508438
0.473453 0.489453 0.511868
0.477487 0.492883 0.515298
0.481520 0.496313 0.518727
0.485553 0.499742 0.522157
0.489587 0.503172 0.525587
0.493620 0.506602 0.529016
0.468086 0.486501 0.508312
0.472120 0.489931 0.511742
0.476153 0.493360 0.515172
0.480186 0.496790 0.518601
0.484220 0.500220 0.522031
0.488253 0.503649 0.525461
0.492287 0.507079 0.528890
0.496320 0.510509 0.532320
0.500353 0.513938 0.535750
0.474819 0.493838 0.515045
0.478853 0.497268 0.518475
0.482886 0.500697 0.521905
0.486920 0.504127 0.525334
0.490953 0.507557 0.528764
0.494986 0.510986 0.532194
0.499020 0.514416 0.535623
0.503053 0.517846 0.539053
0.507086 0.521275 0.542483
0.481553 0.501175 0.521779
0.485586 0.504604 0.525208
0.489619 0.508034 0.528638
0.493653 0.511464 0.532068
0.497686 0.514894 0.535497
0.501719 0.518323 0.538927
0.505753 0.521753 0.542357
0.509786 0.525183 0.545786
0.513820 0.528612 0.549216
0.488286 0.508512 0.528512
0.492319 0.511941 0.531941
0.496352 0.515371 0.535371
0.500386 0.518801 0.538801
0.504419 0.522230 0.542230
0.508453 0.525660 0.545660
0.512486 0.529090 0.549090
0.516519 0.532519 0.552519
0.520553 0.535949 0.555949
0.495019 0.515849 0.535245
0.499052 0.519278 0.538675
0.503086 0.522708 0.542104
0.507119 0.526138 0.545534
0.511152 0.529567 0.548964
0.515186 0.532997 0.552393
0.519219 0.536427 0.555823
0.523253 0.539856 0.559253
0.527286 0.543286 0.562682
0.442461 0.458461 0.483291
0.446494 0.461891 0.486720
0.450528 0.465320 0.490150
0.454561 0.468750 0.493580
0.458595 0.472180 0.497009
0.462628 0.475609 0.500439
0.466661 0.479039 0.503869
0.470695 0.482469 0.507299
0.474728 0.485899 0.510728
0.449194 0.465798 0.490024
0.453228 0.469228 0.493454
0.457261 0.472657 0.496883
0.461294 0.476087 0.500313
0.465328 0.479517 0.503743
0.469361 0.482946 0.507172
0.473395 0.486376 0.510602
0.477428 0.489806 0.514032
0.481461 0.493235 0.517461
0.455927 0.473135 0.496757
0.459961 0.476565 0.500187
0.463994 0.479994 0.503616
0.468028 0.483424 0.507046
0.472061 0.486854 0.510476
0.476094 0.490283 0.513906
0.480128 0.493713 0.517335
0.484161 0.497143 0.520765
0.488195 0.500572 0.524195
0.462661 0.480472 0.503490
0.466694 0.483901 0.506920
0.470727 0.487331 0.510350
0.474761 0.490761 0.513779
0.478794 0.494190 0.517209
0.482828 0.497620 0.520639
0.486861 0.501050 0.524068
0.490894 0.504480 0.527498
0.494928 0.507909 0.530928
0.469394 0.487809 0.510223
0.473427 0.491238 0.513653
0.477461 0.494668 0.517083
0.481494 0.498098 0.520513
0.485527 0.501527 0.523942
0.489561 0.504957 0.527372
0.493594 0.508387 0.530802
0.497628 0.511816 0.534231
0.501661 0.515246 0.537661
0.476127 0.495146 0.516957
0.480160 0.498575 0.520386
0.484194 0.502005 0.523816
0.488227 0.505435 0.527246
0.492261 0.508864 0.530675
0.496294 0.512294 0.534105
0.500327 0.515724 0.537535
0.504361 0.519153 0.540964
0.508394 0.522583 0.544394
0.482860 0.502482 0.523690
0.486894 0.505912 0.527120
0.490927 0.509342 0.530549
0.494960 0.512771 0.533979
0.498994 0.516201 0.537409
0.503027 0.519631 0.540838
0.507060 0.523060 0.544268
0.511094 0.526490 0.547698
0.515127 0.529920 0.551127
0.489593 0.509819 0.530423
0.493627 0.513249 0.533853
0.497660 0.516679 0.537282
0.501694 0.520108 0.540712
0.505727 0.523538 0.544142
0.509760 0.526968 0.547571
0.513794 0.530397 0.551001
0.517827 0.533827 0.554431
0.521860 0.537257 0.557860
0.496327 0.517156 0.537156
0.500360 0.520586 0.540586
0.504393 0.524016 0.544016
0.508427 0.527445 0.547445
0.512460 0.530875 0.550875
0.516493 0.534305 0.554305
0.520527 0.537734 0.557734
0.524560 0.541164 0.561164
0.528594 0.544594 0.564594
