shared/src/main/assets/luts/film_blue_intimacy.cube
TITLE "DALUR Blue Intimacy"
LUT_3D_SIZE 17
DOMAIN_MIN 0.0 0.0 0.0
DOMAIN_MAX 1.0 1.0 1.0
0.432000 0.448000 0.468000
0.434017 0.449715 0.469715
0.436033 0.451430 0.471430
0.438050 0.453145 0.473145
0.440067 0.454859 0.474859
0.442083 0.456574 0.476574
0.444100 0.458289 0.478289
0.446117 0.460004 0.480004
0.448134 0.461719 0.481719
0.450150 0.463434 0.483434
0.452167 0.465148 0.485148
0.454184 0.466863 0.486863
0.456200 0.468578 0.488578
0.458217 0.470293 0.490293
0.460234 0.472008 0.492008
0.462250 0.473723 0.493723
0.464267 0.475437 0.495437
0.435367 0.451668 0.471367
0.437383 0.453383 0.473081
0.439400 0.455098 0.474796
0.441417 0.456813 0.476511
0.443433 0.458528 0.478226
0.445450 0.460243 0.479941
0.447467 0.461957 0.481656
0.449483 0.463672 0.483370
0.451500 0.465387 0.485085
0.453517 0.467102 0.486800
0.455534 0.468817 0.488515
0.457550 0.470532 0.490230
0.459567 0.472247 0.491945
0.461584 0.473961 0.493659
0.463600 0.475676 0.495374
0.465617 0.477391 0.497089
0.467634 0.479106 0.498804
0.438733 0.455337 0.474733
0.440750 0.457052 0.476448
0.442767 0.458767 0.478163
0.444783 0.460481 0.479878
0.446800 0.462196 0.481593
0.448817 0.463911 0.483307
0.450833 0.465626 0.485022
0.452850 0.467341 0.486737
0.454867 0.469056 0.488452
0.456883 0.470770 0.490167
0.458900 0.472485 0.491882
0.460917 0.474200 0.493596
0.462934 0.475915 0.495311
0.464950 0.477630 0.497026
0.466967 0.479345 0.498741
0.468984 0.481059 0.500456
0.471000 0.482774 0.502171
0.442100 0.459005 0.478100
0.444116 0.460720 0.479815
0.446133 0.462435 0.481529
0.448150 0.464150 0.483244
0.450167 0.465865 0.484959
0.452183 0.467580 0.486674
0.454200 0.469294 0.488389
0.456217 0.471009 0.490104
0.458233 0.472724 0.491818
0.460250 0.474439 0.493533
0.462267 0.476154 0.495248
0.464283 0.477869 0.496963
0.466300 0.479583 0.498678
0.468317 0.481298 0.500393
0.470333 0.483013 0.502108
0.472350 0.484728 0.503822
0.474367 0.486443 0.505537
0.445466 0.462674 0.481466
0.447483 0.464389 0.483181
0.449500 0.466103 0.484896
0.451516 0.467818 0.486611
0.453533 0.469533 0.488326
0.455550 0.471248 0.490041
0.457567 0.472963 0.491755
0.459583 0.474678 0.493470
0.461600 0.476392 0.495185
0.463617 0.478107 0.496900
0.465633 0.479822 0.498615
0.467650 0.481537 0.500330
0.469667 0.483252 0.502044
0.471683 0.484967 0.503759
0.473700 0.486682 0.505474
0.475717 0.488396 0.507189
0.477733 0.490111 0.508904
0.448833 0.466342 0.484833
0.450850 0.468057 0.486548
0.452866 0.469772 0.488263
0.454883 0.471487 0.489977
0.456900 0.473202 0.491692
0.458916 0.474916 0.493407
0.460933 0.476631 0.495122
0.462950 0.478346 0.496837
0.464967 0.480061 0.498552
0.466983 0.481776 0.500266
0.469000 0.483491 0.501981
0.471017 0.485205 0.503696
0.473033 0.486920 0.505411
0.475050 0.488635 0.507126
0.477067 0.490350 0.508841
0.479083 0.492065 0.510556
0.481100 0.493780 0.512270
0.452200 0.470011 0.488200
0.454216 0.471726 0.489914
0.456233 0.473440 0.491629
0.458250 0.475155 0.493344
0.460266 0.476870 0.495059
0.462283 0.478585 0.496774
0.464300 0.480300 0.498489
0.466316 0.482015 0.500203
0.468333 0.483729 0.501918
0.470350 0.485444 0.503633
0.472366 0.487159 0.505348
0.474383 0.488874 0.507063
0.476400 0.490589 0.508778
0.478417 0.492304 0.510492
0.480433 0.494018 0.512207
0.482450 0.495733 0.513922
0.484467 0.497448 0.515637
0.455566 0.473679 0.491566
0.457583 0.475394 0.493281
0.459600 0.477109 0.494996
0.461616 0.478824 0.496711
0.463633 0.480538 0.498425
0.465650 0.482253 0.500140
0.467666 0.483968 0.501855
0.469683 0.485683 0.503570
0.471700 0.487398 0.505285
0.473716 0.489113 0.507000
0.475733 0.490828 0.508715
0.477750 0.492542 0.510429
0.479766 0.494257 0.512144
0.481783 0.495972 0.513859
0.483800 0.497687 0.515574
0.485817 0.499402 0.517289
0.487833 0.501117 0.519004
0.458933 0.477348 0.494933
0.460949 0.479062 0.496648
0.462966 0.480777 0.498362
0.464983 0.482492 0.500077
0.466999 0.484207 0.501792
0.469016 0.485922 0.503507
0.471033 0.487637 0.505222
0.473050 0.489351 0.506937
0.475066 0.491066 0.508651
0.477083 0.492781 0.510366
0.479100 0.494496 0.512081
0.481116 0.496211 0.513796
0.483133 0.497926 0.515511
0.485150 0.499640 0.517226
0.487166 0.501355 0.518940
0.489183 0.503070 0.520655
0.491200 0.504785 0.522370
0.462299 0.481016 0.498299
0.464316 0.482731 0.500014
0.466333 0.484446 0.501729
0.468349 0.486161 0.503444
0.470366 0.487875 0.505159
0.472383 0.489590 0.506874
0.474399 0.491305 0.508588
0.476416 0.493020 0.510303
0.478433 0.494735 0.512018
0.480450 0.496450 0.513733
0.482466 0.498164 0.515448
0.484483 0.499879 0.517163
0.486500 0.501594 0.518877
0.488516 0.503309 0.520592
0.490533 0.505024 0.522307
0.492550 0.506739 0.524022
0.494566 0.508453 0.525737
0.465666 0.484684 0.501666
0.467683 0.486399 0.503381
0.469699 0.488114 0.505096
0.471716 0.489829 0.506810
0.473733 0.491544 0.508525
0.475749 0.493259 0.510240
0.477766 0.494973 0.511955
0.479783 0.496688 0.513670
0.481799 0.498403 0.515385
0.483816 0.500118 0.517099
0.485833 0.501833 0.518814
0.487850 0.503548 0.520529
0.489866 0.505263 0.522244
0.491883 0.506977 0.523959
0.493900 0.508692 0.525674
0.495916 0.510407 0.527388
0.497933 0.512122 0.529103
0.469032 0.488353 0.505032
0.471049 0.490068 0.506747
0.473066 0.491783 0.508462
0.475083 0.493497 0.510177
0.477099 0.495212 0.511892
0.479116 0.496927 0.513607
0.481133 0.498642 0.515322
0.483149 0.500357 0.517036
0.485166 0.502072 0.518751
0.487183 0.503786 0.520466
0.489199 0.505501 0.522181
0.491216 0.507216 0.523896
0.493233 0.508931 0.525611
0.495250 0.510646 0.527325
0.497266 0.512361 0.529040
0.499283 0.514075 0.530755
0.501300 0.515790 0.532470
0.472399 0.492021 0.508399
0.474416 0.493736 0.510114
0.476432 0.495451 0.511829
0.478449 0.497166 0.513544
0.480466 0.498881 0.515258
0.482483 0.500596 0.516973
0.484499 0.502310 0.518688
0.486516 0.504025 0.520403
0.488533 0.505740 0.522118
0.490549 0.507455 0.523833
0.492566 0.509170 0.525547
0.494583 0.510885 0.527262
0.496599 0.512599 0.528977
0.498616 0.514314 0.530692
0.500633 0.516029 0.532407
0.502649 0.517744 0.534122
0.504666 0.519459 0.535837
0.475766 0.495690 0.511766
0.477782 0.497405 0.513481
0.479799 0.499119 0.515195
0.481816 0.500834 0.516910
0.483832 0.502549 0.518625
0.485849 0.504264 0.520340
0.487866 0.505979 0.522055
0.489883 0.507694 0.523770
0.491899 0.509408 0.525484
0.493916 0.511123 0.527199
0.495933 0.512838 0.528914
0.497949 0.514553 0.530629
0.499966 0.516268 0.532344
0.501983 0.517983 0.534059
0.503999 0.519698 0.535773
0.506016 0.521412 0.537488
0.508033 0.523127 0.539203
0.479132 0.499358 0.515132
0.481149 0.501073 0.516847
0.483166 0.502788 0.518562
0.485182 0.504503 0.520277
0.487199 0.506218 0.521992
0.489216 0.507932 0.523706
0.491232 0.509647 0.525421
0.493249 0.511362 0.527136
0.495266 0.513077 0.528851
0.497283 0.514792 0.530566
0.499299 0.516507 0.532281
0.501316 0.518221 0.533995
0.503333 0.519936 0.535710
0.505349 0.521651 0.537425
0.507366 0.523366 0.539140
0.509383 0.525081 0.540855
0.511399 0.526796 0.542570
0.482499 0.503027 0.518499
0.484516 0.504742 0.520214
0.486532 0.506456 0.521929
0.488549 0.508171 0.523643
0.490566 0.509886 0.525358
0.492582 0.511601 0.527073
0.494599 0.513316 0.528788
0.496616 0.515031 0.530503
0.498632 0.516745 0.532218
0.500649 0.518460 0.533932
0.502666 0.520175 0.535647
0.504682 0.521890 0.537362
0.506699 0.523605 0.539077
0.508716 0.525320 0.540792
0.510733 0.527034 0.542507
0.512749 0.528749 0.544221
0.514766 0.530464 0.545936
0.485865 0.506695 0.521865
0.487882 0.508410 0.523580
0.489899 0.510125 0.525295
0.491916 0.511840 0.527010
0.493932 0.513554 0.528725
0.495949 0.515269 0.530440
0.497966 0.516984 0.532154
0.499982 0.518699 0.533869
0.501999 0.520414 0.535584
0.504016 0.522129 0.537299
0.506032 0.523844 0.539014
0.508049 0.525558 0.540729
0.510066 0.527273 0.542444
0.512082 0.528988 0.544158
0.514099 0.530703 0.545873
0.516116 0.532418 0.547588
0.518133 0.534133 0.549303
0.432654 0.448654 0.468956
0.434671 0.450369 0.470671
0.436687 0.452083 0.472385
0.438704 0.453798 0.474100
0.440721 0.455513 0.475815
0.442737 0.457228 0.477530
0.444754 0.458943 0.479245
0.446771 0.460658 0.480960
0.448787 0.462373 0.482674
0.450804 0.464087 0.484389
0.452821 0.465802 0.486104
0.454837 0.467517 0.487819
0.456854 0.469232 0.489534
0.458871 0.470947 0.491249
0.460888 0.472662 0.492963
0.462904 0.474376 0.494678
0.464921 0.476091 0.496393
0.436020 0.452322 0.472322
0.438037 0.454037 0.474037
0.440054 0.455752 0.475752
0.442070 0.457467 0.477467
0.444087 0.459182 0.479182
0.446104 0.460896 0.480896
0.448121 0.462611 0.482611
0.450137 0.464326 0.484326
0.452154 0.466041 0.486041
0.454171 0.467756 0.487756
0.456187 0.469471 0.489471
0.458204 0.471185 0.491185
0.460221 0.472900 0.492900
0.462237 0.474615 0.494615
0.464254 0.476330 0.496330
0.466271 0.478045 0.498045
0.468288 0.479760 0.499760
0.439387 0.455991 0.475689
0.441404 0.457706 0.477404
0.443420 0.459420 0.479119
0.445437 0.461135 0.480833
0.447454 0.462850 0.482548
0.449470 0.464565 0.484263
0.451487 0.466280 0.485978
0.453504 0.467995 0.487693
0.455521 0.469709 0.489408
0.457537 0.471424 0.491122
0.459554 0.473139 0.492837
0.461571 0.474854 0.494552
0.463587 0.476569 0.496267
0.465604 0.478284 0.497982
0.467621 0.479998 0.499697
0.469637 0.481713 0.501411
0.471654 0.483428 0.503126
0.442754 0.459659 0.479055
0.444770 0.461374 0.480770
0.446787 0.463089 0.482485
0.448804 0.464804 0.484200
0.450820 0.466519 0.485915
0.452837 0.468233 0.487630
0.454854 0.469948 0.489344
0.456870 0.471663 0.491059
0.458887 0.473378 0.492774
0.460904 0.475093 0.494489
0.462921 0.476808 0.496204
0.464937 0.478522 0.497919
0.466954 0.480237 0.499634
0.468971 0.481952 0.501348
0.470987 0.483667 0.503063
0.473004 0.485382 0.504778
0.475021 0.487097 0.506493
0.446120 0.463328 0.482422
0.448137 0.465042 0.484137
0.450154 0.466757 0.485852
0.452170 0.468472 0.487567
0.454187 0.470187 0.489281
0.456204 0.471902 0.490996
0.458220 0.473617 0.492711
0.460237 0.475331 0.494426
0.462254 0.477046 0.496141
0.464270 0.478761 0.497856
0.466287 0.480476 0.499570
0.468304 0.482191 0.501285
0.470321 0.483906 0.503000
0.472337 0.485621 0.504715
0.474354 0.487335 0.506430
0.476371 0.489050 0.508145
0.478387 0.490765 0.509859
0.449487 0.466996 0.485789
0.451503 0.468711 0.487503
0.453520 0.470426 0.489218
0.455537 0.472141 0.490933
0.457554 0.473855 0.492648
0.459570 0.475570 0.494363
0.461587 0.477285 0.496078
0.463604 0.479000 0.497792
0.465620 0.480715 0.499507
0.467637 0.482430 0.501222
0.469654 0.484144 0.502937
0.471670 0.485859 0.504652
0.473687 0.487574 0.506367
0.475704 0.489289 0.508082
0.477720 0.491004 0.509796
0.479737 0.492719 0.511511
0.481754 0.494433 0.513226
0.452853 0.470664 0.489155
0.454870 0.472379 0.490870
0.456887 0.474094 0.492585
0.458903 0.475809 0.494300
0.460920 0.477524 0.496015
0.462937 0.479239 0.497729
0.464954 0.480954 0.499444
0.466970 0.482668 0.501159
0.468987 0.484383 0.502874
0.471004 0.486098 0.504589
0.473020 0.487813 0.506304
0.475037 0.489528 0.508018
0.477054 0.491243 0.509733
0.479070 0.492957 0.511448
0.481087 0.494672 0.513163
0.483104 0.496387 0.514878
0.485120 0.498102 0.516593
0.456220 0.474333 0.492522
0.458237 0.476048 0.494237
0.460253 0.477763 0.495951
0.462270 0.479477 0.497666
0.464287 0.481192 0.499381
0.466303 0.482907 0.501096
0.468320 0.484622 0.502811
0.470337 0.486337 0.504526
0.472353 0.488052 0.506241
0.474370 0.489766 0.507955
0.476387 0.491481 0.509670
0.478404 0.493196 0.511385
0.480420 0.494911 0.513100
0.482437 0.496626 0.514815
0.484454 0.498341 0.516530
0.486470 0.500056 0.518244
0.488487 0.501770 0.519959
0.459587 0.478001 0.495888
0.461603 0.479716 0.497603
0.463620 0.481431 0.499318
0.465637 0.483146 0.501033
0.467653 0.484861 0.502748
0.469670 0.486576 0.504463
0.471687 0.488290 0.506177
0.473703 0.490005 0.507892
0.475720 0.491720 0.509607
0.477737 0.493435 0.511322
0.479753 0.495150 0.513037
0.481770 0.496865 0.514752
0.483787 0.498579 0.516466
0.485804 0.500294 0.518181
0.487820 0.502009 0.519896
0.489837 0.503724 0.521611
0.491854 0.505439 0.523326
0.462953 0.481670 0.499255
0.464970 0.483385 0.500970
0.466987 0.485100 0.502685
0.469003 0.486814 0.504399
0.471020 0.488529 0.506114
0.473037 0.490244 0.507829
0.475053 0.491959 0.509544
0.477070 0.493674 0.511259
0.479087 0.495389 0.512974
0.481103 0.497103 0.514689
0.483120 0.498818 0.516403
0.485137 0.500533 0.518118
0.487153 0.502248 0.519833
0.489170 0.503963 0.521548
0.491187 0.505678 0.523263
0.493204 0.507392 0.524978
0.495220 0.509107 0.526692
0.466320 0.485338 0.502622
0.468336 0.487053 0.504336
0.470353 0.488768 0.506051
0.472370 0.490483 0.507766
0.474386 0.492198 0.509481
0.476403 0.493912 0.511196
0.478420 0.495627 0.512911
0.480437 0.497342 0.514625
0.482453 0.499057 0.516340
0.484470 0.500772 0.518055
0.486487 0.502487 0.519770
0.488503 0.504201 0.521485
0.490520 0.505916 0.523200
0.492537 0.507631 0.524914
0.494553 0.509346 0.526629
0.496570 0.511061 0.528344
0.498587 0.512776 0.530059
0.469686 0.489007 0.505988
0.471703 0.490722 0.507703
0.473720 0.492436 0.509418
0.475736 0.494151 0.511133
0.477753 0.495866 0.512848
0.479770 0.497581 0.514562
0.481786 0.499296 0.516277
0.483803 0.501011 0.517992
0.485820 0.502725 0.519707
0.487837 0.504440 0.521422
0.489853 0.506155 0.523137
0.491870 0.507870 0.524851
0.493887 0.509585 0.526566
0.495903 0.511300 0.528281
0.497920 0.513014 0.529996
0.499937 0.514729 0.531711
0.501953 0.516444 0.533426
0.473053 0.492675 0.509355
0.475070 0.494390 0.511070
0.477086 0.496105 0.512784
0.479103 0.497820 0.514499
0.481120 0.499535 0.516214
0.483136 0.501249 0.517929
0.485153 0.502964 0.519644
0.487170 0.504679 0.521359
0.489186 0.506394 0.523073
0.491203 0.508109 0.524788
0.493220 0.509824 0.526503
0.495237 0.511538 0.528218
0.497253 0.513253 0.529933
0.499270 0.514968 0.531648
0.501287 0.516683 0.533362
0.503303 0.518398 0.535077
0.505320 0.520113 0.536792
0.476419 0.496344 0.512721
0.478436 0.498058 0.514436
0.480453 0.499773 0.516151
0.482470 0.501488 0.517866
0.484486 0.503203 0.519581
0.486503 0.504918 0.521296
0.488520 0.506633 0.523010
0.490536 0.508347 0.524725
0.492553 0.510062 0.526440
0.494570 0.511777 0.528155
0.496586 0.513492 0.529870
0.498603 0.515207 0.531585
0.500620 0.516922 0.533299
0.502637 0.518637 0.535014
0.504653 0.520351 0.536729
0.506670 0.522066 0.538444
0.508687 0.523781 0.540159
0.479786 0.500012 0.516088
0.481803 0.501727 0.517803
0.483819 0.503442 0.519518
0.485836 0.505157 0.521232
0.487853 0.506871 0.522947
0.489870 0.508586 0.524662
0.491886 0.510301 0.526377
0.493903 0.512016 0.528092
0.495920 0.513731 0.529807
0.497936 0.515446 0.531521
0.499953 0.517160 0.533236
0.501970 0.518875 0.534951
0.503986 0.520590 0.536666
0.506003 0.522305 0.538381
0.508020 0.524020 0.540096
0.510036 0.525735 0.541811
0.512053 0.527449 0.543525
0.483153 0.503680 0.519455
0.485169 0.505395 0.521169
0.487186 0.507110 0.522884
0.489203 0.508825 0.524599
0.491219 0.510540 0.526314
0.493236 0.512255 0.528029
0.495253 0.513970 0.529744
0.497270 0.515684 0.531458
0.499286 0.517399 0.533173
0.501303 0.519114 0.534888
0.503320 0.520829 0.536603
0.505336 0.522544 0.538318
0.507353 0.524259 0.540033
0.509370 0.525973 0.541747
0.511386 0.527688 0.543462
0.513403 0.529403 0.545177
0.515420 0.531118 0.546892
0.486519 0.507349 0.522821
0.488536 0.509064 0.524536
0.490553 0.510779 0.526251
0.492569 0.512493 0.527966
0.494586 0.514208 0.529680
0.496603 0.515923 0.531395
0.498619 0.517638 0.533110
0.500636 0.519353 0.534825
0.502653 0.521068 0.536540
0.504670 0.522782 0.538255
0.506686 0.524497 0.539970
0.508703 0.526212 0.541684
0.510720 0.527927 0.543399
0.512736 0.529642 0.545114
0.514753 0.531357 0.546829
0.516770 0.533072 0.548544
0.518786 0.534786 0.550259
0.433308 0.449308 0.469911
0.435324 0.451022 0.471626
0.437341 0.452737 0.473341
0.439358 0.454452 0.475056
0.441374 0.456167 0.476771
0.443391 0.457882 0.478486
0.445408 0.459597 0.480200
0.447424 0.461312 0.481915
0.449441 0.463026 0.483630
0.451458 0.464741 0.485345
0.453475 0.466456 0.487060
0.455491 0.468171 0.488775
0.457508 0.469886 0.490489
0.459525 0.471601 0.492204
0.461541 0.473315 0.493919
0.463558 0.475030 0.495634
0.465575 0.476745 0.497349
0.436674 0.452976 0.473278
0.438691 0.454691 0.474993
0.440708 0.456406 0.476708
0.442724 0.458121 0.478422
0.444741 0.459835 0.480137
0.446758 0.461550 0.481852
0.448774 0.463265 0.483567
0.450791 0.464980 0.485282
0.452808 0.466695 0.486997
0.454824 0.468410 0.488711
0.456841 0.470124 0.490426
0.458858 0.471839 0.492141
0.460875 0.473554 0.493856
0.462891 0.475269 0.495571
0.464908 0.476984 0.497286
0.466925 0.478699 0.499001
0.468941 0.480414 0.500715
0.440041 0.456645 0.476645
0.442058 0.458359 0.478359
0.444074 0.460074 0.480074
0.446091 0.461789 0.481789
0.448108 0.463504 0.483504
0.450124 0.465219 0.485219
0.452141 0.466934 0.486934
0.454158 0.468648 0.488648
0.456174 0.470363 0.490363
0.458191 0.472078 0.492078
0.460208 0.473793 0.493793
0.462224 0.475508 0.495508
0.464241 0.477223 0.497223
0.466258 0.478937 0.498937
0.468275 0.480652 0.500652
0.470291 0.482367 0.502367
0.472308 0.484082 0.504082
0.443407 0.460313 0.480011
0.445424 0.462028 0.481726
0.447441 0.463743 0.483441
0.449457 0.465457 0.485156
0.451474 0.467172 0.486870
0.453491 0.468887 0.488585
0.455508 0.470602 0.490300
0.457524 0.472317 0.492015
0.459541 0.474032 0.493730
0.461558 0.475747 0.495445
0.463574 0.477461 0.497160
0.465591 0.479176 0.498874
0.467608 0.480891 0.500589
0.469624 0.482606 0.502304
0.471641 0.484321 0.504019
0.473658 0.486036 0.505734
0.475675 0.487750 0.507449
0.446774 0.463981 0.483378
0.448791 0.465696 0.485093
0.450807 0.467411 0.486807
0.452824 0.469126 0.488522
0.454841 0.470841 0.490237
0.456857 0.472556 0.491952
0.458874 0.474270 0.493667
0.460891 0.475985 0.495382
0.462908 0.477700 0.497096
0.464924 0.479415 0.498811
0.466941 0.481130 0.500526
0.468958 0.482845 0.502241
0.470974 0.484559 0.503956
0.472991 0.486274 0.505671
0.475008 0.487989 0.507385
0.477024 0.489704 0.509100
0.479041 0.491419 0.510815
0.450141 0.467650 0.486744
0.452157 0.469365 0.488459
0.454174 0.471080 0.490174
0.456191 0.472794 0.491889
0.458207 0.474509 0.493604
0.460224 0.476224 0.495318
0.462241 0.477939 0.497033
0.464257 0.479654 0.498748
0.466274 0.481369 0.500463
0.468291 0.483083 0.502178
0.470308 0.484798 0.503893
0.472324 0.486513 0.505608
0.474341 0.488228 0.507322
0.476358 0.489943 0.509037
0.478374 0.491658 0.510752
0.480391 0.493372 0.512467
0.482408 0.495087 0.514182
0.453507 0.471318 0.490111
0.455524 0.473033 0.491826
0.457541 0.474748 0.493541
0.459557 0.476463 0.495255
0.461574 0.478178 0.496970
0.463591 0.479893 0.498685
0.465607 0.481607 0.500400
0.467624 0.483322 0.502115
0.469641 0.485037 0.503830
0.471657 0.486752 0.505544
0.473674 0.488467 0.507259
0.475691 0.490182 0.508974
0.477708 0.491896 0.510689
0.479724 0.493611 0.512404
0.481741 0.495326 0.514119
0.483758 0.497041 0.515833
0.485774 0.498756 0.517548
0.456874 0.474987 0.493477
0.458890 0.476702 0.495192
0.460907 0.478416 0.496907
0.462924 0.480131 0.498622
0.464941 0.481846 0.500337
0.466957 0.483561 0.502052
0.468974 0.485276 0.503767
0.470991 0.486991 0.505481
0.473007 0.488705 0.507196
0.475024 0.490420 0.508911
0.477041 0.492135 0.510626
0.479057 0.493850 0.512341
0.481074 0.495565 0.514056
0.483091 0.497280 0.515770
0.485107 0.498994 0.517485
0.487124 0.500709 0.519200
0.489141 0.502424 0.520915
0.460240 0.478655 0.496844
0.462257 0.480370 0.498559
0.464274 0.482085 0.500274
0.466290 0.483800 0.501989
0.468307 0.485515 0.503703
0.470324 0.487229 0.505418
0.472341 0.488944 0.507133
0.474357 0.490659 0.508848
0.476374 0.492374 0.510563
0.478391 0.494089 0.512278
0.480407 0.495804 0.513992
0.482424 0.497518 0.515707
0.484441 0.499233 0.517422
0.486457 0.500948 0.519137
0.488474 0.502663 0.520852
0.490491 0.504378 0.522567
0.492507 0.506093 0.524281
0.463607 0.482324 0.500211
0.465624 0.484038 0.501925
0.467640 0.485753 0.503640
0.469657 0.487468 0.505355
0.471674 0.489183 0.507070
0.473690 0.490898 0.508785
0.475707 0.492613 0.510500
0.477724 0.494328 0.512215
0.479740 0.496042 0.513929
0.481757 0.497757 0.515644
0.483774 0.499472 0.517359
0.485791 0.501187 0.519074
0.487807 0.502902 0.520789
0.489824 0.504617 0.522504
0.491841 0.506331 0.524218
0.493857 0.508046 0.525933
0.495874 0.509761 0.527648
0.466974 0.485992 0.503577
0.468990 0.487707 0.505292
0.471007 0.489422 0.507007
0.473024 0.491137 0.508722
0.475040 0.492851 0.510437
0.477057 0.494566 0.512151
0.479074 0.496281 0.513866
0.481090 0.497996 0.515581
0.483107 0.499711 0.517296
0.485124 0.501426 0.519011
0.487140 0.503140 0.520726
0.489157 0.504855 0.522440
0.491174 0.506570 0.524155
0.493191 0.508285 0.525870
0.495207 0.510000 0.527585
0.497224 0.511715 0.529300
0.499241 0.513430 0.531015
0.470340 0.489661 0.506944
0.472357 0.491375 0.508659
0.474374 0.493090 0.510374
0.476390 0.494805 0.512088
0.478407 0.496520 0.513803
0.480424 0.498235 0.515518
0.482440 0.499950 0.517233
0.484457 0.501664 0.518948
0.486474 0.503379 0.520663
0.488490 0.505094 0.522377
0.490507 0.506809 0.524092
0.492524 0.508524 0.525807
0.494540 0.510239 0.527522
0.496557 0.511953 0.529237
0.498574 0.513668 0.530952
0.500591 0.515383 0.532666
0.502607 0.517098 0.534381
0.473707 0.493329 0.510310
0.475723 0.495044 0.512025
0.477740 0.496759 0.513740
0.479757 0.498473 0.515455
0.481773 0.500188 0.517170
0.483790 0.501903 0.518885
0.485807 0.503618 0.520599
0.487824 0.505333 0.522314
0.489840 0.507048 0.524029
0.491857 0.508763 0.525744
0.493874 0.510477 0.527459
0.495890 0.512192 0.529174
0.497907 0.513907 0.530888
0.499924 0.515622 0.532603
0.501940 0.517337 0.534318
0.503957 0.519052 0.536033
0.505974 0.520766 0.537748
0.477073 0.496997 0.513677
0.479090 0.498712 0.515392
0.481107 0.500427 0.517107
0.483123 0.502142 0.518822
0.485140 0.503857 0.520536
0.487157 0.505572 0.522251
0.489173 0.507286 0.523966
0.491190 0.509001 0.525681
0.493207 0.510716 0.527396
0.495224 0.512431 0.529111
0.497240 0.514146 0.530825
0.499257 0.515861 0.532540
0.501274 0.517575 0.534255
0.503290 0.519290 0.535970
0.505307 0.521005 0.537685
0.507324 0.522720 0.539400
0.509340 0.524435 0.541114
0.480440 0.500666 0.517044
0.482457 0.502381 0.518758
0.484473 0.504096 0.520473
0.486490 0.505810 0.522188
0.488507 0.507525 0.523903
0.490523 0.509240 0.525618
0.492540 0.510955 0.527333
0.494557 0.512670 0.529047
0.496573 0.514385 0.530762
0.498590 0.516099 0.532477
0.500607 0.517814 0.534192
0.502624 0.519529 0.535907
0.504640 0.521244 0.537622
0.506657 0.522959 0.539337
0.508674 0.524674 0.541051
0.510690 0.526388 0.542766
0.512707 0.528103 0.544481
0.483806 0.504334 0.520410
0.485823 0.506049 0.522125
0.487840 0.507764 0.523840
0.489857 0.509479 0.525555
0.491873 0.511194 0.527270
0.493890 0.512909 0.528984
0.495907 0.514623 0.530699
0.497923 0.516338 0.532414
0.499940 0.518053 0.534129
0.501957 0.519768 0.535844
0.503973 0.521483 0.537559
0.505990 0.523198 0.539273
0.508007 0.524912 0.540988
0.510024 0.526627 0.542703
0.512040 0.528342 0.544418
0.514057 0.530057 0.546133
0.516074 0.531772 0.547848
0.487173 0.508003 0.523777
0.489190 0.509718 0.525492
0.491206 0.511432 0.527206
0.493223 0.513147 0.528921
0.495240 0.514862 0.530636
0.497257 0.516577 0.532351
0.499273 0.518292 0.534066
0.501290 0.520007 0.535781
0.503307 0.521721 0.537495
0.505323 0.523436 0.539210
0.507340 0.525151 0.540925
0.509357 0.526866 0.542640
0.511373 0.528581 0.544355
0.513390 0.530296 0.546070
0.515407 0.532011 0.547785
0.517423 0.533725 0.549499
0.519440 0.535440 0.551214
0.433961 0.449961 0.470867
0.435978 0.451676 0.472582
0.437995 0.453391 0.474297
0.440012 0.455106 0.476012
0.442028 0.456821 0.477726
0.444045 0.458536 0.479441
0.446062 0.460250 0.481156
0.448078 0.461965 0.482871
0.450095 0.463680 0.484586
0.452112 0.465395 0.486301
0.454128 0.467110 0.488015
0.456145 0.468825 0.489730
0.458162 0.470540 0.491445
0.460178 0.472254 0.493160
0.462195 0.473969 0.494875
0.464212 0.475684 0.496590
0.466229 0.477399 0.498304
0.437328 0.453630 0.474234
