shared/src/main/assets/luts/film_color_separation.cube
TITLE "DALUR Color Separation"
LUT_3D_SIZE 17
DOMAIN_MIN 0.0 0.0 0.0
DOMAIN_MAX 1.0 1.0 1.0
0.440000 0.442500 0.440000
0.443820 0.444070 0.441570
0.447640 0.445640 0.443140
0.451459 0.447209 0.444709
0.455279 0.448779 0.446279
0.459099 0.450349 0.447849
0.462918 0.451918 0.449418
0.466738 0.453488 0.450988
0.470558 0.455058 0.452558
0.474378 0.456628 0.454128
0.478197 0.458197 0.455697
0.482017 0.459767 0.457267
0.485837 0.461337 0.458837
0.489657 0.462907 0.460407
0.493477 0.464477 0.461977
0.497296 0.466046 0.463546
0.501116 0.467616 0.465116
0.443082 0.447832 0.443082
0.446901 0.449401 0.444651
0.450721 0.450971 0.446221
0.454541 0.452541 0.447791
0.458361 0.454111 0.449361
0.462180 0.455680 0.450931
0.466000 0.457250 0.452500
0.469820 0.458820 0.454070
0.473640 0.460390 0.455640
0.477459 0.461959 0.457209
0.481279 0.463529 0.458779
0.485099 0.465099 0.460349
0.488919 0.466669 0.461919
0.492738 0.468238 0.463488
0.496558 0.469808 0.465058
0.500378 0.471378 0.466628
0.504198 0.472948 0.468198
0.446163 0.453163 0.446163
0.449983 0.454733 0.447733
0.453803 0.456303 0.449303
0.457623 0.457873 0.450873
0.461442 0.459442 0.452442
0.465262 0.461012 0.454012
0.469082 0.462582 0.455582
0.472902 0.464152 0.457152
0.476721 0.465721 0.458722
0.480541 0.467291 0.460291
0.484361 0.468861 0.461861
0.488181 0.470431 0.463431
0.492001 0.472000 0.465000
0.495820 0.473570 0.466570
0.499640 0.475140 0.468140
0.503460 0.476710 0.469710
0.507279 0.478280 0.471280
0.449245 0.458495 0.449245
0.453065 0.460065 0.450815
0.456885 0.461635 0.452385
0.460705 0.463205 0.453954
0.464524 0.464774 0.455524
0.468344 0.466344 0.457094
0.472164 0.467914 0.458664
0.475983 0.469483 0.460233
0.479803 0.471053 0.461803
0.483623 0.472623 0.463373
0.487443 0.474193 0.464943
0.491262 0.475762 0.466512
0.495082 0.477332 0.468082
0.498902 0.478902 0.469652
0.502722 0.480472 0.471222
0.506541 0.482042 0.472791
0.510361 0.483611 0.474361
0.452327 0.463827 0.452327
0.456147 0.465397 0.453897
0.459966 0.466966 0.455466
0.463786 0.468536 0.457036
0.467606 0.470106 0.458606
0.471426 0.471676 0.460176
0.475245 0.473245 0.461745
0.479065 0.474815 0.463315
0.482885 0.476385 0.464885
0.486705 0.477955 0.466455
0.490524 0.479524 0.468025
0.494344 0.481094 0.469594
0.498164 0.482664 0.471164
0.501984 0.484234 0.472734
0.505803 0.485803 0.474303
0.509623 0.487373 0.475873
0.513443 0.488943 0.477443
0.455409 0.469159 0.455409
0.459228 0.470728 0.456978
0.463048 0.472298 0.458548
0.466868 0.473868 0.460118
0.470688 0.475438 0.461688
0.474507 0.477007 0.463257
0.478327 0.478577 0.464827
0.482147 0.480147 0.466397
0.485967 0.481717 0.467967
0.489786 0.483286 0.469536
0.493606 0.484856 0.471106
0.497426 0.486426 0.472676
0.501246 0.487996 0.474246
0.505065 0.489565 0.475815
0.508885 0.491135 0.477385
0.512705 0.492705 0.478955
0.516525 0.494275 0.480525
0.458490 0.474490 0.458490
0.462310 0.476060 0.460060
0.466130 0.477630 0.461630
0.469950 0.479200 0.463200
0.473769 0.480769 0.464769
0.477589 0.482339 0.466339
0.481409 0.483909 0.467909
0.485229 0.485479 0.469479
0.489048 0.487048 0.471048
0.492868 0.488618 0.472618
0.496688 0.490188 0.474188
0.500508 0.491758 0.475758
0.504327 0.493327 0.477327
0.508147 0.494897 0.478897
0.511967 0.496467 0.480467
0.515787 0.498037 0.482037
0.519606 0.499606 0.483606
0.461572 0.479822 0.461572
0.465392 0.481392 0.463142
0.469212 0.482962 0.464712
0.473031 0.484531 0.466281
0.476851 0.486101 0.467851
0.480671 0.487671 0.469421
0.484491 0.489241 0.470991
0.488310 0.490810 0.472560
0.492130 0.492380 0.474130
0.495950 0.493950 0.475700
0.499770 0.495520 0.477270
0.503589 0.497089 0.478839
0.507409 0.498659 0.480409
0.511229 0.500229 0.481979
0.515049 0.501799 0.483549
0.518868 0.503368 0.485119
0.522688 0.504938 0.486688
0.464654 0.485154 0.464654
0.468474 0.486724 0.466224
0.472293 0.488293 0.467793
0.476113 0.489863 0.469363
0.479933 0.491433 0.470933
0.483753 0.493003 0.472503
0.487572 0.494572 0.474073
0.491392 0.496142 0.475642
0.495212 0.497712 0.477212
0.499032 0.499282 0.478782
0.502852 0.500852 0.480351
0.506671 0.502421 0.481921
0.510491 0.503991 0.483491
0.514311 0.505561 0.485061
0.518131 0.507130 0.486631
0.521950 0.508700 0.488200
0.525770 0.510270 0.489770
0.467736 0.490486 0.467736
0.471555 0.492055 0.469305
0.475375 0.493625 0.470875
0.479195 0.495195 0.472445
0.483015 0.496765 0.474015
0.486834 0.498334 0.475584
0.490654 0.499904 0.477154
0.494474 0.501474 0.478724
0.498294 0.503044 0.480294
0.502113 0.504613 0.481863
0.505933 0.506183 0.483433
0.509753 0.507753 0.485003
0.513573 0.509323 0.486573
0.517392 0.510892 0.488142
0.521212 0.512462 0.489712
0.525032 0.514032 0.491282
0.528852 0.515602 0.492852
0.470817 0.495817 0.470817
0.474637 0.497387 0.472387
0.478457 0.498957 0.473957
0.482277 0.500527 0.475527
0.486096 0.502096 0.477096
0.489916 0.503666 0.478666
0.493736 0.505236 0.480236
0.497556 0.506806 0.481806
0.501375 0.508375 0.483376
0.505195 0.509945 0.484945
0.509015 0.511515 0.486515
0.512835 0.513085 0.488085
0.516655 0.514655 0.489654
0.520474 0.516224 0.491224
0.524294 0.517794 0.492794
0.528114 0.519364 0.494364
0.531933 0.520933 0.495933
0.473899 0.501149 0.473899
0.477719 0.502719 0.475469
0.481539 0.504289 0.477039
0.485358 0.505858 0.478608
0.489178 0.507428 0.480178
0.492998 0.508998 0.481748
0.496818 0.510568 0.483318
0.500637 0.512137 0.484887
0.504457 0.513707 0.486457
0.508277 0.515277 0.488027
0.512097 0.516847 0.489597
0.515917 0.518416 0.491166
0.519736 0.519986 0.492736
0.523556 0.521556 0.494306
0.527376 0.523126 0.495876
0.531196 0.524695 0.497445
0.535015 0.526265 0.499015
0.476981 0.506481 0.476981
0.480801 0.508051 0.478551
0.484620 0.509620 0.480120
0.488440 0.511190 0.481690
0.492260 0.512760 0.483260
0.496080 0.514330 0.484830
0.499899 0.515899 0.486399
0.503719 0.517469 0.487969
0.507539 0.519039 0.489539
0.511359 0.520609 0.491109
0.515178 0.522178 0.492679
0.518998 0.523748 0.494248
0.522818 0.525318 0.495818
0.526638 0.526888 0.497388
0.530458 0.528458 0.498958
0.534277 0.530027 0.500527
0.538097 0.531597 0.502097
0.480063 0.511813 0.480063
0.483882 0.513382 0.481632
0.487702 0.514952 0.483202
0.491522 0.516522 0.484772
0.495342 0.518092 0.486342
0.499161 0.519661 0.487911
0.502981 0.521231 0.489481
0.506801 0.522801 0.491051
0.510621 0.524371 0.492621
0.514440 0.525940 0.494190
0.518260 0.527510 0.495760
0.522080 0.529080 0.497330
0.525900 0.530650 0.498900
0.529720 0.532219 0.500470
0.533539 0.533789 0.502039
0.537359 0.535359 0.503609
0.541179 0.536929 0.505179
0.483144 0.517144 0.483144
0.486964 0.518714 0.484714
0.490784 0.520284 0.486284
0.494604 0.521854 0.487854
0.498423 0.523423 0.489424
0.502243 0.524993 0.490993
0.506063 0.526563 0.492563
0.509883 0.528133 0.494133
0.513702 0.529702 0.495702
0.517522 0.531272 0.497272
0.521342 0.532842 0.498842
0.525162 0.534412 0.500412
0.528981 0.535981 0.501982
0.532801 0.537551 0.503551
0.536621 0.539121 0.505121
0.540441 0.540691 0.506691
0.544261 0.542260 0.508261
0.486226 0.522476 0.486226
0.490046 0.524046 0.487796
0.493866 0.525616 0.489366
0.497686 0.527185 0.490936
0.501505 0.528755 0.492505
0.505325 0.530325 0.494075
0.509145 0.531895 0.495645
0.512964 0.533464 0.497214
0.516784 0.535034 0.498784
0.520604 0.536604 0.500354
0.524424 0.538174 0.501924
0.528243 0.539743 0.503494
0.532063 0.541313 0.505063
0.535883 0.542883 0.506633
0.539703 0.544453 0.508203
0.543523 0.546022 0.509772
0.547342 0.547592 0.511342
0.489308 0.527808 0.489308
0.493128 0.529378 0.490878
0.496947 0.530947 0.492447
0.500767 0.532517 0.494017
0.504587 0.534087 0.495587
0.508407 0.535657 0.497157
0.512227 0.537226 0.498727
0.516046 0.538796 0.500296
0.519866 0.540366 0.501866
0.523686 0.541936 0.503436
0.527506 0.543505 0.505005
0.531325 0.545075 0.506575
0.535145 0.546645 0.508145
0.538965 0.548215 0.509715
0.542785 0.549785 0.511285
0.546604 0.551354 0.512854
0.550424 0.552924 0.514424
0.440599 0.443099 0.442848
0.444418 0.444668 0.444418
0.448238 0.446238 0.445988
0.452058 0.447808 0.447558
0.455877 0.449378 0.449128
0.459697 0.450947 0.450697
0.463517 0.452517 0.452267
0.467337 0.454087 0.453837
0.471157 0.455657 0.455407
0.474976 0.457226 0.456976
0.478796 0.458796 0.458546
0.482616 0.460366 0.460116
0.486436 0.461935 0.461685
0.490255 0.463505 0.463255
0.494075 0.465075 0.464825
0.497895 0.466645 0.466395
0.501715 0.468215 0.467965
0.443680 0.448430 0.445930
0.447500 0.450000 0.447500
0.451320 0.451570 0.449070
0.455139 0.453139 0.450639
0.458959 0.454709 0.452209
0.462779 0.456279 0.453779
0.466599 0.457849 0.455349
0.470419 0.459419 0.456919
0.474238 0.460988 0.458488
0.478058 0.462558 0.460058
0.481878 0.464128 0.461628
0.485698 0.465698 0.463198
0.489517 0.467267 0.464767
0.493337 0.468837 0.466337
0.497157 0.470407 0.467907
0.500976 0.471976 0.469476
0.504796 0.473546 0.471046
0.446762 0.453762 0.449012
0.450582 0.455332 0.450582
0.454402 0.456902 0.452152
0.458221 0.458471 0.453721
0.462041 0.460041 0.455291
0.465861 0.461611 0.456861
0.469681 0.463181 0.458431
0.473500 0.464750 0.460000
0.477320 0.466320 0.461570
0.481140 0.467890 0.463140
0.484960 0.469460 0.464710
0.488779 0.471029 0.466279
0.492599 0.472599 0.467849
0.496419 0.474169 0.469419
0.500239 0.475739 0.470989
0.504058 0.477308 0.472558
0.507878 0.478878 0.474128
0.449844 0.459094 0.452094
0.453663 0.460664 0.453663
0.457483 0.462233 0.455233
0.461303 0.463803 0.456803
0.465123 0.465373 0.458373
0.468942 0.466942 0.459942
0.472762 0.468512 0.461512
0.476582 0.470082 0.463082
0.480402 0.471652 0.464652
0.484222 0.473222 0.466222
0.488041 0.474791 0.467791
0.491861 0.476361 0.469361
0.495681 0.477931 0.470931
0.499500 0.479500 0.472500
0.503320 0.481070 0.474070
0.507140 0.482640 0.475640
0.510960 0.484210 0.477210
0.452925 0.464425 0.455176
0.456745 0.465995 0.456745
0.460565 0.467565 0.458315
0.464385 0.469135 0.459885
0.468204 0.470704 0.461454
0.472024 0.472274 0.463024
0.475844 0.473844 0.464594
0.479664 0.475414 0.466164
0.483483 0.476983 0.467733
0.487303 0.478553 0.469303
0.491123 0.480123 0.470873
0.494943 0.481693 0.472443
0.498762 0.483262 0.474013
0.502582 0.484832 0.475582
0.506402 0.486402 0.477152
0.510222 0.487972 0.478722
0.514042 0.489542 0.480292
0.456007 0.469757 0.458257
0.459827 0.471327 0.459827
0.463647 0.472897 0.461397
0.467467 0.474466 0.462967
0.471286 0.476036 0.464536
0.475106 0.477606 0.466106
0.478926 0.479176 0.467676
0.482745 0.480745 0.469245
0.486565 0.482315 0.470815
0.490385 0.483885 0.472385
0.494205 0.485455 0.473955
0.498024 0.487024 0.475524
0.501844 0.488594 0.477094
0.505664 0.490164 0.478664
0.509484 0.491734 0.480234
0.513304 0.493303 0.481803
0.517123 0.494873 0.483373
0.459089 0.475089 0.461339
0.462909 0.476659 0.462909
0.466729 0.478229 0.464479
0.470548 0.479798 0.466048
0.474368 0.481368 0.467618
0.478188 0.482938 0.469188
0.482007 0.484507 0.470757
0.485827 0.486077 0.472327
0.489647 0.487647 0.473897
0.493467 0.489217 0.475467
0.497287 0.490787 0.477036
0.501106 0.492356 0.478606
0.504926 0.493926 0.480176
0.508746 0.495496 0.481746
0.512566 0.497065 0.483316
0.516385 0.498635 0.484885
0.520205 0.500205 0.486455
0.462171 0.480421 0.464421
0.465990 0.481990 0.465990
0.469810 0.483560 0.467560
0.473630 0.485130 0.469130
0.477450 0.486700 0.470700
0.481270 0.488270 0.472270
0.485089 0.489839 0.473839
0.488909 0.491409 0.475409
0.492729 0.492979 0.476979
0.496548 0.494548 0.478548
0.500368 0.496118 0.480118
0.504188 0.497688 0.481688
0.508008 0.499258 0.483258
0.511827 0.500827 0.484827
0.515647 0.502397 0.486397
0.519467 0.503967 0.487967
0.523287 0.505537 0.489537
0.465253 0.485753 0.467503
0.469072 0.487322 0.469072
0.472892 0.488892 0.470642
0.476712 0.490462 0.472212
0.480531 0.492031 0.473781
0.484351 0.493601 0.475351
0.488171 0.495171 0.476921
0.491991 0.496741 0.478491
0.495810 0.498310 0.480061
0.499630 0.499880 0.481630
0.503450 0.501450 0.483200
0.507270 0.503020 0.484770
0.511089 0.504589 0.486340
0.514909 0.506159 0.487909
0.518729 0.507729 0.489479
0.522549 0.509299 0.491049
0.526369 0.510868 0.492619
0.468334 0.491084 0.470584
0.472154 0.492654 0.472154
0.475974 0.494224 0.473724
0.479793 0.495793 0.475293
0.483613 0.497363 0.476863
0.487433 0.498933 0.478433
0.491253 0.500503 0.480003
0.495072 0.502072 0.481572
0.498892 0.503642 0.483142
0.502712 0.505212 0.484712
0.506532 0.506782 0.486282
0.510351 0.508351 0.487851
0.514171 0.509921 0.489421
0.517991 0.511491 0.490991
0.521811 0.513061 0.492561
0.525631 0.514630 0.494130
0.529450 0.516200 0.495700
0.471416 0.496416 0.473666
0.475236 0.497986 0.475236
0.479056 0.499556 0.476806
0.482875 0.501125 0.478375
0.486695 0.502695 0.479945
0.490515 0.504265 0.481515
0.494334 0.505834 0.483084
0.498154 0.507404 0.484654
0.501974 0.508974 0.486224
0.505794 0.510544 0.487794
0.509614 0.512113 0.489364
0.513433 0.513683 0.490933
0.517253 0.515253 0.492503
0.521073 0.516823 0.494073
0.524892 0.518393 0.495643
0.528712 0.519962 0.497212
0.532532 0.521532 0.498782
0.474498 0.501748 0.476748
0.478318 0.503317 0.478318
0.482137 0.504887 0.479887
0.485957 0.506457 0.481457
0.489777 0.508027 0.483027
0.493596 0.509597 0.484597
0.497416 0.511166 0.486166
0.501236 0.512736 0.487736
0.505056 0.514306 0.489306
0.508875 0.515875 0.490875
0.512695 0.517445 0.492445
0.516515 0.519015 0.494015
0.520335 0.520585 0.495585
0.524154 0.522154 0.497154
0.527974 0.523724 0.498724
0.531794 0.525294 0.500294
0.535614 0.526864 0.501864
0.477580 0.507080 0.479830
0.481399 0.508649 0.481399
0.485219 0.510219 0.482969
0.489039 0.511789 0.484539
0.492858 0.513358 0.486108
0.496678 0.514928 0.487678
0.500498 0.516498 0.489248
0.504318 0.518068 0.490818
0.508138 0.519637 0.492387
0.511957 0.521207 0.493957
0.515777 0.522777 0.495527
0.519597 0.524347 0.497097
0.523417 0.525917 0.498667
0.527236 0.527486 0.500236
0.531056 0.529056 0.501806
0.534876 0.530626 0.503376
0.538696 0.532196 0.504946
0.480661 0.512411 0.482911
0.484481 0.513981 0.484481
0.488301 0.515551 0.486051
0.492121 0.517120 0.487621
0.495940 0.518690 0.489190
0.499760 0.520260 0.490760
0.503580 0.521830 0.492330
0.507400 0.523399 0.493899
0.511219 0.524969 0.495469
0.515039 0.526539 0.497039
0.518859 0.528109 0.498609
0.522678 0.529678 0.500178
0.526498 0.531248 0.501748
0.530318 0.532818 0.503318
0.534138 0.534388 0.504888
0.537957 0.535957 0.506458
0.541777 0.537527 0.508027
0.483743 0.517743 0.485993
0.487563 0.519313 0.487563
0.491383 0.520883 0.489133
0.495202 0.522452 0.490702
0.499022 0.524022 0.492272
0.502842 0.525592 0.493842
0.506661 0.527161 0.495412
0.510481 0.528731 0.496981
0.514301 0.530301 0.498551
0.518121 0.531871 0.500121
0.521941 0.533440 0.501691
0.525760 0.535010 0.503260
0.529580 0.536580 0.504830
0.533400 0.538150 0.506400
0.537220 0.539720 0.507970
0.541039 0.541289 0.509539
0.544859 0.542859 0.511109
0.486825 0.523075 0.489075
0.490644 0.524644 0.490644
0.494464 0.526214 0.492214
0.498284 0.527784 0.493784
0.502104 0.529354 0.495354
0.505923 0.530923 0.496924
0.509743 0.532493 0.498493
0.513563 0.534063 0.500063
0.517383 0.535633 0.501633
0.521203 0.537202 0.503202
0.525022 0.538772 0.504772
0.528842 0.540342 0.506342
0.532662 0.541912 0.507912
0.536481 0.543481 0.509482
0.540301 0.545051 0.511051
0.544121 0.546621 0.512621
0.547941 0.548191 0.514191
0.489907 0.528407 0.492157
0.493726 0.529976 0.493726
0.497546 0.531546 0.495296
0.501366 0.533116 0.496866
0.505185 0.534685 0.498435
0.509005 0.536255 0.500005
0.512825 0.537825 0.501575
0.516645 0.539395 0.503145
0.520464 0.540964 0.504714
0.524284 0.542534 0.506284
0.528104 0.544104 0.507854
0.531924 0.545674 0.509424
0.535744 0.547243 0.510993
0.539563 0.548813 0.512563
0.543383 0.550383 0.514133
0.547203 0.551953 0.515703
0.551023 0.553523 0.517273
0.441197 0.443697 0.445697
0.445017 0.445267 0.447267
0.448837 0.446837 0.448837
0.452656 0.448406 0.450406
0.456476 0.449976 0.451976
0.460296 0.451546 0.453546
0.464116 0.453116 0.455116
0.467935 0.454685 0.456685
0.471755 0.456255 0.458255
0.475575 0.457825 0.459825
0.479395 0.459395 0.461395
0.483214 0.460964 0.462964
0.487034 0.462534 0.464534
0.490854 0.464104 0.466104
0.494674 0.465674 0.467674
0.498493 0.467243 0.469243
0.502313 0.468813 0.470813
0.444279 0.449029 0.448779
0.448099 0.450599 0.450348
0.451918 0.452168 0.451918
0.455738 0.453738 0.453488
0.459558 0.455308 0.455058
0.463377 0.456878 0.456628
0.467197 0.458447 0.458197
0.471017 0.460017 0.459767
0.474837 0.461587 0.461337
0.478656 0.463156 0.462906
0.482476 0.464726 0.464476
0.486296 0.466296 0.466046
0.490116 0.467866 0.467616
0.493935 0.469436 0.469185
0.497755 0.471005 0.470755
0.501575 0.472575 0.472325
0.505395 0.474145 0.473895
0.447361 0.454361 0.451861
0.451180 0.455930 0.453430
0.455000 0.457500 0.455000
0.458820 0.459070 0.456570
0.462640 0.460640 0.458140
0.466459 0.462209 0.459709
0.470279 0.463779 0.461279
0.474099 0.465349 0.462849
0.477919 0.466919 0.464419
0.481738 0.468488 0.465988
0.485558 0.470058 0.467558
0.489378 0.471628 0.469128
0.493198 0.473198 0.470698
0.497017 0.474767 0.472267
0.500837 0.476337 0.473837
0.504657 0.477907 0.475407
0.508477 0.479477 0.476977
0.450442 0.459692 0.454942
0.454262 0.461262 0.456512
0.458082 0.462832 0.458082
0.461902 0.464402 0.459652
0.465721 0.465971 0.461221
0.469541 0.467541 0.462791
0.473361 0.469111 0.464361
0.477181 0.470681 0.465931
0.481000 0.472250 0.467500
0.484820 0.473820 0.469070
0.488640 0.475390 0.470640
0.492459 0.476959 0.472210
0.496279 0.478529 0.473779
0.500099 0.480099 0.475349
0.503919 0.481669 0.476919
0.507738 0.483239 0.478489
0.511558 0.484808 0.480058
0.453524 0.465024 0.458024
0.457344 0.466594 0.459594
0.461164 0.468163 0.461164
0.464983 0.469733 0.462733
0.468803 0.471303 0.464303
0.472623 0.472873 0.465873
0.476442 0.474442 0.467442
0.480262 0.476012 0.469012
0.484082 0.477582 0.470582
0.487902 0.479152 0.472152
0.491722 0.480722 0.473722
0.495541 0.482291 0.475291
0.499361 0.483861 0.476861
0.503181 0.485431 0.478431
0.507000 0.487001 0.480000
0.510820 0.488570 0.481570
0.514640 0.490140 0.483140
0.456606 0.470356 0.461106
0.460425 0.471925 0.462675
0.464245 0.473495 0.464245
0.468065 0.475065 0.465815
0.471885 0.476635 0.467385
0.475704 0.478204 0.468954
0.479524 0.479774 0.470524
0.483344 0.481344 0.472094
0.487164 0.482914 0.473664
0.490983 0.484483 0.475233
0.494803 0.486053 0.476803
0.498623 0.487623 0.478373
0.502443 0.489193 0.479943
0.506262 0.490762 0.481512
0.510082 0.492332 0.483082
0.513902 0.493902 0.484652
0.517722 0.495472 0.486222
0.459687 0.475687 0.464187
0.463507 0.477257 0.465757
0.467327 0.478827 0.467327
0.471147 0.480397 0.468897
0.474966 0.481967 0.470467
0.478786 0.483536 0.472036
0.482606 0.485106 0.473606
0.486426 0.486676 0.475176
0.490246 0.488245 0.476746
0.494065 0.489815 0.478315
0.497885 0.491385 0.479885
0.501705 0.492955 0.481455
0.505525 0.494524 0.483025
0.509344 0.496094 0.484594
0.513164 0.497664 0.486164
0.516984 0.499234 0.487734
0.520803 0.500803 0.489303
0.462769 0.481019 0.467269
0.466589 0.482589 0.468839
0.470409 0.484159 0.470409
0.474228 0.485729 0.471978
0.478048 0.487298 0.473548
0.481868 0.488868 0.475118
0.485688 0.490438 0.476688
0.489507 0.492007 0.478258
0.493327 0.493577 0.479827
0.497147 0.495147 0.481397
0.500967 0.496717 0.482967
0.504787 0.498287 0.484536
0.508606 0.499856 0.486106
0.512426 0.501426 0.487676
0.516246 0.502996 0.489246
0.520065 0.504565 0.490815
0.523885 0.506135 0.492385
0.465851 0.486351 0.470351
0.469671 0.487921 0.471921
0.473490 0.489490 0.473490
0.477310 0.491060 0.475060
0.481130 0.492630 0.476630
0.484950 0.494200 0.478200
0.488770 0.495770 0.479770
0.492589 0.497339 0.481339
0.496409 0.498909 0.482909
0.500229 0.500479 0.484479
0.504049 0.502049 0.486049
0.507868 0.503618 0.487618
0.511688 0.505188 0.489188
0.515508 0.506758 0.490758
0.519328 0.508327 0.492328
0.523147 0.509897 0.493897
0.526967 0.511467 0.495467
0.468933 0.491683 0.473433
0.472752 0.493252 0.475002
0.476572 0.494822 0.476572
0.480392 0.496392 0.478142
0.484212 0.497962 0.479712
0.488031 0.499531 0.481281
0.491851 0.501101 0.482851
0.495671 0.502671 0.484421
0.499491 0.504241 0.485991
0.503310 0.505810 0.487560
0.507130 0.507380 0.489130
0.510950 0.508950 0.490700
0.514770 0.510520 0.492270
0.518589 0.512089 0.493839
0.522409 0.513659 0.495409
0.526229 0.515229 0.496979
0.530049 0.516799 0.498549
0.472015 0.497014 0.476515
0.475834 0.498584 0.478084
0.479654 0.500154 0.479654
0.483474 0.501724 0.481224
0.487293 0.503293 0.482793
0.491113 0.504863 0.484363
0.494933 0.506433 0.485933
0.498753 0.508003 0.487503
0.502572 0.509572 0.489073
0.506392 0.511142 0.490642
0.510212 0.512712 0.492212
0.514032 0.514282 0.493782
0.517852 0.515851 0.495352
0.521671 0.517421 0.496921
0.525491 0.518991 0.498491
0.529311 0.520561 0.500061
0.533130 0.522130 0.501630
0.475096 0.502346 0.479596
0.478916 0.503916 0.481166
0.482736 0.505486 0.482736
0.486556 0.507055 0.484305
0.490375 0.508625 0.485875
0.494195 0.510195 0.487445
0.498015 0.511765 0.489015
0.501834 0.513334 0.490584
0.505654 0.514904 0.492154
0.509474 0.516474 0.493724
0.513294 0.518044 0.495294
0.517114 0.519613 0.496863
0.520933 0.521183 0.498433
0.524753 0.522753 0.500003
0.528573 0.524323 0.501573
0.532393 0.525892 0.503143
0.536212 0.527462 0.504712
0.478178 0.507678 0.482678
0.481998 0.509248 0.484248
0.485818 0.510817 0.485818
0.489637 0.512387 0.487387
0.493457 0.513957 0.488957
0.497277 0.515527 0.490527
0.501096 0.517096 0.492096
0.504916 0.518666 0.493666
0.508736 0.520236 0.495236
0.512556 0.521806 0.496806
0.516375 0.523375 0.498376
0.520195 0.524945 0.499945
0.524015 0.526515 0.501515
0.527835 0.528085 0.503085
0.531655 0.529655 0.504655
0.535474 0.531224 0.506224
0.539294 0.532794 0.507794
0.481260 0.513010 0.485760
0.485079 0.514579 0.487329
0.488899 0.516149 0.488899
0.492719 0.517719 0.490469
0.496539 0.519289 0.492039
0.500358 0.520858 0.493608
0.504178 0.522428 0.495178
0.507998 0.523998 0.496748
0.511818 0.525568 0.498318
0.515637 0.527137 0.499887
0.519457 0.528707 0.501457
0.523277 0.530277 0.503027
0.527097 0.531847 0.504597
0.530917 0.533416 0.506166
0.534736 0.534986 0.507736
0.538556 0.536556 0.509306
0.542376 0.538126 0.510876
0.484341 0.518341 0.488841
0.488161 0.519911 0.490411
0.491981 0.521481 0.491981
0.495801 0.523051 0.493551
0.499620 0.524620 0.495120
0.503440 0.526190 0.496690
0.507260 0.527760 0.498260
0.511080 0.529330 0.499830
0.514899 0.530899 0.501399
0.518719 0.532469 0.502969
0.522539 0.534039 0.504539
0.526359 0.535609 0.506109
0.530178 0.537179 0.507679
0.533998 0.538748 0.509248
0.537818 0.540318 0.510818
0.541638 0.541888 0.512388
0.545457 0.543457 0.513957
0.487423 0.523673 0.491923
0.491243 0.525243 0.493493
0.495063 0.526813 0.495063
0.498883 0.528382 0.496633
0.502702 0.529952 0.498202
0.506522 0.531522 0.499772
0.510342 0.533092 0.501342
0.514161 0.534661 0.502911
0.517981 0.536231 0.504481
0.521801 0.537801 0.506051
0.525621 0.539371 0.507621
0.529440 0.540940 0.509190
0.533260 0.542510 0.510760
0.537080 0.544080 0.512330
0.540900 0.545650 0.513900
0.544720 0.547219 0.515470
0.548539 0.548789 0.517039
0.490505 0.529005 0.495005
0.494325 0.530575 0.496575
0.498144 0.532144 0.498144
0.501964 0.533714 0.499714
0.505784 0.535284 0.501284
0.509604 0.536854 0.502854
0.513424 0.538423 0.504424
0.517243 0.539993 0.505993
0.521063 0.541563 0.507563
0.524883 0.543133 0.509133
0.528703 0.544702 0.510703
0.532522 0.546272 0.512272
0.536342 0.547842 0.513842
0.540162 0.549412 0.515412
0.543982 0.550982 0.516982
0.547801 0.552551 0.518551
0.551621 0.554121 0.520121
0.441796 0.444296 0.448545
0.445615 0.445865 0.450115
0.449435 0.447435 0.451685
0.453255 0.449005 0.453255
0.457074 0.450575 0.454825
0.460894 0.452144 0.456394
0.464714 0.453714 0.457964
0.468534 0.455284 0.459534
0.472354 0.456854 0.461104
0.476173 0.458423 0.462673
0.479993 0.459993 0.464243
0.483813 0.461563 0.465813
0.487633 0.463133 0.467383
0.491452 0.464702 0.468952
0.495272 0.466272 0.470522
0.499092 0.467842 0.472092
0.502912 0.469412 0.473662
0.444877 0.449627 0.451627
