shared/src/main/assets/luts/film_frozen_earth.cube
TITLE "DALUR Frozen Earth"
LUT_3D_SIZE 17
DOMAIN_MIN 0.0 0.0 0.0
DOMAIN_MAX 1.0 1.0 1.0
0.419000 0.440000 0.461000
0.419389 0.442924 0.463924
0.419777 0.445849 0.466849
0.420166 0.448773 0.469773
0.420555 0.451697 0.472697
0.420943 0.454621 0.475621
0.421332 0.457546 0.478546
0.421721 0.460470 0.481470
0.422109 0.463394 0.484394
0.422498 0.466318 0.487318
0.422887 0.469243 0.490243
0.423275 0.472167 0.493167
0.423664 0.475091 0.496091
0.424053 0.478015 0.499015
0.424441 0.480940 0.501940
0.424830 0.483864 0.504864
0.425219 0.486788 0.507788
0.424741 0.443205 0.466741
0.425130 0.446130 0.469665
0.425518 0.449054 0.472589
0.425907 0.451978 0.475514
0.426296 0.454902 0.478438
0.426684 0.457827 0.481362
0.427073 0.460751 0.484286
0.427462 0.463675 0.487211
0.427850 0.466599 0.490135
0.428239 0.469524 0.493059
0.428628 0.472448 0.495983
0.429016 0.475372 0.498908
0.429405 0.478296 0.501832
0.429794 0.481221 0.504756
0.430182 0.484145 0.507680
0.430571 0.487069 0.510605
0.430960 0.489993 0.513529
0.430482 0.446411 0.472482
0.430871 0.449335 0.475406
0.431259 0.452259 0.478330
0.431648 0.455183 0.481255
0.432037 0.458108 0.484179
0.432425 0.461032 0.487103
0.432814 0.463956 0.490027
0.433203 0.466880 0.492952
0.433591 0.469805 0.495876
0.433980 0.472729 0.498800
0.434369 0.475653 0.501724
0.434757 0.478577 0.504649
0.435146 0.481502 0.507573
0.435535 0.484426 0.510497
0.435923 0.487350 0.513421
0.436312 0.490274 0.516346
0.436701 0.493199 0.519270
0.436223 0.449616 0.478223
0.436611 0.452540 0.481147
0.437000 0.455465 0.484071
0.437389 0.458389 0.486996
0.437777 0.461313 0.489920
0.438166 0.464237 0.492844
0.438555 0.467162 0.495768
0.438943 0.470086 0.498693
0.439332 0.473010 0.501617
0.439721 0.475934 0.504541
0.440109 0.478859 0.507465
0.440498 0.481783 0.510390
0.440887 0.484707 0.513314
0.441275 0.487631 0.516238
0.441664 0.490556 0.519162
0.442053 0.493480 0.522087
0.442441 0.496404 0.525011
0.441964 0.452821 0.483964
0.442352 0.455746 0.486888
0.442741 0.458670 0.489812
0.443130 0.461594 0.492736
0.443518 0.464518 0.495661
0.443907 0.467443 0.498585
0.444296 0.470367 0.501509
0.444684 0.473291 0.504433
0.445073 0.476215 0.507358
0.445462 0.479140 0.510282
0.445850 0.482064 0.513206
0.446239 0.484988 0.516130
0.446628 0.487912 0.519055
0.447016 0.490837 0.521979
0.447405 0.493761 0.524903
0.447794 0.496685 0.527827
0.448182 0.499609 0.530752
0.447705 0.456027 0.489705
0.448093 0.458951 0.492629
0.448482 0.461875 0.495553
0.448871 0.464799 0.498477
0.449259 0.467724 0.501402
0.449648 0.470648 0.504326
0.450037 0.473572 0.507250
0.450425 0.476496 0.510174
0.450814 0.479421 0.513099
0.451203 0.482345 0.516023
0.451591 0.485269 0.518947
0.451980 0.488193 0.521871
0.452369 0.491118 0.524796
0.452757 0.494042 0.527720
0.453146 0.496966 0.530644
0.453535 0.499890 0.533568
0.453923 0.502815 0.536493
0.453446 0.459232 0.495446
0.453834 0.462156 0.498370
0.454223 0.465081 0.501294
0.454612 0.468005 0.504218
0.455000 0.470929 0.507143
0.455389 0.473853 0.510067
0.455778 0.476778 0.512991
0.456166 0.479702 0.515915
0.456555 0.482626 0.518840
0.456944 0.485550 0.521764
0.457332 0.488475 0.524688
0.457721 0.491399 0.527612
0.458110 0.494323 0.530537
0.458498 0.497247 0.533461
0.458887 0.500172 0.536385
0.459276 0.503096 0.539309
0.459664 0.506020 0.542234
0.459186 0.462437 0.501186
0.459575 0.465362 0.504111
0.459964 0.468286 0.507035
0.460352 0.471210 0.509959
0.460741 0.474134 0.512883
0.461130 0.477059 0.515808
0.461518 0.479983 0.518732
0.461907 0.482907 0.521656
0.462296 0.485831 0.524580
0.462684 0.488756 0.527505
0.463073 0.491680 0.530429
0.463462 0.494604 0.533353
0.463850 0.497528 0.536277
0.464239 0.500453 0.539202
0.464628 0.503377 0.542126
0.465016 0.506301 0.545050
0.465405 0.509225 0.547974
0.464927 0.465643 0.506927
0.465316 0.468567 0.509852
0.465705 0.471491 0.512776
0.466093 0.474415 0.515700
0.466482 0.477340 0.518624
0.466871 0.480264 0.521549
0.467259 0.483188 0.524473
0.467648 0.486112 0.527397
0.468037 0.489037 0.530321
0.468425 0.491961 0.533246
0.468814 0.494885 0.536170
0.469203 0.497809 0.539094
0.469591 0.500734 0.542018
0.469980 0.503658 0.544943
0.470369 0.506582 0.547867
0.470757 0.509506 0.550791
0.471146 0.512431 0.553715
0.470668 0.468848 0.512668
0.471057 0.471772 0.515593
0.471446 0.474697 0.518517
0.471834 0.477621 0.521441
0.472223 0.480545 0.524365
0.472612 0.483469 0.527290
0.473000 0.486394 0.530214
0.473389 0.489318 0.533138
0.473778 0.492242 0.536062
0.474166 0.495166 0.538987
0.474555 0.498091 0.541911
0.474944 0.501015 0.544835
0.475332 0.503939 0.547759
0.475721 0.506863 0.550684
0.476110 0.509788 0.553608
0.476498 0.512712 0.556532
0.476887 0.515636 0.559456
0.476409 0.472053 0.518409
0.476798 0.474978 0.521333
0.477187 0.477902 0.524258
0.477575 0.480826 0.527182
0.477964 0.483750 0.530106
0.478353 0.486675 0.533030
0.478741 0.489599 0.535955
0.479130 0.492523 0.538879
0.479519 0.495447 0.541803
0.479907 0.498372 0.544727
0.480296 0.501296 0.547652
0.480685 0.504220 0.550576
0.481073 0.507144 0.553500
0.481462 0.510069 0.556424
0.481851 0.512993 0.559349
0.482239 0.515917 0.562273
0.482628 0.518841 0.565197
0.482150 0.475259 0.524150
0.482539 0.478183 0.527074
0.482927 0.481107 0.529999
0.483316 0.484031 0.532923
0.483705 0.486956 0.535847
0.484093 0.489880 0.538771
0.484482 0.492804 0.541696
0.484871 0.495728 0.544620
0.485259 0.498653 0.547544
0.485648 0.501577 0.550468
0.486037 0.504501 0.553393
0.486425 0.507425 0.556317
0.486814 0.510350 0.559241
0.487203 0.513274 0.562165
0.487592 0.516198 0.565090
0.487980 0.519123 0.568014
0.488369 0.522047 0.570938
0.487891 0.478464 0.529891
0.488280 0.481388 0.532815
0.488668 0.484313 0.535740
0.489057 0.487237 0.538664
0.489446 0.490161 0.541588
0.489834 0.493085 0.544512
0.490223 0.496010 0.547437
0.490612 0.498934 0.550361
0.491000 0.501858 0.553285
0.491389 0.504782 0.556209
0.491778 0.507707 0.559134
0.492166 0.510631 0.562058
0.492555 0.513555 0.564982
0.492944 0.516479 0.567906
0.493332 0.519404 0.570831
0.493721 0.522328 0.573755
0.494110 0.525252 0.576679
0.493632 0.481669 0.535632
0.494021 0.484594 0.538556
0.494409 0.487518 0.541480
0.494798 0.490442 0.544405
0.495187 0.493366 0.547329
0.495575 0.496291 0.550253
0.495964 0.499215 0.553177
0.496353 0.502139 0.556102
0.496741 0.505063 0.559026
0.497130 0.507988 0.561950
0.497519 0.510912 0.564874
0.497907 0.513836 0.567799
0.498296 0.516760 0.570723
0.498685 0.519685 0.573647
0.499073 0.522609 0.576572
0.499462 0.525533 0.579496
0.499851 0.528457 0.582420
0.499373 0.484875 0.541373
0.499762 0.487799 0.544297
0.500150 0.490723 0.547221
0.500539 0.493647 0.550146
0.500928 0.496572 0.553070
0.501316 0.499496 0.555994
0.501705 0.502420 0.558918
0.502094 0.505345 0.561843
0.502482 0.508269 0.564767
0.502871 0.511193 0.567691
0.503260 0.514117 0.570615
0.503648 0.517042 0.573540
0.504037 0.519966 0.576464
0.504426 0.522890 0.579388
0.504814 0.525814 0.582312
0.505203 0.528739 0.585237
0.505592 0.531663 0.588161
0.505114 0.488080 0.547114
0.505502 0.491004 0.550038
0.505891 0.493929 0.552962
0.506280 0.496853 0.555887
0.506669 0.499777 0.558811
0.507057 0.502701 0.561735
0.507446 0.505626 0.564659
0.507835 0.508550 0.567584
0.508223 0.511474 0.570508
0.508612 0.514398 0.573432
0.509001 0.517323 0.576356
0.509389 0.520247 0.579281
0.509778 0.523171 0.582205
0.510167 0.526095 0.585129
0.510555 0.529020 0.588053
0.510944 0.531944 0.590978
0.511333 0.534868 0.593902
0.510855 0.491285 0.552855
0.511243 0.494210 0.555779
0.511632 0.497134 0.558703
0.512021 0.500058 0.561628
0.512409 0.502982 0.564552
0.512798 0.505907 0.567476
0.513187 0.508831 0.570400
0.513575 0.511755 0.573325
0.513964 0.514679 0.576249
0.514353 0.517604 0.579173
0.514741 0.520528 0.582097
0.515130 0.523452 0.585022
0.515519 0.526376 0.587946
0.515907 0.529301 0.590870
0.516296 0.532225 0.593794
0.516685 0.535149 0.596719
0.517073 0.538073 0.599643
0.420115 0.441115 0.459579
0.420504 0.444039 0.462504
0.420892 0.446963 0.465428
0.421281 0.449888 0.468352
0.421670 0.452812 0.471276
0.422058 0.455736 0.474201
0.422447 0.458660 0.477125
0.422836 0.461585 0.480049
0.423224 0.464509 0.482973
0.423613 0.467433 0.485898
0.424002 0.470357 0.488822
0.424390 0.473282 0.491746
0.424779 0.476206 0.494670
0.425168 0.479130 0.497595
0.425556 0.482054 0.500519
0.425945 0.484979 0.503443
0.426334 0.487903 0.506367
0.425856 0.444320 0.465320
0.426245 0.447245 0.468245
0.426633 0.450169 0.471169
0.427022 0.453093 0.474093
0.427411 0.456017 0.477017
0.427799 0.458942 0.479942
0.428188 0.461866 0.482866
0.428577 0.464790 0.485790
0.428965 0.467714 0.488714
0.429354 0.470639 0.491639
0.429743 0.473563 0.494563
0.430131 0.476487 0.497487
0.430520 0.479411 0.500411
0.430909 0.482336 0.503336
0.431297 0.485260 0.506260
0.431686 0.488184 0.509184
0.432075 0.491108 0.512108
0.431597 0.447526 0.471061
0.431985 0.450450 0.473985
0.432374 0.453374 0.476910
0.432763 0.456298 0.479834
0.433151 0.459223 0.482758
0.433540 0.462147 0.485682
0.433929 0.465071 0.488607
0.434317 0.467995 0.491531
0.434706 0.470920 0.494455
0.435095 0.473844 0.497379
0.435483 0.476768 0.500304
0.435872 0.479692 0.503228
0.436261 0.482617 0.506152
0.436649 0.485541 0.509076
0.437038 0.488465 0.512001
0.437427 0.491389 0.514925
0.437815 0.494314 0.517849
0.437338 0.450731 0.476802
0.437726 0.453655 0.479726
0.438115 0.456579 0.482651
0.438504 0.459504 0.485575
0.438892 0.462428 0.488499
0.439281 0.465352 0.491423
0.439670 0.468276 0.494348
0.440058 0.471201 0.497272
0.440447 0.474125 0.500196
0.440836 0.477049 0.503120
0.441224 0.479973 0.506045
0.441613 0.482898 0.508969
0.442002 0.485822 0.511893
0.442390 0.488746 0.514817
0.442779 0.491670 0.517742
0.443168 0.494595 0.520666
0.443556 0.497519 0.523590
0.443079 0.453936 0.482543
0.443467 0.456861 0.485467
0.443856 0.459785 0.488392
0.444245 0.462709 0.491316
0.444633 0.465633 0.494240
0.445022 0.468558 0.497164
0.445411 0.471482 0.500089
0.445799 0.474406 0.503013
0.446188 0.477330 0.505937
0.446577 0.480255 0.508861
0.446965 0.483179 0.511786
0.447354 0.486103 0.514710
0.447743 0.489027 0.517634
0.448131 0.491952 0.520558
0.448520 0.494876 0.523483
0.448909 0.497800 0.526407
0.449297 0.500724 0.529331
0.448820 0.457142 0.488284
0.449208 0.460066 0.491208
0.449597 0.462990 0.494132
0.449986 0.465914 0.497057
0.450374 0.468839 0.499981
0.450763 0.471763 0.502905
0.451152 0.474687 0.505829
0.451540 0.477611 0.508754
0.451929 0.480536 0.511678
0.452318 0.483460 0.514602
0.452706 0.486384 0.517526
0.453095 0.489308 0.520451
0.453484 0.492233 0.523375
0.453872 0.495157 0.526299
0.454261 0.498081 0.529223
0.454650 0.501005 0.532148
0.455038 0.503930 0.535072
0.454560 0.460347 0.494025
0.454949 0.463271 0.496949
0.455338 0.466195 0.499873
0.455726 0.469120 0.502798
0.456115 0.472044 0.505722
0.456504 0.474968 0.508646
0.456892 0.477892 0.511570
0.457281 0.480817 0.514495
0.457670 0.483741 0.517419
0.458058 0.486665 0.520343
0.458447 0.489589 0.523267
0.458836 0.492514 0.526192
0.459224 0.495438 0.529116
0.459613 0.498362 0.532040
0.460002 0.501286 0.534964
0.460390 0.504211 0.537889
0.460779 0.507135 0.540813
0.460301 0.463552 0.499766
0.460690 0.466477 0.502690
0.461079 0.469401 0.505614
0.461467 0.472325 0.508539
0.461856 0.475249 0.511463
0.462245 0.478174 0.514387
0.462633 0.481098 0.517311
0.463022 0.484022 0.520236
0.463411 0.486946 0.523160
0.463799 0.489871 0.526084
0.464188 0.492795 0.529008
0.464577 0.495719 0.531933
0.464965 0.498643 0.534857
0.465354 0.501568 0.537781
0.465743 0.504492 0.540705
0.466131 0.507416 0.543630
0.466520 0.510340 0.546554
0.466042 0.466758 0.505507
0.466431 0.469682 0.508431
0.466820 0.472606 0.511355
0.467208 0.475530 0.514279
0.467597 0.478455 0.517204
0.467986 0.481379 0.520128
0.468374 0.484303 0.523052
0.468763 0.487227 0.525976
0.469152 0.490152 0.528901
0.469540 0.493076 0.531825
0.469929 0.496000 0.534749
0.470318 0.498924 0.537673
0.470706 0.501849 0.540598
0.471095 0.504773 0.543522
0.471484 0.507697 0.546446
0.471872 0.510621 0.549370
0.472261 0.513546 0.552295
0.471783 0.469963 0.511248
0.472172 0.472887 0.514172
0.472561 0.475811 0.517096
0.472949 0.478736 0.520020
0.473338 0.481660 0.522945
0.473727 0.484584 0.525869
0.474115 0.487508 0.528793
0.474504 0.490433 0.531717
0.474893 0.493357 0.534642
0.475281 0.496281 0.537566
0.475670 0.499205 0.540490
0.476059 0.502130 0.543414
0.476447 0.505054 0.546339
0.476836 0.507978 0.549263
0.477225 0.510903 0.552187
0.477613 0.513827 0.555111
0.478002 0.516751 0.558036
0.477524 0.473168 0.516989
0.477913 0.476093 0.519913
0.478301 0.479017 0.522837
0.478690 0.481941 0.525761
0.479079 0.484865 0.528686
0.479467 0.487790 0.531610
0.479856 0.490714 0.534534
0.480245 0.493638 0.537458
0.480633 0.496562 0.540383
0.481022 0.499487 0.543307
0.481411 0.502411 0.546231
0.481800 0.505335 0.549155
0.482188 0.508259 0.552080
0.482577 0.511184 0.555004
0.482966 0.514108 0.557928
0.483354 0.517032 0.560852
0.483743 0.519956 0.563777
0.483265 0.476374 0.522729
0.483654 0.479298 0.525654
0.484042 0.482222 0.528578
0.484431 0.485146 0.531502
0.484820 0.488071 0.534426
0.485208 0.490995 0.537351
0.485597 0.493919 0.540275
0.485986 0.496843 0.543199
0.486374 0.499768 0.546124
0.486763 0.502692 0.549048
0.487152 0.505616 0.551972
0.487540 0.508540 0.554896
0.487929 0.511465 0.557821
0.488318 0.514389 0.560745
0.488706 0.517313 0.563669
0.489095 0.520237 0.566593
0.489484 0.523162 0.569518
0.489006 0.479579 0.528470
0.489395 0.482503 0.531395
0.489783 0.485428 0.534319
0.490172 0.488352 0.537243
0.490561 0.491276 0.540167
0.490949 0.494200 0.543092
0.491338 0.497125 0.546016
0.491727 0.500049 0.548940
0.492115 0.502973 0.551864
0.492504 0.505897 0.554789
0.492893 0.508822 0.557713
0.493281 0.511746 0.560637
0.493670 0.514670 0.563561
0.494059 0.517594 0.566486
0.494447 0.520519 0.569410
0.494836 0.523443 0.572334
0.495225 0.526367 0.575258
0.494747 0.482784 0.534211
0.495136 0.485709 0.537136
0.495524 0.488633 0.540060
0.495913 0.491557 0.542984
0.496302 0.494481 0.545908
0.496690 0.497406 0.548833
0.497079 0.500330 0.551757
0.497468 0.503254 0.554681
0.497856 0.506178 0.557605
0.498245 0.509103 0.560530
0.498634 0.512027 0.563454
0.499022 0.514951 0.566378
0.499411 0.517875 0.569302
0.499800 0.520800 0.572227
0.500188 0.523724 0.575151
0.500577 0.526648 0.578075
0.500966 0.529572 0.580999
0.500488 0.485990 0.539952
0.500877 0.488914 0.542877
0.501265 0.491838 0.545801
0.501654 0.494762 0.548725
0.502043 0.497687 0.551649
0.502431 0.500611 0.554574
0.502820 0.503535 0.557498
0.503209 0.506459 0.560422
0.503597 0.509384 0.563346
0.503986 0.512308 0.566271
0.504375 0.515232 0.569195
0.504763 0.518156 0.572119
0.505152 0.521081 0.575043
0.505541 0.524005 0.577968
0.505929 0.526929 0.580892
0.506318 0.529853 0.583816
0.506707 0.532778 0.586740
0.506229 0.489195 0.545693
0.506617 0.492119 0.548617
0.507006 0.495044 0.551542
0.507395 0.497968 0.554466
0.507783 0.500892 0.557390
0.508172 0.503816 0.560314
0.508561 0.506741 0.563239
0.508949 0.509665 0.566163
0.509338 0.512589 0.569087
0.509727 0.515513 0.572011
0.510115 0.518438 0.574936
0.510504 0.521362 0.577860
0.510893 0.524286 0.580784
0.511281 0.527210 0.583708
0.511670 0.530135 0.586633
0.512059 0.533059 0.589557
0.512447 0.535983 0.592481
0.511970 0.492400 0.551434
0.512358 0.495325 0.554358
0.512747 0.498249 0.557283
0.513136 0.501173 0.560207
0.513524 0.504097 0.563131
0.513913 0.507022 0.566055
0.514302 0.509946 0.568980
0.514690 0.512870 0.571904
0.515079 0.515794 0.574828
0.515468 0.518719 0.577752
0.515856 0.521643 0.580677
0.516245 0.524567 0.583601
0.516634 0.527491 0.586525
0.517022 0.530416 0.589449
0.517411 0.533340 0.592374
0.517800 0.536264 0.595298
0.518188 0.539188 0.598222
0.421230 0.442230 0.458159
0.421619 0.445154 0.461083
0.422007 0.448078 0.464007
0.422396 0.451003 0.466931
0.422785 0.453927 0.469856
0.423173 0.456851 0.472780
0.423562 0.459775 0.475704
0.423951 0.462700 0.478628
0.424339 0.465624 0.481553
0.424728 0.468548 0.484477
0.425117 0.471472 0.487401
0.425505 0.474397 0.490325
0.425894 0.477321 0.493250
0.426283 0.480245 0.496174
0.426671 0.483169 0.499098
0.427060 0.486094 0.502022
0.427449 0.489018 0.504947
0.426971 0.445435 0.463900
0.427359 0.448359 0.466824
0.427748 0.451284 0.469748
0.428137 0.454208 0.472672
0.428525 0.457132 0.475597
0.428914 0.460056 0.478521
0.429303 0.462981 0.481445
0.429691 0.465905 0.484369
0.430080 0.468829 0.487294
0.430469 0.471753 0.490218
0.430857 0.474678 0.493142
0.431246 0.477602 0.496066
0.431635 0.480526 0.498991
0.432023 0.483450 0.501915
0.432412 0.486375 0.504839
0.432801 0.489299 0.507763
0.433189 0.492223 0.510688
0.432712 0.448641 0.469641
0.433100 0.451565 0.472565
0.433489 0.454489 0.475489
0.433878 0.457413 0.478413
0.434266 0.460338 0.481338
0.434655 0.463262 0.484262
0.435044 0.466186 0.487186
0.435432 0.469110 0.490110
0.435821 0.472035 0.493035
0.436210 0.474959 0.495959
0.436598 0.477883 0.498883
0.436987 0.480807 0.501807
0.437376 0.483732 0.504732
0.437764 0.486656 0.507656
0.438153 0.489580 0.510580
0.438542 0.492504 0.513504
0.438930 0.495429 0.516429
0.438453 0.451846 0.475381
0.438841 0.454770 0.478306
0.439230 0.457694 0.481230
0.439619 0.460619 0.484154
0.440007 0.463543 0.487078
0.440396 0.466467 0.490003
0.440785 0.469391 0.492927
0.441173 0.472316 0.495851
0.441562 0.475240 0.498775
0.441951 0.478164 0.501700
0.442339 0.481088 0.504624
0.442728 0.484013 0.507548
0.443117 0.486937 0.510472
0.443505 0.489861 0.513397
0.443894 0.492785 0.516321
0.444283 0.495710 0.519245
0.444671 0.498634 0.522169
0.444194 0.455051 0.481122
0.444582 0.457975 0.484047
0.444971 0.460900 0.486971
0.445360 0.463824 0.489895
0.445748 0.466748 0.492819
0.446137 0.469672 0.495744
0.446526 0.472597 0.498668
0.446914 0.475521 0.501592
0.447303 0.478445 0.504516
0.447692 0.481369 0.507441
0.448080 0.484294 0.510365
0.448469 0.487218 0.513289
0.448858 0.490142 0.516213
0.449246 0.493066 0.519138
0.449635 0.495991 0.522062
0.450024 0.498915 0.524986
0.450412 0.501839 0.527910
0.449934 0.458257 0.486863
0.450323 0.461181 0.489788
0.450712 0.464105 0.492712
0.451100 0.467029 0.495636
0.451489 0.469954 0.498560
0.451878 0.472878 0.501485
0.452266 0.475802 0.504409
0.452655 0.478726 0.507333
0.453044 0.481651 0.510257
0.453432 0.484575 0.513182
0.453821 0.487499 0.516106
0.454210 0.490423 0.519030
0.454598 0.493348 0.521954
0.454987 0.496272 0.524879
0.455376 0.499196 0.527803
0.455765 0.502120 0.530727
0.456153 0.505045 0.533651
0.455675 0.461462 0.492604
0.456064 0.464386 0.495528
0.456453 0.467310 0.498453
0.456841 0.470235 0.501377
0.457230 0.473159 0.504301
0.457619 0.476083 0.507225
0.458007 0.479007 0.510150
0.458396 0.481932 0.513074
0.458785 0.484856 0.515998
0.459173 0.487780 0.518922
0.459562 0.490704 0.521847
0.459951 0.493629 0.524771
0.460339 0.496553 0.527695
0.460728 0.499477 0.530619
0.461117 0.502401 0.533544
0.461505 0.505326 0.536468
0.461894 0.508250 0.539392
0.461416 0.464667 0.498345
0.461805 0.467591 0.501269
0.462194 0.470516 0.504194
0.462582 0.473440 0.507118
0.462971 0.476364 0.510042
0.463360 0.479288 0.512966
0.463748 0.482213 0.515891
0.464137 0.485137 0.518815
0.464526 0.488061 0.521739
0.464914 0.490986 0.524663
0.465303 0.493910 0.527588
0.465692 0.496834 0.530512
0.466080 0.499758 0.533436
0.466469 0.502683 0.536360
0.466858 0.505607 0.539285
0.467246 0.508531 0.542209
0.467635 0.511455 0.545133
0.467157 0.467873 0.504086
0.467546 0.470797 0.507010
0.467935 0.473721 0.509935
0.468323 0.476645 0.512859
0.468712 0.479570 0.515783
0.469101 0.482494 0.518707
0.469489 0.485418 0.521632
0.469878 0.488342 0.524556
0.470267 0.491267 0.527480
0.470655 0.494191 0.530404
0.471044 0.497115 0.533329
0.471433 0.500039 0.536253
0.471821 0.502964 0.539177
0.472210 0.505888 0.542101
0.472599 0.508812 0.545026
0.472987 0.511736 0.547950
0.473376 0.514661 0.550874
0.472898 0.471078 0.509827
0.473287 0.474002 0.512751
0.473675 0.476926 0.515675
0.474064 0.479851 0.518600
0.474453 0.482775 0.521524
0.474842 0.485699 0.524448
0.475230 0.488623 0.527373
0.475619 0.491548 0.530297
0.476008 0.494472 0.533221
0.476396 0.497396 0.536145
0.476785 0.500320 0.539070
0.477174 0.503245 0.541994
0.477562 0.506169 0.544918
0.477951 0.509093 0.547842
0.478340 0.512017 0.550767
0.478728 0.514942 0.553691
0.479117 0.517866 0.556615
0.478639 0.474283 0.515568
0.479028 0.477208 0.518492
0.479416 0.480132 0.521416
0.479805 0.483056 0.524341
0.480194 0.485980 0.527265
0.480582 0.488905 0.530189
0.480971 0.491829 0.533113
0.481360 0.494753 0.536038
0.481748 0.497677 0.538962
0.482137 0.500602 0.541886
0.482526 0.503526 0.544810
0.482914 0.506450 0.547735
0.483303 0.509374 0.550659
0.483692 0.512299 0.553583
0.484080 0.515223 0.556507
0.484469 0.518147 0.559432
0.484858 0.521071 0.562356
0.484380 0.477489 0.521309
0.484769 0.480413 0.524233
0.485157 0.483337 0.527157
0.485546 0.486261 0.530082
0.485935 0.489186 0.533006
0.486323 0.492110 0.535930
0.486712 0.495034 0.538854
0.487101 0.497958 0.541779
0.487489 0.500883 0.544703
0.487878 0.503807 0.547627
0.488267 0.506731 0.550551
0.488655 0.509655 0.553476
0.489044 0.512580 0.556400
0.489433 0.515504 0.559324
0.489821 0.518428 0.562248
0.490210 0.521352 0.565173
0.490599 0.524277 0.568097
0.490121 0.480694 0.527050
0.490510 0.483618 0.529974
0.490898 0.486542 0.532898
0.491287 0.489467 0.535823
0.491676 0.492391 0.538747
0.492064 0.495315 0.541671
0.492453 0.498239 0.544595
0.492842 0.501164 0.547520
0.493230 0.504088 0.550444
0.493619 0.507012 0.553368
0.494008 0.509936 0.556292
0.494396 0.512861 0.559217
0.494785 0.515785 0.562141
0.495174 0.518709 0.565065
0.495562 0.521633 0.567989
0.495951 0.524558 0.570914
0.496340 0.527482 0.573838
0.495862 0.483899 0.532791
0.496251 0.486824 0.535715
0.496639 0.489748 0.538639
0.497028 0.492672 0.541563
0.497417 0.495596 0.544488
0.497805 0.498521 0.547412
0.498194 0.501445 0.550336
0.498583 0.504369 0.553260
0.498971 0.507293 0.556185
0.499360 0.510218 0.559109
0.499749 0.513142 0.562033
0.500137 0.516066 0.564957
0.500526 0.518990 0.567882
0.500915 0.521915 0.570806
0.501303 0.524839 0.573730
0.501692 0.527763 0.576654
0.502081 0.530687 0.579579
0.501603 0.487105 0.538532
0.501991 0.490029 0.541456
0.502380 0.492953 0.544380
0.502769 0.495877 0.547304
0.503157 0.498802 0.550229
0.503546 0.501726 0.553153
0.503935 0.504650 0.556077
0.504323 0.507574 0.559001
0.504712 0.510499 0.561926
0.505101 0.513423 0.564850
0.505489 0.516347 0.567774
0.505878 0.519271 0.570698
0.506267 0.522196 0.573623
0.506655 0.525120 0.576547
0.507044 0.528044 0.579471
0.507433 0.530968 0.582395
0.507821 0.533893 0.585320
0.507344 0.490310 0.544273
0.507732 0.493234 0.547197
0.508121 0.496158 0.550121
0.508510 0.499083 0.553045
0.508898 0.502007 0.555970
0.509287 0.504931 0.558894
0.509676 0.507855 0.561818
0.510064 0.510780 0.564742
0.510453 0.513704 0.567667
0.510842 0.516628 0.570591
0.511230 0.519552 0.573515
0.511619 0.522477 0.576439
0.512008 0.525401 0.579364
0.512396 0.528325 0.582288
0.512785 0.531249 0.585212
0.513174 0.534174 0.588136
0.513562 0.537098 0.591061
0.513085 0.493515 0.550013
0.513473 0.496440 0.552938
0.513862 0.499364 0.555862
0.514251 0.502288 0.558786
0.514639 0.505212 0.561710
0.515028 0.508137 0.564635
0.515417 0.511061 0.567559
0.515805 0.513985 0.570483
0.516194 0.516909 0.573407
0.516583 0.519834 0.576332
0.516971 0.522758 0.579256
0.517360 0.525682 0.582180
0.517749 0.528606 0.585104
0.518137 0.531531 0.588029
0.518526 0.534455 0.590953
0.518915 0.537379 0.593877
0.519303 0.540303 0.596801
0.422345 0.443345 0.456738
0.422733 0.446269 0.459662
0.423122 0.449193 0.462587
0.423511 0.452118 0.465511
0.423899 0.455042 0.468435
0.424288 0.457966 0.471359
0.424677 0.460890 0.474284
0.425065 0.463815 0.477208
0.425454 0.466739 0.480132
0.425843 0.469663 0.483056
0.426231 0.472587 0.485981
0.426620 0.475512 0.488905
0.427009 0.478436 0.491829
0.427397 0.481360 0.494753
0.427786 0.484284 0.497678
0.428175 0.487209 0.500602
0.428563 0.490133 0.503526
0.428086 0.446550 0.462479
