shared/src/main/assets/luts/film_hollywood_blue.cube
TITLE "DALUR Hollywood Blue"
LUT_3D_SIZE 5
DOMAIN_MIN 0.0 0.0 0.0
DOMAIN_MAX 1.0 1.0 1.0
0.424000 0.429000 0.436000
0.440599 0.436849 0.443849
0.457197 0.444697 0.451697
0.473796 0.452546 0.459546
0.490395 0.460395 0.467395
0.439409 0.453159 0.451409
0.456007 0.461007 0.459257
0.472606 0.468856 0.467106
0.489205 0.476705 0.474955
0.505804 0.484554 0.482804
0.454817 0.477317 0.466817
0.471416 0.485166 0.474666
0.488015 0.493015 0.482515
0.504614 0.500864 0.490364
0.521212 0.508712 0.498212
0.470226 0.501476 0.482226
0.486825 0.509325 0.490075
0.503424 0.517174 0.497924
0.520023 0.525023 0.505772
0.536621 0.532871 0.513621
0.485635 0.525635 0.497635
0.502234 0.533484 0.505484
0.518833 0.541332 0.513332
0.535431 0.549181 0.521181
0.552030 0.557030 0.529030
0.426992 0.431993 0.447742
0.443591 0.439841 0.455591
0.460190 0.447690 0.463440
0.476789 0.455539 0.471289
0.493387 0.463388 0.479137
0.442401 0.456151 0.463151
0.459000 0.464000 0.471000
0.475599 0.471849 0.478849
0.492197 0.479697 0.486698
0.508796 0.487546 0.494546
0.457810 0.480310 0.478560
0.474409 0.488159 0.486409
0.491007 0.496007 0.494257
0.507606 0.503856 0.502106
0.524205 0.511705 0.509955
0.473219 0.504469 0.493969
0.489818 0.512318 0.501818
0.506416 0.520166 0.509666
0.523015 0.528015 0.517515
0.539614 0.535864 0.525364
0.488627 0.528628 0.509378
0.505226 0.536476 0.517226
0.521825 0.544325 0.525075
0.538424 0.552174 0.532924
0.555022 0.560022 0.540772
0.429985 0.434985 0.459485
0.446584 0.442834 0.467334
0.463182 0.450682 0.475183
0.479781 0.458531 0.483031
0.496380 0.466380 0.490880
0.445394 0.459144 0.474894
0.461992 0.466992 0.482742
0.478591 0.474841 0.490591
0.495190 0.482690 0.498440
0.511789 0.490539 0.506289
0.460802 0.483302 0.490302
0.477401 0.491151 0.498151
0.494000 0.499000 0.506000
0.510599 0.506849 0.513849
0.527197 0.514698 0.521698
0.476211 0.507461 0.505711
0.492810 0.515310 0.513560
0.509409 0.523159 0.521409
0.526008 0.531008 0.529258
0.542606 0.538856 0.537106
0.491620 0.531620 0.521120
0.508219 0.539469 0.528969
0.524818 0.547318 0.536818
0.541416 0.555166 0.544666
0.558015 0.563015 0.552515
0.432977 0.437977 0.471228
0.449576 0.445826 0.479076
0.466175 0.453675 0.486925
0.482774 0.461524 0.494774
0.499372 0.469372 0.502622
0.448386 0.462136 0.486636
0.464985 0.469985 0.494485
0.481584 0.477834 0.502334
0.498182 0.485682 0.510182
0.514781 0.493531 0.518031
0.463795 0.486295 0.502045
0.480394 0.494144 0.509894
0.496992 0.501992 0.517742
0.513591 0.509841 0.525591
0.530190 0.517690 0.533440
0.479204 0.510454 0.517454
0.495803 0.518302 0.525303
0.512401 0.526151 0.533151
0.529000 0.534000 0.541000
0.545599 0.541849 0.548849
0.494613 0.534613 0.532863
0.511211 0.542461 0.540711
0.527810 0.550310 0.548560
0.544409 0.558159 0.556409
0.561007 0.566007 0.564258
0.435970 0.440970 0.482970
0.452569 0.448819 0.490819
0.469168 0.456668 0.498668
0.485766 0.464516 0.506516
0.502365 0.472365 0.514365
0.451379 0.465129 0.498379
0.467977 0.472977 0.506228
0.484576 0.480826 0.514076
0.501175 0.488675 0.521925
0.517774 0.496524 0.529774
0.466787 0.489287 0.513788
0.483386 0.497136 0.521636
0.499985 0.504985 0.529485
0.516584 0.512834 0.537334
0.533183 0.520683 0.545183
0.482196 0.513446 0.529196
0.498795 0.521295 0.537045
0.515394 0.529144 0.544894
0.531993 0.536993 0.552743
0.548591 0.544841 0.560591
0.497605 0.537605 0.544605
0.514204 0.545454 0.552454
0.530803 0.553303 0.560303
0.547401 0.561151 0.568151
0.564000 0.569000 0.576000
