shared/src/main/assets/luts/film_neon_night.cube
TITLE "DALUR Neon Night"
LUT_3D_SIZE 17
DOMAIN_MIN 0.0 0.0 0.0
DOMAIN_MAX 1.0 1.0 1.0
0.412800 0.414000 0.427200
0.417552 0.415953 0.429153
0.422304 0.417906 0.431106
0.427056 0.419859 0.433059
0.431808 0.421811 0.435011
0.436560 0.423764 0.436964
0.441312 0.425717 0.438917
0.446064 0.427670 0.440870
0.450815 0.429623 0.442823
0.455567 0.431576 0.444776
0.460319 0.433528 0.446728
0.465071 0.435481 0.448681
0.469823 0.437434 0.450634
0.474575 0.439387 0.452587
0.479327 0.441340 0.454540
0.484079 0.443293 0.456493
0.488831 0.445245 0.458445
0.416634 0.420633 0.431034
0.421386 0.422586 0.432987
0.426138 0.424539 0.434940
0.430890 0.426491 0.436892
0.435642 0.428444 0.438845
0.440394 0.430397 0.440798
0.445145 0.432350 0.442751
0.449897 0.434303 0.444704
0.454649 0.436256 0.446657
0.459401 0.438208 0.448609
0.464153 0.440161 0.450562
0.468905 0.442114 0.452515
0.473657 0.444067 0.454468
0.478409 0.446020 0.456421
0.483161 0.447973 0.458374
0.487913 0.449926 0.460326
0.492665 0.451878 0.462279
0.420468 0.427266 0.434868
0.425220 0.429219 0.436821
0.429972 0.431172 0.438773
0.434723 0.433124 0.440726
0.439475 0.435077 0.442679
0.444227 0.437030 0.444632
0.448979 0.438983 0.446585
0.453731 0.440936 0.448538
0.458483 0.442889 0.450490
0.463235 0.444841 0.452443
0.467987 0.446794 0.454396
0.472739 0.448747 0.456349
0.477491 0.450700 0.458302
0.482243 0.452653 0.460255
0.486995 0.454606 0.462207
0.491747 0.456558 0.464160
0.496499 0.458511 0.466113
0.424301 0.433899 0.438701
0.429053 0.435852 0.440654
0.433805 0.437804 0.442607
0.438557 0.439757 0.444560
0.443309 0.441710 0.446513
0.448061 0.443663 0.448466
0.452813 0.445616 0.450419
0.457565 0.447569 0.452371
0.462317 0.449521 0.454324
0.467069 0.451474 0.456277
0.471821 0.453427 0.458230
0.476573 0.455380 0.460183
0.481325 0.457333 0.462136
0.486077 0.459286 0.464088
0.490829 0.461239 0.466041
0.495581 0.463191 0.467994
0.500332 0.465144 0.469947
0.428135 0.440532 0.442535
0.432887 0.442485 0.444488
0.437639 0.444437 0.446441
0.442391 0.446390 0.448394
0.447143 0.448343 0.450347
0.451895 0.450296 0.452300
0.456647 0.452249 0.454252
0.461399 0.454202 0.456205
0.466151 0.456154 0.458158
0.470903 0.458107 0.460111
0.475655 0.460060 0.462064
0.480407 0.462013 0.464017
0.485159 0.463966 0.465969
0.489911 0.465919 0.467922
0.494662 0.467871 0.469875
0.499414 0.469824 0.471828
0.504166 0.471777 0.473781
0.431969 0.447165 0.446369
0.436721 0.449117 0.448322
0.441473 0.451070 0.450275
0.446225 0.453023 0.452228
0.450977 0.454976 0.454181
0.455729 0.456929 0.456133
0.460481 0.458882 0.458086
0.465233 0.460835 0.460039
0.469985 0.462787 0.461992
0.474737 0.464740 0.463945
0.479489 0.466693 0.465898
0.484240 0.468646 0.467850
0.488992 0.470599 0.469803
0.493744 0.472552 0.471756
0.498496 0.474504 0.473709
0.503248 0.476457 0.475662
0.508000 0.478410 0.477615
0.435803 0.453798 0.450203
0.440555 0.455750 0.452156
0.445307 0.457703 0.454109
0.450059 0.459656 0.456062
0.454811 0.461609 0.458014
0.459563 0.463562 0.459967
0.464315 0.465515 0.461920
0.469067 0.467467 0.463873
0.473818 0.469420 0.465826
0.478570 0.471373 0.467779
0.483322 0.473326 0.469731
0.488074 0.475279 0.471684
0.492826 0.477232 0.473637
0.497578 0.479184 0.475590
0.502330 0.481137 0.477543
0.507082 0.483090 0.479496
0.511834 0.485043 0.481448
0.439637 0.460431 0.454037
0.444389 0.462383 0.455990
0.449141 0.464336 0.457943
0.453893 0.466289 0.459895
0.458645 0.468242 0.461848
0.463397 0.470195 0.463801
0.468148 0.472148 0.465754
0.472900 0.474100 0.467707
0.477652 0.476053 0.469660
0.482404 0.478006 0.471612
0.487156 0.479959 0.473565
0.491908 0.481912 0.475518
0.496660 0.483865 0.477471
0.501412 0.485817 0.479424
0.506164 0.487770 0.481377
0.510916 0.489723 0.483329
0.515668 0.491676 0.485282
0.443471 0.467063 0.457871
0.448223 0.469016 0.459823
0.452975 0.470969 0.461776
0.457726 0.472922 0.463729
0.462478 0.474875 0.465682
0.467230 0.476828 0.467635
0.471982 0.478780 0.469588
0.476734 0.480733 0.471541
0.481486 0.482686 0.473493
0.486238 0.484639 0.475446
0.490990 0.486592 0.477399
0.495742 0.488545 0.479352
0.500494 0.490498 0.481305
0.505246 0.492450 0.483258
0.509998 0.494403 0.485210
0.514750 0.496356 0.487163
0.519502 0.498309 0.489116
0.447304 0.473696 0.461704
0.452056 0.475649 0.463657
0.456808 0.477602 0.465610
0.461560 0.479555 0.467563
0.466312 0.481508 0.469516
0.471064 0.483461 0.471469
0.475816 0.485413 0.473422
0.480568 0.487366 0.475374
0.485320 0.489319 0.477327
0.490072 0.491272 0.479280
0.494824 0.493225 0.481233
0.499576 0.495178 0.483186
0.504328 0.497130 0.485139
0.509080 0.499083 0.487091
0.513832 0.501036 0.489044
0.518584 0.502989 0.490997
0.523335 0.504942 0.492950
0.451138 0.480329 0.465538
0.455890 0.482282 0.467491
0.460642 0.484235 0.469444
0.465394 0.486188 0.471397
0.470146 0.488141 0.473350
0.474898 0.490094 0.475303
0.479650 0.492046 0.477255
0.484402 0.493999 0.479208
0.489154 0.495952 0.481161
0.493906 0.497905 0.483114
0.498658 0.499858 0.485067
0.503410 0.501811 0.487020
0.508162 0.503763 0.488972
0.512914 0.505716 0.490925
0.517665 0.507669 0.492878
0.522417 0.509622 0.494831
0.527169 0.511575 0.496784
0.454972 0.486962 0.469372
0.459724 0.488915 0.471325
0.464476 0.490868 0.473278
0.469228 0.492821 0.475231
0.473980 0.494774 0.477184
0.478732 0.496726 0.479136
0.483484 0.498679 0.481089
0.488236 0.500632 0.483042
0.492988 0.502585 0.484995
0.497740 0.504538 0.486948
0.502492 0.506491 0.488901
0.507243 0.508443 0.490853
0.511995 0.510396 0.492806
0.516747 0.512349 0.494759
0.521499 0.514302 0.496712
0.526251 0.516255 0.498665
0.531003 0.518208 0.500618
0.458806 0.493595 0.473206
0.463558 0.495548 0.475159
0.468310 0.497501 0.477112
0.473062 0.499454 0.479065
0.477814 0.501407 0.481017
0.482566 0.503359 0.482970
0.487318 0.505312 0.484923
0.492070 0.507265 0.486876
0.496821 0.509218 0.488829
0.501573 0.511171 0.490782
0.506325 0.513124 0.492734
0.511077 0.515076 0.494687
0.515829 0.517029 0.496640
0.520581 0.518982 0.498593
0.525333 0.520935 0.500546
0.530085 0.522888 0.502499
0.534837 0.524841 0.504451
0.462640 0.500228 0.477040
0.467392 0.502181 0.478993
0.472144 0.504134 0.480945
0.476896 0.506087 0.482898
0.481648 0.508039 0.484851
0.486400 0.509992 0.486804
0.491151 0.511945 0.488757
0.495903 0.513898 0.490710
0.500655 0.515851 0.492663
0.505407 0.517804 0.494615
0.510159 0.519756 0.496568
0.514911 0.521709 0.498521
0.519663 0.523662 0.500474
0.524415 0.525615 0.502427
0.529167 0.527568 0.504380
0.533919 0.529521 0.506332
0.538671 0.531474 0.508285
0.466474 0.506861 0.480874
0.471226 0.508814 0.482826
0.475978 0.510767 0.484779
0.480729 0.512720 0.486732
0.485481 0.514672 0.488685
0.490233 0.516625 0.490638
0.494985 0.518578 0.492591
0.499737 0.520531 0.494544
0.504489 0.522484 0.496496
0.509241 0.524437 0.498449
0.513993 0.526389 0.500402
0.518745 0.528342 0.502355
0.523497 0.530295 0.504308
0.528249 0.532248 0.506261
0.533001 0.534201 0.508213
0.537753 0.536154 0.510166
0.542505 0.538106 0.512119
0.470307 0.513494 0.484707
0.475059 0.515447 0.486660
0.479811 0.517400 0.488613
0.484563 0.519352 0.490566
0.489315 0.521305 0.492519
0.494067 0.523258 0.494472
0.498819 0.525211 0.496425
0.503571 0.527164 0.498377
0.508323 0.529117 0.500330
0.513075 0.531070 0.502283
0.517827 0.533022 0.504236
0.522579 0.534975 0.506189
0.527331 0.536928 0.508142
0.532083 0.538881 0.510094
0.536835 0.540834 0.512047
0.541587 0.542787 0.514000
0.546338 0.544739 0.515953
0.474141 0.520127 0.488541
0.478893 0.522080 0.490494
0.483645 0.524033 0.492447
0.488397 0.525985 0.494400
0.493149 0.527938 0.496353
0.497901 0.529891 0.498306
0.502653 0.531844 0.500258
0.507405 0.533797 0.502211
0.512157 0.535750 0.504164
0.516909 0.537702 0.506117
0.521661 0.539655 0.508070
0.526413 0.541608 0.510023
0.531165 0.543561 0.511975
0.535917 0.545514 0.513928
0.540668 0.547467 0.515881
0.545420 0.549419 0.517834
0.550172 0.551372 0.519787
0.413545 0.414745 0.430744
0.418296 0.416697 0.432696
0.423048 0.418650 0.434649
0.427800 0.420603 0.436602
0.432552 0.422556 0.438555
0.437304 0.424509 0.440508
0.442056 0.426462 0.442461
0.446808 0.428414 0.444414
0.451560 0.430367 0.446366
0.456312 0.432320 0.448319
0.461064 0.434273 0.450272
0.465816 0.436226 0.452225
0.470568 0.438179 0.454178
0.475320 0.440131 0.456131
0.480072 0.442084 0.458083
0.484824 0.444037 0.460036
0.489576 0.445990 0.461989
0.417378 0.421377 0.434577
0.422130 0.423330 0.436530
0.426882 0.425283 0.438483
0.431634 0.427236 0.440436
0.436386 0.429189 0.442389
0.441138 0.431142 0.444342
0.445890 0.433095 0.446295
0.450642 0.435047 0.448247
0.455394 0.437000 0.450200
0.460146 0.438953 0.452153
0.464898 0.440906 0.454106
0.469650 0.442859 0.456059
0.474402 0.444812 0.458012
0.479154 0.446764 0.459964
0.483906 0.448717 0.461917
0.488657 0.450670 0.463870
0.493409 0.452623 0.465823
0.421212 0.428010 0.438411
0.425964 0.429963 0.440364
0.430716 0.431916 0.442317
0.435468 0.433869 0.444270
0.440220 0.435822 0.446223
0.444972 0.437775 0.448176
0.449724 0.439727 0.450128
0.454476 0.441680 0.452081
0.459228 0.443633 0.454034
0.463980 0.445586 0.455987
0.468732 0.447539 0.457940
0.473484 0.449492 0.459893
0.478235 0.451444 0.461845
0.482987 0.453397 0.463798
0.487739 0.455350 0.465751
0.492491 0.457303 0.467704
0.497243 0.459256 0.469657
0.425046 0.434643 0.442245
0.429798 0.436596 0.444198
0.434550 0.438549 0.446151
0.439302 0.440502 0.448104
0.444054 0.442455 0.450057
0.448806 0.444408 0.452009
0.453558 0.446360 0.453962
0.458310 0.448313 0.455915
0.463062 0.450266 0.457868
0.467813 0.452219 0.459821
0.472565 0.454172 0.461774
0.477317 0.456125 0.463726
0.482069 0.458077 0.465679
0.486821 0.460030 0.467632
0.491573 0.461983 0.469585
0.496325 0.463936 0.471538
0.501077 0.465889 0.473491
0.428880 0.441276 0.446079
0.433632 0.443229 0.448032
0.438384 0.445182 0.449985
0.443136 0.447135 0.451938
0.447888 0.449088 0.453890
0.452640 0.451040 0.455843
0.457392 0.452993 0.457796
0.462143 0.454946 0.459749
0.466895 0.456899 0.461702
0.471647 0.458852 0.463655
0.476399 0.460805 0.465607
0.481151 0.462758 0.467560
0.485903 0.464710 0.469513
0.490655 0.466663 0.471466
0.495407 0.468616 0.473419
0.500159 0.470569 0.475372
0.504911 0.472522 0.477324
0.432714 0.447909 0.449913
0.437466 0.449862 0.451866
0.442218 0.451815 0.453818
0.446970 0.453768 0.455771
0.451721 0.455721 0.457724
0.456473 0.457673 0.459677
0.461225 0.459626 0.461630
0.465977 0.461579 0.463583
0.470729 0.463532 0.465536
0.475481 0.465485 0.467488
0.480233 0.467438 0.469441
0.484985 0.469390 0.471394
0.489737 0.471343 0.473347
0.494489 0.473296 0.475300
0.499241 0.475249 0.477253
0.503993 0.477202 0.479205
0.508745 0.479155 0.481158
0.436548 0.454542 0.453747
0.441299 0.456495 0.455699
0.446051 0.458448 0.457652
0.450803 0.460401 0.459605
0.455555 0.462354 0.461558
0.460307 0.464306 0.463511
0.465059 0.466259 0.465464
0.469811 0.468212 0.467417
0.474563 0.470165 0.469369
0.479315 0.472118 0.471322
0.484067 0.474071 0.473275
0.488819 0.476023 0.475228
0.493571 0.477976 0.477181
0.498323 0.479929 0.479134
0.503075 0.481882 0.481086
0.507827 0.483835 0.483039
0.512579 0.485788 0.484992
0.440381 0.461175 0.457580
0.445133 0.463128 0.459533
0.449885 0.465081 0.461486
0.454637 0.467034 0.463439
0.459389 0.468986 0.465392
0.464141 0.470939 0.467345
0.468893 0.472892 0.469298
0.473645 0.474845 0.471250
0.478397 0.476798 0.473203
0.483149 0.478751 0.475156
0.487901 0.480703 0.477109
0.492653 0.482656 0.479062
0.497405 0.484609 0.481015
0.502157 0.486562 0.482967
0.506909 0.488515 0.484920
0.511660 0.490468 0.486873
0.516412 0.492420 0.488826
0.444215 0.467808 0.461414
0.448967 0.469761 0.463367
0.453719 0.471714 0.465320
0.458471 0.473667 0.467273
0.463223 0.475619 0.469226
0.467975 0.477572 0.471179
0.472727 0.479525 0.473131
0.477479 0.481478 0.475084
0.482231 0.483431 0.477037
0.486983 0.485384 0.478990
0.491735 0.487336 0.480943
0.496487 0.489289 0.482896
0.501238 0.491242 0.484848
0.505990 0.493195 0.486801
0.510742 0.495148 0.488754
0.515494 0.497101 0.490707
0.520246 0.499053 0.492660
0.448049 0.474441 0.465248
0.452801 0.476394 0.467201
0.457553 0.478347 0.469154
0.462305 0.480299 0.471107
0.467057 0.482252 0.473060
0.471809 0.484205 0.475012
0.476561 0.486158 0.476965
0.481313 0.488111 0.478918
0.486065 0.490064 0.480871
0.490816 0.492016 0.482824
0.495568 0.493969 0.484777
0.500320 0.495922 0.486729
0.505072 0.497875 0.488682
0.509824 0.499828 0.490635
0.514576 0.501781 0.492588
0.519328 0.503734 0.494541
0.524080 0.505686 0.496494
0.451883 0.481074 0.469082
0.456635 0.483027 0.471035
0.461387 0.484980 0.472988
0.466139 0.486932 0.474940
0.470891 0.488885 0.476893
0.475643 0.490838 0.478846
0.480395 0.492791 0.480799
0.485146 0.494744 0.482752
0.489898 0.496697 0.484705
0.494650 0.498649 0.486658
0.499402 0.500602 0.488610
0.504154 0.502555 0.490563
0.508906 0.504508 0.492516
0.513658 0.506461 0.494469
0.518410 0.508414 0.496422
0.523162 0.510366 0.498375
0.527914 0.512319 0.500327
0.455717 0.487707 0.472916
0.460469 0.489660 0.474869
0.465221 0.491612 0.476821
0.469973 0.493565 0.478774
0.474724 0.495518 0.480727
0.479476 0.497471 0.482680
0.484228 0.499424 0.484633
0.488980 0.501377 0.486586
0.493732 0.503330 0.488539
0.498484 0.505282 0.490491
0.503236 0.507235 0.492444
0.507988 0.509188 0.494397
0.512740 0.511141 0.496350
0.517492 0.513094 0.498303
0.522244 0.515047 0.500256
0.526996 0.516999 0.502208
0.531748 0.518952 0.504161
0.459551 0.494340 0.476750
0.464302 0.496293 0.478702
0.469054 0.498245 0.480655
0.473806 0.500198 0.482608
0.478558 0.502151 0.484561
0.483310 0.504104 0.486514
0.488062 0.506057 0.488467
0.492814 0.508010 0.490420
0.497566 0.509962 0.492372
0.502318 0.511915 0.494325
0.507070 0.513868 0.496278
0.511822 0.515821 0.498231
0.516574 0.517774 0.500184
0.521326 0.519727 0.502137
0.526078 0.521679 0.504089
0.530830 0.523632 0.506042
0.535582 0.525585 0.507995
0.463384 0.500973 0.480583
0.468136 0.502926 0.482536
0.472888 0.504878 0.484489
0.477640 0.506831 0.486442
0.482392 0.508784 0.488395
0.487144 0.510737 0.490348
0.491896 0.512690 0.492301
0.496648 0.514643 0.494253
0.501400 0.516595 0.496206
0.506152 0.518548 0.498159
0.510904 0.520501 0.500112
0.515656 0.522454 0.502065
0.520408 0.524407 0.504018
0.525160 0.526360 0.505970
0.529912 0.528312 0.507923
0.534663 0.530265 0.509876
0.539415 0.532218 0.511829
0.467218 0.507606 0.484417
0.471970 0.509558 0.486370
0.476722 0.511511 0.488323
0.481474 0.513464 0.490276
0.486226 0.515417 0.492229
0.490978 0.517370 0.494182
0.495730 0.519323 0.496134
0.500482 0.521275 0.498087
0.505234 0.523228 0.500040
0.509986 0.525181 0.501993
0.514738 0.527134 0.503946
0.519490 0.529087 0.505899
0.524241 0.531040 0.507851
0.528993 0.532992 0.509804
0.533745 0.534945 0.511757
0.538497 0.536898 0.513710
0.543249 0.538851 0.515663
0.471052 0.514239 0.488251
0.475804 0.516191 0.490204
0.480556 0.518144 0.492157
0.485308 0.520097 0.494110
0.490060 0.522050 0.496062
0.494812 0.524003 0.498015
0.499564 0.525956 0.499968
0.504316 0.527908 0.501921
0.509068 0.529861 0.503874
0.513819 0.531814 0.505827
0.518571 0.533767 0.507780
0.523323 0.535720 0.509732
0.528075 0.537673 0.511685
0.532827 0.539625 0.513638
0.537579 0.541578 0.515591
0.542331 0.543531 0.517544
0.547083 0.545484 0.519497
0.474886 0.520871 0.492085
0.479638 0.522824 0.494038
0.484390 0.524777 0.495991
0.489142 0.526730 0.497943
0.493894 0.528683 0.499896
0.498646 0.530636 0.501849
0.503398 0.532588 0.503802
0.508149 0.534541 0.505755
0.512901 0.536494 0.507708
0.517653 0.538447 0.509661
0.522405 0.540400 0.511613
0.527157 0.542353 0.513566
0.531909 0.544306 0.515519
0.536661 0.546258 0.517472
0.541413 0.548211 0.519425
0.546165 0.550164 0.521378
0.550917 0.552117 0.523330
0.414289 0.415489 0.434287
0.419041 0.417442 0.436240
0.423793 0.419395 0.438193
0.428545 0.421348 0.440146
0.433297 0.423300 0.442099
0.438049 0.425253 0.444052
0.442801 0.427206 0.446004
0.447553 0.429159 0.447957
0.452305 0.431112 0.449910
0.457057 0.433065 0.451863
0.461808 0.435018 0.453816
0.466560 0.436970 0.455769
0.471312 0.438923 0.457721
0.476064 0.440876 0.459674
0.480816 0.442829 0.461627
0.485568 0.444782 0.463580
0.490320 0.446735 0.465533
0.418123 0.422122 0.438121
0.422875 0.424075 0.440074
0.427627 0.426028 0.442027
0.432379 0.427981 0.443980
0.437131 0.429933 0.445933
0.441883 0.431886 0.447885
0.446635 0.433839 0.449838
0.451387 0.435792 0.451791
0.456138 0.437745 0.453744
0.460890 0.439698 0.455697
0.465642 0.441650 0.457650
0.470394 0.443603 0.459602
0.475146 0.445556 0.461555
0.479898 0.447509 0.463508
0.484650 0.449462 0.465461
0.489402 0.451415 0.467414
0.494154 0.453367 0.469367
0.421957 0.428755 0.441955
0.426709 0.430708 0.443908
0.431461 0.432661 0.445861
0.436213 0.434613 0.447813
0.440965 0.436566 0.449766
0.445716 0.438519 0.451719
0.450468 0.440472 0.453672
0.455220 0.442425 0.455625
0.459972 0.444378 0.457578
0.464724 0.446331 0.459531
0.469476 0.448283 0.461483
0.474228 0.450236 0.463436
0.478980 0.452189 0.465389
0.483732 0.454142 0.467342
0.488484 0.456095 0.469295
0.493236 0.458048 0.471248
0.497988 0.460000 0.473200
0.425791 0.435388 0.445789
0.430543 0.437341 0.447742
0.435294 0.439294 0.449694
0.440046 0.441246 0.451647
0.444798 0.443199 0.453600
0.449550 0.445152 0.455553
0.454302 0.447105 0.457506
0.459054 0.449058 0.459459
0.463806 0.451011 0.461412
0.468558 0.452963 0.463364
0.473310 0.454916 0.465317
0.478062 0.456869 0.467270
0.482814 0.458822 0.469223
0.487566 0.460775 0.471176
0.492318 0.462728 0.473129
0.497070 0.464680 0.475081
0.501822 0.466633 0.477034
0.429624 0.442021 0.449623
0.434376 0.443974 0.451575
0.439128 0.445927 0.453528
0.443880 0.447879 0.455481
0.448632 0.449832 0.457434
0.453384 0.451785 0.459387
0.458136 0.453738 0.461340
0.462888 0.455691 0.463293
0.467640 0.457644 0.465245
0.472392 0.459596 0.467198
0.477144 0.461549 0.469151
0.481896 0.463502 0.471104
0.486648 0.465455 0.473057
0.491400 0.467408 0.475010
0.496152 0.469361 0.476962
0.500904 0.471313 0.478915
0.505655 0.473266 0.480868
0.433458 0.448654 0.453456
0.438210 0.450607 0.455409
0.442962 0.452559 0.457362
0.447714 0.454512 0.459315
0.452466 0.456465 0.461268
0.457218 0.458418 0.463221
0.461970 0.460371 0.465174
0.466722 0.462324 0.467126
0.471474 0.464276 0.469079
0.476226 0.466229 0.471032
0.480978 0.468182 0.472985
0.485730 0.470135 0.474938
0.490482 0.472088 0.476891
0.495233 0.474041 0.478843
0.499985 0.475994 0.480796
0.504737 0.477946 0.482749
0.509489 0.479899 0.484702
0.437292 0.455287 0.457290
0.442044 0.457240 0.459243
0.446796 0.459192 0.461196
0.451548 0.461145 0.463149
0.456300 0.463098 0.465102
0.461052 0.465051 0.467055
0.465804 0.467004 0.469007
0.470556 0.468957 0.470960
0.475308 0.470909 0.472913
0.480060 0.472862 0.474866
0.484811 0.474815 0.476819
0.489563 0.476768 0.478772
0.494315 0.478721 0.480724
0.499067 0.480674 0.482677
0.503819 0.482626 0.484630
0.508571 0.484579 0.486583
0.513323 0.486532 0.488536
0.441126 0.461920 0.461124
0.445878 0.463872 0.463077
0.450630 0.465825 0.465030
0.455382 0.467778 0.466983
0.460134 0.469731 0.468935
0.464886 0.471684 0.470888
0.469638 0.473637 0.472841
0.474390 0.475590 0.474794
0.479141 0.477542 0.476747
0.483893 0.479495 0.478700
0.488645 0.481448 0.480653
0.493397 0.483401 0.482605
0.498149 0.485354 0.484558
0.502901 0.487307 0.486511
0.507653 0.489259 0.488464
0.512405 0.491212 0.490417
0.517157 0.493165 0.492370
0.444960 0.468553 0.464958
0.449712 0.470505 0.466911
0.454464 0.472458 0.468864
0.459216 0.474411 0.470816
0.463968 0.476364 0.472769
0.468719 0.478317 0.474722
0.473471 0.480270 0.476675
0.478223 0.482222 0.478628
0.482975 0.484175 0.480581
0.487727 0.486128 0.482534
0.492479 0.488081 0.484486
0.497231 0.490034 0.486439
0.501983 0.491987 0.488392
0.506735 0.493939 0.490345
0.511487 0.495892 0.492298
0.516239 0.497845 0.494251
0.520991 0.499798 0.496203
0.448794 0.475186 0.468792
0.453546 0.477138 0.470745
0.458297 0.479091 0.472697
0.463049 0.481044 0.474650
0.467801 0.482997 0.476603
0.472553 0.484950 0.478556
0.477305 0.486903 0.480509
0.482057 0.488855 0.482462
0.486809 0.490808 0.484415
0.491561 0.492761 0.486367
0.496313 0.494714 0.488320
0.501065 0.496667 0.490273
0.505817 0.498620 0.492226
0.510569 0.500572 0.494179
0.515321 0.502525 0.496132
0.520073 0.504478 0.498084
0.524825 0.506431 0.500037
0.452627 0.481818 0.472626
0.457379 0.483771 0.474578
0.462131 0.485724 0.476531
0.466883 0.487677 0.478484
0.471635 0.489630 0.480437
0.476387 0.491583 0.482390
0.481139 0.493535 0.484343
0.485891 0.495488 0.486296
0.490643 0.497441 0.488248
0.495395 0.499394 0.490201
0.500147 0.501347 0.492154
0.504899 0.503300 0.494107
0.509651 0.505252 0.496060
0.514403 0.507205 0.498013
0.519155 0.509158 0.499965
0.523907 0.511111 0.501918
0.528658 0.513064 0.503871
0.456461 0.488451 0.476459
0.461213 0.490404 0.478412
0.465965 0.492357 0.480365
0.470717 0.494310 0.482318
0.475469 0.496263 0.484271
0.480221 0.498216 0.486224
0.484973 0.500168 0.488177
0.489725 0.502121 0.490129
0.494477 0.504074 0.492082
0.499229 0.506027 0.494035
0.503981 0.507980 0.495988
0.508733 0.509933 0.497941
0.513485 0.511885 0.499894
0.518236 0.513838 0.501846
0.522988 0.515791 0.503799
0.527740 0.517744 0.505752
0.532492 0.519697 0.507705
0.460295 0.495084 0.480293
0.465047 0.497037 0.482246
0.469799 0.498990 0.484199
0.474551 0.500943 0.486152
0.479303 0.502896 0.488105
0.484055 0.504848 0.490057
0.488807 0.506801 0.492010
0.493559 0.508754 0.493963
0.498311 0.510707 0.495916
0.503063 0.512660 0.497869
0.507814 0.514613 0.499822
0.512566 0.516566 0.501775
0.517318 0.518518 0.503727
0.522070 0.520471 0.505680
0.526822 0.522424 0.507633
0.531574 0.524377 0.509586
0.536326 0.526330 0.511539
0.464129 0.501717 0.484127
0.468881 0.503670 0.486080
0.473633 0.505623 0.488033
0.478385 0.507576 0.489986
0.483137 0.509529 0.491938
0.487889 0.511481 0.493891
0.492641 0.513434 0.495844
0.497393 0.515387 0.497797
0.502144 0.517340 0.499750
0.506896 0.519293 0.501703
0.511648 0.521246 0.503656
0.516400 0.523198 0.505608
0.521152 0.525151 0.507561
0.525904 0.527104 0.509514
0.530656 0.529057 0.511467
0.535408 0.531010 0.513420
0.540160 0.532963 0.515373
0.467963 0.508350 0.487961
0.472715 0.510303 0.489914
0.477467 0.512256 0.491867
0.482219 0.514209 0.493819
0.486971 0.516162 0.495772
0.491722 0.518114 0.497725
0.496474 0.520067 0.499678
0.501226 0.522020 0.501631
0.505978 0.523973 0.503584
0.510730 0.525926 0.505537
0.515482 0.527879 0.507489
0.520234 0.529831 0.509442
0.524986 0.531784 0.511395
0.529738 0.533737 0.513348
0.534490 0.535690 0.515301
0.539242 0.537643 0.517254
0.543994 0.539596 0.519206
0.471797 0.514983 0.491795
0.476549 0.516936 0.493748
0.481300 0.518889 0.495700
0.486052 0.520842 0.497653
0.490804 0.522794 0.499606
0.495556 0.524747 0.501559
0.500308 0.526700 0.503512
0.505060 0.528653 0.505465
0.509812 0.530606 0.507418
0.514564 0.532559 0.509370
0.519316 0.534511 0.511323
0.524068 0.536464 0.513276
0.528820 0.538417 0.515229
0.533572 0.540370 0.517182
0.538324 0.542323 0.519135
0.543076 0.544276 0.521087
0.547828 0.546229 0.523040
0.475630 0.521616 0.495629
0.480382 0.523569 0.497581
0.485134 0.525522 0.499534
0.489886 0.527475 0.501487
0.494638 0.529427 0.503440
0.499390 0.531380 0.505393
0.504142 0.533333 0.507346
0.508894 0.535286 0.509299
0.513646 0.537239 0.511251
0.518398 0.539192 0.513204
0.523150 0.541144 0.515157
0.527902 0.543097 0.517110
0.532654 0.545050 0.519063
0.537406 0.547003 0.521016
0.542158 0.548956 0.522968
0.546909 0.550909 0.524921
0.551661 0.552861 0.526874
0.415034 0.416234 0.437831
0.419786 0.418187 0.439784
0.424538 0.420139 0.441737
0.429289 0.422092 0.443689
0.434041 0.424045 0.445642
0.438793 0.425998 0.447595
0.443545 0.427951 0.449548
0.448297 0.429904 0.451501
0.453049 0.431856 0.453454
0.457801 0.433809 0.455407
0.462553 0.435762 0.457359
0.467305 0.437715 0.459312
0.472057 0.439668 0.461265
0.476809 0.441621 0.463218
0.481561 0.443573 0.465171
0.486313 0.445526 0.467124
0.491065 0.447479 0.469076
0.418868 0.422867 0.441665
