shared/src/main/assets/luts/film_retro_neon.cube
TITLE "DALUR Retro Neon"
LUT_3D_SIZE 17
DOMAIN_MIN 0.0 0.0 0.0
DOMAIN_MAX 1.0 1.0 1.0
0.434000 0.443000 0.446000
0.436674 0.444950 0.447950
0.439348 0.446899 0.449899
0.442022 0.448849 0.451849
0.444696 0.450798 0.453798
0.447370 0.452748 0.455748
0.450044 0.454697 0.457697
0.452718 0.456647 0.459647
0.455392 0.458596 0.461596
0.458066 0.460546 0.463546
0.460740 0.462495 0.465495
0.463413 0.464445 0.467445
0.466087 0.466394 0.469394
0.468761 0.468344 0.471344
0.471435 0.470293 0.473293
0.474109 0.472243 0.475243
0.476783 0.474192 0.477192
0.437827 0.447552 0.449827
0.440501 0.449501 0.451777
0.443175 0.451451 0.453726
0.445849 0.453400 0.455676
0.448523 0.455350 0.457625
0.451197 0.457299 0.459575
0.453871 0.459249 0.461524
0.456545 0.461198 0.463474
0.459219 0.463148 0.465423
0.461893 0.465097 0.467373
0.464567 0.467047 0.469322
0.467241 0.468996 0.471272
0.469915 0.470946 0.473221
0.472589 0.472895 0.475171
0.475263 0.474845 0.477120
0.477937 0.476794 0.479070
0.480611 0.478744 0.481019
0.441655 0.452103 0.453655
0.444329 0.454053 0.455604
0.447002 0.456002 0.457554
0.449676 0.457952 0.459503
0.452350 0.459901 0.461453
0.455024 0.461851 0.463402
0.457698 0.463800 0.465352
0.460372 0.465750 0.467301
0.463046 0.467699 0.469251
0.465720 0.469649 0.471200
0.468394 0.471598 0.473150
0.471068 0.473548 0.475099
0.473742 0.475497 0.477049
0.476416 0.477447 0.478998
0.479090 0.479396 0.480948
0.481764 0.481346 0.482897
0.484438 0.483295 0.484847
0.445482 0.456655 0.457482
0.448156 0.458605 0.459431
0.450830 0.460554 0.461381
0.453504 0.462504 0.463330
0.456178 0.464453 0.465280
0.458852 0.466403 0.467229
0.461526 0.468352 0.469179
0.464200 0.470302 0.471128
0.466873 0.472251 0.473078
0.469547 0.474201 0.475027
0.472221 0.476150 0.476977
0.474895 0.478100 0.478926
0.477569 0.480049 0.480876
0.480243 0.481999 0.482825
0.482917 0.483948 0.484775
0.485591 0.485898 0.486724
0.488265 0.487847 0.488674
0.449309 0.461207 0.461309
0.451983 0.463156 0.463259
0.454657 0.465106 0.465208
0.457331 0.467055 0.467158
0.460005 0.469005 0.469107
0.462679 0.470954 0.471057
0.465353 0.472904 0.473006
0.468027 0.474853 0.474956
0.470701 0.476803 0.476905
0.473375 0.478752 0.478855
0.476049 0.480702 0.480804
0.478723 0.482651 0.482754
0.481397 0.484601 0.484703
0.484071 0.486550 0.486653
0.486744 0.488500 0.488602
0.489418 0.490449 0.490552
0.492092 0.492399 0.492501
0.453136 0.465759 0.465136
0.455810 0.467708 0.467086
0.458484 0.469658 0.469035
0.461158 0.471607 0.470985
0.463832 0.473557 0.472934
0.466506 0.475506 0.474884
0.469180 0.477456 0.476833
0.471854 0.479405 0.478783
0.474528 0.481355 0.480732
0.477202 0.483304 0.482682
0.479876 0.485254 0.484631
0.482550 0.487203 0.486581
0.485224 0.489153 0.488530
0.487898 0.491102 0.490480
0.490572 0.493052 0.492429
0.493246 0.495001 0.494379
0.495920 0.496951 0.496328
0.456964 0.470310 0.468964
0.459638 0.472260 0.470913
0.462312 0.474209 0.472863
0.464986 0.476159 0.474812
0.467660 0.478108 0.476762
0.470333 0.480058 0.478711
0.473007 0.482007 0.480661
0.475681 0.483957 0.482610
0.478355 0.485906 0.484560
0.481029 0.487856 0.486509
0.483703 0.489805 0.488459
0.486377 0.491755 0.490408
0.489051 0.493704 0.492358
0.491725 0.495654 0.494307
0.494399 0.497603 0.496257
0.497073 0.499553 0.498206
0.499747 0.501502 0.500156
0.460791 0.474862 0.472791
0.463465 0.476812 0.474740
0.466139 0.478761 0.476690
0.468813 0.480711 0.478639
0.471487 0.482660 0.480589
0.474161 0.484610 0.482538
0.476835 0.486559 0.484488
0.479509 0.488509 0.486437
0.482183 0.490458 0.488387
0.484857 0.492408 0.490336
0.487531 0.494357 0.492286
0.490204 0.496307 0.494235
0.492878 0.498256 0.496185
0.495552 0.500206 0.498134
0.498226 0.502155 0.500084
0.500900 0.504105 0.502033
0.503574 0.506054 0.503983
0.464618 0.479414 0.476618
0.467292 0.481363 0.478568
0.469966 0.483313 0.480517
0.472640 0.485262 0.482467
0.475314 0.487212 0.484416
0.477988 0.489161 0.486366
0.480662 0.491111 0.488315
0.483336 0.493060 0.490265
0.486010 0.495010 0.492214
0.488684 0.496959 0.494164
0.491358 0.498909 0.496113
0.494032 0.500858 0.498063
0.496706 0.502808 0.500012
0.499380 0.504757 0.501962
0.502054 0.506707 0.503911
0.504728 0.508656 0.505861
0.507402 0.510606 0.507810
0.468446 0.483966 0.480446
0.471119 0.485915 0.482395
0.473793 0.487865 0.484345
0.476467 0.489814 0.486294
0.479141 0.491764 0.488244
0.481815 0.493713 0.490193
0.484489 0.495663 0.492143
0.487163 0.497612 0.494092
0.489837 0.499562 0.496042
0.492511 0.501511 0.497991
0.495185 0.503461 0.499941
0.497859 0.505410 0.501890
0.500533 0.507360 0.503840
0.503207 0.509309 0.505789
0.505881 0.511259 0.507739
0.508555 0.513208 0.509688
0.511229 0.515158 0.511638
0.472273 0.488517 0.484273
0.474947 0.490467 0.486222
0.477621 0.492416 0.488172
0.480295 0.494366 0.490121
0.482969 0.496315 0.492071
0.485643 0.498265 0.494020
0.488317 0.500214 0.495970
0.490990 0.502164 0.497919
0.493664 0.504113 0.499869
0.496338 0.506063 0.501818
0.499012 0.508012 0.503768
0.501686 0.509962 0.505717
0.504360 0.511911 0.507667
0.507034 0.513861 0.509616
0.509708 0.515810 0.511566
0.512382 0.517760 0.513515
0.515056 0.519709 0.515465
0.476100 0.493069 0.488100
0.478774 0.495019 0.490050
0.481448 0.496968 0.491999
0.484122 0.498918 0.493949
0.486796 0.500867 0.495898
0.489470 0.502817 0.497848
0.492144 0.504766 0.499797
0.494818 0.506716 0.501747
0.497492 0.508665 0.503696
0.500166 0.510615 0.505646
0.502840 0.512564 0.507595
0.505514 0.514514 0.509545
0.508188 0.516463 0.511494
0.510861 0.518413 0.513444
0.513535 0.520362 0.515393
0.516209 0.522312 0.517343
0.518883 0.524261 0.519292
0.479927 0.497621 0.491927
0.482601 0.499570 0.493877
0.485275 0.501520 0.495826
0.487949 0.503469 0.497776
0.490623 0.505419 0.499725
0.493297 0.507368 0.501675
0.495971 0.509318 0.503624
0.498645 0.511267 0.505574
0.501319 0.513217 0.507523
0.503993 0.515166 0.509473
0.506667 0.517116 0.511422
0.509341 0.519065 0.513372
0.512015 0.521015 0.515321
0.514689 0.522964 0.517271
0.517363 0.524914 0.519220
0.520037 0.526863 0.521170
0.522711 0.528813 0.523119
0.483755 0.502173 0.495755
0.486429 0.504122 0.497704
0.489103 0.506072 0.499654
0.491777 0.508021 0.501603
0.494450 0.509971 0.503553
0.497124 0.511920 0.505502
0.499798 0.513870 0.507452
0.502472 0.515819 0.509401
0.505146 0.517769 0.511351
0.507820 0.519718 0.513300
0.510494 0.521668 0.515250
0.513168 0.523617 0.517199
0.515842 0.525567 0.519149
0.518516 0.527516 0.521098
0.521190 0.529466 0.523048
0.523864 0.531415 0.524997
0.526538 0.533365 0.526947
0.487582 0.506724 0.499582
0.490256 0.508674 0.501531
0.492930 0.510623 0.503481
0.495604 0.512573 0.505430
0.498278 0.514522 0.507380
0.500952 0.516472 0.509329
0.503626 0.518421 0.511279
0.506300 0.520371 0.513228
0.508974 0.522320 0.515178
0.511648 0.524270 0.517127
0.514321 0.526219 0.519077
0.516995 0.528169 0.521026
0.519669 0.530118 0.522976
0.522343 0.532068 0.524925
0.525017 0.534017 0.526875
0.527691 0.535967 0.528824
0.530365 0.537916 0.530774
0.491409 0.511276 0.503409
0.494083 0.513226 0.505359
0.496757 0.515175 0.507308
0.499431 0.517125 0.509258
0.502105 0.519074 0.511207
0.504779 0.521024 0.513157
0.507453 0.522973 0.515106
0.510127 0.524923 0.517056
0.512801 0.526872 0.519005
0.515475 0.528822 0.520955
0.518149 0.530771 0.522904
0.520823 0.532721 0.524854
0.523497 0.534670 0.526803
0.526171 0.536620 0.528753
0.528845 0.538569 0.530702
0.531519 0.540519 0.532652
0.534192 0.542468 0.534601
0.495236 0.515828 0.507236
0.497910 0.517777 0.509186
0.500584 0.519727 0.511136
0.503258 0.521676 0.513085
0.505932 0.523626 0.515035
0.508606 0.525575 0.516984
0.511280 0.527525 0.518934
0.513954 0.529474 0.520883
0.516628 0.531424 0.522833
0.519302 0.533373 0.524782
0.521976 0.535323 0.526732
0.524650 0.537272 0.528681
0.527324 0.539222 0.530631
0.529998 0.541171 0.532580
0.532672 0.543121 0.534530
0.535346 0.545070 0.536479
0.538020 0.547020 0.538429
0.434743 0.443743 0.447468
0.437417 0.445693 0.449417
0.440091 0.447642 0.451367
0.442765 0.449592 0.453316
0.445439 0.451541 0.455266
0.448113 0.453491 0.457215
0.450787 0.455440 0.459165
0.453461 0.457390 0.461114
0.456135 0.459339 0.463064
0.458809 0.461289 0.465013
0.461483 0.463238 0.466963
0.464157 0.465188 0.468912
0.466831 0.467137 0.470862
0.469505 0.469087 0.472811
0.472179 0.471036 0.474761
0.474853 0.472986 0.476710
0.477527 0.474935 0.478660
0.438571 0.448295 0.451295
0.441245 0.450245 0.453245
0.443918 0.452194 0.455194
0.446592 0.454144 0.457144
0.449266 0.456093 0.459093
0.451940 0.458043 0.461043
0.454614 0.459992 0.462992
0.457288 0.461942 0.464942
0.459962 0.463891 0.466891
0.462636 0.465841 0.468841
0.465310 0.467790 0.470790
0.467984 0.469740 0.472740
0.470658 0.471689 0.474689
0.473332 0.473639 0.476639
0.476006 0.475588 0.478588
0.478680 0.477538 0.480538
0.481354 0.479487 0.482487
0.442398 0.452847 0.455122
0.445072 0.454796 0.457072
0.447746 0.456746 0.459021
0.450420 0.458695 0.460971
0.453094 0.460645 0.462920
0.455768 0.462594 0.464870
0.458442 0.464544 0.466819
0.461116 0.466493 0.468769
0.463789 0.468443 0.470718
0.466463 0.470392 0.472668
0.469137 0.472342 0.474617
0.471811 0.474291 0.476567
0.474485 0.476241 0.478516
0.477159 0.478190 0.480466
0.479833 0.480140 0.482415
0.482507 0.482089 0.484365
0.485181 0.484039 0.486314
0.446225 0.457398 0.458950
0.448899 0.459348 0.460899
0.451573 0.461297 0.462849
0.454247 0.463247 0.464798
0.456921 0.465196 0.466748
0.459595 0.467146 0.468697
0.462269 0.469095 0.470647
0.464943 0.471045 0.472596
0.467617 0.472994 0.474546
0.470291 0.474944 0.476495
0.472965 0.476893 0.478445
0.475639 0.478843 0.480394
0.478313 0.480793 0.482344
0.480987 0.482742 0.484293
0.483660 0.484692 0.486243
0.486334 0.486641 0.488192
0.489008 0.488591 0.490142
0.450052 0.461950 0.462777
0.452726 0.463900 0.464726
0.455400 0.465849 0.466676
0.458074 0.467799 0.468625
0.460748 0.469748 0.470575
0.463422 0.471698 0.472524
0.466096 0.473647 0.474474
0.468770 0.475597 0.476423
0.471444 0.477546 0.478373
0.474118 0.479496 0.480322
0.476792 0.481445 0.482272
0.479466 0.483395 0.484221
0.482140 0.485344 0.486171
0.484814 0.487294 0.488120
0.487488 0.489243 0.490070
0.490162 0.491193 0.492019
0.492836 0.493142 0.493969
0.453880 0.466502 0.466604
0.456554 0.468451 0.468554
0.459228 0.470401 0.470503
0.461902 0.472350 0.472453
0.464576 0.474300 0.474402
0.467249 0.476249 0.476352
0.469923 0.478199 0.478301
0.472597 0.480148 0.480251
0.475271 0.482098 0.482200
0.477945 0.484047 0.484150
0.480619 0.485997 0.486099
0.483293 0.487946 0.488049
0.485967 0.489896 0.489998
0.488641 0.491845 0.491948
0.491315 0.493795 0.493897
0.493989 0.495744 0.495847
0.496663 0.497694 0.497796
0.457707 0.471054 0.470431
0.460381 0.473003 0.472381
0.463055 0.474953 0.474330
0.465729 0.476902 0.476280
0.468403 0.478852 0.478229
0.471077 0.480801 0.480179
0.473751 0.482751 0.482128
0.476425 0.484700 0.484078
0.479099 0.486650 0.486027
0.481773 0.488599 0.487977
0.484447 0.490549 0.489926
0.487120 0.492498 0.491876
0.489794 0.494448 0.493825
0.492468 0.496397 0.495775
0.495142 0.498347 0.497724
0.497816 0.500296 0.499674
0.500490 0.502246 0.501623
0.461534 0.475605 0.474259
0.464208 0.477555 0.476208
0.466882 0.479504 0.478158
0.469556 0.481454 0.480107
0.472230 0.483403 0.482057
0.474904 0.485353 0.484006
0.477578 0.487302 0.485956
0.480252 0.489252 0.487905
0.482926 0.491201 0.489855
0.485600 0.493151 0.491804
0.488274 0.495100 0.493754
0.490948 0.497050 0.495703
0.493622 0.498999 0.497653
0.496296 0.500949 0.499602
0.498970 0.502898 0.501552
0.501644 0.504848 0.503501
0.504318 0.506797 0.505451
0.465362 0.480157 0.478086
0.468035 0.482107 0.480035
0.470709 0.484056 0.481985
0.473383 0.486006 0.483934
0.476057 0.487955 0.485884
0.478731 0.489905 0.487833
0.481405 0.491854 0.489783
0.484079 0.493804 0.491732
0.486753 0.495753 0.493682
0.489427 0.497703 0.495631
0.492101 0.499652 0.497581
0.494775 0.501602 0.499531
0.497449 0.503551 0.501480
0.500123 0.505501 0.503430
0.502797 0.507450 0.505379
0.505471 0.509400 0.507329
0.508145 0.511349 0.509278
0.469189 0.484709 0.481913
0.471863 0.486658 0.483863
0.474537 0.488608 0.485812
0.477211 0.490557 0.487762
0.479885 0.492507 0.489711
0.482559 0.494456 0.491661
0.485233 0.496406 0.493610
0.487906 0.498355 0.495560
0.490580 0.500305 0.497509
0.493254 0.502254 0.499459
0.495928 0.504204 0.501408
0.498602 0.506153 0.503358
0.501276 0.508103 0.505307
0.503950 0.510052 0.507257
0.506624 0.512002 0.509206
0.509298 0.513951 0.511156
0.511972 0.515901 0.513105
0.473016 0.489261 0.485741
0.475690 0.491210 0.487690
0.478364 0.493160 0.489640
0.481038 0.495109 0.491589
0.483712 0.497059 0.493539
0.486386 0.499008 0.495488
0.489060 0.500958 0.497438
0.491734 0.502907 0.499387
0.494408 0.504857 0.501337
0.497082 0.506806 0.503286
0.499756 0.508756 0.505236
0.502430 0.510705 0.507185
0.505104 0.512655 0.509135
0.507777 0.514604 0.511084
0.510451 0.516554 0.513034
0.513125 0.518503 0.514983
0.515799 0.520453 0.516933
0.476843 0.493812 0.489568
0.479517 0.495762 0.491517
0.482191 0.497711 0.493467
0.484865 0.499661 0.495416
0.487539 0.501610 0.497366
0.490213 0.503560 0.499315
0.492887 0.505509 0.501265
0.495561 0.507459 0.503214
0.498235 0.509408 0.505164
0.500909 0.511358 0.507113
0.503583 0.513307 0.509063
0.506257 0.515257 0.511012
0.508931 0.517206 0.512962
0.511605 0.519156 0.514911
0.514279 0.521105 0.516861
0.516953 0.523055 0.518810
0.519627 0.525004 0.520760
0.480671 0.498364 0.493395
0.483345 0.500314 0.495345
0.486019 0.502263 0.497294
0.488693 0.504213 0.499244
0.491366 0.506162 0.501193
0.494040 0.508112 0.503143
0.496714 0.510061 0.505092
0.499388 0.512011 0.507042
0.502062 0.513960 0.508991
0.504736 0.515910 0.510941
0.507410 0.517859 0.512890
0.510084 0.519809 0.514840
0.512758 0.521758 0.516789
0.515432 0.523708 0.518739
0.518106 0.525657 0.520688
0.520780 0.527607 0.522638
0.523454 0.529556 0.524587
0.484498 0.502916 0.497222
0.487172 0.504865 0.499172
0.489846 0.506815 0.501121
0.492520 0.508764 0.503071
0.495194 0.510714 0.505020
0.497868 0.512663 0.506970
0.500542 0.514613 0.508919
0.503216 0.516562 0.510869
0.505890 0.518512 0.512818
0.508564 0.520461 0.514768
0.511237 0.522411 0.516717
0.513911 0.524360 0.518667
0.516585 0.526310 0.520616
0.519259 0.528259 0.522566
0.521933 0.530209 0.524515
0.524607 0.532158 0.526465
0.527281 0.534108 0.528414
0.488325 0.507468 0.501050
0.490999 0.509417 0.502999
0.493673 0.511367 0.504949
0.496347 0.513316 0.506898
0.499021 0.515266 0.508848
0.501695 0.517215 0.510797
0.504369 0.519165 0.512747
0.507043 0.521114 0.514696
0.509717 0.523064 0.516646
0.512391 0.525013 0.518595
0.515065 0.526963 0.520545
0.517739 0.528912 0.522494
0.520413 0.530862 0.524444
0.523087 0.532811 0.526393
0.525761 0.534761 0.528343
0.528435 0.536710 0.530292
0.531108 0.538660 0.532242
0.492153 0.512019 0.504877
0.494826 0.513969 0.506826
0.497500 0.515918 0.508776
0.500174 0.517868 0.510725
0.502848 0.519817 0.512675
0.505522 0.521767 0.514624
0.508196 0.523716 0.516574
0.510870 0.525666 0.518523
0.513544 0.527615 0.520473
0.516218 0.529565 0.522422
0.518892 0.531514 0.524372
0.521566 0.533464 0.526321
0.524240 0.535413 0.528271
0.526914 0.537363 0.530220
0.529588 0.539312 0.532170
0.532262 0.541262 0.534119
0.534936 0.543211 0.536069
0.495980 0.516571 0.508704
0.498654 0.518521 0.510654
0.501328 0.520470 0.512603
0.504002 0.522420 0.514553
0.506676 0.524369 0.516502
0.509350 0.526319 0.518452
0.512024 0.528268 0.520401
0.514697 0.530218 0.522351
0.517371 0.532167 0.524300
0.520045 0.534117 0.526250
0.522719 0.536066 0.528199
0.525393 0.538016 0.530149
0.528067 0.539965 0.532098
0.530741 0.541915 0.534048
0.533415 0.543864 0.535997
0.536089 0.545814 0.537947
0.538763 0.547763 0.539896
0.435487 0.444487 0.448935
0.438161 0.446436 0.450885
0.440834 0.448386 0.452834
0.443508 0.450335 0.454784
0.446182 0.452285 0.456733
0.448856 0.454234 0.458683
0.451530 0.456184 0.460632
0.454204 0.458133 0.462582
0.456878 0.460083 0.464531
0.459552 0.462032 0.466481
0.462226 0.463982 0.468430
0.464900 0.465931 0.470380
0.467574 0.467881 0.472329
0.470248 0.469830 0.474279
0.472922 0.471780 0.476228
0.475596 0.473729 0.478178
0.478270 0.475679 0.480127
0.439314 0.449038 0.452763
0.441988 0.450988 0.454712
0.444662 0.452937 0.456662
0.447336 0.454887 0.458611
0.450010 0.456836 0.460561
0.452684 0.458786 0.462510
0.455358 0.460735 0.464460
0.458032 0.462685 0.466409
0.460705 0.464634 0.468359
0.463379 0.466584 0.470308
0.466053 0.468533 0.472258
0.468727 0.470483 0.474207
0.471401 0.472432 0.476157
0.474075 0.474382 0.478106
0.476749 0.476331 0.480056
0.479423 0.478281 0.482005
0.482097 0.480230 0.483955
0.443141 0.453590 0.456590
0.445815 0.455540 0.458540
0.448489 0.457489 0.460489
0.451163 0.459439 0.462439
0.453837 0.461388 0.464388
0.456511 0.463338 0.466338
0.459185 0.465287 0.468287
0.461859 0.467237 0.470237
0.464533 0.469186 0.472186
0.467207 0.471136 0.474136
0.469881 0.473085 0.476085
0.472555 0.475035 0.478035
0.475229 0.476984 0.479984
0.477903 0.478934 0.481934
0.480576 0.480883 0.483883
0.483250 0.482833 0.485833
0.485924 0.484782 0.487782
0.446968 0.458142 0.460417
0.449642 0.460091 0.462367
0.452316 0.462041 0.464316
0.454990 0.463990 0.466266
0.457664 0.465940 0.468215
0.460338 0.467889 0.470165
0.463012 0.469839 0.472114
0.465686 0.471788 0.474064
0.468360 0.473738 0.476013
0.471034 0.475687 0.477963
0.473708 0.477637 0.479912
0.476382 0.479586 0.481862
0.479056 0.481536 0.483811
0.481730 0.483485 0.485761
0.484404 0.485435 0.487710
0.487078 0.487384 0.489660
0.489752 0.489334 0.491609
0.450796 0.462694 0.464245
0.453470 0.464643 0.466194
0.456144 0.466593 0.468144
0.458818 0.468542 0.470093
0.461492 0.470492 0.472043
0.464165 0.472441 0.473992
0.466839 0.474391 0.475942
0.469513 0.476340 0.477891
0.472187 0.478290 0.479841
0.474861 0.480239 0.481790
0.477535 0.482189 0.483740
0.480209 0.484138 0.485689
0.482883 0.486088 0.487639
0.485557 0.488037 0.489588
0.488231 0.489987 0.491538
0.490905 0.491936 0.493487
0.493579 0.493886 0.495437
0.454623 0.467245 0.468072
0.457297 0.469195 0.470021
0.459971 0.471144 0.471971
0.462645 0.473094 0.473920
0.465319 0.475043 0.475870
0.467993 0.476993 0.477819
0.470667 0.478942 0.479769
0.473341 0.480892 0.481718
0.476015 0.482841 0.483668
0.478689 0.484791 0.485617
0.481363 0.486740 0.487567
0.484036 0.488690 0.489516
0.486710 0.490639 0.491466
0.489384 0.492589 0.493415
0.492058 0.494538 0.495365
0.494732 0.496488 0.497314
0.497406 0.498437 0.499264
0.458450 0.471797 0.471899
0.461124 0.473746 0.473849
0.463798 0.475696 0.475798
0.466472 0.477645 0.477748
0.469146 0.479595 0.479697
0.471820 0.481544 0.481647
0.474494 0.483494 0.483596
0.477168 0.485443 0.485546
0.479842 0.487393 0.487495
0.482516 0.489342 0.489445
0.485190 0.491292 0.491394
0.487864 0.493241 0.493344
0.490538 0.495191 0.495293
0.493212 0.497140 0.497243
0.495886 0.499090 0.499192
0.498560 0.501039 0.501142
0.501234 0.502989 0.503091
0.462278 0.476349 0.475726
0.464951 0.478298 0.477676
0.467625 0.480248 0.479625
0.470299 0.482197 0.481575
0.472973 0.484147 0.483524
0.475647 0.486096 0.485474
0.478321 0.488046 0.487423
0.480995 0.489995 0.489373
0.483669 0.491945 0.491322
0.486343 0.493894 0.493272
0.489017 0.495844 0.495221
0.491691 0.497793 0.497171
0.494365 0.499743 0.499120
0.497039 0.501692 0.501070
0.499713 0.503642 0.503019
0.502387 0.505591 0.504969
0.505061 0.507541 0.506918
0.466105 0.480900 0.479554
0.468779 0.482850 0.481503
0.471453 0.484799 0.483453
0.474127 0.486749 0.485402
0.476801 0.488698 0.487352
0.479475 0.490648 0.489301
0.482149 0.492597 0.491251
0.484822 0.494547 0.493200
0.487496 0.496496 0.495150
0.490170 0.498446 0.497099
0.492844 0.500395 0.499049
0.495518 0.502345 0.500998
0.498192 0.504294 0.502948
0.500866 0.506244 0.504897
0.503540 0.508193 0.506847
0.506214 0.510143 0.508796
0.508888 0.512092 0.510746
0.469932 0.485452 0.483381
0.472606 0.487402 0.485331
0.475280 0.489351 0.487280
0.477954 0.491301 0.489230
0.480628 0.493250 0.491179
0.483302 0.495200 0.493129
0.485976 0.497149 0.495078
0.488650 0.499099 0.497028
0.491324 0.501048 0.498977
0.493998 0.502998 0.500927
0.496672 0.504947 0.502876
0.499346 0.506897 0.504826
0.502020 0.508846 0.506775
0.504693 0.510796 0.508725
0.507367 0.512745 0.510674
0.510041 0.514695 0.512624
0.512715 0.516644 0.514573
0.473759 0.490004 0.487208
0.476433 0.491953 0.489158
0.479107 0.493903 0.491107
0.481781 0.495852 0.493057
0.484455 0.497802 0.495006
0.487129 0.499751 0.496956
0.489803 0.501701 0.498905
0.492477 0.503650 0.500855
0.495151 0.505600 0.502804
0.497825 0.507549 0.504754
0.500499 0.509499 0.506703
0.503173 0.511448 0.508653
0.505847 0.513398 0.510602
0.508521 0.515347 0.512552
0.511195 0.517297 0.514501
0.513869 0.519246 0.516451
0.516543 0.521196 0.518400
0.477587 0.494556 0.491036
0.480261 0.496505 0.492985
0.482935 0.498455 0.494935
0.485609 0.500404 0.496884
0.488282 0.502354 0.498834
0.490956 0.504303 0.500783
0.493630 0.506253 0.502733
0.496304 0.508202 0.504682
0.498978 0.510152 0.506632
0.501652 0.512101 0.508581
0.504326 0.514051 0.510531
0.507000 0.516000 0.512480
0.509674 0.517950 0.514430
0.512348 0.519899 0.516379
0.515022 0.521849 0.518329
0.517696 0.523798 0.520278
0.520370 0.525748 0.522228
0.481414 0.499107 0.494863
0.484088 0.501057 0.496812
0.486762 0.503006 0.498762
0.489436 0.504956 0.500711
0.492110 0.506905 0.502661
0.494784 0.508855 0.504610
0.497458 0.510804 0.506560
0.500132 0.512754 0.508509
0.502806 0.514703 0.510459
0.505480 0.516653 0.512408
0.508153 0.518602 0.514358
0.510827 0.520552 0.516307
0.513501 0.522501 0.518257
0.516175 0.524451 0.520206
0.518849 0.526400 0.522156
0.521523 0.528350 0.524105
0.524197 0.530299 0.526055
0.485241 0.503659 0.498690
0.487915 0.505609 0.500640
0.490589 0.507558 0.502589
0.493263 0.509508 0.504539
0.495937 0.511457 0.506488
0.498611 0.513407 0.508438
0.501285 0.515356 0.510387
0.503959 0.517306 0.512337
0.506633 0.519255 0.514286
0.509307 0.521205 0.516236
0.511981 0.523154 0.518185
0.514655 0.525104 0.520135
0.517329 0.527053 0.522084
0.520003 0.529003 0.524034
0.522677 0.530952 0.525983
0.525351 0.532902 0.527933
0.528024 0.534851 0.529882
0.489069 0.508211 0.502517
0.491742 0.510160 0.504467
0.494416 0.512110 0.506416
0.497090 0.514059 0.508366
0.499764 0.516009 0.510315
0.502438 0.517958 0.512265
0.505112 0.519908 0.514214
0.507786 0.521857 0.516164
0.510460 0.523807 0.518113
0.513134 0.525756 0.520063
0.515808 0.527706 0.522012
0.518482 0.529655 0.523962
0.521156 0.531605 0.525911
0.523830 0.533554 0.527861
0.526504 0.535504 0.529810
0.529178 0.537453 0.531760
0.531852 0.539403 0.533709
0.492896 0.512763 0.506345
0.495570 0.514712 0.508294
0.498244 0.516662 0.510244
0.500918 0.518611 0.512193
0.503592 0.520561 0.514143
0.506266 0.522510 0.516092
0.508940 0.524460 0.518042
0.511613 0.526409 0.519991
0.514287 0.528359 0.521941
0.516961 0.530308 0.523890
0.519635 0.532258 0.525840
0.522309 0.534207 0.527789
0.524983 0.536157 0.529739
0.527657 0.538106 0.531688
0.530331 0.540056 0.533638
0.533005 0.542005 0.535587
0.535679 0.543955 0.537537
0.496723 0.517314 0.510172
0.499397 0.519264 0.512121
0.502071 0.521213 0.514071
0.504745 0.523163 0.516020
0.507419 0.525112 0.517970
0.510093 0.527062 0.519919
0.512767 0.529011 0.521869
0.515441 0.530961 0.523818
0.518115 0.532910 0.525768
0.520789 0.534860 0.527717
0.523463 0.536809 0.529667
0.526137 0.538759 0.531616
0.528811 0.540708 0.533566
0.531484 0.542658 0.535515
0.534158 0.544607 0.537465
0.536832 0.546557 0.539414
0.539506 0.548506 0.541364
0.436230 0.445230 0.450403
0.438904 0.447179 0.452353
0.441578 0.449129 0.454302
0.444252 0.451078 0.456252
0.446926 0.453028 0.458201
0.449600 0.454977 0.460151
0.452274 0.456927 0.462100
0.454948 0.458876 0.464050
0.457621 0.460826 0.465999
0.460295 0.462775 0.467949
0.462969 0.464725 0.469898
0.465643 0.466674 0.471848
0.468317 0.468624 0.473797
0.470991 0.470573 0.475747
0.473665 0.472523 0.477696
0.476339 0.474472 0.479646
0.479013 0.476422 0.481595
0.440057 0.449782 0.454231
