shared/src/main/assets/luts/film_soft_coral.cube
TITLE "DALUR Soft Coral"
LUT_3D_SIZE 17
DOMAIN_MIN 0.0 0.0 0.0
DOMAIN_MAX 1.0 1.0 1.0
0.522000 0.507000 0.498000
0.521499 0.506634 0.497634
0.520997 0.506269 0.497269
0.520496 0.505903 0.496903
0.519994 0.505538 0.496538
0.519493 0.505172 0.496172
0.518992 0.504807 0.495807
0.518490 0.504441 0.495441
0.517989 0.504076 0.495076
0.517487 0.503710 0.494710
0.516986 0.503344 0.494344
0.516485 0.502979 0.493979
0.515983 0.502613 0.493613
0.515482 0.502248 0.493248
0.514981 0.501882 0.492882
0.514479 0.501517 0.492517
0.513978 0.501151 0.492151
0.521282 0.506147 0.497282
0.520781 0.505781 0.496917
0.520280 0.505415 0.496551
0.519778 0.505050 0.496186
0.519277 0.504684 0.495820
0.518775 0.504319 0.495455
0.518274 0.503953 0.495089
0.517773 0.503588 0.494723
0.517271 0.503222 0.494358
0.516770 0.502857 0.493992
0.516268 0.502491 0.493627
0.515767 0.502125 0.493261
0.515266 0.501760 0.492896
0.514764 0.501394 0.492530
0.514263 0.501029 0.492165
0.513761 0.500663 0.491799
0.513260 0.500298 0.491434
0.520565 0.505293 0.496565
0.520063 0.504927 0.496199
0.519562 0.504562 0.495834
0.519061 0.504196 0.495468
0.518559 0.503831 0.495102
0.518058 0.503465 0.494737
0.517556 0.503100 0.494371
0.517055 0.502734 0.494006
0.516554 0.502369 0.493640
0.516052 0.502003 0.493275
0.515551 0.501638 0.492909
0.515049 0.501272 0.492544
0.514548 0.500906 0.492178
0.514047 0.500541 0.491813
0.513545 0.500175 0.491447
0.513044 0.499810 0.491081
0.512542 0.499444 0.490716
0.519847 0.504440 0.495847
0.519346 0.504074 0.495481
0.518844 0.503708 0.495116
0.518343 0.503343 0.494750
0.517841 0.502977 0.494385
0.517340 0.502612 0.494019
0.516839 0.502246 0.493654
0.516337 0.501881 0.493288
0.515836 0.501515 0.492923
0.515335 0.501150 0.492557
0.514833 0.500784 0.492192
0.514332 0.500418 0.491826
0.513830 0.500053 0.491460
0.513329 0.499687 0.491095
0.512828 0.499322 0.490729
0.512326 0.498956 0.490364
0.511825 0.498591 0.489998
0.519129 0.503586 0.495129
0.518628 0.503220 0.494764
0.518127 0.502855 0.494398
0.517625 0.502489 0.494033
0.517124 0.502124 0.493667
0.516622 0.501758 0.493302
0.516121 0.501393 0.492936
0.515620 0.501027 0.492571
0.515118 0.500662 0.492205
0.514617 0.500296 0.491839
0.514115 0.499931 0.491474
0.513614 0.499565 0.491108
0.513113 0.499199 0.490743
0.512611 0.498834 0.490377
0.512110 0.498468 0.490012
0.511609 0.498103 0.489646
0.511107 0.497737 0.489281
0.518412 0.502733 0.494412
0.517910 0.502367 0.494046
0.517409 0.502001 0.493681
0.516908 0.501636 0.493315
0.516406 0.501270 0.492950
0.515905 0.500905 0.492584
0.515403 0.500539 0.492218
0.514902 0.500174 0.491853
0.514401 0.499808 0.491487
0.513899 0.499443 0.491122
0.513398 0.499077 0.490756
0.512896 0.498711 0.490391
0.512395 0.498346 0.490025
0.511894 0.497980 0.489660
0.511392 0.497615 0.489294
0.510891 0.497249 0.488928
0.510389 0.496884 0.488563
0.517694 0.501879 0.493694
0.517193 0.501513 0.493329
0.516691 0.501148 0.492963
0.516190 0.500782 0.492597
0.515689 0.500417 0.492232
0.515187 0.500051 0.491866
0.514686 0.499686 0.491501
0.514184 0.499320 0.491135
0.513683 0.498955 0.490770
0.513182 0.498589 0.490404
0.512680 0.498224 0.490039
0.512179 0.497858 0.489673
0.511677 0.497492 0.489307
0.511176 0.497127 0.488942
0.510675 0.496761 0.488576
0.510173 0.496396 0.488211
0.509672 0.496030 0.487845
0.516976 0.501026 0.492976
0.516475 0.500660 0.492611
0.515974 0.500294 0.492245
0.515472 0.499929 0.491880
0.514971 0.499563 0.491514
0.514469 0.499198 0.491149
0.513968 0.498832 0.490783
0.513467 0.498467 0.490418
0.512965 0.498101 0.490052
0.512464 0.497736 0.489686
0.511963 0.497370 0.489321
0.511461 0.497004 0.488955
0.510960 0.496639 0.488590
0.510458 0.496273 0.488224
0.509957 0.495908 0.487859
0.509456 0.495542 0.487493
0.508954 0.495177 0.487128
0.516259 0.500172 0.492259
0.515757 0.499806 0.491893
0.515256 0.499441 0.491528
0.514755 0.499075 0.491162
0.514253 0.498710 0.490797
0.513752 0.498344 0.490431
0.513250 0.497979 0.490065
0.512749 0.497613 0.489700
0.512248 0.497248 0.489334
0.511746 0.496882 0.488969
0.511245 0.496517 0.488603
0.510743 0.496151 0.488238
0.510242 0.495785 0.487872
0.509741 0.495420 0.487507
0.509239 0.495054 0.487141
0.508738 0.494689 0.486776
0.508237 0.494323 0.486410
0.515541 0.499319 0.491541
0.515040 0.498953 0.491176
0.514538 0.498587 0.490810
0.514037 0.498222 0.490444
0.513536 0.497856 0.490079
0.513034 0.497491 0.489713
0.512533 0.497125 0.489348
0.512031 0.496760 0.488982
0.511530 0.496394 0.488617
0.511029 0.496029 0.488251
0.510527 0.495663 0.487886
0.510026 0.495297 0.487520
0.509524 0.494932 0.487155
0.509023 0.494566 0.486789
0.508522 0.494201 0.486423
0.508020 0.493835 0.486058
0.507519 0.493470 0.485692
0.514823 0.498465 0.490823
0.514322 0.498100 0.490458
0.513821 0.497734 0.490092
0.513319 0.497368 0.489727
0.512818 0.497003 0.489361
0.512317 0.496637 0.488996
0.511815 0.496272 0.488630
0.511314 0.495906 0.488265
0.510812 0.495541 0.487899
0.510311 0.495175 0.487534
0.509810 0.494810 0.487168
0.509308 0.494444 0.486802
0.508807 0.494078 0.486437
0.508305 0.493713 0.486071
0.507804 0.493347 0.485706
0.507303 0.492982 0.485340
0.506801 0.492616 0.484975
0.514106 0.497612 0.490106
0.513604 0.497246 0.489740
0.513103 0.496880 0.489375
0.512602 0.496515 0.489009
0.512100 0.496149 0.488644
0.511599 0.495784 0.488278
0.511097 0.495418 0.487913
0.510596 0.495053 0.487547
0.510095 0.494687 0.487181
0.509593 0.494322 0.486816
0.509092 0.493956 0.486450
0.508591 0.493591 0.486085
0.508089 0.493225 0.485719
0.507588 0.492859 0.485354
0.507086 0.492494 0.484988
0.506585 0.492128 0.484623
0.506084 0.491763 0.484257
0.513388 0.496758 0.489388
0.512887 0.496393 0.489023
0.512385 0.496027 0.488657
0.511884 0.495661 0.488292
0.511383 0.495296 0.487926
0.510881 0.494930 0.487560
0.510380 0.494565 0.487195
0.509878 0.494199 0.486829
0.509377 0.493834 0.486464
0.508876 0.493468 0.486098
0.508374 0.493103 0.485733
0.507873 0.492737 0.485367
0.507371 0.492371 0.485002
0.506870 0.492006 0.484636
0.506369 0.491640 0.484270
0.505867 0.491275 0.483905
0.505366 0.490909 0.483539
0.512671 0.495905 0.488671
0.512169 0.495539 0.488305
0.511668 0.495173 0.487939
0.511166 0.494808 0.487574
0.510665 0.494442 0.487208
0.510164 0.494077 0.486843
0.509662 0.493711 0.486477
0.509161 0.493346 0.486112
0.508659 0.492980 0.485746
0.508158 0.492615 0.485381
0.507657 0.492249 0.485015
0.507155 0.491884 0.484649
0.506654 0.491518 0.484284
0.506152 0.491152 0.483918
0.505651 0.490787 0.483553
0.505150 0.490421 0.483187
0.504648 0.490056 0.482822
0.511953 0.495051 0.487953
0.511451 0.494686 0.487587
0.510950 0.494320 0.487222
0.510449 0.493954 0.486856
0.509947 0.493589 0.486491
0.509446 0.493223 0.486125
0.508945 0.492858 0.485760
0.508443 0.492492 0.485394
0.507942 0.492127 0.485028
0.507440 0.491761 0.484663
0.506939 0.491396 0.484297
0.506438 0.491030 0.483932
0.505936 0.490664 0.483566
0.505435 0.490299 0.483201
0.504933 0.489933 0.482835
0.504432 0.489568 0.482470
0.503931 0.489202 0.482104
0.511235 0.494198 0.487235
0.510734 0.493832 0.486870
0.510232 0.493466 0.486504
0.509731 0.493101 0.486139
0.509230 0.492735 0.485773
0.508728 0.492370 0.485407
0.508227 0.492004 0.485042
0.507725 0.491639 0.484676
0.507224 0.491273 0.484311
0.506723 0.490908 0.483945
0.506221 0.490542 0.483580
0.505720 0.490177 0.483214
0.505219 0.489811 0.482849
0.504717 0.489445 0.482483
0.504216 0.489080 0.482118
0.503714 0.488714 0.481752
0.503213 0.488349 0.481386
0.510518 0.493344 0.486518
0.510016 0.492979 0.486152
0.509515 0.492613 0.485786
0.509013 0.492247 0.485421
0.508512 0.491882 0.485055
0.508011 0.491516 0.484690
0.507509 0.491151 0.484324
0.507008 0.490785 0.483959
0.506506 0.490420 0.483593
0.506005 0.490054 0.483228
0.505504 0.489689 0.482862
0.505002 0.489323 0.482497
0.504501 0.488957 0.482131
0.503999 0.488592 0.481765
0.503498 0.488226 0.481400
0.502997 0.487861 0.481034
0.502495 0.487495 0.480669
0.521861 0.506861 0.497725
0.521359 0.506495 0.497359
0.520858 0.506130 0.496994
0.520356 0.505764 0.496628
0.519855 0.505398 0.496263
0.519354 0.505033 0.495897
0.518852 0.504667 0.495531
0.518351 0.504302 0.495166
0.517849 0.503936 0.494800
0.517348 0.503571 0.494435
0.516847 0.503205 0.494069
0.516345 0.502840 0.493704
0.515844 0.502474 0.493338
0.515343 0.502108 0.492973
0.514841 0.501743 0.492607
0.514340 0.501377 0.492242
0.513838 0.501012 0.491876
0.521143 0.506007 0.497007
0.520642 0.505642 0.496642
0.520140 0.505276 0.496276
0.519639 0.504910 0.495910
0.519137 0.504545 0.495545
0.518636 0.504179 0.495179
0.518135 0.503814 0.494814
0.517633 0.503448 0.494448
0.517132 0.503083 0.494083
0.516630 0.502717 0.493717
0.516129 0.502352 0.493352
0.515628 0.501986 0.492986
0.515126 0.501621 0.492621
0.514625 0.501255 0.492255
0.514123 0.500889 0.491889
0.513622 0.500524 0.491524
0.513121 0.500158 0.491158
0.520425 0.505154 0.496289
0.519924 0.504788 0.495924
0.519423 0.504423 0.495558
0.518921 0.504057 0.495193
0.518420 0.503691 0.494827
0.517918 0.503326 0.494462
0.517417 0.502960 0.494096
0.516916 0.502595 0.493731
0.516414 0.502229 0.493365
0.515913 0.501864 0.493000
0.515411 0.501498 0.492634
0.514910 0.501133 0.492268
0.514409 0.500767 0.491903
0.513907 0.500401 0.491537
0.513406 0.500036 0.491172
0.512904 0.499670 0.490806
0.512403 0.499305 0.490441
0.519708 0.504300 0.495572
0.519206 0.503935 0.495206
0.518705 0.503569 0.494841
0.518203 0.503203 0.494475
0.517702 0.502838 0.494110
0.517201 0.502472 0.493744
0.516699 0.502107 0.493379
0.516198 0.501741 0.493013
0.515697 0.501376 0.492647
0.515195 0.501010 0.492282
0.514694 0.500645 0.491916
0.514192 0.500279 0.491551
0.513691 0.499914 0.491185
0.513190 0.499548 0.490820
0.512688 0.499182 0.490454
0.512187 0.498817 0.490089
0.511685 0.498451 0.489723
0.518990 0.503447 0.494854
0.518489 0.503081 0.494489
0.517987 0.502716 0.494123
0.517486 0.502350 0.493758
0.516984 0.501984 0.493392
0.516483 0.501619 0.493026
0.515982 0.501253 0.492661
0.515480 0.500888 0.492295
0.514979 0.500522 0.491930
0.514477 0.500157 0.491564
0.513976 0.499791 0.491199
0.513475 0.499426 0.490833
0.512973 0.499060 0.490468
0.512472 0.498694 0.490102
0.511971 0.498329 0.489736
0.511469 0.497963 0.489371
0.510968 0.497598 0.489005
0.518272 0.502593 0.494137
0.517771 0.502228 0.493771
0.517270 0.501862 0.493405
0.516768 0.501497 0.493040
0.516267 0.501131 0.492674
0.515765 0.500765 0.492309
0.515264 0.500400 0.491943
0.514763 0.500034 0.491578
0.514261 0.499669 0.491212
0.513760 0.499303 0.490847
0.513258 0.498938 0.490481
0.512757 0.498572 0.490115
0.512256 0.498207 0.489750
0.511754 0.497841 0.489384
0.511253 0.497475 0.489019
0.510751 0.497110 0.488653
0.510250 0.496744 0.488288
0.517555 0.501740 0.493419
0.517053 0.501374 0.493053
0.516552 0.501009 0.492688
0.516051 0.500643 0.492322
0.515549 0.500277 0.491957
0.515048 0.499912 0.491591
0.514546 0.499546 0.491226
0.514045 0.499181 0.490860
0.513544 0.498815 0.490494
0.513042 0.498450 0.490129
0.512541 0.498084 0.489763
0.512039 0.497719 0.489398
0.511538 0.497353 0.489032
0.511037 0.496988 0.488667
0.510535 0.496622 0.488301
0.510034 0.496256 0.487936
0.509532 0.495891 0.487570
0.516837 0.500886 0.492701
0.516336 0.500521 0.492336
0.515834 0.500155 0.491970
0.515333 0.499790 0.491605
0.514831 0.499424 0.491239
0.514330 0.499058 0.490873
0.513829 0.498693 0.490508
0.513327 0.498327 0.490142
0.512826 0.497962 0.489777
0.512325 0.497596 0.489411
0.511823 0.497231 0.489046
0.511322 0.496865 0.488680
0.510820 0.496500 0.488315
0.510319 0.496134 0.487949
0.509818 0.495768 0.487584
0.509316 0.495403 0.487218
0.508815 0.495037 0.486852
0.516119 0.500033 0.491984
0.515618 0.499667 0.491618
0.515117 0.499302 0.491252
0.514615 0.498936 0.490887
0.514114 0.498570 0.490521
0.513612 0.498205 0.490156
0.513111 0.497839 0.489790
0.512610 0.497474 0.489425
0.512108 0.497108 0.489059
0.511607 0.496743 0.488694
0.511105 0.496377 0.488328
0.510604 0.496012 0.487963
0.510103 0.495646 0.487597
0.509601 0.495281 0.487231
0.509100 0.494915 0.486866
0.508599 0.494549 0.486500
0.508097 0.494184 0.486135
0.515402 0.499179 0.491266
0.514900 0.498814 0.490900
0.514399 0.498448 0.490535
0.513898 0.498083 0.490169
0.513396 0.497717 0.489804
0.512895 0.497351 0.489438
0.512393 0.496986 0.489073
0.511892 0.496620 0.488707
0.511391 0.496255 0.488342
0.510889 0.495889 0.487976
0.510388 0.495524 0.487610
0.509886 0.495158 0.487245
0.509385 0.494793 0.486879
0.508884 0.494427 0.486514
0.508382 0.494061 0.486148
0.507881 0.493696 0.485783
0.507379 0.493330 0.485417
0.514684 0.498326 0.490548
0.514183 0.497960 0.490183
0.513681 0.497595 0.489817
0.513180 0.497229 0.489452
0.512679 0.496863 0.489086
0.512177 0.496498 0.488721
0.511676 0.496132 0.488355
0.511174 0.495767 0.487989
0.510673 0.495401 0.487624
0.510172 0.495036 0.487258
0.509670 0.494670 0.486893
0.509169 0.494305 0.486527
0.508667 0.493939 0.486162
0.508166 0.493574 0.485796
0.507665 0.493208 0.485431
0.507163 0.492842 0.485065
0.506662 0.492477 0.484699
0.513966 0.497472 0.489831
0.513465 0.497107 0.489465
0.512964 0.496741 0.489100
0.512462 0.496376 0.488734
0.511961 0.496010 0.488368
0.511459 0.495644 0.488003
0.510958 0.495279 0.487637
0.510457 0.494913 0.487272
0.509955 0.494548 0.486906
0.509454 0.494182 0.486541
0.508953 0.493817 0.486175
0.508451 0.493451 0.485810
0.507950 0.493086 0.485444
0.507448 0.492720 0.485078
0.506947 0.492354 0.484713
0.506446 0.491989 0.484347
0.505944 0.491623 0.483982
0.513249 0.496619 0.489113
0.512747 0.496253 0.488747
0.512246 0.495888 0.488382
0.511745 0.495522 0.488016
0.511243 0.495156 0.487651
0.510742 0.494791 0.487285
0.510240 0.494425 0.486920
0.509739 0.494060 0.486554
0.509238 0.493694 0.486189
0.508736 0.493329 0.485823
0.508235 0.492963 0.485457
0.507733 0.492598 0.485092
0.507232 0.492232 0.484726
0.506731 0.491867 0.484361
0.506229 0.491501 0.483995
0.505728 0.491135 0.483630
0.505227 0.490770 0.483264
0.512531 0.495765 0.488395
0.512030 0.495400 0.488030
0.511528 0.495034 0.487664
0.511027 0.494669 0.487299
0.510526 0.494303 0.486933
0.510024 0.493937 0.486568
0.509523 0.493572 0.486202
0.509021 0.493206 0.485836
0.508520 0.492841 0.485471
0.508019 0.492475 0.485105
0.507517 0.492110 0.484740
0.507016 0.491744 0.484374
0.506514 0.491379 0.484009
0.506013 0.491013 0.483643
0.505512 0.490647 0.483278
0.505010 0.490282 0.482912
0.504509 0.489916 0.482546
0.511813 0.494912 0.487678
0.511312 0.494546 0.487312
0.510811 0.494181 0.486947
0.510309 0.493815 0.486581
0.509808 0.493450 0.486215
0.509307 0.493084 0.485850
0.508805 0.492718 0.485484
0.508304 0.492353 0.485119
0.507802 0.491987 0.484753
0.507301 0.491622 0.484388
0.506800 0.491256 0.484022
0.506298 0.490891 0.483657
0.505797 0.490525 0.483291
0.505295 0.490160 0.482925
0.504794 0.489794 0.482560
0.504293 0.489428 0.482194
0.503791 0.489063 0.481829
0.511096 0.494058 0.486960
0.510594 0.493693 0.486594
0.510093 0.493327 0.486229
0.509592 0.492962 0.485863
0.509090 0.492596 0.485498
0.508589 0.492230 0.485132
0.508087 0.491865 0.484767
0.507586 0.491499 0.484401
0.507085 0.491134 0.484036
0.506583 0.490768 0.483670
0.506082 0.490403 0.483304
0.505581 0.490037 0.482939
0.505079 0.489672 0.482573
0.504578 0.489306 0.482208
0.504076 0.488941 0.481842
0.503575 0.488575 0.481477
0.503074 0.488209 0.481111
0.510378 0.493205 0.486242
0.509877 0.492839 0.485877
0.509375 0.492474 0.485511
0.508874 0.492108 0.485146
0.508373 0.491743 0.484780
0.507871 0.491377 0.484415
0.507370 0.491011 0.484049
0.506868 0.490646 0.483683
0.506367 0.490280 0.483318
0.505866 0.489915 0.482952
0.505364 0.489549 0.482587
0.504863 0.489184 0.482221
0.504361 0.488818 0.481856
0.503860 0.488453 0.481490
0.503359 0.488087 0.481125
0.502857 0.487721 0.480759
0.502356 0.487356 0.480394
0.521721 0.506721 0.497450
0.521220 0.506356 0.497084
0.520718 0.505990 0.496718
0.520217 0.505625 0.496353
0.519716 0.505259 0.495987
0.519214 0.504894 0.495622
0.518713 0.504528 0.495256
0.518212 0.504162 0.494891
0.517710 0.503797 0.494525
0.517209 0.503431 0.494160
0.516707 0.503066 0.493794
0.516206 0.502700 0.493429
0.515705 0.502335 0.493063
0.515203 0.501969 0.492697
0.514702 0.501604 0.492332
0.514200 0.501238 0.491966
0.513699 0.500872 0.491601
0.521004 0.505868 0.496732
0.520502 0.505502 0.496366
0.520001 0.505137 0.496001
0.519499 0.504771 0.495635
0.518998 0.504406 0.495270
0.518497 0.504040 0.494904
0.517995 0.503674 0.494539
0.517494 0.503309 0.494173
0.516992 0.502943 0.493808
0.516491 0.502578 0.493442
0.515990 0.502212 0.493076
0.515488 0.501847 0.492711
0.514987 0.501481 0.492345
0.514486 0.501116 0.491980
0.513984 0.500750 0.491614
0.513483 0.500385 0.491249
0.512981 0.500019 0.490883
0.520286 0.505014 0.496014
0.519785 0.504649 0.495649
0.519283 0.504283 0.495283
0.518782 0.503918 0.494918
0.518280 0.503552 0.494552
0.517779 0.503187 0.494187
0.517278 0.502821 0.493821
0.516776 0.502455 0.493455
0.516275 0.502090 0.493090
0.515773 0.501724 0.492724
0.515272 0.501359 0.492359
0.514771 0.500993 0.491993
0.514269 0.500628 0.491628
0.513768 0.500262 0.491262
0.513266 0.499897 0.490897
0.512765 0.499531 0.490531
0.512264 0.499165 0.490165
0.519568 0.504161 0.495297
0.519067 0.503795 0.494931
0.518566 0.503430 0.494566
0.518064 0.503064 0.494200
0.517563 0.502699 0.493834
0.517061 0.502333 0.493469
0.516560 0.501967 0.493103
0.516059 0.501602 0.492738
0.515557 0.501236 0.492372
0.515056 0.500871 0.492007
0.514554 0.500505 0.491641
0.514053 0.500140 0.491276
0.513552 0.499774 0.490910
0.513050 0.499409 0.490544
0.512549 0.499043 0.490179
0.512047 0.498678 0.489813
0.511546 0.498312 0.489448
0.518851 0.503307 0.494579
0.518349 0.502942 0.494213
0.517848 0.502576 0.493848
0.517346 0.502211 0.493482
0.516845 0.501845 0.493117
0.516344 0.501480 0.492751
0.515842 0.501114 0.492386
0.515341 0.500748 0.492020
0.514840 0.500383 0.491655
0.514338 0.500017 0.491289
0.513837 0.499652 0.490923
0.513335 0.499286 0.490558
0.512834 0.498921 0.490192
0.512333 0.498555 0.489827
0.511831 0.498190 0.489461
0.511330 0.497824 0.489096
0.510828 0.497458 0.488730
0.518133 0.502454 0.493861
0.517632 0.502088 0.493496
0.517130 0.501723 0.493130
0.516629 0.501357 0.492765
0.516127 0.500992 0.492399
0.515626 0.500626 0.492034
0.515125 0.500260 0.491668
0.514623 0.499895 0.491302
0.514122 0.499529 0.490937
0.513620 0.499164 0.490571
0.513119 0.498798 0.490206
0.512618 0.498433 0.489840
0.512116 0.498067 0.489475
0.511615 0.497702 0.489109
0.511113 0.497336 0.488744
0.510612 0.496971 0.488378
0.510111 0.496605 0.488012
0.517415 0.501600 0.493144
0.516914 0.501235 0.492778
0.516413 0.500869 0.492413
0.515911 0.500504 0.492047
0.515410 0.500138 0.491681
0.514908 0.499773 0.491316
0.514407 0.499407 0.490950
0.513906 0.499041 0.490585
0.513404 0.498676 0.490219
0.512903 0.498310 0.489854
0.512401 0.497945 0.489488
0.511900 0.497579 0.489123
0.511399 0.497214 0.488757
0.510897 0.496848 0.488391
0.510396 0.496483 0.488026
0.509894 0.496117 0.487660
0.509393 0.495751 0.487295
0.516698 0.500747 0.492426
0.516196 0.500381 0.492060
0.515695 0.500016 0.491695
0.515194 0.499650 0.491329
0.514692 0.499285 0.490964
0.514191 0.498919 0.490598
0.513689 0.498553 0.490233
0.513188 0.498188 0.489867
0.512687 0.497822 0.489502
0.512185 0.497457 0.489136
0.511684 0.497091 0.488770
0.511182 0.496726 0.488405
0.510681 0.496360 0.488039
0.510180 0.495995 0.487674
0.509678 0.495629 0.487308
0.509177 0.495264 0.486943
0.508675 0.494898 0.486577
0.515980 0.499893 0.491708
0.515479 0.499528 0.491343
0.514977 0.499162 0.490977
0.514476 0.498797 0.490612
0.513974 0.498431 0.490246
0.513473 0.498066 0.489881
0.512972 0.497700 0.489515
0.512470 0.497334 0.489149
0.511969 0.496969 0.488784
0.511468 0.496603 0.488418
0.510966 0.496238 0.488053
0.510465 0.495872 0.487687
0.509963 0.495507 0.487322
0.509462 0.495141 0.486956
0.508961 0.494776 0.486591
0.508459 0.494410 0.486225
0.507958 0.494044 0.485860
0.515262 0.499040 0.490991
0.514761 0.498674 0.490625
0.514260 0.498309 0.490260
0.513758 0.497943 0.489894
0.513257 0.497578 0.489528
0.512755 0.497212 0.489163
0.512254 0.496847 0.488797
0.511753 0.496481 0.488432
0.511251 0.496115 0.488066
0.510750 0.495750 0.487701
0.510248 0.495384 0.487335
0.509747 0.495019 0.486970
0.509246 0.494653 0.486604
0.508744 0.494288 0.486239
0.508243 0.493922 0.485873
0.507741 0.493557 0.485507
0.507240 0.493191 0.485142
0.514545 0.498186 0.490273
0.514043 0.497821 0.489907
0.513542 0.497455 0.489542
0.513041 0.497090 0.489176
0.512539 0.496724 0.488811
0.512038 0.496359 0.488445
0.511536 0.495993 0.488080
0.511035 0.495627 0.487714
0.510534 0.495262 0.487349
0.510032 0.494896 0.486983
0.509531 0.494531 0.486618
0.509029 0.494165 0.486252
0.508528 0.493800 0.485886
0.508027 0.493434 0.485521
0.507525 0.493069 0.485155
0.507024 0.492703 0.484790
0.506522 0.492338 0.484424
0.513827 0.497333 0.489555
0.513326 0.496967 0.489190
0.512824 0.496602 0.488824
0.512323 0.496236 0.488459
0.511822 0.495871 0.488093
0.511320 0.495505 0.487728
0.510819 0.495140 0.487362
0.510317 0.494774 0.486997
0.509816 0.494408 0.486631
0.509315 0.494043 0.486265
0.508813 0.493677 0.485900
0.508312 0.493312 0.485534
0.507810 0.492946 0.485169
0.507309 0.492581 0.484803
0.506808 0.492215 0.484438
0.506306 0.491850 0.484072
0.505805 0.491484 0.483707
0.513109 0.496479 0.488838
0.512608 0.496114 0.488472
0.512107 0.495748 0.488107
0.511605 0.495383 0.487741
0.511104 0.495017 0.487376
0.510602 0.494652 0.487010
0.510101 0.494286 0.486644
0.509600 0.493920 0.486279
0.509098 0.493555 0.485913
0.508597 0.493189 0.485548
0.508095 0.492824 0.485182
0.507594 0.492458 0.484817
0.507093 0.492093 0.484451
0.506591 0.491727 0.484086
0.506090 0.491362 0.483720
0.505589 0.490996 0.483354
0.505087 0.490631 0.482989
0.512392 0.495626 0.488120
0.511890 0.495260 0.487755
0.511389 0.494895 0.487389
0.510888 0.494529 0.487023
0.510386 0.494164 0.486658
0.509885 0.493798 0.486292
0.509383 0.493433 0.485927
0.508882 0.493067 0.485561
0.508381 0.492701 0.485196
0.507879 0.492336 0.484830
0.507378 0.491970 0.484465
0.506876 0.491605 0.484099
0.506375 0.491239 0.483733
0.505874 0.490874 0.483368
0.505372 0.490508 0.483002
0.504871 0.490143 0.482637
0.504369 0.489777 0.482271
0.511674 0.494772 0.487402
0.511173 0.494407 0.487037
0.510671 0.494041 0.486671
0.510170 0.493676 0.486306
0.509669 0.493310 0.485940
0.509167 0.492945 0.485575
0.508666 0.492579 0.485209
0.508164 0.492213 0.484844
0.507663 0.491848 0.484478
0.507162 0.491482 0.484112
0.506660 0.491117 0.483747
0.506159 0.490751 0.483381
0.505657 0.490386 0.483016
0.505156 0.490020 0.482650
0.504655 0.489655 0.482285
0.504153 0.489289 0.481919
0.503652 0.488924 0.481554
0.510956 0.493919 0.486685
0.510455 0.493553 0.486319
0.509954 0.493188 0.485954
0.509452 0.492822 0.485588
0.508951 0.492457 0.485223
0.508450 0.492091 0.484857
0.507948 0.491726 0.484491
0.507447 0.491360 0.484126
0.506945 0.490994 0.483760
0.506444 0.490629 0.483395
0.505943 0.490263 0.483029
0.505441 0.489898 0.482664
0.504940 0.489532 0.482298
0.504438 0.489167 0.481933
0.503937 0.488801 0.481567
0.503436 0.488436 0.481202
0.502934 0.488070 0.480836
0.510239 0.493065 0.485967
0.509737 0.492700 0.485602
0.509236 0.492334 0.485236
0.508735 0.491969 0.484870
0.508233 0.491603 0.484505
0.507732 0.491238 0.484139
0.507230 0.490872 0.483774
0.506729 0.490506 0.483408
0.506228 0.490141 0.483043
0.505726 0.489775 0.482677
0.505225 0.489410 0.482312
0.504723 0.489044 0.481946
0.504222 0.488679 0.481581
0.503721 0.488313 0.481215
0.503219 0.487948 0.480849
0.502718 0.487582 0.480484
0.502217 0.487217 0.480118
0.521582 0.506582 0.497174
0.521080 0.506216 0.496809
0.520579 0.505851 0.496443
0.520078 0.505485 0.496078
0.519576 0.505120 0.495712
0.519075 0.504754 0.495347
0.518574 0.504389 0.494981
0.518072 0.504023 0.494616
0.517571 0.503657 0.494250
0.517069 0.503292 0.493884
0.516568 0.502926 0.493519
0.516067 0.502561 0.493153
0.515565 0.502195 0.492788
0.515064 0.501830 0.492422
0.514562 0.501464 0.492057
0.514061 0.501099 0.491691
0.513560 0.500733 0.491326
0.520864 0.505728 0.496457
