shared/src/main/assets/luts/film_dirty_rain.cube
TITLE "DALUR Dirty Rain"
LUT_3D_SIZE 17
DOMAIN_MIN 0.0 0.0 0.0
DOMAIN_MAX 1.0 1.0 1.0
0.394000 0.403000 0.406000
0.394979 0.407289 0.410289
0.395957 0.411578 0.414578
0.396936 0.415866 0.418866
0.397915 0.420155 0.423155
0.398893 0.424444 0.427444
0.399872 0.428733 0.431733
0.400851 0.433022 0.436022
0.401830 0.437311 0.440311
0.402808 0.441599 0.444599
0.403787 0.445888 0.448888
0.404766 0.450177 0.453177
0.405744 0.454466 0.457466
0.406723 0.458755 0.461755
0.407702 0.463044 0.466044
0.408680 0.467332 0.470332
0.409659 0.471621 0.474621
0.402420 0.408110 0.414420
0.403399 0.412399 0.418709
0.404377 0.416687 0.422998
0.405356 0.420976 0.427286
0.406335 0.425265 0.431575
0.407313 0.429554 0.435864
0.408292 0.433843 0.440153
0.409271 0.438132 0.444442
0.410249 0.442420 0.448731
0.411228 0.446709 0.453019
0.412207 0.450998 0.457308
0.413186 0.455287 0.461597
0.414164 0.459576 0.465886
0.415143 0.463865 0.470175
0.416122 0.468153 0.474464
0.417100 0.472442 0.478752
0.418079 0.476731 0.483041
0.410840 0.413219 0.422840
0.411818 0.417508 0.427129
0.412797 0.421797 0.431417
0.413776 0.426086 0.435706
0.414755 0.430375 0.439995
0.415733 0.434664 0.444284
0.416712 0.438952 0.448573
0.417691 0.443241 0.452862
0.418669 0.447530 0.457150
0.419648 0.451819 0.461439
0.420627 0.456108 0.465728
0.421605 0.460397 0.470017
0.422584 0.464685 0.474306
0.423563 0.468974 0.478595
0.424542 0.473263 0.482883
0.425520 0.477552 0.487172
0.426499 0.481841 0.491461
0.419260 0.418329 0.431260
0.420238 0.422618 0.435548
0.421217 0.426907 0.439837
0.422196 0.431196 0.444126
0.423174 0.435485 0.448415
0.424153 0.439773 0.452704
0.425132 0.444062 0.456993
0.426111 0.448351 0.461281
0.427089 0.452640 0.465570
0.428068 0.456929 0.469859
0.429047 0.461218 0.474148
0.430025 0.465506 0.478437
0.431004 0.469795 0.482726
0.431983 0.474084 0.487014
0.432961 0.478373 0.491303
0.433940 0.482662 0.495592
0.434919 0.486951 0.499881
0.427680 0.423439 0.439680
0.428658 0.427728 0.443968
0.429637 0.432017 0.448257
0.430616 0.436305 0.452546
0.431594 0.440594 0.456835
0.432573 0.444883 0.461124
0.433552 0.449172 0.465413
0.434530 0.453461 0.469701
0.435509 0.457750 0.473990
0.436488 0.462038 0.478279
0.437467 0.466327 0.482568
0.438445 0.470616 0.486857
0.439424 0.474905 0.491146
0.440403 0.479194 0.495434
0.441381 0.483483 0.499723
0.442360 0.487771 0.504012
0.443339 0.492060 0.508301
0.436099 0.428549 0.448099
0.437078 0.432838 0.452388
0.438057 0.437126 0.456677
0.439036 0.441415 0.460966
0.440014 0.445704 0.465255
0.440993 0.449993 0.469544
0.441972 0.454282 0.473832
0.442950 0.458571 0.478121
0.443929 0.462859 0.482410
0.444908 0.467148 0.486699
0.445886 0.471437 0.490988
0.446865 0.475726 0.495277
0.447844 0.480015 0.499565
0.448822 0.484304 0.503854
0.449801 0.488592 0.508143
0.450780 0.492881 0.512432
0.451759 0.497170 0.516721
0.444519 0.433658 0.456519
0.445498 0.437947 0.460808
0.446477 0.442236 0.465097
0.447455 0.446525 0.469386
0.448434 0.450814 0.473675
0.449413 0.455103 0.477963
0.450391 0.459391 0.482252
0.451370 0.463680 0.486541
0.452349 0.467969 0.490830
0.453328 0.472258 0.495119
0.454306 0.476547 0.499408
0.455285 0.480836 0.503696
0.456264 0.485124 0.507985
0.457242 0.489413 0.512274
0.458221 0.493702 0.516563
0.459200 0.497991 0.520852
0.460178 0.502280 0.525141
0.452939 0.438768 0.464939
0.453918 0.443057 0.469228
0.454897 0.447346 0.473517
0.455875 0.451635 0.477806
0.456854 0.455924 0.482095
0.457833 0.460212 0.486383
0.458811 0.464501 0.490672
0.459790 0.468790 0.494961
0.460769 0.473079 0.499250
0.461747 0.477368 0.503539
0.462726 0.481657 0.507828
0.463705 0.485945 0.512116
0.464684 0.490234 0.516405
0.465662 0.494523 0.520694
0.466641 0.498812 0.524983
0.467620 0.503101 0.529272
0.468598 0.507390 0.533561
0.461359 0.443878 0.473359
0.462338 0.448167 0.477648
0.463316 0.452456 0.481937
0.464295 0.456744 0.486226
0.465274 0.461033 0.490514
0.466253 0.465322 0.494803
0.467231 0.469611 0.499092
0.468210 0.473900 0.503381
0.469189 0.478189 0.507670
0.470167 0.482477 0.511959
0.471146 0.486766 0.516247
0.472125 0.491055 0.520536
0.473103 0.495344 0.524825
0.474082 0.499633 0.529114
0.475061 0.503922 0.533403
0.476040 0.508210 0.537692
0.477018 0.512499 0.541980
0.469779 0.448988 0.481779
0.470758 0.453277 0.486068
0.471736 0.457565 0.490357
0.472715 0.461854 0.494645
0.473694 0.466143 0.498934
0.474672 0.470432 0.503223
0.475651 0.474721 0.507512
0.476630 0.479010 0.511801
0.477609 0.483298 0.516090
0.478587 0.487587 0.520378
0.479566 0.491876 0.524667
0.480545 0.496165 0.528956
0.481523 0.500454 0.533245
0.482502 0.504743 0.537534
0.483481 0.509031 0.541823
0.484459 0.513320 0.546111
0.485438 0.517609 0.550400
0.478199 0.454097 0.490199
0.479178 0.458386 0.494488
0.480156 0.462675 0.498776
0.481135 0.466964 0.503065
0.482114 0.471253 0.507354
0.483092 0.475542 0.511643
0.484071 0.479830 0.515932
0.485050 0.484119 0.520221
0.486028 0.488408 0.524509
0.487007 0.492697 0.528798
0.487986 0.496986 0.533087
0.488964 0.501275 0.537376
0.489943 0.505563 0.541665
0.490922 0.509852 0.545954
0.491901 0.514141 0.550242
0.492879 0.518430 0.554531
0.493858 0.522719 0.558820
0.486619 0.459207 0.498619
0.487597 0.463496 0.502908
0.488576 0.467785 0.507196
0.489555 0.472074 0.511485
0.490534 0.476363 0.515774
0.491512 0.480651 0.520063
0.492491 0.484940 0.524352
0.493470 0.489229 0.528641
0.494448 0.493518 0.532929
0.495427 0.497807 0.537218
0.496406 0.502096 0.541507
0.497384 0.506384 0.545796
0.498363 0.510673 0.550085
0.499342 0.514962 0.554374
0.500320 0.519251 0.558662
0.501299 0.523540 0.562951
0.502278 0.527829 0.567240
0.495039 0.464317 0.507039
0.496017 0.468606 0.511327
0.496996 0.472895 0.515616
0.497975 0.477183 0.519905
0.498953 0.481472 0.524194
0.499932 0.485761 0.528483
0.500911 0.490050 0.532772
0.501889 0.494339 0.537060
0.502868 0.498628 0.541349
0.503847 0.502916 0.545638
0.504826 0.507205 0.549927
0.505804 0.511494 0.554216
0.506783 0.515783 0.558505
0.507762 0.520072 0.562793
0.508740 0.524361 0.567082
0.509719 0.528649 0.571371
0.510698 0.532938 0.575660
0.503458 0.469427 0.515458
0.504437 0.473716 0.519747
0.505416 0.478004 0.524036
0.506395 0.482293 0.528325
0.507373 0.486582 0.532614
0.508352 0.490871 0.536903
0.509331 0.495160 0.541191
0.510309 0.499449 0.545480
0.511288 0.503737 0.549769
0.512267 0.508026 0.554058
0.513245 0.512315 0.558347
0.514224 0.516604 0.562636
0.515203 0.520893 0.566924
0.516182 0.525182 0.571213
0.517160 0.529470 0.575502
0.518139 0.533759 0.579791
0.519118 0.538048 0.584080
0.511878 0.474536 0.523878
0.512857 0.478825 0.528167
0.513836 0.483114 0.532456
0.514814 0.487403 0.536745
0.515793 0.491692 0.541034
0.516772 0.495981 0.545323
0.517751 0.500269 0.549611
0.518729 0.504558 0.553900
0.519708 0.508847 0.558189
0.520687 0.513136 0.562478
0.521665 0.517425 0.566767
0.522644 0.521714 0.571056
0.523623 0.526002 0.575344
0.524601 0.530291 0.579633
0.525580 0.534580 0.583922
0.526559 0.538869 0.588211
0.527538 0.543158 0.592500
0.520298 0.479646 0.532298
0.521277 0.483935 0.536587
0.522256 0.488224 0.540876
0.523234 0.492513 0.545165
0.524213 0.496802 0.549454
0.525192 0.501090 0.553742
0.526170 0.505379 0.558031
0.527149 0.509668 0.562320
0.528128 0.513957 0.566609
0.529107 0.518246 0.570898
0.530085 0.522535 0.575187
0.531064 0.526823 0.579475
0.532043 0.531112 0.583764
0.533021 0.535401 0.588053
0.534000 0.539690 0.592342
0.534979 0.543979 0.596631
0.535957 0.548268 0.600920
0.528718 0.484756 0.540718
0.529697 0.489045 0.545007
0.530676 0.493334 0.549296
0.531654 0.497622 0.553585
0.532633 0.501911 0.557873
0.533612 0.506200 0.562162
0.534590 0.510489 0.566451
0.535569 0.514778 0.570740
0.536548 0.519067 0.575029
0.537526 0.523355 0.579318
0.538505 0.527644 0.583606
0.539484 0.531933 0.587895
0.540462 0.536222 0.592184
0.541441 0.540511 0.596473
0.542420 0.544800 0.600762
0.543399 0.549088 0.605051
0.544377 0.553377 0.609339
0.395635 0.404635 0.404325
0.396614 0.408924 0.408614
0.397593 0.413213 0.412903
0.398571 0.417502 0.417192
0.399550 0.421791 0.421480
0.400529 0.426079 0.425769
0.401507 0.430368 0.430058
0.402486 0.434657 0.434347
0.403465 0.438946 0.438636
0.404443 0.443235 0.442925
0.405422 0.447524 0.447213
0.406401 0.451812 0.451502
0.407380 0.456101 0.455791
0.408358 0.460390 0.460080
0.409337 0.464679 0.464369
0.410316 0.468968 0.468658
0.411294 0.473257 0.472946
0.404055 0.409745 0.412745
0.405034 0.414034 0.417034
0.406012 0.418323 0.421323
0.406991 0.422611 0.425611
0.407970 0.426900 0.429900
0.408949 0.431189 0.434189
0.409927 0.435478 0.438478
0.410906 0.439767 0.442767
0.411885 0.444056 0.447056
0.412863 0.448344 0.451344
0.413842 0.452633 0.455633
0.414821 0.456922 0.459922
0.415799 0.461211 0.464211
0.416778 0.465500 0.468500
0.417757 0.469789 0.472789
0.418736 0.474077 0.477077
0.419714 0.478366 0.481366
0.412475 0.414855 0.421165
0.413454 0.419144 0.425454
0.414432 0.423432 0.429743
0.415411 0.427721 0.434031
0.416390 0.432010 0.438320
0.417368 0.436299 0.442609
0.418347 0.440588 0.446898
0.419326 0.444877 0.451187
0.420305 0.449165 0.455476
0.421283 0.453454 0.459764
0.422262 0.457743 0.464053
0.423241 0.462032 0.468342
0.424219 0.466321 0.472631
0.425198 0.470610 0.476920
0.426177 0.474898 0.481209
0.427155 0.479187 0.485497
0.428134 0.483476 0.489786
0.420895 0.419964 0.429585
0.421874 0.424253 0.433874
0.422852 0.428542 0.438162
0.423831 0.432831 0.442451
0.424810 0.437120 0.446740
0.425788 0.441409 0.451029
0.426767 0.445697 0.455318
0.427746 0.449986 0.459607
0.428724 0.454275 0.463895
0.429703 0.458564 0.468184
0.430682 0.462853 0.472473
0.431661 0.467142 0.476762
0.432639 0.471430 0.481051
0.433618 0.475719 0.485340
0.434597 0.480008 0.489628
0.435575 0.484297 0.493917
0.436554 0.488586 0.498206
0.429315 0.425074 0.438005
0.430293 0.429363 0.442293
0.431272 0.433652 0.446582
0.432251 0.437941 0.450871
0.433230 0.442230 0.455160
0.434208 0.446518 0.459449
0.435187 0.450807 0.463738
0.436166 0.455096 0.468026
0.437144 0.459385 0.472315
0.438123 0.463674 0.476604
0.439102 0.467963 0.480893
0.440080 0.472251 0.485182
0.441059 0.476540 0.489471
0.442038 0.480829 0.493759
0.443016 0.485118 0.498048
0.443995 0.489407 0.502337
0.444974 0.493696 0.506626
0.437735 0.430184 0.446424
0.438713 0.434473 0.450713
0.439692 0.438762 0.455002
0.440671 0.443050 0.459291
0.441649 0.447339 0.463580
0.442628 0.451628 0.467869
0.443607 0.455917 0.472157
0.444586 0.460206 0.476446
0.445564 0.464495 0.480735
0.446543 0.468783 0.485024
0.447522 0.473072 0.489313
0.448500 0.477361 0.493602
0.449479 0.481650 0.497890
0.450458 0.485939 0.502179
0.451436 0.490228 0.506468
0.452415 0.494516 0.510757
0.453394 0.498805 0.515046
0.446155 0.435294 0.454844
0.447133 0.439583 0.459133
0.448112 0.443871 0.463422
0.449091 0.448160 0.467711
0.450069 0.452449 0.472000
0.451048 0.456738 0.476289
0.452027 0.461027 0.480577
0.453005 0.465316 0.484866
0.453984 0.469604 0.489155
0.454963 0.473893 0.493444
0.455941 0.478182 0.497733
0.456920 0.482471 0.502022
0.457899 0.486760 0.506310
0.458878 0.491049 0.510599
0.459856 0.495337 0.514888
0.460835 0.499626 0.519177
0.461814 0.503915 0.523466
0.454574 0.440403 0.463264
0.455553 0.444692 0.467553
0.456532 0.448981 0.471842
0.457510 0.453270 0.476131
0.458489 0.457559 0.480420
0.459468 0.461848 0.484708
0.460447 0.466136 0.488997
0.461425 0.470425 0.493286
0.462404 0.474714 0.497575
0.463383 0.479003 0.501864
0.464361 0.483292 0.506153
0.465340 0.487581 0.510441
0.466319 0.491869 0.514730
0.467297 0.496158 0.519019
0.468276 0.500447 0.523308
0.469255 0.504736 0.527597
0.470234 0.509025 0.531886
0.462994 0.445513 0.471684
0.463973 0.449802 0.475973
0.464952 0.454091 0.480262
0.465930 0.458380 0.484551
0.466909 0.462669 0.488839
0.467888 0.466957 0.493128
0.468866 0.471246 0.497417
0.469845 0.475535 0.501706
0.470824 0.479824 0.505995
0.471803 0.484113 0.510284
0.472781 0.488402 0.514572
0.473760 0.492690 0.518861
0.474739 0.496979 0.523150
0.475717 0.501268 0.527439
0.476696 0.505557 0.531728
0.477675 0.509846 0.536017
0.478653 0.514135 0.540305
0.471414 0.450623 0.480104
0.472393 0.454912 0.484393
0.473372 0.459201 0.488682
0.474350 0.463489 0.492971
0.475329 0.467778 0.497259
0.476308 0.472067 0.501548
0.477286 0.476356 0.505837
0.478265 0.480645 0.510126
0.479244 0.484934 0.514415
0.480222 0.489222 0.518704
0.481201 0.493511 0.522992
0.482180 0.497800 0.527281
0.483159 0.502089 0.531570
0.484137 0.506378 0.535859
0.485116 0.510667 0.540148
0.486095 0.514955 0.544437
0.487073 0.519244 0.548725
0.479834 0.455733 0.488524
0.480813 0.460022 0.492813
0.481791 0.464310 0.497102
0.482770 0.468599 0.501390
0.483749 0.472888 0.505679
0.484728 0.477177 0.509968
0.485706 0.481466 0.514257
0.486685 0.485755 0.518546
0.487664 0.490043 0.522835
0.488642 0.494332 0.527123
0.489621 0.498621 0.531412
0.490600 0.502910 0.535701
0.491578 0.507199 0.539990
0.492557 0.511488 0.544279
0.493536 0.515776 0.548568
0.494514 0.520065 0.552856
0.495493 0.524354 0.557145
0.488254 0.460842 0.496944
0.489233 0.465131 0.501233
0.490211 0.469420 0.505521
0.491190 0.473709 0.509810
0.492169 0.477998 0.514099
0.493147 0.482287 0.518388
0.494126 0.486575 0.522677
0.495105 0.490864 0.526966
0.496083 0.495153 0.531254
0.497062 0.499442 0.535543
0.498041 0.503731 0.539832
0.499020 0.508020 0.544121
0.499998 0.512308 0.548410
0.500977 0.516597 0.552699
0.501956 0.520886 0.556987
0.502934 0.525175 0.561276
0.503913 0.529464 0.565565
0.496674 0.465952 0.505364
0.497653 0.470241 0.509653
0.498631 0.474530 0.513941
0.499610 0.478819 0.518230
0.500589 0.483108 0.522519
0.501567 0.487396 0.526808
0.502546 0.491685 0.531097
0.503525 0.495974 0.535386
0.504503 0.500263 0.539674
0.505482 0.504552 0.543963
0.506461 0.508841 0.548252
0.507439 0.513129 0.552541
0.508418 0.517418 0.556830
0.509397 0.521707 0.561119
0.510376 0.525996 0.565407
0.511354 0.530285 0.569696
0.512333 0.534574 0.573985
0.505094 0.471062 0.513784
0.506072 0.475351 0.518072
0.507051 0.479640 0.522361
0.508030 0.483928 0.526650
0.509008 0.488217 0.530939
0.509987 0.492506 0.535228
0.510966 0.496795 0.539517
0.511945 0.501084 0.543805
0.512923 0.505373 0.548094
0.513902 0.509661 0.552383
0.514881 0.513950 0.556672
0.515859 0.518239 0.560961
0.516838 0.522528 0.565250
0.517817 0.526817 0.569538
0.518795 0.531106 0.573827
0.519774 0.535394 0.578116
0.520753 0.539683 0.582405
0.513514 0.476172 0.522203
0.514492 0.480460 0.526492
0.515471 0.484749 0.530781
0.516450 0.489038 0.535070
0.517428 0.493327 0.539359
0.518407 0.497616 0.543648
0.519386 0.501905 0.547936
0.520364 0.506193 0.552225
0.521343 0.510482 0.556514
0.522322 0.514771 0.560803
0.523301 0.519060 0.565092
0.524279 0.523349 0.569381
0.525258 0.527638 0.573669
0.526237 0.531926 0.577958
0.527215 0.536215 0.582247
0.528194 0.540504 0.586536
0.529173 0.544793 0.590825
0.521933 0.481281 0.530623
0.522912 0.485570 0.534912
0.523891 0.489859 0.539201
0.524870 0.494148 0.543490
0.525848 0.498437 0.547779
0.526827 0.502726 0.552067
0.527806 0.507014 0.556356
0.528784 0.511303 0.560645
0.529763 0.515592 0.564934
0.530742 0.519881 0.569223
0.531720 0.524170 0.573512
0.532699 0.528459 0.577800
0.533678 0.532747 0.582089
0.534657 0.537036 0.586378
0.535635 0.541325 0.590667
0.536614 0.545614 0.594956
0.537593 0.549903 0.599245
0.530353 0.486391 0.539043
0.531332 0.490680 0.543332
0.532311 0.494969 0.547621
0.533289 0.499258 0.551910
0.534268 0.503546 0.556199
0.535247 0.507835 0.560487
0.536226 0.512124 0.564776
0.537204 0.516413 0.569065
0.538183 0.520702 0.573354
0.539162 0.524991 0.577643
0.540140 0.529279 0.581932
0.541119 0.533568 0.586220
0.542098 0.537857 0.590509
0.543076 0.542146 0.594798
0.544055 0.546435 0.599087
0.545034 0.550724 0.603376
0.546012 0.555012 0.607665
0.397270 0.406270 0.402650
0.398249 0.410559 0.406939
0.399228 0.414848 0.411228
0.400207 0.419137 0.415517
0.401185 0.423426 0.419805
0.402164 0.427715 0.424094
0.403143 0.432003 0.428383
0.404121 0.436292 0.432672
0.405100 0.440581 0.436961
0.406079 0.444870 0.441250
0.407057 0.449159 0.445538
0.408036 0.453448 0.449827
0.409015 0.457736 0.454116
0.409993 0.462025 0.458405
0.410972 0.466314 0.462694
0.411951 0.470603 0.466983
0.412930 0.474892 0.471271
0.405690 0.411380 0.411070
0.406669 0.415669 0.415359
0.407648 0.419958 0.419648
0.408626 0.424247 0.423937
0.409605 0.428535 0.428225
0.410584 0.432824 0.432514
0.411562 0.437113 0.436803
0.412541 0.441402 0.441092
0.413520 0.445691 0.445381
0.414499 0.449980 0.449670
0.415477 0.454268 0.453958
0.416456 0.458557 0.458247
0.417435 0.462846 0.462536
0.418413 0.467135 0.466825
0.419392 0.471424 0.471114
0.420371 0.475713 0.475403
0.421349 0.480001 0.479691
0.414110 0.416490 0.419490
0.415089 0.420779 0.423779
0.416068 0.425068 0.428068
0.417046 0.429356 0.432356
0.418025 0.433645 0.436645
0.419004 0.437934 0.440934
0.419982 0.442223 0.445223
0.420961 0.446512 0.449512
0.421940 0.450801 0.453801
0.422918 0.455089 0.458089
0.423897 0.459378 0.462378
0.424876 0.463667 0.466667
0.425855 0.467956 0.470956
0.426833 0.472245 0.475245
0.427812 0.476534 0.479534
0.428791 0.480822 0.483822
0.429769 0.485111 0.488111
0.422530 0.421600 0.427910
0.423509 0.425888 0.432199
0.424487 0.430177 0.436487
0.425466 0.434466 0.440776
0.426445 0.438755 0.445065
0.427424 0.443044 0.449354
0.428402 0.447333 0.453643
0.429381 0.451621 0.457932
0.430360 0.455910 0.462220
0.431338 0.460199 0.466509
0.432317 0.464488 0.470798
0.433296 0.468777 0.475087
0.434274 0.473066 0.479376
0.435253 0.477354 0.483665
0.436232 0.481643 0.487953
0.437211 0.485932 0.492242
0.438189 0.490221 0.496531
0.430950 0.426709 0.436330
0.431929 0.430998 0.440619
0.432907 0.435287 0.444907
0.433886 0.439576 0.449196
0.434865 0.443865 0.453485
0.435843 0.448154 0.457774
0.436822 0.452442 0.462063
0.437801 0.456731 0.466352
0.438780 0.461020 0.470640
0.439758 0.465309 0.474929
0.440737 0.469598 0.479218
0.441716 0.473887 0.483507
0.442694 0.478175 0.487796
0.443673 0.482464 0.492085
0.444652 0.486753 0.496373
0.445630 0.491042 0.500662
0.446609 0.495331 0.504951
0.439370 0.431819 0.444750
0.440349 0.436108 0.449038
0.441327 0.440397 0.453327
0.442306 0.444686 0.457616
0.443285 0.448974 0.461905
0.444263 0.453263 0.466194
0.445242 0.457552 0.470483
0.446221 0.461841 0.474771
0.447199 0.466130 0.479060
0.448178 0.470419 0.483349
0.449157 0.474707 0.487638
0.450135 0.478996 0.491927
0.451114 0.483285 0.496216
0.452093 0.487574 0.500504
0.453072 0.491863 0.504793
0.454050 0.496152 0.509082
0.455029 0.500440 0.513371
0.447790 0.436929 0.453169
0.448768 0.441218 0.457458
0.449747 0.445507 0.461747
0.450726 0.449795 0.466036
0.451705 0.454084 0.470325
0.452683 0.458373 0.474614
0.453662 0.462662 0.478902
0.454641 0.466951 0.483191
0.455619 0.471240 0.487480
0.456598 0.475528 0.491769
0.457577 0.479817 0.496058
0.458555 0.484106 0.500347
0.459534 0.488395 0.504635
0.460513 0.492684 0.508924
0.461491 0.496973 0.513213
0.462470 0.501261 0.517502
0.463449 0.505550 0.521791
0.456210 0.442039 0.461589
0.457188 0.446327 0.465878
0.458167 0.450616 0.470167
0.459146 0.454905 0.474456
0.460124 0.459194 0.478745
0.461103 0.463483 0.483033
0.462082 0.467772 0.487322
0.463060 0.472060 0.491611
0.464039 0.476349 0.495900
0.465018 0.480638 0.500189
0.465997 0.484927 0.504478
0.466975 0.489216 0.508766
0.467954 0.493505 0.513055
0.468933 0.497793 0.517344
0.469911 0.502082 0.521633
0.470890 0.506371 0.525922
0.471869 0.510660 0.530211
0.464629 0.447148 0.470009
0.465608 0.451437 0.474298
0.466587 0.455726 0.478587
0.467566 0.460015 0.482876
0.468544 0.464304 0.487165
0.469523 0.468593 0.491453
0.470502 0.472881 0.495742
0.471480 0.477170 0.500031
0.472459 0.481459 0.504320
0.473438 0.485748 0.508609
0.474416 0.490037 0.512898
0.475395 0.494326 0.517186
0.476374 0.498614 0.521475
0.477353 0.502903 0.525764
0.478331 0.507192 0.530053
0.479310 0.511481 0.534342
0.480289 0.515770 0.538631
0.473049 0.452258 0.478429
0.474028 0.456547 0.482718
0.475007 0.460836 0.487007
0.475985 0.465125 0.491296
0.476964 0.469413 0.495584
0.477943 0.473702 0.499873
0.478922 0.477991 0.504162
0.479900 0.482280 0.508451
0.480879 0.486569 0.512740
0.481858 0.490858 0.517029
0.482836 0.495146 0.521317
0.483815 0.499435 0.525606
0.484794 0.503724 0.529895
0.485772 0.508013 0.534184
0.486751 0.512302 0.538473
0.487730 0.516591 0.542762
0.488709 0.520879 0.547050
0.481469 0.457368 0.486849
0.482448 0.461657 0.491138
0.483427 0.465946 0.495427
0.484405 0.470234 0.499715
0.485384 0.474523 0.504004
0.486363 0.478812 0.508293
0.487341 0.483101 0.512582
0.488320 0.487390 0.516871
0.489299 0.491679 0.521160
0.490278 0.495967 0.525448
0.491256 0.500256 0.529737
0.492235 0.504545 0.534026
0.493214 0.508834 0.538315
0.494192 0.513123 0.542604
0.495171 0.517412 0.546893
0.496150 0.521700 0.551181
0.497128 0.525989 0.555470
0.489889 0.462478 0.495269
0.490868 0.466766 0.499558
0.491847 0.471055 0.503847
0.492825 0.475344 0.508135
0.493804 0.479633 0.512424
0.494783 0.483922 0.516713
0.495761 0.488211 0.521002
0.496740 0.492499 0.525291
0.497719 0.496788 0.529580
0.498697 0.501077 0.533868
0.499676 0.505366 0.538157
0.500655 0.509655 0.542446
0.501633 0.513944 0.546735
0.502612 0.518232 0.551024
0.503591 0.522521 0.555313
0.504570 0.526810 0.559601
0.505548 0.531099 0.563890
0.498309 0.467587 0.503689
0.499288 0.471876 0.507978
0.500266 0.476165 0.512266
0.501245 0.480454 0.516555
0.502224 0.484743 0.520844
0.503202 0.489032 0.525133
0.504181 0.493320 0.529422
0.505160 0.497609 0.533711
0.506139 0.501898 0.537999
0.507117 0.506187 0.542288
0.508096 0.510476 0.546577
0.509075 0.514765 0.550866
0.510053 0.519053 0.555155
0.511032 0.523342 0.559444
0.512011 0.527631 0.563732
0.512989 0.531920 0.568021
0.513968 0.536209 0.572310
0.506729 0.472697 0.512109
0.507708 0.476986 0.516397
0.508686 0.481275 0.520686
0.509665 0.485564 0.524975
0.510644 0.489852 0.529264
0.511622 0.494141 0.533553
0.512601 0.498430 0.537842
0.513580 0.502719 0.542130
0.514558 0.507008 0.546419
0.515537 0.511297 0.550708
0.516516 0.515585 0.554997
0.517495 0.519874 0.559286
0.518473 0.524163 0.563575
0.519452 0.528452 0.567863
0.520431 0.532741 0.572152
0.521409 0.537030 0.576441
0.522388 0.541318 0.580730
0.515149 0.477807 0.520529
0.516127 0.482096 0.524817
0.517106 0.486385 0.529106
0.518085 0.490673 0.533395
0.519064 0.494962 0.537684
0.520042 0.499251 0.541973
0.521021 0.503540 0.546262
0.522000 0.507829 0.550550
0.522978 0.512118 0.554839
0.523957 0.516406 0.559128
0.524936 0.520695 0.563417
0.525914 0.524984 0.567706
0.526893 0.529273 0.571995
0.527872 0.533562 0.576283
0.528851 0.537851 0.580572
0.529829 0.542139 0.584861
0.530808 0.546428 0.589150
0.523569 0.482917 0.528948
0.524547 0.487205 0.533237
0.525526 0.491494 0.537526
0.526505 0.495783 0.541815
0.527483 0.500072 0.546104
0.528462 0.504361 0.550393
0.529441 0.508650 0.554681
0.530420 0.512938 0.558970
0.531398 0.517227 0.563259
0.532377 0.521516 0.567548
0.533356 0.525805 0.571837
0.534334 0.530094 0.576126
0.535313 0.534383 0.580414
0.536292 0.538671 0.584703
0.537270 0.542960 0.588992
0.538249 0.547249 0.593281
0.539228 0.551538 0.597570
0.531989 0.488026 0.537368
0.532967 0.492315 0.541657
0.533946 0.496604 0.545946
0.534925 0.500893 0.550235
0.535903 0.505182 0.554524
0.536882 0.509471 0.558812
0.537861 0.513759 0.563101
0.538839 0.518048 0.567390
0.539818 0.522337 0.571679
0.540797 0.526626 0.575968
0.541776 0.530915 0.580257
0.542754 0.535204 0.584545
0.543733 0.539492 0.588834
0.544712 0.543781 0.593123
0.545690 0.548070 0.597412
0.546669 0.552359 0.601701
0.547648 0.556648 0.605990
0.398906 0.407906 0.400975
0.399884 0.412194 0.405264
0.400863 0.416483 0.409553
0.401842 0.420772 0.413842
0.402820 0.425061 0.418131
0.403799 0.429350 0.422419
0.404778 0.433639 0.426708
0.405757 0.437927 0.430997
0.406735 0.442216 0.435286
0.407714 0.446505 0.439575
0.408693 0.450794 0.443864
0.409671 0.455083 0.448152
0.410650 0.459372 0.452441
0.411629 0.463660 0.456730
0.412607 0.467949 0.461019
0.413586 0.472238 0.465308
0.414565 0.476527 0.469597
0.407326 0.413015 0.409395
