shared/src/main/assets/luts/film_bleached_reality.cube
TITLE "DALUR Bleached Reality"
LUT_3D_SIZE 5
DOMAIN_MIN 0.0 0.0 0.0
DOMAIN_MAX 1.0 1.0 1.0
0.493000 0.491500 0.487000
0.492913 0.493791 0.489291
0.492826 0.496083 0.491583
0.492739 0.498374 0.493874
0.492652 0.500665 0.496165
0.497498 0.493620 0.491498
0.497411 0.495911 0.493790
0.497325 0.498203 0.496081
0.497238 0.500494 0.498372
0.497151 0.502786 0.500664
0.501997 0.495740 0.495997
0.501910 0.498032 0.498288
0.501823 0.500323 0.500580
0.501736 0.502614 0.502871
0.501649 0.504906 0.505162
0.506495 0.497860 0.500495
0.506408 0.500152 0.502787
0.506321 0.502443 0.505078
0.506234 0.504734 0.507369
0.506147 0.507026 0.509661
0.510994 0.499980 0.504994
0.510907 0.502272 0.507285
0.510820 0.504563 0.509576
0.510733 0.506855 0.511868
0.510646 0.509146 0.514159
0.493874 0.492374 0.485495
0.493787 0.494665 0.487787
0.493700 0.496956 0.490078
0.493613 0.499248 0.492369
0.493526 0.501539 0.494661
0.498372 0.494494 0.489994
0.498285 0.496785 0.492285
0.498198 0.499076 0.494576
0.498111 0.501368 0.496868
0.498024 0.503659 0.499159
0.502870 0.496614 0.494492
0.502783 0.498905 0.496783
0.502697 0.501197 0.499075
0.502610 0.503488 0.501366
0.502523 0.505779 0.503658
0.507369 0.498734 0.498991
0.507282 0.501025 0.501282
0.507195 0.503317 0.503573
0.507108 0.505608 0.505865
0.507021 0.507899 0.508156
0.511867 0.500854 0.503489
0.511780 0.503145 0.505780
0.511693 0.505437 0.508072
0.511606 0.507728 0.510363
0.511519 0.510019 0.512654
0.494747 0.493247 0.483991
0.494660 0.495539 0.486282
0.494573 0.497830 0.488573
0.494486 0.500121 0.490865
0.494399 0.502413 0.493156
0.499246 0.495367 0.488489
0.499159 0.497659 0.490780
0.499072 0.499950 0.493072
0.498985 0.502241 0.495363
0.498898 0.504533 0.497654
0.503744 0.497487 0.492987
0.503657 0.499779 0.495279
0.503570 0.502070 0.497570
0.503483 0.504362 0.499862
0.503396 0.506653 0.502153
0.508242 0.499608 0.497486
0.508156 0.501899 0.499777
0.508069 0.504190 0.502069
0.507982 0.506482 0.504360
0.507895 0.508773 0.506651
0.512741 0.501728 0.501984
0.512654 0.504019 0.504276
0.512567 0.506310 0.506567
0.512480 0.508602 0.508858
0.512393 0.510893 0.511150
0.495621 0.494121 0.482486
0.495534 0.496412 0.484777
0.495447 0.498704 0.487069
0.495360 0.500995 0.489360
0.495273 0.503286 0.491651
0.500119 0.496241 0.486984
0.500032 0.498532 0.489276
0.499945 0.500824 0.491567
0.499858 0.503115 0.493858
0.499772 0.505406 0.496150
0.504618 0.498361 0.491483
0.504531 0.500652 0.493774
0.504444 0.502944 0.496066
0.504357 0.505235 0.498357
0.504270 0.507527 0.500648
0.509116 0.500481 0.495981
0.509029 0.502773 0.498273
0.508942 0.505064 0.500564
0.508855 0.507355 0.502855
0.508768 0.509647 0.505147
0.513614 0.502601 0.500480
0.513528 0.504893 0.502771
0.513441 0.507184 0.505062
0.513354 0.509475 0.507354
0.513267 0.511767 0.509645
0.496495 0.494995 0.480981
0.496408 0.497286 0.483273
0.496321 0.499577 0.485564
0.496234 0.501869 0.487855
0.496147 0.504160 0.490147
0.500993 0.497115 0.485480
0.500906 0.499406 0.487771
0.500819 0.501697 0.490062
0.500732 0.503989 0.492354
0.500645 0.506280 0.494645
0.505491 0.499235 0.489978
0.505404 0.501526 0.492269
0.505317 0.503817 0.494561
0.505230 0.506109 0.496852
0.505144 0.508400 0.499144
0.509990 0.501355 0.494477
0.509903 0.503646 0.496768
0.509816 0.505938 0.499059
0.509729 0.508229 0.501351
0.509642 0.510520 0.503642
0.514488 0.503475 0.498975
0.514401 0.505766 0.501266
0.514314 0.508058 0.503558
0.514227 0.510349 0.505849
0.514140 0.512640 0.508140
