shared/src/main/assets/luts/film_electric_red.cube
TITLE "DALUR Electric Red"
LUT_3D_SIZE 9
DOMAIN_MIN 0.0 0.0 0.0
DOMAIN_MAX 1.0 1.0 1.0
0.430000 0.423000 0.430000
0.439202 0.426285 0.433285
0.448403 0.429571 0.436571
0.457605 0.432856 0.439856
0.466807 0.436141 0.443141
0.476008 0.439426 0.446426
0.485210 0.442712 0.449712
0.494411 0.445997 0.452997
0.503613 0.449282 0.456282
0.436450 0.435366 0.436450
0.445651 0.438651 0.439735
0.454853 0.441937 0.443020
0.464055 0.445222 0.446305
0.473256 0.448507 0.449591
0.482458 0.451792 0.452876
0.491659 0.455078 0.456161
0.500861 0.458363 0.459447
0.510063 0.461648 0.462732
0.442899 0.447732 0.442899
0.452101 0.451017 0.446185
0.461303 0.454303 0.449470
0.470504 0.457588 0.452755
0.479706 0.460873 0.456040
0.488908 0.464158 0.459326
0.498109 0.467444 0.462611
0.507311 0.470729 0.465896
0.516512 0.474014 0.469182
0.449349 0.460098 0.449349
0.458551 0.463383 0.452634
0.467752 0.466669 0.455920
0.476954 0.469954 0.459205
0.486156 0.473239 0.462490
0.495357 0.476524 0.465775
0.504559 0.479810 0.469061
0.513760 0.483095 0.472346
0.522962 0.486380 0.475631
0.455799 0.472464 0.455799
0.465000 0.475749 0.459084
0.474202 0.479035 0.462369
0.483404 0.482320 0.465655
0.492605 0.485605 0.468940
0.501807 0.488891 0.472225
0.511008 0.492176 0.475510
0.520210 0.495461 0.478796
0.529412 0.498746 0.482081
0.462248 0.484830 0.462248
0.471450 0.488115 0.465534
0.480652 0.491401 0.468819
0.489853 0.494686 0.472104
0.499055 0.497971 0.475389
0.508257 0.501257 0.478675
0.517458 0.504542 0.481960
0.526660 0.507827 0.485245
0.535861 0.511112 0.488531
0.468698 0.497196 0.468698
0.477900 0.500481 0.471983
0.487101 0.503767 0.475269
0.496303 0.507052 0.478554
0.505505 0.510337 0.481839
0.514706 0.513623 0.485124
0.523908 0.516908 0.488410
0.533109 0.520193 0.491695
0.542311 0.523478 0.494980
0.475148 0.509562 0.475148
0.484349 0.512848 0.478433
0.493551 0.516133 0.481718
0.502753 0.519418 0.485004
0.511954 0.522703 0.488289
0.521156 0.525989 0.491574
0.530358 0.529274 0.494859
0.539559 0.532559 0.498145
0.548761 0.535844 0.501430
0.481597 0.521928 0.481597
0.490799 0.525214 0.484883
0.500001 0.528499 0.488168
0.509202 0.531784 0.491453
0.518404 0.535069 0.494739
0.527606 0.538355 0.498024
0.536807 0.541640 0.501309
0.546009 0.544925 0.504594
0.555210 0.548210 0.507880
0.431253 0.424253 0.437169
0.440454 0.427538 0.440454
0.449656 0.430823 0.443739
0.458857 0.434108 0.447025
0.468059 0.437394 0.450310
0.477261 0.440679 0.453595
0.486462 0.443964 0.456881
0.495664 0.447249 0.460166
0.504866 0.450535 0.463451
0.437702 0.436619 0.443619
0.446904 0.439904 0.446904
0.456106 0.443189 0.450189
0.465307 0.446474 0.453474
0.474509 0.449760 0.456760
0.483710 0.453045 0.460045
0.492912 0.456330 0.463330
0.502114 0.459616 0.466616
0.511315 0.462901 0.469901
0.444152 0.448985 0.450068
0.453354 0.452270 0.453354
0.462555 0.455555 0.456639
0.471757 0.458840 0.459924
0.480958 0.462126 0.463209
0.490160 0.465411 0.466495
0.499362 0.468696 0.469780
0.508563 0.471982 0.473065
0.517765 0.475267 0.476350
0.450602 0.461351 0.456518
0.459803 0.464636 0.459803
0.469005 0.467921 0.463089
0.478207 0.471207 0.466374
0.487408 0.474492 0.469659
0.496610 0.477777 0.472944
0.505811 0.481062 0.476230
0.515013 0.484348 0.479515
0.524215 0.487633 0.482800
0.457051 0.473717 0.462968
0.466253 0.477002 0.466253
0.475455 0.480287 0.469538
0.484656 0.483573 0.472823
0.493858 0.486858 0.476109
0.503059 0.490143 0.479394
0.512261 0.493428 0.482679
0.521463 0.496714 0.485965
0.530664 0.499999 0.489250
0.463501 0.486083 0.469417
0.472703 0.489368 0.472703
0.481904 0.492653 0.475988
0.491106 0.495939 0.479273
0.500307 0.499224 0.482558
0.509509 0.502509 0.485844
0.518711 0.505794 0.489129
0.527912 0.509080 0.492414
0.537114 0.512365 0.495699
0.469951 0.498449 0.475867
0.479152 0.501734 0.479152
0.488354 0.505019 0.482438
0.497556 0.508305 0.485723
0.506757 0.511590 0.489008
0.515959 0.514875 0.492293
0.525160 0.518160 0.495579
0.534362 0.521446 0.498864
0.543564 0.524731 0.502149
0.476400 0.510815 0.482317
0.485602 0.514100 0.485602
0.494804 0.517385 0.488887
0.504005 0.520671 0.492172
0.513207 0.523956 0.495458
0.522408 0.527241 0.498743
0.531610 0.530526 0.502028
0.540812 0.533812 0.505314
0.550013 0.537097 0.508599
0.482850 0.523181 0.488766
0.492052 0.526466 0.492052
0.501253 0.529751 0.495337
0.510455 0.533037 0.498622
0.519657 0.536322 0.501907
0.528858 0.539607 0.505193
0.538060 0.542893 0.508478
0.547261 0.546178 0.511763
0.556463 0.549463 0.515049
0.432505 0.425505 0.444338
0.441707 0.428790 0.447623
0.450908 0.432076 0.450908
0.460110 0.435361 0.454194
0.469312 0.438646 0.457479
0.478513 0.441932 0.460764
0.487715 0.445217 0.464049
0.496917 0.448502 0.467335
0.506118 0.451787 0.470620
0.438955 0.437871 0.450788
0.448156 0.441156 0.454073
0.457358 0.444442 0.457358
0.466560 0.447727 0.460643
0.475761 0.451012 0.463929
0.484963 0.454298 0.467214
0.494165 0.457583 0.470499
0.503366 0.460868 0.473784
0.512568 0.464153 0.477070
0.445405 0.450237 0.457237
0.454606 0.453523 0.460523
0.463808 0.456808 0.463808
0.473009 0.460093 0.467093
0.482211 0.463378 0.470378
0.491413 0.466664 0.473664
0.500614 0.469949 0.476949
0.509816 0.473234 0.480234
0.519018 0.476519 0.483519
0.451854 0.462603 0.463687
0.461056 0.465889 0.466972
0.470257 0.469174 0.470257
0.479459 0.472459 0.473543
0.488661 0.475744 0.476828
0.497862 0.479030 0.480113
0.507064 0.482315 0.483399
0.516266 0.485600 0.486684
0.525467 0.488885 0.489969
0.458304 0.474969 0.470137
0.467505 0.478255 0.473422
0.476707 0.481540 0.476707
0.485909 0.484825 0.479992
0.495110 0.488110 0.483278
0.504312 0.491396 0.486563
0.513514 0.494681 0.489848
0.522715 0.497966 0.493133
0.531917 0.501251 0.496419
0.464754 0.487335 0.476586
0.473955 0.490621 0.479872
0.483157 0.493906 0.483157
0.492358 0.497191 0.486442
0.501560 0.500476 0.489727
0.510762 0.503762 0.493013
0.519963 0.507047 0.496298
0.529165 0.510332 0.499583
0.538367 0.513618 0.502868
0.471203 0.499701 0.483036
0.480405 0.502987 0.486321
0.489606 0.506272 0.489606
0.498808 0.509557 0.492892
0.508010 0.512842 0.496177
0.517211 0.516128 0.499462
0.526413 0.519413 0.502748
0.535615 0.522698 0.506033
0.544816 0.525984 0.509318
0.477653 0.512067 0.489486
0.486855 0.515353 0.492771
0.496056 0.518638 0.496056
0.505258 0.521923 0.499341
0.514459 0.525209 0.502627
0.523661 0.528494 0.505912
0.532863 0.531779 0.509197
0.542064 0.535064 0.512483
0.551266 0.538350 0.515768
0.484103 0.524433 0.495935
0.493304 0.527719 0.499221
0.502506 0.531004 0.502506
0.511707 0.534289 0.505791
0.520909 0.537575 0.509076
0.530111 0.540860 0.512362
0.539312 0.544145 0.515647
0.548514 0.547430 0.518932
0.557716 0.550716 0.522217
0.433758 0.426758 0.451507
0.442959 0.430043 0.454792
0.452161 0.433328 0.458077
0.461363 0.436614 0.461363
0.470564 0.439899 0.464648
0.479766 0.443184 0.467933
0.488968 0.446469 0.471218
0.498169 0.449755 0.474504
0.507371 0.453040 0.477789
0.440207 0.439124 0.457956
0.449409 0.442409 0.461242
0.458611 0.445694 0.464527
0.467812 0.448980 0.467812
0.477014 0.452265 0.471098
0.486216 0.455550 0.474383
0.495417 0.458835 0.477668
0.504619 0.462121 0.480953
0.513820 0.465406 0.484239
0.446657 0.451490 0.464406
0.455859 0.454775 0.467691
0.465060 0.458060 0.470977
0.474262 0.461346 0.474262
0.483464 0.464631 0.477547
0.492665 0.467916 0.480833
0.501867 0.471201 0.484118
0.511069 0.474487 0.487403
0.520270 0.477772 0.490688
0.453107 0.463856 0.470856
0.462308 0.467141 0.474141
0.471510 0.470426 0.477426
0.480712 0.473712 0.480712
0.489913 0.476997 0.483997
0.499115 0.480282 0.487282
0.508317 0.483567 0.490567
0.517518 0.486853 0.493853
0.526720 0.490138 0.497138
0.459556 0.476222 0.477306
0.468758 0.479507 0.480591
0.477960 0.482792 0.483876
0.487161 0.486078 0.487161
0.496363 0.489363 0.490447
0.505565 0.492648 0.493732
0.514766 0.495934 0.497017
0.523968 0.499219 0.500302
0.533169 0.502504 0.503588
0.466006 0.488588 0.483755
0.475208 0.491873 0.487040
0.484409 0.495158 0.490326
0.493611 0.498444 0.493611
0.502813 0.501729 0.496896
0.512014 0.505014 0.500182
0.521216 0.508300 0.503467
0.530418 0.511585 0.506752
0.539619 0.514870 0.510037
0.472456 0.500954 0.490205
0.481657 0.504239 0.493490
0.490859 0.507524 0.496775
0.500061 0.510810 0.500061
0.509262 0.514095 0.503346
0.518464 0.517380 0.506631
0.527666 0.520666 0.509917
0.536867 0.523951 0.513202
0.546069 0.527236 0.516487
0.478905 0.513320 0.496655
0.488107 0.516605 0.499940
0.497309 0.519891 0.503225
0.506510 0.523176 0.506510
0.515712 0.526461 0.509796
0.524914 0.529746 0.513081
0.534115 0.533032 0.516366
0.543317 0.536317 0.519651
0.552519 0.539602 0.522937
0.485355 0.525686 0.503104
0.494557 0.528971 0.506390
0.503758 0.532257 0.509675
0.512960 0.535542 0.512960
0.522162 0.538827 0.516245
0.531363 0.542112 0.519531
0.540565 0.545398 0.522816
0.549767 0.548683 0.526101
0.558968 0.551968 0.529386
0.435010 0.428010 0.458676
0.444212 0.431296 0.461961
0.453414 0.434581 0.465246
0.462615 0.437866 0.468532
0.471817 0.441151 0.471817
0.481018 0.444437 0.475102
0.490220 0.447722 0.478387
0.499422 0.451007 0.481673
0.508623 0.454292 0.484958
0.441460 0.440376 0.465125
0.450662 0.443662 0.468411
0.459863 0.446947 0.471696
0.469065 0.450232 0.474981
0.478267 0.453517 0.478267
0.487468 0.456803 0.481552
0.496670 0.460088 0.484837
0.505871 0.463373 0.488122
0.515073 0.466659 0.491408
0.447910 0.452742 0.471575
0.457111 0.456028 0.474860
0.466313 0.459313 0.478146
0.475515 0.462598 0.481431
0.484716 0.465883 0.484716
0.493918 0.469169 0.488001
0.503119 0.472454 0.491287
0.512321 0.475739 0.494572
0.521523 0.479025 0.497857
0.454359 0.465108 0.478025
0.463561 0.468394 0.481310
0.472763 0.471679 0.484595
0.481964 0.474964 0.487881
0.491166 0.478250 0.491166
0.500367 0.481535 0.494451
0.509569 0.484820 0.497736
0.518771 0.488105 0.501022
0.527972 0.491391 0.504307
0.460809 0.477474 0.484474
0.470011 0.480760 0.487760
0.479212 0.484045 0.491045
0.488414 0.487330 0.494330
0.497616 0.490616 0.497616
0.506817 0.493901 0.500901
0.516019 0.497186 0.504186
0.525220 0.500471 0.507471
0.534422 0.503757 0.510757
0.467259 0.489840 0.490924
0.476460 0.493126 0.494209
0.485662 0.496411 0.497495
0.494864 0.499696 0.500780
0.504065 0.502982 0.504065
0.513267 0.506267 0.507350
0.522468 0.509552 0.510636
0.531670 0.512837 0.513921
0.540872 0.516123 0.517206
0.473708 0.502207 0.497374
0.482910 0.505492 0.500659
0.492112 0.508777 0.503944
0.501313 0.512062 0.507230
0.510515 0.515348 0.510515
0.519717 0.518633 0.513800
0.528918 0.521918 0.517085
0.538120 0.525203 0.520371
0.547321 0.528489 0.523656
0.480158 0.514573 0.503823
0.489360 0.517858 0.507109
0.498561 0.521143 0.510394
0.507763 0.524428 0.513679
0.516965 0.527714 0.516965
0.526166 0.530999 0.520250
0.535368 0.534284 0.523535
0.544569 0.537569 0.526820
0.553771 0.540855 0.530106
0.486608 0.526939 0.510273
0.495809 0.530224 0.513558
0.505011 0.533509 0.516844
0.514213 0.536794 0.520129
0.523414 0.540080 0.523414
0.532616 0.543365 0.526700
0.541818 0.546650 0.529985
0.551019 0.549936 0.533270
0.560221 0.553221 0.536555
0.436263 0.429263 0.465845
0.445465 0.432548 0.469130
0.454666 0.435833 0.472415
0.463868 0.439119 0.475701
0.473069 0.442404 0.478986
0.482271 0.445689 0.482271
0.491473 0.448975 0.485556
0.500674 0.452260 0.488842
0.509876 0.455545 0.492127
0.442713 0.441629 0.472294
0.451914 0.444914 0.475580
0.461116 0.448199 0.478865
0.470317 0.451485 0.482150
0.479519 0.454770 0.485435
0.488721 0.458055 0.488721
0.497922 0.461341 0.492006
0.507124 0.464626 0.495291
0.516326 0.467911 0.498577
0.449162 0.453995 0.478744
0.458364 0.457280 0.482029
0.467566 0.460566 0.485315
0.476767 0.463851 0.488600
0.485969 0.467136 0.491885
0.495170 0.470421 0.495170
0.504372 0.473707 0.498456
0.513574 0.476992 0.501741
0.522775 0.480277 0.505026
0.455612 0.466361 0.485194
0.464814 0.469646 0.488479
0.474015 0.472932 0.491764
0.483217 0.476217 0.495050
0.492418 0.479502 0.498335
0.501620 0.482787 0.501620
0.510822 0.486073 0.504905
0.520023 0.489358 0.508191
0.529225 0.492643 0.511476
0.462062 0.478727 0.491643
0.471263 0.482012 0.494929
0.480465 0.485298 0.498214
0.489666 0.488583 0.501499
0.498868 0.491868 0.504784
0.508070 0.495153 0.508070
0.517271 0.498439 0.511355
0.526473 0.501724 0.514640
0.535675 0.505009 0.517926
0.468511 0.491093 0.498093
0.477713 0.494378 0.501378
0.486915 0.497664 0.504664
0.496116 0.500949 0.507949
0.505318 0.504234 0.511234
0.514519 0.507519 0.514519
0.523721 0.510805 0.517805
0.532923 0.514090 0.521090
0.542124 0.517375 0.524375
0.474961 0.503459 0.504543
0.484163 0.506744 0.507828
0.493364 0.510030 0.511113
0.502566 0.513315 0.514399
0.511767 0.516600 0.517684
0.520969 0.519885 0.520969
0.530171 0.523171 0.524254
0.539372 0.526456 0.527540
0.548574 0.529741 0.530825
0.481411 0.515825 0.510992
0.490612 0.519110 0.514278
0.499814 0.522396 0.517563
0.509016 0.525681 0.520848
0.518217 0.528966 0.524134
0.527419 0.532252 0.527419
0.536620 0.535537 0.530704
0.545822 0.538822 0.533989
0.555024 0.542107 0.537275
0.487860 0.528191 0.517442
0.497062 0.531476 0.520727
0.506264 0.534762 0.524013
0.515465 0.538047 0.527298
0.524667 0.541332 0.530583
0.533868 0.544618 0.533868
0.543070 0.547903 0.537154
0.552272 0.551188 0.540439
0.561473 0.554473 0.543724
0.437515 0.430515 0.473014
0.446717 0.433801 0.476299
0.455919 0.437086 0.479584
0.465120 0.440371 0.482869
0.474322 0.443657 0.486155
0.483524 0.446942 0.489440
0.492725 0.450227 0.492725
0.501927 0.453512 0.496011
0.511129 0.456798 0.499296
0.443965 0.442882 0.479463
0.453167 0.446167 0.482749
0.462368 0.449452 0.486034
0.471570 0.452737 0.489319
0.480772 0.456023 0.492604
0.489973 0.459308 0.495890
0.499175 0.462593 0.499175
0.508377 0.465878 0.502460
0.517578 0.469164 0.505745
0.450415 0.455248 0.485913
0.459616 0.458533 0.489198
0.468818 0.461818 0.492484
0.478020 0.465103 0.495769
0.487221 0.468389 0.499054
0.496423 0.471674 0.502339
0.505625 0.474959 0.505625
0.514826 0.478244 0.508910
0.524028 0.481530 0.512195
0.456865 0.467614 0.492363
0.466066 0.470899 0.495648
0.475268 0.474184 0.498933
0.484469 0.477469 0.502218
0.493671 0.480755 0.505504
0.502873 0.484040 0.508789
0.512074 0.487325 0.512074
0.521276 0.490610 0.515360
0.530478 0.493896 0.518645
0.463314 0.479980 0.498812
0.472516 0.483265 0.502098
0.481717 0.486550 0.505383
0.490919 0.489835 0.508668
0.500121 0.493121 0.511953
0.509322 0.496406 0.515239
0.518524 0.499691 0.518524
0.527726 0.502977 0.521809
0.536927 0.506262 0.525094
0.469764 0.492346 0.505262
0.478965 0.495631 0.508547
0.488167 0.498916 0.511833
0.497369 0.502201 0.515118
0.506570 0.505487 0.518403
0.515772 0.508772 0.521688
0.524974 0.512057 0.524974
0.534175 0.515343 0.528259
0.543377 0.518628 0.531544
0.476214 0.504712 0.511712
0.485415 0.507997 0.514997
0.494617 0.511282 0.518282
0.503818 0.514568 0.521568
0.513020 0.517853 0.524853
0.522222 0.521138 0.528138
0.531423 0.524423 0.531423
0.540625 0.527709 0.534709
0.549827 0.530994 0.537994
0.482663 0.517078 0.518161
0.491865 0.520363 0.521447
0.501066 0.523648 0.524732
0.510268 0.526934 0.528017
0.519470 0.530219 0.531302
0.528671 0.533504 0.534588
0.537873 0.536789 0.537873
0.547075 0.540075 0.541158
0.556276 0.543360 0.544444
0.489113 0.529444 0.524611
0.498315 0.532729 0.527896
0.507516 0.536014 0.531182
0.516718 0.539300 0.534467
0.525919 0.542585 0.537752
0.535121 0.545870 0.541037
0.544323 0.549155 0.544323
0.553524 0.552441 0.547608
0.562726 0.555726 0.550893
0.438768 0.431768 0.480183
0.447970 0.435053 0.483468
0.457171 0.438339 0.486753
0.466373 0.441624 0.490038
0.475575 0.444909 0.493324
0.484776 0.448194 0.496609
0.493978 0.451480 0.499894
0.503179 0.454765 0.503179
0.512381 0.458050 0.506465
0.445218 0.444134 0.486632
0.454419 0.447419 0.489918
0.463621 0.450705 0.493203
0.472823 0.453990 0.496488
0.482024 0.457275 0.499773
0.491226 0.460560 0.503059
0.500428 0.463846 0.506344
0.509629 0.467131 0.509629
0.518831 0.470416 0.512914
0.451667 0.456500 0.493082
0.460869 0.459785 0.496367
0.470071 0.463071 0.499652
0.479272 0.466356 0.502938
0.488474 0.469641 0.506223
0.497676 0.472926 0.509508
0.506877 0.476212 0.512794
0.516079 0.479497 0.516079
0.525280 0.482782 0.519364
0.458117 0.468866 0.499532
0.467319 0.472151 0.502817
0.476520 0.475437 0.506102
0.485722 0.478722 0.509387
0.494924 0.482007 0.512673
0.504125 0.485293 0.515958
0.513327 0.488578 0.519243
0.522528 0.491863 0.522528
0.531730 0.495148 0.525814
0.464567 0.481232 0.505981
0.473768 0.484517 0.509267
0.482970 0.487803 0.512552
0.492172 0.491088 0.515837
0.501373 0.494373 0.519122
0.510575 0.497659 0.522408
0.519777 0.500944 0.525693
0.528978 0.504229 0.528978
0.538180 0.507514 0.532263
0.471016 0.493598 0.512431
0.480218 0.496884 0.515716
0.489420 0.500169 0.519001
0.498621 0.503454 0.522287
0.507823 0.506739 0.525572
0.517025 0.510025 0.528857
0.526226 0.513310 0.532143
0.535428 0.516595 0.535428
0.544629 0.519880 0.538713
0.477466 0.505964 0.518881
0.486668 0.509250 0.522166
0.495869 0.512535 0.525451
0.505071 0.515820 0.528736
0.514273 0.519105 0.532022
0.523474 0.522391 0.535307
0.532676 0.525676 0.538592
0.541878 0.528961 0.541878
0.551079 0.532246 0.545163
0.483916 0.518330 0.525330
0.493117 0.521616 0.528616
0.502319 0.524901 0.531901
0.511521 0.528186 0.535186
0.520722 0.531471 0.538471
0.529924 0.534757 0.541757
0.539126 0.538042 0.545042
0.548327 0.541327 0.548327
0.557529 0.544612 0.551612
0.490365 0.530696 0.531780
0.499567 0.533982 0.535065
0.508769 0.537267 0.538351
0.517970 0.540552 0.541636
0.527172 0.543837 0.544921
0.536374 0.547123 0.548206
0.545575 0.550408 0.551492
0.554777 0.553693 0.554777
0.563979 0.556979 0.558062
0.440021 0.433021 0.487352
0.449222 0.436306 0.490637
0.458424 0.439591 0.493922
0.467626 0.442876 0.497207
0.476827 0.446162 0.500493
0.486029 0.449447 0.503778
0.495230 0.452732 0.507063
0.504432 0.456018 0.510348
0.513634 0.459303 0.513634
0.446470 0.445387 0.493801
0.455672 0.448672 0.497086
0.464874 0.451957 0.500372
0.474075 0.455242 0.503657
0.483277 0.458528 0.506942
0.492478 0.461813 0.510228
0.501680 0.465098 0.513513
0.510882 0.468384 0.516798
0.520083 0.471669 0.520083
0.452920 0.457753 0.500251
0.462122 0.461038 0.503536
0.471323 0.464323 0.506821
0.480525 0.467609 0.510107
0.489726 0.470894 0.513392
0.498928 0.474179 0.516677
0.508130 0.477464 0.519962
0.517331 0.480750 0.523248
0.526533 0.484035 0.526533
0.459370 0.470119 0.506701
0.468571 0.473404 0.509986
0.477773 0.476689 0.513271
0.486975 0.479975 0.516556
0.496176 0.483260 0.519842
0.505378 0.486545 0.523127
0.514579 0.489830 0.526412
0.523781 0.493116 0.529697
0.532983 0.496401 0.532983
0.465819 0.482485 0.513150
0.475021 0.485770 0.516435
0.484223 0.489055 0.519721
0.493424 0.492341 0.523006
0.502626 0.495626 0.526291
0.511827 0.498911 0.529577
0.521029 0.502196 0.532862
0.530231 0.505482 0.536147
0.539432 0.508767 0.539432
0.472269 0.494851 0.519600
0.481471 0.498136 0.522885
0.490672 0.501421 0.526170
0.499874 0.504707 0.529456
0.509076 0.507992 0.532741
0.518277 0.511277 0.536026
0.527479 0.514562 0.539312
0.536680 0.517848 0.542597
0.545882 0.521133 0.545882
0.478719 0.507217 0.526050
0.487920 0.510502 0.529335
0.497122 0.513787 0.532620
0.506324 0.517073 0.535905
0.515525 0.520358 0.539191
0.524727 0.523643 0.542476
0.533928 0.526928 0.545761
0.543130 0.530214 0.549046
0.552332 0.533499 0.552332
0.485168 0.519583 0.532499
0.494370 0.522868 0.535785
0.503572 0.526153 0.539070
0.512773 0.529439 0.542355
0.521975 0.532724 0.545640
0.531177 0.536009 0.548926
0.540378 0.539295 0.552211
0.549580 0.542580 0.555496
0.558781 0.545865 0.558781
0.491618 0.531949 0.538949
0.500820 0.535234 0.542234
0.510021 0.538519 0.545519
0.519223 0.541805 0.548805
0.528425 0.545090 0.552090
0.537626 0.548375 0.555375
0.546828 0.551661 0.558661
0.556029 0.554946 0.561946
0.565231 0.558231 0.565231
