shared/src/main/assets/luts/film_cold_neon.cube
TITLE "DALUR Cold Neon"
LUT_3D_SIZE 5
DOMAIN_MIN 0.0 0.0 0.0
DOMAIN_MAX 1.0 1.0 1.0
0.415600 0.426000 0.444400
0.422139 0.438139 0.456539
0.428679 0.450279 0.468679
0.435218 0.462418 0.480818
0.441758 0.474558 0.492958
0.439432 0.444232 0.468232
0.445972 0.456372 0.480372
0.452511 0.468511 0.492511
0.459050 0.480650 0.504650
0.465590 0.492790 0.516790
0.463264 0.462464 0.492064
0.469804 0.474604 0.504204
0.476343 0.486743 0.516343
0.482883 0.498883 0.528483
0.489422 0.511022 0.540622
0.487097 0.480697 0.515897
0.493636 0.492836 0.528036
0.500175 0.504975 0.540175
0.506715 0.517115 0.552315
0.513254 0.529254 0.564454
0.510929 0.498929 0.539729
0.517468 0.511068 0.551868
0.524008 0.523208 0.564008
0.530547 0.535347 0.576147
0.537086 0.547486 0.588286
0.420228 0.430628 0.443428
0.426768 0.442768 0.455568
0.433307 0.454907 0.467707
0.439847 0.467047 0.479847
0.446386 0.479186 0.491986
0.444061 0.448861 0.467261
0.450600 0.461000 0.479400
0.457139 0.473139 0.491539
0.463679 0.485279 0.503679
0.470218 0.497418 0.515818
0.467893 0.467093 0.491093
0.474432 0.479232 0.503232
0.480972 0.491372 0.515372
0.487511 0.503511 0.527511
0.494050 0.515650 0.539650
0.491725 0.485325 0.514925
0.498264 0.497464 0.527064
0.504804 0.509604 0.539204
0.511343 0.521743 0.551343
0.517883 0.533883 0.563483
0.515557 0.503557 0.538757
0.522097 0.515697 0.550897
0.528636 0.527836 0.563036
0.535175 0.539975 0.575175
0.541715 0.552115 0.587315
0.424857 0.435257 0.442457
0.431396 0.447396 0.454596
0.437936 0.459536 0.466736
0.444475 0.471675 0.478875
0.451014 0.483814 0.491014
0.448689 0.453489 0.466289
0.455228 0.465628 0.478428
0.461768 0.477768 0.490568
0.468307 0.489907 0.502707
0.474847 0.502047 0.514847
0.472521 0.471721 0.490121
0.479061 0.483861 0.502261
0.485600 0.496000 0.514400
0.492139 0.508139 0.526539
0.498679 0.520279 0.538679
0.496353 0.489953 0.513953
0.502893 0.502093 0.526093
0.509432 0.514232 0.538232
0.515972 0.526372 0.550372
0.522511 0.538511 0.562511
0.520186 0.508186 0.537786
0.526725 0.520325 0.549925
0.533264 0.532464 0.562064
0.539804 0.544604 0.574204
0.546343 0.556743 0.586343
0.429485 0.439885 0.441485
0.436025 0.452025 0.453625
0.442564 0.464164 0.465764
0.449103 0.476303 0.477903
0.455643 0.488443 0.490043
0.453317 0.458117 0.465317
0.459857 0.470257 0.477457
0.466396 0.482396 0.489596
0.472936 0.494536 0.501736
0.479475 0.506675 0.513875
0.477150 0.476350 0.489150
0.483689 0.488489 0.501289
0.490228 0.500628 0.513428
0.496768 0.512768 0.525568
0.503307 0.524907 0.537707
0.500982 0.494582 0.512982
0.507521 0.506721 0.525121
0.514061 0.518861 0.537261
0.520600 0.531000 0.549400
0.527139 0.543139 0.561539
0.524814 0.512814 0.536814
0.531353 0.524953 0.548953
0.537893 0.537093 0.561093
0.544432 0.549232 0.573232
0.550972 0.561372 0.585372
0.434114 0.444514 0.440514
0.440653 0.456653 0.452653
0.447192 0.468792 0.464792
0.453732 0.480932 0.476932
0.460271 0.493071 0.489071
0.457946 0.462746 0.464346
0.464485 0.474885 0.476485
0.471025 0.487025 0.488625
0.477564 0.499164 0.500764
0.484103 0.511303 0.512903
0.481778 0.480978 0.488178
0.488317 0.493117 0.500317
0.494857 0.505257 0.512457
0.501396 0.517396 0.524596
0.507936 0.529536 0.536736
0.505610 0.499210 0.512010
0.512150 0.511350 0.524150
0.518689 0.523489 0.536289
0.525228 0.535628 0.548428
0.531768 0.547768 0.560568
0.529442 0.517442 0.535842
0.535982 0.529582 0.547982
0.542521 0.541721 0.560121
0.549061 0.553861 0.572261
0.555600 0.566000 0.584400
