shared/src/main/assets/luts/film_dusty_sepia.cube
TITLE "DALUR Dusty Sepia"
LUT_3D_SIZE 9
DOMAIN_MIN 0.0 0.0 0.0
DOMAIN_MAX 1.0 1.0 1.0
0.488000 0.470000 0.452000
0.488961 0.472902 0.454902
0.489922 0.475804 0.457804
0.490883 0.478706 0.460706
0.491843 0.481608 0.463608
0.492804 0.484510 0.466510
0.493765 0.487412 0.469412
0.494726 0.490314 0.472314
0.495687 0.493216 0.475216
0.493697 0.473756 0.457697
0.494658 0.476658 0.460599
0.495619 0.479560 0.463501
0.496580 0.482462 0.466403
0.497541 0.485364 0.469305
0.498501 0.488266 0.472207
0.499462 0.491168 0.475109
0.500423 0.494070 0.478011
0.501384 0.496972 0.480913
0.499394 0.477512 0.463394
0.500355 0.480414 0.466296
0.501316 0.483316 0.469198
0.502277 0.486218 0.472100
0.503238 0.489120 0.475002
0.504199 0.492022 0.477904
0.505160 0.494924 0.480806
0.506120 0.497826 0.483708
0.507081 0.500728 0.486610
0.505092 0.481268 0.469092
0.506052 0.484170 0.471994
0.507013 0.487072 0.474896
0.507974 0.489974 0.477798
0.508935 0.492876 0.480699
0.509896 0.495778 0.483601
0.510857 0.498680 0.486503
0.511818 0.501582 0.489405
0.512778 0.504484 0.492307
0.510789 0.485024 0.474789
0.511750 0.487926 0.477691
0.512710 0.490828 0.480593
0.513671 0.493730 0.483495
0.514632 0.496632 0.486397
0.515593 0.499534 0.489299
0.516554 0.502436 0.492201
0.517515 0.505338 0.495103
0.518476 0.508240 0.498005
0.516486 0.488780 0.480486
0.517447 0.491682 0.483388
0.518408 0.494584 0.486290
0.519369 0.497486 0.489192
0.520329 0.500388 0.492094
0.521290 0.503290 0.494996
0.522251 0.506192 0.497898
0.523212 0.509094 0.500800
0.524173 0.511996 0.503702
0.522183 0.492536 0.486183
0.523144 0.495438 0.489085
0.524105 0.498340 0.491987
0.525066 0.501242 0.494889
0.526027 0.504144 0.497791
0.526987 0.507046 0.500693
0.527948 0.509948 0.503595
0.528909 0.512850 0.506497
0.529870 0.515752 0.509399
0.527880 0.496292 0.491880
0.528841 0.499194 0.494782
0.529802 0.502096 0.497684
0.530763 0.504998 0.500586
0.531724 0.507900 0.503488
0.532685 0.510802 0.506390
0.533645 0.513704 0.509292
0.534606 0.516606 0.512194
0.535567 0.519508 0.515096
0.533578 0.500049 0.497578
0.534538 0.502951 0.500480
0.535499 0.505853 0.503381
0.536460 0.508754 0.506283
0.537421 0.511656 0.509185
0.538382 0.514558 0.512087
0.539343 0.517460 0.514989
0.540304 0.520362 0.517891
0.541264 0.523264 0.520793
0.489106 0.471106 0.451165
0.490067 0.474008 0.454067
0.491028 0.476910 0.456969
0.491989 0.479812 0.459871
0.492950 0.482714 0.462773
0.493911 0.485616 0.465675
0.494872 0.488518 0.468577
0.495832 0.491420 0.471479
0.496793 0.494322 0.474381
0.494804 0.474863 0.456863
0.495764 0.477764 0.459764
0.496725 0.480666 0.462666
0.497686 0.483568 0.465568
0.498647 0.486470 0.468470
0.499608 0.489372 0.471372
0.500569 0.492274 0.474274
0.501530 0.495176 0.477176
0.502490 0.498078 0.480078
0.500501 0.478619 0.462560
0.501462 0.481521 0.465462
0.502423 0.484423 0.468364
0.503383 0.487325 0.471266
0.504344 0.490226 0.474168
0.505305 0.493128 0.477070
0.506266 0.496030 0.479972
0.507227 0.498932 0.482874
0.508188 0.501834 0.485776
0.506198 0.482375 0.468257
0.507159 0.485277 0.471159
0.508120 0.488179 0.474061
0.509081 0.491081 0.476963
0.510041 0.493983 0.479865
0.511002 0.496885 0.482767
0.511963 0.499787 0.485669
0.512924 0.502688 0.488571
0.513885 0.505590 0.491473
0.511895 0.486131 0.473954
0.512856 0.489033 0.476856
0.513817 0.491935 0.479758
0.514778 0.494837 0.482660
0.515739 0.497739 0.485562
0.516699 0.500641 0.488464
0.517660 0.503543 0.491366
0.518621 0.506445 0.494268
0.519582 0.509347 0.497170
0.517592 0.489887 0.479651
0.518553 0.492789 0.482553
0.519514 0.495691 0.485455
0.520475 0.498593 0.488357
0.521436 0.501495 0.491259
0.522397 0.504397 0.494161
0.523358 0.507299 0.497063
0.524318 0.510201 0.499965
0.525279 0.513103 0.502867
0.523290 0.493643 0.485348
0.524250 0.496545 0.488250
0.525211 0.499447 0.491152
0.526172 0.502349 0.494054
0.527133 0.505251 0.496956
0.528094 0.508153 0.499858
0.529055 0.511055 0.502760
0.530016 0.513957 0.505662
0.530976 0.516859 0.508564
0.528987 0.497399 0.491046
0.529948 0.500301 0.493948
0.530908 0.503203 0.496850
0.531869 0.506105 0.499752
0.532830 0.509007 0.502654
0.533791 0.511909 0.505556
0.534752 0.514811 0.508458
0.535713 0.517713 0.511360
0.536674 0.520615 0.514261
0.534684 0.501155 0.496743
0.535645 0.504057 0.499645
0.536606 0.506959 0.502547
0.537567 0.509861 0.505449
0.538527 0.512763 0.508351
0.539488 0.515665 0.511253
0.540449 0.518567 0.514155
0.541410 0.521469 0.517057
0.542371 0.524371 0.519959
0.490213 0.472213 0.450331
0.491174 0.475115 0.453233
0.492135 0.478017 0.456135
0.493095 0.480919 0.459037
0.494056 0.483821 0.461939
0.495017 0.486723 0.464841
0.495978 0.489625 0.467742
0.496939 0.492527 0.470644
0.497900 0.495429 0.473546
0.495910 0.475969 0.456028
0.496871 0.478871 0.458930
0.497832 0.481773 0.461832
0.498793 0.484675 0.464734
0.499753 0.487577 0.467636
0.500714 0.490479 0.470538
0.501675 0.493381 0.473440
0.502636 0.496283 0.476342
0.503597 0.499185 0.479244
0.501607 0.479725 0.461725
0.502568 0.482627 0.464627
0.503529 0.485529 0.467529
0.504490 0.488431 0.470431
0.505451 0.491333 0.473333
0.506412 0.494235 0.476235
0.507372 0.497137 0.479137
0.508333 0.500039 0.482039
0.509294 0.502941 0.484941
0.507304 0.483481 0.467422
0.508265 0.486383 0.470324
0.509226 0.489285 0.473226
0.510187 0.492187 0.476128
0.511148 0.495089 0.479030
0.512109 0.497991 0.481932
0.513070 0.500893 0.484834
0.514030 0.503795 0.487736
0.514991 0.506697 0.490638
0.513002 0.487237 0.473119
0.513963 0.490139 0.476021
0.514923 0.493041 0.478923
0.515884 0.495943 0.481825
0.516845 0.498845 0.484727
0.517806 0.501747 0.487629
0.518767 0.504649 0.490531
0.519728 0.507551 0.493433
0.520688 0.510453 0.496335
0.518699 0.490993 0.478817
0.519660 0.493895 0.481719
0.520621 0.496797 0.484621
0.521581 0.499699 0.487523
0.522542 0.502601 0.490425
0.523503 0.505503 0.493326
0.524464 0.508405 0.496228
0.525425 0.511307 0.499130
0.526386 0.514209 0.502032
0.524396 0.494749 0.484514
0.525357 0.497651 0.487416
0.526318 0.500553 0.490318
0.527279 0.503455 0.493220
0.528239 0.506357 0.496122
0.529200 0.509259 0.499024
0.530161 0.512161 0.501926
0.531122 0.515063 0.504828
0.532083 0.517965 0.507730
0.530093 0.498505 0.490211
0.531054 0.501407 0.493113
0.532015 0.504309 0.496015
0.532976 0.507211 0.498917
0.533937 0.510113 0.501819
0.534898 0.513015 0.504721
0.535858 0.515917 0.507623
0.536819 0.518819 0.510525
0.537780 0.521721 0.513427
0.535790 0.502261 0.495908
0.536751 0.505163 0.498810
0.537712 0.508065 0.501712
0.538673 0.510967 0.504614
0.539634 0.513869 0.507516
0.540595 0.516771 0.510418
0.541556 0.519673 0.513320
0.542516 0.522575 0.516222
0.543477 0.525477 0.519124
0.491319 0.473319 0.449496
0.492280 0.476221 0.452398
0.493241 0.479123 0.455300
0.494202 0.482025 0.458202
0.495163 0.484927 0.461104
0.496124 0.487829 0.464006
0.497084 0.490731 0.466908
0.498045 0.493633 0.469810
0.499006 0.496535 0.472712
0.497017 0.477075 0.455193
0.497977 0.479977 0.458095
0.498938 0.482879 0.460997
0.499899 0.485781 0.463899
0.500860 0.488683 0.466801
0.501821 0.491585 0.469703
0.502782 0.494487 0.472605
0.503742 0.497389 0.475507
0.504703 0.500291 0.478409
0.502714 0.480831 0.460890
0.503675 0.483733 0.463792
0.504635 0.486635 0.466694
0.505596 0.489537 0.469596
0.506557 0.492439 0.472498
0.507518 0.495341 0.475400
0.508479 0.498243 0.478302
0.509440 0.501145 0.481204
0.510401 0.504047 0.484106
0.508411 0.484588 0.466588
0.509372 0.487490 0.469490
0.510333 0.490391 0.472391
0.511293 0.493293 0.475293
0.512254 0.496195 0.478195
0.513215 0.499097 0.481097
0.514176 0.501999 0.483999
0.515137 0.504901 0.486901
0.516098 0.507803 0.489803
0.514108 0.488344 0.472285
0.515069 0.491246 0.475187
0.516030 0.494148 0.478089
0.516991 0.497050 0.480991
0.517952 0.499952 0.483893
0.518912 0.502853 0.486795
0.519873 0.505755 0.489697
0.520834 0.508657 0.492599
0.521795 0.511559 0.495501
0.519805 0.492100 0.477982
0.520766 0.495002 0.480884
0.521727 0.497904 0.483786
0.522688 0.500806 0.486688
0.523649 0.503708 0.489590
0.524610 0.506610 0.492492
0.525570 0.509512 0.495394
0.526531 0.512414 0.498296
0.527492 0.515315 0.501198
0.525502 0.495856 0.483679
0.526463 0.498758 0.486581
0.527424 0.501660 0.489483
0.528385 0.504562 0.492385
0.529346 0.507464 0.495287
0.530307 0.510366 0.498189
0.531268 0.513268 0.501091
0.532228 0.516170 0.503993
0.533189 0.519072 0.506895
0.531200 0.499612 0.489376
0.532161 0.502514 0.492278
0.533121 0.505416 0.495180
0.534082 0.508318 0.498082
0.535043 0.511220 0.500984
0.536004 0.514122 0.503886
0.536965 0.517024 0.506788
0.537926 0.519926 0.509690
0.538887 0.522828 0.512592
0.536897 0.503368 0.495073
0.537858 0.506270 0.497975
0.538819 0.509172 0.500877
0.539779 0.512074 0.503779
0.540740 0.514976 0.506681
0.541701 0.517878 0.509583
0.542662 0.520780 0.512485
0.543623 0.523682 0.515387
0.544584 0.526584 0.518289
0.492426 0.474426 0.448661
0.493387 0.477328 0.451563
0.494347 0.480230 0.454465
0.495308 0.483132 0.457367
0.496269 0.486034 0.460269
0.497230 0.488936 0.463171
0.498191 0.491838 0.466073
0.499152 0.494740 0.468975
0.500113 0.497642 0.471877
0.498123 0.478182 0.454358
0.499084 0.481084 0.457260
0.500045 0.483986 0.460162
0.501006 0.486888 0.463064
0.501966 0.489790 0.465966
0.502927 0.492692 0.468868
0.503888 0.495594 0.471770
0.504849 0.498496 0.474672
0.505810 0.501398 0.477574
0.503820 0.481938 0.460056
0.504781 0.484840 0.462958
0.505742 0.487742 0.465860
0.506703 0.490644 0.468762
0.507664 0.493546 0.471664
0.508624 0.496448 0.474566
0.509585 0.499350 0.477468
0.510546 0.502252 0.480369
0.511507 0.505154 0.483271
0.509517 0.485694 0.465753
0.510478 0.488596 0.468655
0.511439 0.491498 0.471557
0.512400 0.494400 0.474459
0.513361 0.497302 0.477361
0.514322 0.500204 0.480263
0.515282 0.503106 0.483165
0.516243 0.506008 0.486067
0.517204 0.508910 0.488969
0.515215 0.489450 0.471450
0.516175 0.492352 0.474352
0.517136 0.495254 0.477254
0.518097 0.498156 0.480156
0.519058 0.501058 0.483058
0.520019 0.503960 0.485960
0.520980 0.506862 0.488862
0.521941 0.509764 0.491764
0.522901 0.512666 0.494666
0.520912 0.493206 0.477147
0.521873 0.496108 0.480049
0.522833 0.499010 0.482951
0.523794 0.501912 0.485853
0.524755 0.504814 0.488755
0.525716 0.507716 0.491657
0.526677 0.510618 0.494559
0.527638 0.513520 0.497461
0.528599 0.516422 0.500363
0.526609 0.496962 0.482844
0.527570 0.499864 0.485746
0.528531 0.502766 0.488648
0.529491 0.505668 0.491550
0.530452 0.508570 0.494452
0.531413 0.511472 0.497354
0.532374 0.514374 0.500256
0.533335 0.517276 0.503158
0.534296 0.520178 0.506060
0.532306 0.500718 0.488542
0.533267 0.503620 0.491444
0.534228 0.506522 0.494346
0.535189 0.509424 0.497248
0.536150 0.512326 0.500150
0.537110 0.515228 0.503052
0.538071 0.518130 0.505953
0.539032 0.521032 0.508855
0.539993 0.523934 0.511757
0.538003 0.504474 0.494239
0.538964 0.507376 0.497141
0.539925 0.510278 0.500043
0.540886 0.513180 0.502945
0.541847 0.516082 0.505847
0.542808 0.518984 0.508749
0.543768 0.521886 0.511651
0.544729 0.524788 0.514553
0.545690 0.527690 0.517455
0.493532 0.475532 0.447827
0.494493 0.478434 0.450729
0.495454 0.481336 0.453631
0.496415 0.484238 0.456533
0.497376 0.487140 0.459434
0.498336 0.490042 0.462336
0.499297 0.492944 0.465238
0.500258 0.495846 0.468140
0.501219 0.498748 0.471042
0.499229 0.479288 0.453524
0.500190 0.482190 0.456426
0.501151 0.485092 0.459328
0.502112 0.487994 0.462230
0.503073 0.490896 0.465132
0.504034 0.493798 0.468034
0.504995 0.496700 0.470936
0.505955 0.499602 0.473838
0.506916 0.502504 0.476740
0.504927 0.483044 0.459221
0.505887 0.485946 0.462123
0.506848 0.488848 0.465025
0.507809 0.491750 0.467927
0.508770 0.494652 0.470829
0.509731 0.497554 0.473731
0.510692 0.500456 0.476633
0.511653 0.503358 0.479535
0.512613 0.506260 0.482437
0.510624 0.486800 0.464918
0.511585 0.489702 0.467820
0.512545 0.492604 0.470722
0.513506 0.495506 0.473624
0.514467 0.498408 0.476526
0.515428 0.501310 0.479428
0.516389 0.504212 0.482330
0.517350 0.507114 0.485232
0.518311 0.510016 0.488134
0.516321 0.490556 0.470615
0.517282 0.493458 0.473517
0.518243 0.496360 0.476419
0.519204 0.499262 0.479321
0.520164 0.502164 0.482223
0.521125 0.505066 0.485125
0.522086 0.507968 0.488027
0.523047 0.510870 0.490929
0.524008 0.513772 0.493831
0.522018 0.494313 0.476313
0.522979 0.497215 0.479215
0.523940 0.500117 0.482117
0.524901 0.503018 0.485018
0.525862 0.505920 0.487920
0.526822 0.508822 0.490822
0.527783 0.511724 0.493724
0.528744 0.514626 0.496626
0.529705 0.517528 0.499528
0.527715 0.498069 0.482010
0.528676 0.500971 0.484912
0.529637 0.503873 0.487814
0.530598 0.506775 0.490716
0.531559 0.509677 0.493618
0.532520 0.512579 0.496520
0.533480 0.515480 0.499422
0.534441 0.518382 0.502324
0.535402 0.521284 0.505226
0.533413 0.501825 0.487707
0.534373 0.504727 0.490609
0.535334 0.507629 0.493511
0.536295 0.510531 0.496413
0.537256 0.513433 0.499315
0.538217 0.516335 0.502217
0.539178 0.519237 0.505119
0.540139 0.522139 0.508021
0.541099 0.525041 0.510923
0.539110 0.505581 0.493404
0.540071 0.508483 0.496306
0.541031 0.511385 0.499208
0.541992 0.514287 0.502110
0.542953 0.517189 0.505012
0.543914 0.520091 0.507914
0.544875 0.522993 0.510816
0.545836 0.525895 0.513718
0.546797 0.528797 0.516620
0.494639 0.476639 0.446992
0.495599 0.479541 0.449894
0.496560 0.482443 0.452796
0.497521 0.485345 0.455698
0.498482 0.488247 0.458600
0.499443 0.491149 0.461502
0.500404 0.494050 0.464404
0.501365 0.496952 0.467306
0.502325 0.499854 0.470208
0.500336 0.480395 0.452689
0.501297 0.483297 0.455591
0.502258 0.486199 0.458493
0.503218 0.489101 0.461395
0.504179 0.492003 0.464297
0.505140 0.494905 0.467199
0.506101 0.497807 0.470101
0.507062 0.500709 0.473003
0.508023 0.503611 0.475905
0.506033 0.484151 0.458386
0.506994 0.487053 0.461288
0.507955 0.489955 0.464190
0.508916 0.492857 0.467092
0.509876 0.495759 0.469994
0.510837 0.498661 0.472896
0.511798 0.501563 0.475798
0.512759 0.504465 0.478700
0.513720 0.507367 0.481602
0.511730 0.487907 0.464083
0.512691 0.490809 0.466985
0.513652 0.493711 0.469887
0.514613 0.496613 0.472789
0.515574 0.499515 0.475691
0.516534 0.502417 0.478593
0.517495 0.505319 0.481495
0.518456 0.508221 0.484397
0.519417 0.511123 0.487299
0.517427 0.491663 0.469781
0.518388 0.494565 0.472683
0.519349 0.497467 0.475585
0.520310 0.500369 0.478487
0.521271 0.503271 0.481389
0.522232 0.506173 0.484291
0.523193 0.509075 0.487193
0.524153 0.511977 0.490095
0.525114 0.514879 0.492996
0.523125 0.495419 0.475478
0.524085 0.498321 0.478380
0.525046 0.501223 0.481282
0.526007 0.504125 0.484184
0.526968 0.507027 0.487086
0.527929 0.509929 0.489988
0.528890 0.512831 0.492890
0.529851 0.515733 0.495792
0.530811 0.518635 0.498694
0.528822 0.499175 0.481175
0.529783 0.502077 0.484077
0.530744 0.504979 0.486979
0.531704 0.507881 0.489881
0.532665 0.510783 0.492783
0.533626 0.513685 0.495685
0.534587 0.516587 0.498587
0.535548 0.519489 0.501489
0.536509 0.522391 0.504391
0.534519 0.502931 0.486872
0.535480 0.505833 0.489774
0.536441 0.508735 0.492676
0.537402 0.511637 0.495578
0.538362 0.514539 0.498480
0.539323 0.517441 0.501382
0.540284 0.520343 0.504284
0.541245 0.523245 0.507186
0.542206 0.526147 0.510088
0.540216 0.506687 0.492569
0.541177 0.509589 0.495471
0.542138 0.512491 0.498373
0.543099 0.515393 0.501275
0.544060 0.518295 0.504177
0.545020 0.521197 0.507079
0.545981 0.524099 0.509981
0.546942 0.527001 0.512883
0.547903 0.529903 0.515785
0.495745 0.477745 0.446157
0.496706 0.480647 0.449059
0.497667 0.483549 0.451961
0.498628 0.486451 0.454863
0.499588 0.489353 0.457765
0.500549 0.492255 0.460667
0.501510 0.495157 0.463569
0.502471 0.498059 0.466471
0.503432 0.500961 0.469373
0.501442 0.481501 0.451854
0.502403 0.484403 0.454756
0.503364 0.487305 0.457658
0.504325 0.490207 0.460560
0.505286 0.493109 0.463462
0.506247 0.496011 0.466364
0.507207 0.498913 0.469266
0.508168 0.501815 0.472168
0.509129 0.504717 0.475070
0.507139 0.485257 0.457552
0.508100 0.488159 0.460454
0.509061 0.491061 0.463356
0.510022 0.493963 0.466258
0.510983 0.496865 0.469160
0.511944 0.499767 0.472061
0.512905 0.502669 0.474963
0.513865 0.505571 0.477865
0.514826 0.508473 0.480767
0.512837 0.489013 0.463249
0.513798 0.491915 0.466151
0.514758 0.494817 0.469053
0.515719 0.497719 0.471955
0.516680 0.500621 0.474857
0.517641 0.503523 0.477759
0.518602 0.506425 0.480661
0.519563 0.509327 0.483563
0.520523 0.512229 0.486465
0.518534 0.492769 0.468946
0.519495 0.495671 0.471848
0.520456 0.498573 0.474750
0.521416 0.501475 0.477652
0.522377 0.504377 0.480554
0.523338 0.507279 0.483456
0.524299 0.510181 0.486358
0.525260 0.513083 0.489260
0.526221 0.515985 0.492162
0.524231 0.496525 0.474643
0.525192 0.499427 0.477545
0.526153 0.502329 0.480447
0.527114 0.505231 0.483349
0.528074 0.508133 0.486251
0.529035 0.511035 0.489153
0.529996 0.513937 0.492055
0.530957 0.516839 0.494957
0.531918 0.519741 0.497859
0.529928 0.500281 0.480340
0.530889 0.503183 0.483242
0.531850 0.506085 0.486144
0.532811 0.508987 0.489046
0.533772 0.511889 0.491948
0.534733 0.514791 0.494850
0.535693 0.517693 0.497752
0.536654 0.520595 0.500654
0.537615 0.523497 0.503556
0.535625 0.504038 0.486038
0.536586 0.506940 0.488940
0.537547 0.509842 0.491842
0.538508 0.512744 0.494744
0.539469 0.515645 0.497645
0.540430 0.518547 0.500547
0.541391 0.521449 0.503449
0.542351 0.524351 0.506351
0.543312 0.527253 0.509253
0.541323 0.507794 0.491735
0.542283 0.510696 0.494637
0.543244 0.513598 0.497539
0.544205 0.516500 0.500441
0.545166 0.519402 0.503343
0.546127 0.522304 0.506245
0.547088 0.525206 0.509147
0.548049 0.528107 0.512049
0.549009 0.531009 0.514951
0.496852 0.478852 0.445323
0.497812 0.481753 0.448225
0.498773 0.484655 0.451126
0.499734 0.487557 0.454028
0.500695 0.490459 0.456930
0.501656 0.493361 0.459832
0.502617 0.496263 0.462734
0.503578 0.499165 0.465636
0.504538 0.502067 0.468538
0.502549 0.482608 0.451020
0.503510 0.485510 0.453922
0.504470 0.488412 0.456824
0.505431 0.491314 0.459726
0.506392 0.494215 0.462628
0.507353 0.497117 0.465530
0.508314 0.500019 0.468432
0.509275 0.502921 0.471334
0.510236 0.505823 0.474236
0.508246 0.486364 0.456717
0.509207 0.489266 0.459619
0.510168 0.492168 0.462521
0.511128 0.495070 0.465423
0.512089 0.497972 0.468325
0.513050 0.500874 0.471227
0.514011 0.503776 0.474129
0.514972 0.506677 0.477031
0.515933 0.509579 0.479933
0.513943 0.490120 0.462414
0.514904 0.493022 0.465316
0.515865 0.495924 0.468218
0.516826 0.498826 0.471120
0.517787 0.501728 0.474022
0.518747 0.504630 0.476924
0.519708 0.507532 0.479826
0.520669 0.510434 0.482728
0.521630 0.513336 0.485630
0.519640 0.493876 0.468111
0.520601 0.496778 0.471013
0.521562 0.499680 0.473915
0.522523 0.502582 0.476817
0.523484 0.505484 0.479719
0.524445 0.508386 0.482621
0.525405 0.511288 0.485523
0.526366 0.514190 0.488425
0.527327 0.517092 0.491327
0.525337 0.497632 0.473809
0.526298 0.500534 0.476710
0.527259 0.503436 0.479612
0.528220 0.506338 0.482514
0.529181 0.509240 0.485416
0.530142 0.512142 0.488318
0.531103 0.515044 0.491220
0.532063 0.517946 0.494122
0.533024 0.520848 0.497024
0.531035 0.501388 0.479506
0.531996 0.504290 0.482408
0.532956 0.507192 0.485310
0.533917 0.510094 0.488212
0.534878 0.512996 0.491114
0.535839 0.515898 0.494016
0.536800 0.518800 0.496918
0.537761 0.521702 0.499820
0.538722 0.524604 0.502722
0.536732 0.505144 0.485203
0.537693 0.508046 0.488105
0.538654 0.510948 0.491007
0.539614 0.513850 0.493909
0.540575 0.516752 0.496811
0.541536 0.519654 0.499713
0.542497 0.522556 0.502615
0.543458 0.525458 0.505517
0.544419 0.528360 0.508419
0.542429 0.508900 0.490900
0.543390 0.511802 0.493802
0.544351 0.514704 0.496704
0.545312 0.517606 0.499606
0.546272 0.520508 0.502508
0.547233 0.523410 0.505410
0.548194 0.526312 0.508312
0.549155 0.529214 0.511214
0.550116 0.532116 0.514116
