shared/src/main/assets/luts/film_dusty_sepia.cube
TITLE "DALUR Dusty Sepia"
LUT_3D_SIZE 17
DOMAIN_MIN 0.0 0.0 0.0
DOMAIN_MAX 1.0 1.0 1.0
0.488000 0.470000 0.452000
0.488480 0.471451 0.453451
0.488961 0.472902 0.454902
0.489441 0.474353 0.456353
0.489922 0.475804 0.457804
0.490402 0.477255 0.459255
0.490883 0.478706 0.460706
0.491363 0.480157 0.462157
0.491843 0.481608 0.463608
0.492324 0.483059 0.465059
0.492804 0.484510 0.466510
0.493285 0.485961 0.467961
0.493765 0.487412 0.469412
0.494246 0.488863 0.470863
0.494726 0.490314 0.472314
0.495206 0.491765 0.473765
0.495687 0.493216 0.475216
0.490849 0.471878 0.454849
0.491329 0.473329 0.456300
0.491809 0.474780 0.457751
0.492290 0.476231 0.459202
0.492770 0.477682 0.460653
0.493251 0.479133 0.462104
0.493731 0.480584 0.463555
0.494212 0.482035 0.465006
0.494692 0.483486 0.466457
0.495172 0.484937 0.467907
0.495653 0.486388 0.469358
0.496133 0.487839 0.470809
0.496614 0.489290 0.472260
0.497094 0.490741 0.473711
0.497575 0.492192 0.475162
0.498055 0.493643 0.476613
0.498535 0.495094 0.478064
0.493697 0.473756 0.457697
0.494178 0.475207 0.459148
0.494658 0.476658 0.460599
0.495138 0.478109 0.462050
0.495619 0.479560 0.463501
0.496099 0.481011 0.464952
0.496580 0.482462 0.466403
0.497060 0.483913 0.467854
0.497541 0.485364 0.469305
0.498021 0.486815 0.470756
0.498501 0.488266 0.472207
0.498982 0.489717 0.473658
0.499462 0.491168 0.475109
0.499943 0.492619 0.476560
0.500423 0.494070 0.478011
0.500904 0.495521 0.479462
0.501384 0.496972 0.480913
0.496546 0.475634 0.460546
0.497026 0.477085 0.461997
0.497507 0.478536 0.463448
0.497987 0.479987 0.464899
0.498467 0.481438 0.466350
0.498948 0.482889 0.467801
0.499428 0.484340 0.469252
0.499909 0.485791 0.470703
0.500389 0.487242 0.472154
0.500870 0.488693 0.473605
0.501350 0.490144 0.475056
0.501830 0.491595 0.476507
0.502311 0.493046 0.477958
0.502791 0.494497 0.479409
0.503272 0.495948 0.480860
0.503752 0.497399 0.482311
0.504233 0.498850 0.483762
0.499394 0.477512 0.463394
0.499875 0.478963 0.464845
0.500355 0.480414 0.466296
0.500836 0.481865 0.467747
0.501316 0.483316 0.469198
0.501797 0.484767 0.470649
0.502277 0.486218 0.472100
0.502757 0.487669 0.473551
0.503238 0.489120 0.475002
0.503718 0.490571 0.476453
0.504199 0.492022 0.477904
0.504679 0.493473 0.479355
0.505160 0.494924 0.480806
0.505640 0.496375 0.482257
0.506120 0.497826 0.483708
0.506601 0.499277 0.485159
0.507081 0.500728 0.486610
0.502243 0.479390 0.466243
0.502723 0.480841 0.467694
0.503204 0.482292 0.469145
0.503684 0.483743 0.470596
0.504165 0.485194 0.472047
0.504645 0.486645 0.473498
0.505126 0.488096 0.474949
0.505606 0.489547 0.476400
0.506086 0.490998 0.477851
0.506567 0.492449 0.479302
0.507047 0.493900 0.480753
0.507528 0.495351 0.482204
0.508008 0.496802 0.483655
0.508489 0.498253 0.485106
0.508969 0.499704 0.486557
0.509449 0.501155 0.488008
0.509930 0.502606 0.489459
0.505092 0.481268 0.469092
0.505572 0.482719 0.470543
0.506052 0.484170 0.471994
0.506533 0.485621 0.473445
0.507013 0.487072 0.474896
0.507494 0.488523 0.476347
0.507974 0.489974 0.477798
0.508455 0.491425 0.479248
0.508935 0.492876 0.480699
0.509415 0.494327 0.482150
0.509896 0.495778 0.483601
0.510376 0.497229 0.485052
0.510857 0.498680 0.486503
0.511337 0.500131 0.487954
0.511818 0.501582 0.489405
0.512298 0.503033 0.490856
0.512778 0.504484 0.492307
0.507940 0.483146 0.471940
0.508421 0.484597 0.473391
0.508901 0.486048 0.474842
0.509381 0.487499 0.476293
0.509862 0.488950 0.477744
0.510342 0.490401 0.479195
0.510823 0.491852 0.480646
0.511303 0.493303 0.482097
0.511784 0.494754 0.483548
0.512264 0.496205 0.484999
0.512744 0.497656 0.486450
0.513225 0.499107 0.487901
0.513705 0.500558 0.489352
0.514186 0.502009 0.490803
0.514666 0.503460 0.492254
0.515147 0.504911 0.493705
0.515627 0.506362 0.495156
0.510789 0.485024 0.474789
0.511269 0.486475 0.476240
0.511750 0.487926 0.477691
0.512230 0.489377 0.479142
0.512710 0.490828 0.480593
0.513191 0.492279 0.482044
0.513671 0.493730 0.483495
0.514152 0.495181 0.484946
0.514632 0.496632 0.486397
0.515113 0.498083 0.487848
0.515593 0.499534 0.489299
0.516073 0.500985 0.490750
0.516554 0.502436 0.492201
0.517034 0.503887 0.493652
0.517515 0.505338 0.495103
0.517995 0.506789 0.496554
0.518476 0.508240 0.498005
0.513637 0.486902 0.477637
0.514118 0.488353 0.479088
0.514598 0.489804 0.480539
0.515079 0.491255 0.481990
0.515559 0.492706 0.483441
0.516040 0.494157 0.484892
0.516520 0.495608 0.486343
0.517000 0.497059 0.487794
0.517481 0.498510 0.489245
0.517961 0.499961 0.490696
0.518442 0.501412 0.492147
0.518922 0.502863 0.493598
0.519402 0.504314 0.495049
0.519883 0.505765 0.496500
0.520363 0.507216 0.497951
0.520844 0.508667 0.499402
0.521324 0.510118 0.500853
0.516486 0.488780 0.480486
0.516966 0.490231 0.481937
0.517447 0.491682 0.483388
0.517927 0.493133 0.484839
0.518408 0.494584 0.486290
0.518888 0.496035 0.487741
0.519369 0.497486 0.489192
0.519849 0.498937 0.490643
0.520329 0.500388 0.492094
0.520810 0.501839 0.493545
0.521290 0.503290 0.494996
0.521771 0.504741 0.496447
0.522251 0.506192 0.497898
0.522732 0.507643 0.499349
0.523212 0.509094 0.500800
0.523692 0.510545 0.502251
0.524173 0.511996 0.503702
0.519335 0.490658 0.483335
0.519815 0.492109 0.484786
0.520295 0.493560 0.486237
0.520776 0.495011 0.487688
0.521256 0.496462 0.489139
0.521737 0.497913 0.490590
0.522217 0.499364 0.492040
0.522698 0.500815 0.493491
0.523178 0.502266 0.494942
0.523658 0.503717 0.496393
0.524139 0.505168 0.497844
0.524619 0.506619 0.499295
0.525100 0.508070 0.500746
0.525580 0.509521 0.502197
0.526061 0.510972 0.503648
0.526541 0.512423 0.505099
0.527021 0.513874 0.506550
0.522183 0.492536 0.486183
0.522664 0.493987 0.487634
0.523144 0.495438 0.489085
0.523624 0.496889 0.490536
0.524105 0.498340 0.491987
0.524585 0.499791 0.493438
0.525066 0.501242 0.494889
0.525546 0.502693 0.496340
0.526027 0.504144 0.497791
0.526507 0.505595 0.499242
0.526987 0.507046 0.500693
0.527468 0.508497 0.502144
0.527948 0.509948 0.503595
0.528429 0.511399 0.505046
0.528909 0.512850 0.506497
0.529390 0.514301 0.507948
0.529870 0.515752 0.509399
0.525032 0.494414 0.489032
0.525512 0.495865 0.490483
0.525993 0.497316 0.491934
0.526473 0.498767 0.493385
0.526953 0.500218 0.494836
0.527434 0.501669 0.496287
0.527914 0.503120 0.497738
0.528395 0.504571 0.499189
0.528875 0.506022 0.500640
0.529356 0.507473 0.502091
0.529836 0.508924 0.503542
0.530316 0.510375 0.504993
0.530797 0.511826 0.506444
0.531277 0.513277 0.507895
0.531758 0.514728 0.509346
0.532238 0.516179 0.510797
0.532719 0.517630 0.512248
0.527880 0.496292 0.491880
0.528361 0.497743 0.493331
0.528841 0.499194 0.494782
0.529322 0.500645 0.496233
0.529802 0.502096 0.497684
0.530282 0.503547 0.499135
0.530763 0.504998 0.500586
0.531243 0.506449 0.502037
0.531724 0.507900 0.503488
0.532204 0.509351 0.504939
0.532685 0.510802 0.506390
0.533165 0.512253 0.507841
0.533645 0.513704 0.509292
0.534126 0.515155 0.510743
0.534606 0.516606 0.512194
0.535087 0.518057 0.513645
0.535567 0.519508 0.515096
0.530729 0.498171 0.494729
0.531209 0.499622 0.496180
0.531690 0.501073 0.497631
0.532170 0.502523 0.499082
0.532651 0.503974 0.500533
0.533131 0.505425 0.501984
0.533612 0.506876 0.503435
0.534092 0.508327 0.504886
0.534572 0.509778 0.506337
0.535053 0.511229 0.507788
0.535533 0.512680 0.509239
0.536014 0.514131 0.510690
0.536494 0.515582 0.512141
0.536975 0.517033 0.513592
0.537455 0.518484 0.515043
0.537935 0.519935 0.516494
0.538416 0.521386 0.517945
0.533578 0.500049 0.497578
0.534058 0.501500 0.499029
0.534538 0.502951 0.500480
0.535019 0.504402 0.501931
0.535499 0.505853 0.503381
0.535980 0.507304 0.504832
0.536460 0.508754 0.506283
0.536941 0.510205 0.507734
0.537421 0.511656 0.509185
0.537901 0.513107 0.510636
0.538382 0.514558 0.512087
0.538862 0.516009 0.513538
0.539343 0.517460 0.514989
0.539823 0.518911 0.516440
0.540304 0.520362 0.517891
0.540784 0.521813 0.519342
0.541264 0.523264 0.520793
0.488553 0.470553 0.451583
0.489034 0.472004 0.453034
0.489514 0.473455 0.454485
0.489995 0.474906 0.455936
0.490475 0.476357 0.457387
0.490955 0.477808 0.458838
0.491436 0.479259 0.460289
0.491916 0.480710 0.461740
0.492397 0.482161 0.463191
0.492877 0.483612 0.464642
0.493357 0.485063 0.466093
0.493838 0.486514 0.467544
0.494318 0.487965 0.468995
0.494799 0.489416 0.470446
0.495279 0.490867 0.471896
0.495760 0.492318 0.473347
0.496240 0.493769 0.474798
0.491402 0.472431 0.454431
0.491882 0.473882 0.455882
0.492363 0.475333 0.457333
0.492843 0.476784 0.458784
0.493324 0.478235 0.460235
0.493804 0.479686 0.461686
0.494284 0.481137 0.463137
0.494765 0.482588 0.464588
0.495245 0.484039 0.466039
0.495726 0.485490 0.467490
0.496206 0.486941 0.468941
0.496687 0.488392 0.470392
0.497167 0.489843 0.471843
0.497647 0.491294 0.473294
0.498128 0.492745 0.474745
0.498608 0.494196 0.476196
0.499089 0.495647 0.477647
0.494250 0.474309 0.457280
0.494731 0.475760 0.458731
0.495211 0.477211 0.460182
0.495692 0.478662 0.461633
0.496172 0.480113 0.463084
0.496653 0.481564 0.464535
0.497133 0.483015 0.465986
0.497613 0.484466 0.467437
0.498094 0.485917 0.468888
0.498574 0.487368 0.470339
0.499055 0.488819 0.471790
0.499535 0.490270 0.473241
0.500016 0.491721 0.474692
0.500496 0.493172 0.476143
0.500976 0.494623 0.477594
0.501457 0.496074 0.479045
0.501937 0.497525 0.480496
0.497099 0.476187 0.460128
0.497579 0.477638 0.461579
0.498060 0.479089 0.463030
0.498540 0.480540 0.464481
0.499021 0.481991 0.465932
0.499501 0.483442 0.467383
0.499982 0.484893 0.468834
0.500462 0.486344 0.470285
0.500942 0.487795 0.471736
0.501423 0.489246 0.473187
0.501903 0.490697 0.474638
0.502384 0.492148 0.476089
0.502864 0.493599 0.477540
0.503345 0.495050 0.478991
0.503825 0.496501 0.480442
0.504305 0.497952 0.481893
0.504786 0.499403 0.483344
0.499948 0.478065 0.462977
0.500428 0.479516 0.464428
0.500908 0.480967 0.465879
0.501389 0.482418 0.467330
0.501869 0.483869 0.468781
0.502350 0.485320 0.470232
0.502830 0.486771 0.471683
0.503311 0.488222 0.473134
0.503791 0.489673 0.474585
0.504271 0.491124 0.476036
0.504752 0.492575 0.477487
0.505232 0.494026 0.478938
0.505713 0.495477 0.480389
0.506193 0.496928 0.481840
0.506674 0.498379 0.483291
0.507154 0.499830 0.484742
0.507634 0.501281 0.486193
0.502796 0.479943 0.465826
0.503277 0.481394 0.467277
0.503757 0.482845 0.468728
0.504237 0.484296 0.470179
0.504718 0.485747 0.471630
0.505198 0.487198 0.473081
0.505679 0.488649 0.474532
0.506159 0.490100 0.475983
0.506640 0.491551 0.477434
0.507120 0.493002 0.478885
0.507600 0.494453 0.480336
0.508081 0.495904 0.481787
0.508561 0.497355 0.483238
0.509042 0.498806 0.484688
0.509522 0.500257 0.486139
0.510003 0.501708 0.487590
0.510483 0.503159 0.489041
0.505645 0.481821 0.468674
0.506125 0.483272 0.470125
0.506606 0.484723 0.471576
0.507086 0.486174 0.473027
0.507567 0.487625 0.474478
0.508047 0.489076 0.475929
0.508527 0.490527 0.477380
0.509008 0.491978 0.478831
0.509488 0.493429 0.480282
0.509969 0.494880 0.481733
0.510449 0.496331 0.483184
0.510930 0.497782 0.484635
0.511410 0.499233 0.486086
0.511890 0.500684 0.487537
0.512371 0.502135 0.488988
0.512851 0.503586 0.490439
0.513332 0.505037 0.491890
0.508493 0.483699 0.471523
0.508974 0.485150 0.472974
0.509454 0.486601 0.474425
0.509935 0.488052 0.475876
0.510415 0.489503 0.477327
0.510896 0.490954 0.478778
0.511376 0.492405 0.480229
0.511856 0.493856 0.481680
0.512337 0.495307 0.483131
0.512817 0.496758 0.484582
0.513298 0.498209 0.486033
0.513778 0.499660 0.487484
0.514259 0.501111 0.488935
0.514739 0.502562 0.490386
0.515219 0.504013 0.491837
0.515700 0.505464 0.493288
0.516180 0.506915 0.494739
0.511342 0.485578 0.474371
0.511822 0.487028 0.475822
0.512303 0.488479 0.477273
0.512783 0.489930 0.478724
0.513264 0.491381 0.480175
0.513744 0.492832 0.481626
0.514225 0.494283 0.483077
0.514705 0.495734 0.484528
0.515185 0.497185 0.485979
0.515666 0.498636 0.487430
0.516146 0.500087 0.488881
0.516627 0.501538 0.490332
0.517107 0.502989 0.491783
0.517588 0.504440 0.493234
0.518068 0.505891 0.494685
0.518548 0.507342 0.496136
0.519029 0.508793 0.497587
0.514191 0.487456 0.477220
0.514671 0.488907 0.478671
0.515151 0.490358 0.480122
0.515632 0.491809 0.481573
0.516112 0.493259 0.483024
0.516593 0.494710 0.484475
0.517073 0.496161 0.485926
0.517554 0.497612 0.487377
0.518034 0.499063 0.488828
0.518514 0.500514 0.490279
0.518995 0.501965 0.491730
0.519475 0.503416 0.493181
0.519956 0.504867 0.494632
0.520436 0.506318 0.496083
0.520917 0.507769 0.497534
0.521397 0.509220 0.498985
0.521877 0.510671 0.500436
0.517039 0.489334 0.480069
0.517520 0.490785 0.481520
0.518000 0.492236 0.482971
0.518480 0.493687 0.484422
0.518961 0.495138 0.485873
0.519441 0.496589 0.487324
0.519922 0.498040 0.488775
0.520402 0.499490 0.490226
0.520883 0.500941 0.491677
0.521363 0.502392 0.493128
0.521843 0.503843 0.494579
0.522324 0.505294 0.496029
0.522804 0.506745 0.497480
0.523285 0.508196 0.498931
0.523765 0.509647 0.500382
0.524246 0.511098 0.501833
0.524726 0.512549 0.503284
0.519888 0.491212 0.482917
0.520368 0.492663 0.484368
0.520849 0.494114 0.485819
0.521329 0.495565 0.487270
0.521809 0.497016 0.488721
0.522290 0.498467 0.490172
0.522770 0.499918 0.491623
0.523251 0.501369 0.493074
0.523731 0.502820 0.494525
0.524212 0.504271 0.495976
0.524692 0.505721 0.497427
0.525172 0.507172 0.498878
0.525653 0.508623 0.500329
0.526133 0.510074 0.501780
0.526614 0.511525 0.503231
0.527094 0.512976 0.504682
0.527575 0.514427 0.506133
0.522736 0.493090 0.485766
0.523217 0.494541 0.487217
0.523697 0.495992 0.488668
0.524178 0.497443 0.490119
0.524658 0.498894 0.491570
0.525139 0.500345 0.493021
0.525619 0.501796 0.494472
0.526099 0.503247 0.495923
0.526580 0.504698 0.497374
0.527060 0.506149 0.498825
0.527541 0.507600 0.500276
0.528021 0.509051 0.501727
0.528502 0.510502 0.503178
0.528982 0.511952 0.504629
0.529462 0.513403 0.506080
0.529943 0.514854 0.507531
0.530423 0.516305 0.508982
0.525585 0.494968 0.488614
0.526065 0.496419 0.490065
0.526546 0.497870 0.491516
0.527026 0.499321 0.492967
0.527507 0.500772 0.494418
0.527987 0.502223 0.495869
0.528468 0.503674 0.497320
0.528948 0.505125 0.498771
0.529428 0.506576 0.500222
0.529909 0.508027 0.501673
0.530389 0.509478 0.503124
0.530870 0.510929 0.504575
0.531350 0.512380 0.506026
0.531831 0.513831 0.507477
0.532311 0.515282 0.508928
0.532791 0.516733 0.510379
0.533272 0.518183 0.511830
0.528434 0.496846 0.491463
0.528914 0.498297 0.492914
0.529394 0.499748 0.494365
0.529875 0.501199 0.495816
0.530355 0.502650 0.497267
0.530836 0.504101 0.498718
0.531316 0.505552 0.500169
0.531797 0.507003 0.501620
0.532277 0.508454 0.503071
0.532757 0.509905 0.504522
0.533238 0.511356 0.505973
0.533718 0.512807 0.507424
0.534199 0.514258 0.508875
0.534679 0.515709 0.510326
0.535160 0.517160 0.511777
0.535640 0.518611 0.513228
0.536120 0.520062 0.514679
0.531282 0.498724 0.494312
0.531763 0.500175 0.495763
0.532243 0.501626 0.497214
0.532723 0.503077 0.498665
0.533204 0.504528 0.500116
0.533684 0.505979 0.501567
0.534165 0.507430 0.503018
0.534645 0.508881 0.504469
0.535126 0.510332 0.505920
0.535606 0.511783 0.507370
0.536086 0.513234 0.508821
0.536567 0.514685 0.510272
0.537047 0.516136 0.511723
0.537528 0.517587 0.513174
0.538008 0.519038 0.514625
0.538489 0.520489 0.516076
0.538969 0.521940 0.517527
0.534131 0.500602 0.497160
0.534611 0.502053 0.498611
0.535092 0.503504 0.500062
0.535572 0.504955 0.501513
0.536052 0.506406 0.502964
0.536533 0.507857 0.504415
0.537013 0.509308 0.505866
0.537494 0.510759 0.507317
0.537974 0.512210 0.508768
0.538455 0.513661 0.510219
0.538935 0.515112 0.511670
0.539415 0.516563 0.513121
0.539896 0.518014 0.514572
0.540376 0.519465 0.516023
0.540857 0.520916 0.517474
0.541337 0.522367 0.518925
0.541818 0.523818 0.520376
0.489106 0.471106 0.451165
0.489587 0.472557 0.452616
0.490067 0.474008 0.454067
0.490548 0.475459 0.455518
0.491028 0.476910 0.456969
0.491509 0.478361 0.458420
0.491989 0.479812 0.459871
0.492469 0.481263 0.461322
0.492950 0.482714 0.462773
0.493430 0.484165 0.464224
0.493911 0.485616 0.465675
0.494391 0.487067 0.467126
0.494872 0.488518 0.468577
0.495352 0.489969 0.470028
0.495832 0.491420 0.471479
0.496313 0.492871 0.472930
0.496793 0.494322 0.474381
0.491955 0.472984 0.454014
0.492435 0.474435 0.455465
0.492916 0.475886 0.456916
0.493396 0.477337 0.458367
0.493877 0.478788 0.459818
0.494357 0.480239 0.461269
0.494838 0.481690 0.462720
0.495318 0.483141 0.464171
0.495798 0.484592 0.465622
0.496279 0.486043 0.467073
0.496759 0.487494 0.468524
0.497240 0.488945 0.469975
0.497720 0.490396 0.471426
0.498201 0.491847 0.472877
0.498681 0.493298 0.474328
0.499161 0.494749 0.475779
0.499642 0.496200 0.477230
0.494804 0.474863 0.456863
0.495284 0.476313 0.458313
0.495764 0.477764 0.459764
0.496245 0.479215 0.461215
0.496725 0.480666 0.462666
0.497206 0.482117 0.464117
0.497686 0.483568 0.465568
0.498167 0.485019 0.467019
0.498647 0.486470 0.468470
0.499127 0.487921 0.469921
0.499608 0.489372 0.471372
0.500088 0.490823 0.472823
0.500569 0.492274 0.474274
0.501049 0.493725 0.475725
0.501530 0.495176 0.477176
0.502010 0.496627 0.478627
0.502490 0.498078 0.480078
0.497652 0.476741 0.459711
0.498133 0.478192 0.461162
0.498613 0.479643 0.462613
0.499094 0.481094 0.464064
0.499574 0.482544 0.465515
0.500054 0.483995 0.466966
0.500535 0.485446 0.468417
0.501015 0.486897 0.469868
0.501496 0.488348 0.471319
0.501976 0.489799 0.472770
0.502457 0.491250 0.474221
0.502937 0.492701 0.475672
0.503417 0.494152 0.477123
0.503898 0.495603 0.478574
0.504378 0.497054 0.480025
0.504859 0.498505 0.481476
0.505339 0.499956 0.482927
0.500501 0.478619 0.462560
0.500981 0.480070 0.464011
0.501462 0.481521 0.465462
0.501942 0.482972 0.466913
0.502423 0.484423 0.468364
0.502903 0.485874 0.469815
0.503383 0.487325 0.471266
0.503864 0.488775 0.472717
0.504344 0.490226 0.474168
0.504825 0.491677 0.475619
0.505305 0.493128 0.477070
0.505786 0.494579 0.478521
0.506266 0.496030 0.479972
0.506746 0.497481 0.481423
0.507227 0.498932 0.482874
0.507707 0.500383 0.484325
0.508188 0.501834 0.485776
0.503349 0.480497 0.465408
0.503830 0.481948 0.466859
0.504310 0.483399 0.468310
0.504791 0.484850 0.469761
0.505271 0.486301 0.471212
0.505752 0.487752 0.472663
0.506232 0.489203 0.474114
0.506712 0.490654 0.475565
0.507193 0.492105 0.477016
0.507673 0.493556 0.478467
0.508154 0.495007 0.479918
0.508634 0.496457 0.481369
0.509115 0.497908 0.482820
0.509595 0.499359 0.484271
0.510075 0.500810 0.485722
0.510556 0.502261 0.487173
0.511036 0.503712 0.488624
0.506198 0.482375 0.468257
0.506678 0.483826 0.469708
0.507159 0.485277 0.471159
0.507639 0.486728 0.472610
0.508120 0.488179 0.474061
0.508600 0.489630 0.475512
0.509081 0.491081 0.476963
0.509561 0.492532 0.478414
0.510041 0.493983 0.479865
0.510522 0.495434 0.481316
0.511002 0.496885 0.482767
0.511483 0.498336 0.484218
0.511963 0.499787 0.485669
0.512444 0.501238 0.487120
0.512924 0.502688 0.488571
0.513404 0.504139 0.490022
0.513885 0.505590 0.491473
0.509047 0.484253 0.471105
0.509527 0.485704 0.472556
0.510007 0.487155 0.474007
0.510488 0.488606 0.475458
0.510968 0.490057 0.476909
0.511449 0.491508 0.478360
0.511929 0.492959 0.479811
0.512410 0.494410 0.481262
0.512890 0.495861 0.482713
0.513370 0.497312 0.484164
0.513851 0.498763 0.485615
0.514331 0.500214 0.487066
0.514812 0.501665 0.488517
0.515292 0.503116 0.489968
0.515773 0.504567 0.491419
0.516253 0.506018 0.492870
0.516733 0.507469 0.494321
0.511895 0.486131 0.473954
0.512376 0.487582 0.475405
0.512856 0.489033 0.476856
0.513336 0.490484 0.478307
0.513817 0.491935 0.479758
0.514297 0.493386 0.481209
0.514778 0.494837 0.482660
0.515258 0.496288 0.484111
0.515739 0.497739 0.485562
0.516219 0.499190 0.487013
0.516699 0.500641 0.488464
0.517180 0.502092 0.489915
0.517660 0.503543 0.491366
0.518141 0.504994 0.492817
0.518621 0.506445 0.494268
0.519102 0.507896 0.495719
0.519582 0.509347 0.497170
0.514744 0.488009 0.476803
0.515224 0.489460 0.478254
0.515705 0.490911 0.479705
0.516185 0.492362 0.481156
0.516666 0.493813 0.482607
0.517146 0.495264 0.484058
0.517626 0.496715 0.485509
0.518107 0.498166 0.486960
0.518587 0.499617 0.488411
0.519068 0.501068 0.489862
0.519548 0.502519 0.491313
0.520029 0.503970 0.492764
0.520509 0.505421 0.494215
0.520989 0.506872 0.495666
0.521470 0.508323 0.497117
0.521950 0.509774 0.498568
0.522431 0.511225 0.500018
0.517592 0.489887 0.479651
0.518073 0.491338 0.481102
0.518553 0.492789 0.482553
0.519034 0.494240 0.484004
0.519514 0.495691 0.485455
0.519995 0.497142 0.486906
0.520475 0.498593 0.488357
0.520955 0.500044 0.489808
0.521436 0.501495 0.491259
0.521916 0.502946 0.492710
0.522397 0.504397 0.494161
0.522877 0.505848 0.495612
0.523358 0.507299 0.497063
0.523838 0.508750 0.498514
0.524318 0.510201 0.499965
0.524799 0.511652 0.501416
0.525279 0.513103 0.502867
0.520441 0.491765 0.482500
0.520921 0.493216 0.483951
0.521402 0.494667 0.485402
0.521882 0.496118 0.486853
0.522363 0.497569 0.488304
0.522843 0.499020 0.489755
0.523324 0.500471 0.491206
0.523804 0.501922 0.492657
0.524284 0.503373 0.494108
0.524765 0.504824 0.495559
0.525245 0.506275 0.497010
0.525726 0.507726 0.498461
0.526206 0.509177 0.499912
0.526687 0.510628 0.501363
0.527167 0.512079 0.502814
0.527647 0.513530 0.504265
0.528128 0.514981 0.505716
0.523290 0.493643 0.485348
0.523770 0.495094 0.486799
0.524250 0.496545 0.488250
0.524731 0.497996 0.489701
0.525211 0.499447 0.491152
0.525692 0.500898 0.492603
0.526172 0.502349 0.494054
0.526653 0.503800 0.495505
0.527133 0.505251 0.496956
0.527613 0.506702 0.498407
0.528094 0.508153 0.499858
0.528574 0.509604 0.501309
0.529055 0.511055 0.502760
0.529535 0.512506 0.504211
0.530016 0.513957 0.505662
0.530496 0.515408 0.507113
0.530976 0.516859 0.508564
0.526138 0.495521 0.488197
0.526619 0.496972 0.489648
0.527099 0.498423 0.491099
0.527579 0.499874 0.492550
0.528060 0.501325 0.494001
0.528540 0.502776 0.495452
0.529021 0.504227 0.496903
0.529501 0.505678 0.498354
0.529982 0.507129 0.499805
0.530462 0.508580 0.501256
0.530942 0.510031 0.502707
0.531423 0.511482 0.504158
0.531903 0.512933 0.505609
0.532384 0.514384 0.507060
0.532864 0.515835 0.508511
0.533345 0.517286 0.509962
0.533825 0.518737 0.511413
0.528987 0.497399 0.491046
0.529467 0.498850 0.492497
0.529948 0.500301 0.493948
0.530428 0.501752 0.495399
0.530908 0.503203 0.496850
0.531389 0.504654 0.498301
0.531869 0.506105 0.499752
0.532350 0.507556 0.501203
0.532830 0.509007 0.502654
0.533311 0.510458 0.504105
0.533791 0.511909 0.505556
0.534271 0.513360 0.507007
0.534752 0.514811 0.508458
0.535232 0.516262 0.509909
0.535713 0.517713 0.511360
0.536193 0.519164 0.512810
0.536674 0.520615 0.514261
0.531835 0.499277 0.493894
0.532316 0.500728 0.495345
0.532796 0.502179 0.496796
0.533277 0.503630 0.498247
0.533757 0.505081 0.499698
0.534238 0.506532 0.501149
0.534718 0.507983 0.502600
0.535198 0.509434 0.504051
0.535679 0.510885 0.505502
0.536159 0.512336 0.506953
0.536640 0.513787 0.508404
0.537120 0.515238 0.509855
0.537601 0.516689 0.511306
0.538081 0.518140 0.512757
0.538561 0.519591 0.514208
0.539042 0.521042 0.515659
0.539522 0.522493 0.517110
0.534684 0.501155 0.496743
0.535164 0.502606 0.498194
0.535645 0.504057 0.499645
0.536125 0.505508 0.501096
0.536606 0.506959 0.502547
0.537086 0.508410 0.503998
0.537567 0.509861 0.505449
0.538047 0.511312 0.506900
0.538527 0.512763 0.508351
0.539008 0.514214 0.509802
0.539488 0.515665 0.511253
0.539969 0.517116 0.512704
0.540449 0.518567 0.514155
0.540930 0.520018 0.515606
0.541410 0.521469 0.517057
0.541890 0.522920 0.518508
0.542371 0.524371 0.519959
0.489660 0.471660 0.450748
0.490140 0.473111 0.452199
0.490621 0.474562 0.453650
0.491101 0.476013 0.455101
0.491581 0.477464 0.456552
0.492062 0.478915 0.458003
0.492542 0.480366 0.459454
0.493023 0.481817 0.460905
0.493503 0.483268 0.462356
0.493984 0.484719 0.463807
0.494464 0.486170 0.465258
0.494944 0.487621 0.466709
0.495425 0.489072 0.468160
0.495905 0.490523 0.469611
0.496386 0.491973 0.471062
0.496866 0.493424 0.472513
0.497347 0.494875 0.473964
0.492508 0.473538 0.453597
