shared/src/main/assets/luts/film_digital_green.cube
TITLE "DALUR Digital Green"
LUT_3D_SIZE 5
DOMAIN_MIN 0.0 0.0 0.0
DOMAIN_MAX 1.0 1.0 1.0
0.416000 0.430000 0.434000
0.427688 0.439939 0.443939
0.439376 0.449877 0.453877
0.451064 0.459816 0.463816
0.462752 0.469754 0.473754
0.435511 0.451261 0.453511
0.447199 0.461199 0.463450
0.458887 0.471138 0.473389
0.470575 0.481077 0.483327
0.482263 0.491015 0.493266
0.455023 0.472522 0.473023
0.466711 0.482460 0.482961
0.478399 0.492399 0.492900
0.490087 0.502337 0.502839
0.501775 0.512276 0.512777
0.474534 0.493783 0.492534
0.486222 0.503721 0.502473
0.497910 0.513660 0.512412
0.509598 0.523598 0.522350
0.521286 0.533537 0.532289
0.494046 0.515044 0.512046
0.505734 0.524982 0.521984
0.517422 0.534921 0.531923
0.529110 0.544859 0.541862
0.540798 0.554798 0.551800
0.419789 0.433789 0.439539
0.431477 0.443728 0.449477
0.443165 0.453666 0.459416
0.454853 0.463605 0.469354
0.466541 0.473543 0.479293
0.439301 0.455050 0.459050
0.450989 0.464989 0.468989
0.462677 0.474927 0.478927
0.474365 0.484866 0.488866
0.486053 0.494804 0.498804
0.458812 0.476311 0.478562
0.470500 0.486250 0.488500
0.482188 0.496188 0.498439
0.493876 0.506127 0.508377
0.505564 0.516065 0.518316
0.478324 0.497572 0.498073
0.490012 0.507511 0.508012
0.501700 0.517449 0.517950
0.513388 0.527388 0.527889
0.525076 0.537326 0.537827
0.497835 0.518833 0.517585
0.509523 0.528771 0.527523
0.521211 0.538710 0.537462
0.532899 0.548649 0.547400
0.544587 0.558587 0.557339
0.423579 0.437579 0.445077
0.435267 0.447517 0.455016
0.446955 0.457456 0.464955
0.458643 0.467394 0.474893
0.470331 0.477333 0.484832
0.443090 0.458839 0.464589
0.454778 0.468778 0.474527
0.466466 0.478717 0.484466
0.478154 0.488655 0.494405
0.489842 0.498594 0.504343
0.462601 0.480100 0.484100
0.474289 0.490039 0.494039
0.485977 0.499977 0.503977
0.497665 0.509916 0.513916
0.509353 0.519855 0.523855
0.482113 0.501361 0.503612
0.493801 0.511300 0.513550
0.505489 0.521238 0.523489
0.517177 0.531177 0.533427
0.528865 0.541115 0.543366
0.501624 0.522622 0.523123
0.513312 0.532561 0.533062
0.525000 0.542499 0.543000
0.536688 0.552438 0.552939
0.548376 0.562376 0.562878
0.427368 0.441368 0.450616
0.439056 0.451306 0.460555
0.450744 0.461245 0.470493
0.462432 0.471183 0.480432
0.474120 0.481122 0.490370
0.446879 0.462629 0.470128
0.458567 0.472567 0.480066
0.470255 0.482506 0.490005
0.481943 0.492444 0.499943
0.493631 0.502383 0.509882
0.466391 0.483890 0.489639
0.478079 0.493828 0.499578
0.489767 0.503767 0.509516
0.501455 0.513705 0.519455
0.513143 0.523644 0.529393
0.485902 0.505151 0.509151
0.497590 0.515089 0.519089
0.509278 0.525028 0.529028
0.520966 0.534966 0.538966
0.532654 0.544905 0.548905
0.505414 0.526411 0.528662
0.517102 0.536350 0.538601
0.528790 0.546289 0.548539
0.540478 0.556227 0.558478
0.552166 0.566166 0.568416
0.431157 0.445157 0.456155
0.442845 0.455096 0.466093
0.454533 0.465034 0.476032
0.466221 0.474973 0.485971
0.477909 0.484911 0.495909
0.450669 0.466418 0.475666
0.462357 0.476357 0.485605
0.474045 0.486295 0.495543
0.485733 0.496234 0.505482
0.497421 0.506172 0.515421
0.470180 0.487679 0.495178
0.481868 0.497617 0.505116
0.493556 0.507556 0.515055
0.505244 0.517495 0.524993
0.516932 0.527433 0.534932
0.489692 0.508940 0.514689
0.501380 0.518878 0.524628
0.513068 0.528817 0.534566
0.524755 0.538755 0.544505
0.536443 0.548694 0.554443
0.509203 0.530201 0.534201
0.520891 0.540139 0.544139
0.532579 0.550078 0.554078
0.544267 0.560016 0.564016
0.555955 0.569955 0.573955
