shared/src/main/assets/luts/film_bleached_reality.cube
TITLE "DALUR Bleached Reality"
LUT_3D_SIZE 17
DOMAIN_MIN 0.0 0.0 0.0
DOMAIN_MAX 1.0 1.0 1.0
0.493000 0.491500 0.487000
0.492978 0.492073 0.487573
0.492957 0.492646 0.488146
0.492935 0.493219 0.488719
0.492913 0.493791 0.489291
0.492891 0.494364 0.489864
0.492870 0.494937 0.490437
0.492848 0.495510 0.491010
0.492826 0.496083 0.491583
0.492804 0.496656 0.492156
0.492783 0.497228 0.492728
0.492761 0.497801 0.493301
0.492739 0.498374 0.493874
0.492717 0.498947 0.494447
0.492696 0.499520 0.495020
0.492674 0.500093 0.495593
0.492652 0.500665 0.496165
0.494125 0.492030 0.488125
0.494103 0.492603 0.488697
0.494081 0.493176 0.489270
0.494059 0.493749 0.489843
0.494038 0.494321 0.490416
0.494016 0.494894 0.490989
0.493994 0.495467 0.491562
0.493972 0.496040 0.492134
0.493951 0.496613 0.492707
0.493929 0.497186 0.493280
0.493907 0.497758 0.493853
0.493886 0.498331 0.494426
0.493864 0.498904 0.494999
0.493842 0.499477 0.495571
0.493820 0.500050 0.496144
0.493799 0.500623 0.496717
0.493777 0.501195 0.497290
0.495249 0.492560 0.489249
0.495227 0.493133 0.489822
0.495206 0.493706 0.490395
0.495184 0.494279 0.490968
0.495162 0.494851 0.491541
0.495141 0.495424 0.492113
0.495119 0.495997 0.492686
0.495097 0.496570 0.493259
0.495075 0.497143 0.493832
0.495054 0.497716 0.494405
0.495032 0.498288 0.494978
0.495010 0.498861 0.495550
0.494988 0.499434 0.496123
0.494967 0.500007 0.496696
0.494945 0.500580 0.497269
0.494923 0.501153 0.497842
0.494901 0.501725 0.498415
0.496374 0.493090 0.490374
0.496352 0.493663 0.490947
0.496330 0.494236 0.491519
0.496309 0.494809 0.492092
0.496287 0.495381 0.492665
0.496265 0.495954 0.493238
0.496243 0.496527 0.493811
0.496222 0.497100 0.494384
0.496200 0.497673 0.494957
0.496178 0.498246 0.495529
0.496156 0.498818 0.496102
0.496135 0.499391 0.496675
0.496113 0.499964 0.497248
0.496091 0.500537 0.497821
0.496070 0.501110 0.498394
0.496048 0.501683 0.498966
0.496026 0.502255 0.499539
0.497498 0.493620 0.491498
0.497477 0.494193 0.492071
0.497455 0.494766 0.492644
0.497433 0.495339 0.493217
0.497411 0.495911 0.493790
0.497390 0.496484 0.494363
0.497368 0.497057 0.494935
0.497346 0.497630 0.495508
0.497325 0.498203 0.496081
0.497303 0.498776 0.496654
0.497281 0.499348 0.497227
0.497259 0.499921 0.497800
0.497238 0.500494 0.498372
0.497216 0.501067 0.498945
0.497194 0.501640 0.499518
0.497172 0.502213 0.500091
0.497151 0.502786 0.500664
0.498623 0.494150 0.492623
0.498601 0.494723 0.493196
0.498580 0.495296 0.493769
0.498558 0.495869 0.494342
0.498536 0.496441 0.494914
0.498514 0.497014 0.495487
0.498493 0.497587 0.496060
0.498471 0.498160 0.496633
0.498449 0.498733 0.497206
0.498427 0.499306 0.497779
0.498406 0.499879 0.498351
0.498384 0.500451 0.498924
0.498362 0.501024 0.499497
0.498340 0.501597 0.500070
0.498319 0.502170 0.500643
0.498297 0.502743 0.501216
0.498275 0.503316 0.501788
0.499748 0.494680 0.493748
0.499726 0.495253 0.494320
0.499704 0.495826 0.494893
0.499682 0.496399 0.495466
0.499661 0.496972 0.496039
0.499639 0.497544 0.496612
0.499617 0.498117 0.497185
0.499595 0.498690 0.497757
0.499574 0.499263 0.498330
0.499552 0.499836 0.498903
0.499530 0.500409 0.499476
0.499509 0.500981 0.500049
0.499487 0.501554 0.500622
0.499465 0.502127 0.501194
0.499443 0.502700 0.501767
0.499422 0.503273 0.502340
0.499400 0.503846 0.502913
0.500872 0.495210 0.494872
0.500850 0.495783 0.495445
0.500829 0.496356 0.496018
0.500807 0.496929 0.496591
0.500785 0.497502 0.497164
0.500764 0.498074 0.497736
0.500742 0.498647 0.498309
0.500720 0.499220 0.498882
0.500698 0.499793 0.499455
0.500677 0.500366 0.500028
0.500655 0.500939 0.500601
0.500633 0.501511 0.501173
0.500611 0.502084 0.501746
0.500590 0.502657 0.502319
0.500568 0.503230 0.502892
0.500546 0.503803 0.503465
0.500524 0.504376 0.504038
0.501997 0.495740 0.495997
0.501975 0.496313 0.496570
0.501953 0.496886 0.497142
0.501932 0.497459 0.497715
0.501910 0.498032 0.498288
0.501888 0.498604 0.498861
0.501866 0.499177 0.499434
0.501845 0.499750 0.500007
0.501823 0.500323 0.500580
0.501801 0.500896 0.501152
0.501779 0.501469 0.501725
0.501758 0.502041 0.502298
0.501736 0.502614 0.502871
0.501714 0.503187 0.503444
0.501693 0.503760 0.504017
0.501671 0.504333 0.504589
0.501649 0.504906 0.505162
0.503121 0.496270 0.497121
0.503100 0.496843 0.497694
0.503078 0.497416 0.498267
0.503056 0.497989 0.498840
0.503034 0.498562 0.499413
0.503013 0.499134 0.499986
0.502991 0.499707 0.500558
0.502969 0.500280 0.501131
0.502948 0.500853 0.501704
0.502926 0.501426 0.502277
0.502904 0.501999 0.502850
0.502882 0.502571 0.503423
0.502861 0.503144 0.503995
0.502839 0.503717 0.504568
0.502817 0.504290 0.505141
0.502795 0.504863 0.505714
0.502774 0.505436 0.506287
0.504246 0.496800 0.498246
0.504224 0.497373 0.498819
0.504203 0.497946 0.499392
0.504181 0.498519 0.499965
0.504159 0.499092 0.500537
0.504137 0.499664 0.501110
0.504116 0.500237 0.501683
0.504094 0.500810 0.502256
0.504072 0.501383 0.502829
0.504050 0.501956 0.503402
0.504029 0.502529 0.503974
0.504007 0.503101 0.504547
0.503985 0.503674 0.505120
0.503963 0.504247 0.505693
0.503942 0.504820 0.506266
0.503920 0.505393 0.506839
0.503898 0.505966 0.507411
0.505371 0.497330 0.499371
0.505349 0.497903 0.499943
0.505327 0.498476 0.500516
0.505305 0.499049 0.501089
0.505284 0.499622 0.501662
0.505262 0.500195 0.502235
0.505240 0.500767 0.502808
0.505218 0.501340 0.503380
0.505197 0.501913 0.503953
0.505175 0.502486 0.504526
0.505153 0.503059 0.505099
0.505132 0.503632 0.505672
0.505110 0.504204 0.506245
0.505088 0.504777 0.506818
0.505066 0.505350 0.507390
0.505045 0.505923 0.507963
0.505023 0.506496 0.508536
0.506495 0.497860 0.500495
0.506473 0.498433 0.501068
0.506452 0.499006 0.501641
0.506430 0.499579 0.502214
0.506408 0.500152 0.502787
0.506387 0.500725 0.503359
0.506365 0.501297 0.503932
0.506343 0.501870 0.504505
0.506321 0.502443 0.505078
0.506300 0.503016 0.505651
0.506278 0.503589 0.506224
0.506256 0.504162 0.506796
0.506234 0.504734 0.507369
0.506213 0.505307 0.507942
0.506191 0.505880 0.508515
0.506169 0.506453 0.509088
0.506147 0.507026 0.509661
0.507620 0.498390 0.501620
0.507598 0.498963 0.502193
0.507576 0.499536 0.502765
0.507555 0.500109 0.503338
0.507533 0.500682 0.503911
0.507511 0.501255 0.504484
0.507489 0.501827 0.505057
0.507468 0.502400 0.505630
0.507446 0.502973 0.506203
0.507424 0.503546 0.506775
0.507402 0.504119 0.507348
0.507381 0.504692 0.507921
0.507359 0.505264 0.508494
0.507337 0.505837 0.509067
0.507316 0.506410 0.509640
0.507294 0.506983 0.510212
0.507272 0.507556 0.510785
0.508744 0.498920 0.502744
0.508723 0.499493 0.503317
0.508701 0.500066 0.503890
0.508679 0.500639 0.504463
0.508657 0.501212 0.505036
0.508636 0.501785 0.505609
0.508614 0.502357 0.506181
0.508592 0.502930 0.506754
0.508571 0.503503 0.507327
0.508549 0.504076 0.507900
0.508527 0.504649 0.508473
0.508505 0.505222 0.509046
0.508484 0.505794 0.509618
0.508462 0.506367 0.510191
0.508440 0.506940 0.510764
0.508418 0.507513 0.511337
0.508397 0.508086 0.511910
0.509869 0.499450 0.503869
0.509847 0.500023 0.504442
0.509826 0.500596 0.505015
0.509804 0.501169 0.505588
0.509782 0.501742 0.506160
0.509760 0.502315 0.506733
0.509739 0.502887 0.507306
0.509717 0.503460 0.507879
0.509695 0.504033 0.508452
0.509673 0.504606 0.509025
0.509652 0.505179 0.509597
0.509630 0.505752 0.510170
0.509608 0.506324 0.510743
0.509586 0.506897 0.511316
0.509565 0.507470 0.511889
0.509543 0.508043 0.512462
0.509521 0.508616 0.513034
0.510994 0.499980 0.504994
0.510972 0.500553 0.505566
0.510950 0.501126 0.506139
0.510928 0.501699 0.506712
0.510907 0.502272 0.507285
0.510885 0.502845 0.507858
0.510863 0.503417 0.508431
0.510841 0.503990 0.509003
0.510820 0.504563 0.509576
0.510798 0.505136 0.510149
0.510776 0.505709 0.510722
0.510755 0.506282 0.511295
0.510733 0.506855 0.511868
0.510711 0.507427 0.512441
0.510689 0.508000 0.513013
0.510668 0.508573 0.513586
0.510646 0.509146 0.514159
0.493218 0.491718 0.486624
0.493197 0.492291 0.487197
0.493175 0.492864 0.487770
0.493153 0.493437 0.488342
0.493131 0.494010 0.488915
0.493110 0.494583 0.489488
0.493088 0.495155 0.490061
0.493066 0.495728 0.490634
0.493045 0.496301 0.491207
0.493023 0.496874 0.491779
0.493001 0.497447 0.492352
0.492979 0.498020 0.492925
0.492958 0.498592 0.493498
0.492936 0.499165 0.494071
0.492914 0.499738 0.494644
0.492892 0.500311 0.495216
0.492871 0.500884 0.495789
0.494343 0.492248 0.487748
0.494321 0.492821 0.488321
0.494300 0.493394 0.488894
0.494278 0.493967 0.489467
0.494256 0.494540 0.490040
0.494234 0.495113 0.490613
0.494213 0.495685 0.491185
0.494191 0.496258 0.491758
0.494169 0.496831 0.492331
0.494147 0.497404 0.492904
0.494126 0.497977 0.493477
0.494104 0.498550 0.494050
0.494082 0.499122 0.494622
0.494060 0.499695 0.495195
0.494039 0.500268 0.495768
0.494017 0.500841 0.496341
0.493995 0.501414 0.496914
0.495468 0.492778 0.488873
0.495446 0.493351 0.489446
0.495424 0.493924 0.490019
0.495402 0.494497 0.490592
0.495381 0.495070 0.491164
0.495359 0.495643 0.491737
0.495337 0.496215 0.492310
0.495315 0.496788 0.492883
0.495294 0.497361 0.493456
0.495272 0.497934 0.494029
0.495250 0.498507 0.494601
0.495229 0.499080 0.495174
0.495207 0.499653 0.495747
0.495185 0.500225 0.496320
0.495163 0.500798 0.496893
0.495142 0.501371 0.497466
0.495120 0.501944 0.498038
0.496592 0.493308 0.489998
0.496570 0.493881 0.490570
0.496549 0.494454 0.491143
0.496527 0.495027 0.491716
0.496505 0.495600 0.492289
0.496484 0.496173 0.492862
0.496462 0.496746 0.493435
0.496440 0.497318 0.494008
0.496418 0.497891 0.494580
0.496397 0.498464 0.495153
0.496375 0.499037 0.495726
0.496353 0.499610 0.496299
0.496331 0.500183 0.496872
0.496310 0.500755 0.497445
0.496288 0.501328 0.498017
0.496266 0.501901 0.498590
0.496244 0.502474 0.499163
0.497717 0.493839 0.491122
0.497695 0.494411 0.491695
0.497673 0.494984 0.492268
0.497652 0.495557 0.492841
0.497630 0.496130 0.493414
0.497608 0.496703 0.493986
0.497586 0.497276 0.494559
0.497565 0.497848 0.495132
0.497543 0.498421 0.495705
0.497521 0.498994 0.496278
0.497499 0.499567 0.496851
0.497478 0.500140 0.497423
0.497456 0.500713 0.497996
0.497434 0.501285 0.498569
0.497413 0.501858 0.499142
0.497391 0.502431 0.499715
0.497369 0.503004 0.500288
0.498841 0.494369 0.492247
0.498820 0.494941 0.492820
0.498798 0.495514 0.493393
0.498776 0.496087 0.493965
0.498754 0.496660 0.494538
0.498733 0.497233 0.495111
0.498711 0.497806 0.495684
0.498689 0.498378 0.496257
0.498668 0.498951 0.496830
0.498646 0.499524 0.497402
0.498624 0.500097 0.497975
0.498602 0.500670 0.498548
0.498581 0.501243 0.499121
0.498559 0.501815 0.499694
0.498537 0.502388 0.500267
0.498515 0.502961 0.500839
0.498494 0.503534 0.501412
0.499966 0.494899 0.493371
0.499944 0.495471 0.493944
0.499923 0.496044 0.494517
0.499901 0.496617 0.495090
0.499879 0.497190 0.495663
0.499857 0.497763 0.496236
0.499836 0.498336 0.496808
0.499814 0.498908 0.497381
0.499792 0.499481 0.497954
0.499770 0.500054 0.498527
0.499749 0.500627 0.499100
0.499727 0.501200 0.499673
0.499705 0.501773 0.500245
0.499683 0.502345 0.500818
0.499662 0.502918 0.501391
0.499640 0.503491 0.501964
0.499618 0.504064 0.502537
0.501091 0.495429 0.494496
0.501069 0.496001 0.495069
0.501047 0.496574 0.495642
0.501025 0.497147 0.496215
0.501004 0.497720 0.496787
0.500982 0.498293 0.497360
0.500960 0.498866 0.497933
0.500938 0.499438 0.498506
0.500917 0.500011 0.499079
0.500895 0.500584 0.499652
0.500873 0.501157 0.500224
0.500852 0.501730 0.500797
0.500830 0.502303 0.501370
0.500808 0.502875 0.501943
0.500786 0.503448 0.502516
0.500765 0.504021 0.503089
0.500743 0.504594 0.503661
0.502215 0.495959 0.495621
0.502193 0.496531 0.496193
0.502172 0.497104 0.496766
0.502150 0.497677 0.497339
0.502128 0.498250 0.497912
0.502107 0.498823 0.498485
0.502085 0.499396 0.499058
0.502063 0.499968 0.499631
0.502041 0.500541 0.500203
0.502020 0.501114 0.500776
0.501998 0.501687 0.501349
0.501976 0.502260 0.501922
0.501954 0.502833 0.502495
0.501933 0.503406 0.503068
0.501911 0.503978 0.503640
0.501889 0.504551 0.504213
0.501867 0.505124 0.504786
0.503340 0.496489 0.496745
0.503318 0.497062 0.497318
0.503296 0.497634 0.497891
0.503275 0.498207 0.498464
0.503253 0.498780 0.499037
0.503231 0.499353 0.499609
0.503209 0.499926 0.500182
0.503188 0.500499 0.500755
0.503166 0.501071 0.501328
0.503144 0.501644 0.501901
0.503122 0.502217 0.502474
0.503101 0.502790 0.503046
0.503079 0.503363 0.503619
0.503057 0.503936 0.504192
0.503036 0.504508 0.504765
0.503014 0.505081 0.505338
0.502992 0.505654 0.505911
0.504464 0.497019 0.497870
0.504443 0.497592 0.498443
0.504421 0.498164 0.499016
0.504399 0.498737 0.499588
0.504377 0.499310 0.500161
0.504356 0.499883 0.500734
0.504334 0.500456 0.501307
0.504312 0.501029 0.501880
0.504291 0.501601 0.502453
0.504269 0.502174 0.503025
0.504247 0.502747 0.503598
0.504225 0.503320 0.504171
0.504204 0.503893 0.504744
0.504182 0.504466 0.505317
0.504160 0.505038 0.505890
0.504138 0.505611 0.506462
0.504117 0.506184 0.507035
0.505589 0.497549 0.498994
0.505567 0.498122 0.499567
0.505546 0.498694 0.500140
0.505524 0.499267 0.500713
0.505502 0.499840 0.501286
0.505480 0.500413 0.501859
0.505459 0.500986 0.502431
0.505437 0.501559 0.503004
0.505415 0.502131 0.503577
0.505393 0.502704 0.504150
0.505372 0.503277 0.504723
0.505350 0.503850 0.505296
0.505328 0.504423 0.505868
0.505306 0.504996 0.506441
0.505285 0.505568 0.507014
0.505263 0.506141 0.507587
0.505241 0.506714 0.508160
0.506714 0.498079 0.500119
0.506692 0.498652 0.500692
0.506670 0.499224 0.501265
0.506648 0.499797 0.501838
0.506627 0.500370 0.502410
0.506605 0.500943 0.502983
0.506583 0.501516 0.503556
0.506561 0.502089 0.504129
0.506540 0.502661 0.504702
0.506518 0.503234 0.505275
0.506496 0.503807 0.505847
0.506475 0.504380 0.506420
0.506453 0.504953 0.506993
0.506431 0.505526 0.507566
0.506409 0.506098 0.508139
0.506388 0.506671 0.508712
0.506366 0.507244 0.509284
0.507838 0.498609 0.501244
0.507816 0.499182 0.501816
0.507795 0.499754 0.502389
0.507773 0.500327 0.502962
0.507751 0.500900 0.503535
0.507730 0.501473 0.504108
0.507708 0.502046 0.504681
0.507686 0.502619 0.505254
0.507664 0.503191 0.505826
0.507643 0.503764 0.506399
0.507621 0.504337 0.506972
0.507599 0.504910 0.507545
0.507577 0.505483 0.508118
0.507556 0.506056 0.508691
0.507534 0.506629 0.509263
0.507512 0.507201 0.509836
0.507490 0.507774 0.510409
0.508963 0.499139 0.502368
0.508941 0.499712 0.502941
0.508919 0.500284 0.503514
0.508898 0.500857 0.504087
0.508876 0.501430 0.504660
0.508854 0.502003 0.505232
0.508832 0.502576 0.505805
0.508811 0.503149 0.506378
0.508789 0.503722 0.506951
0.508767 0.504294 0.507524
0.508745 0.504867 0.508097
0.508724 0.505440 0.508669
0.508702 0.506013 0.509242
0.508680 0.506586 0.509815
0.508659 0.507159 0.510388
0.508637 0.507731 0.510961
0.508615 0.508304 0.511534
0.510087 0.499669 0.503493
0.510066 0.500242 0.504066
0.510044 0.500815 0.504639
0.510022 0.501387 0.505211
0.510000 0.501960 0.505784
0.509979 0.502533 0.506357
0.509957 0.503106 0.506930
0.509935 0.503679 0.507503
0.509914 0.504252 0.508076
0.509892 0.504824 0.508648
0.509870 0.505397 0.509221
0.509848 0.505970 0.509794
0.509827 0.506543 0.510367
0.509805 0.507116 0.510940
0.509783 0.507689 0.511513
0.509761 0.508261 0.512085
0.509740 0.508834 0.512658
0.511212 0.500199 0.504617
0.511190 0.500772 0.505190
0.511169 0.501345 0.505763
0.511147 0.501917 0.506336
0.511125 0.502490 0.506909
0.511103 0.503063 0.507482
0.511082 0.503636 0.508054
0.511060 0.504209 0.508627
0.511038 0.504782 0.509200
0.511016 0.505354 0.509773
0.510995 0.505927 0.510346
0.510973 0.506500 0.510919
0.510951 0.507073 0.511492
0.510929 0.507646 0.512064
0.510908 0.508219 0.512637
0.510886 0.508791 0.513210
0.510864 0.509364 0.513783
0.493437 0.491937 0.486248
0.493415 0.492510 0.486821
0.493393 0.493082 0.487393
0.493372 0.493655 0.487966
0.493350 0.494228 0.488539
0.493328 0.494801 0.489112
0.493306 0.495374 0.489685
0.493285 0.495947 0.490258
0.493263 0.496520 0.490830
0.493241 0.497092 0.491403
0.493219 0.497665 0.491976
0.493198 0.498238 0.492549
0.493176 0.498811 0.493122
0.493154 0.499384 0.493695
0.493133 0.499957 0.494267
0.493111 0.500529 0.494840
0.493089 0.501102 0.495413
0.494561 0.492467 0.487372
0.494540 0.493040 0.487945
0.494518 0.493613 0.488518
0.494496 0.494185 0.489091
0.494474 0.494758 0.489664
0.494453 0.495331 0.490236
0.494431 0.495904 0.490809
0.494409 0.496477 0.491382
0.494388 0.497050 0.491955
0.494366 0.497622 0.492528
0.494344 0.498195 0.493101
0.494322 0.498768 0.493673
0.494301 0.499341 0.494246
0.494279 0.499914 0.494819
0.494257 0.500487 0.495392
0.494235 0.501059 0.495965
0.494214 0.501632 0.496538
0.495686 0.492997 0.488497
0.495664 0.493570 0.489070
0.495643 0.494143 0.489643
0.495621 0.494715 0.490215
0.495599 0.495288 0.490788
0.495577 0.495861 0.491361
0.495556 0.496434 0.491934
0.495534 0.497007 0.492507
0.495512 0.497580 0.493080
0.495490 0.498152 0.493652
0.495469 0.498725 0.494225
0.495447 0.499298 0.494798
0.495425 0.499871 0.495371
0.495403 0.500444 0.495944
0.495382 0.501017 0.496517
0.495360 0.501589 0.497089
0.495338 0.502162 0.497662
0.496811 0.493527 0.489621
0.496789 0.494100 0.490194
0.496767 0.494673 0.490767
0.496745 0.495245 0.491340
0.496724 0.495818 0.491913
0.496702 0.496391 0.492486
0.496680 0.496964 0.493058
0.496658 0.497537 0.493631
0.496637 0.498110 0.494204
0.496615 0.498682 0.494777
0.496593 0.499255 0.495350
0.496572 0.499828 0.495923
0.496550 0.500401 0.496496
0.496528 0.500974 0.497068
0.496506 0.501547 0.497641
0.496485 0.502119 0.498214
0.496463 0.502692 0.498787
0.497935 0.494057 0.490746
0.497913 0.494630 0.491319
0.497892 0.495203 0.491892
0.497870 0.495775 0.492465
0.497848 0.496348 0.493037
0.497827 0.496921 0.493610
0.497805 0.497494 0.494183
0.497783 0.498067 0.494756
0.497761 0.498640 0.495329
0.497740 0.499212 0.495902
0.497718 0.499785 0.496474
0.497696 0.500358 0.497047
0.497674 0.500931 0.497620
0.497653 0.501504 0.498193
0.497631 0.502077 0.498766
0.497609 0.502649 0.499339
0.497587 0.503222 0.499911
0.499060 0.494587 0.491871
0.499038 0.495160 0.492444
0.499016 0.495733 0.493016
0.498995 0.496305 0.493589
0.498973 0.496878 0.494162
0.498951 0.497451 0.494735
0.498929 0.498024 0.495308
0.498908 0.498597 0.495881
0.498886 0.499170 0.496453
0.498864 0.499742 0.497026
0.498842 0.500315 0.497599
0.498821 0.500888 0.498172
0.498799 0.501461 0.498745
0.498777 0.502034 0.499318
0.498756 0.502607 0.499890
0.498734 0.503180 0.500463
0.498712 0.503752 0.501036
0.500184 0.495117 0.492995
0.500163 0.495690 0.493568
0.500141 0.496263 0.494141
0.500119 0.496835 0.494714
0.500097 0.497408 0.495287
0.500076 0.497981 0.495859
0.500054 0.498554 0.496432
0.500032 0.499127 0.497005
0.500011 0.499700 0.497578
0.499989 0.500273 0.498151
0.499967 0.500845 0.498724
0.499945 0.501418 0.499296
0.499924 0.501991 0.499869
0.499902 0.502564 0.500442
0.499880 0.503137 0.501015
0.499858 0.503710 0.501588
0.499837 0.504282 0.502161
0.501309 0.495647 0.494120
0.501287 0.496220 0.494693
0.501266 0.496793 0.495266
0.501244 0.497366 0.495838
0.501222 0.497938 0.496411
0.501200 0.498511 0.496984
0.501179 0.499084 0.497557
0.501157 0.499657 0.498130
0.501135 0.500230 0.498703
0.501113 0.500803 0.499275
0.501092 0.501375 0.499848
0.501070 0.501948 0.500421
0.501048 0.502521 0.500994
0.501026 0.503094 0.501567
0.501005 0.503667 0.502140
0.500983 0.504240 0.502712
0.500961 0.504812 0.503285
0.502434 0.496177 0.495244
0.502412 0.496750 0.495817
0.502390 0.497323 0.496390
0.502368 0.497896 0.496963
0.502347 0.498468 0.497536
0.502325 0.499041 0.498109
0.502303 0.499614 0.498682
0.502281 0.500187 0.499254
0.502260 0.500760 0.499827
0.502238 0.501333 0.500400
0.502216 0.501905 0.500973
0.502195 0.502478 0.501546
0.502173 0.503051 0.502119
0.502151 0.503624 0.502691
0.502129 0.504197 0.503264
0.502108 0.504770 0.503837
0.502086 0.505342 0.504410
0.503558 0.496707 0.496369
0.503536 0.497280 0.496942
0.503515 0.497853 0.497515
0.503493 0.498426 0.498088
0.503471 0.498998 0.498660
0.503450 0.499571 0.499233
0.503428 0.500144 0.499806
0.503406 0.500717 0.500379
0.503384 0.501290 0.500952
0.503363 0.501863 0.501525
0.503341 0.502435 0.502097
0.503319 0.503008 0.502670
0.503297 0.503581 0.503243
0.503276 0.504154 0.503816
0.503254 0.504727 0.504389
0.503232 0.505300 0.504962
0.503210 0.505872 0.505534
0.504683 0.497237 0.497494
0.504661 0.497810 0.498067
0.504639 0.498383 0.498639
0.504618 0.498956 0.499212
0.504596 0.499528 0.499785
0.504574 0.500101 0.500358
0.504552 0.500674 0.500931
0.504531 0.501247 0.501504
0.504509 0.501820 0.502076
0.504487 0.502393 0.502649
0.504465 0.502965 0.503222
0.504444 0.503538 0.503795
0.504422 0.504111 0.504368
0.504400 0.504684 0.504941
0.504379 0.505257 0.505513
0.504357 0.505830 0.506086
0.504335 0.506403 0.506659
0.505807 0.497767 0.498618
0.505786 0.498340 0.499191
0.505764 0.498913 0.499764
0.505742 0.499486 0.500337
0.505720 0.500058 0.500910
0.505699 0.500631 0.501482
0.505677 0.501204 0.502055
0.505655 0.501777 0.502628
0.505634 0.502350 0.503201
0.505612 0.502923 0.503774
0.505590 0.503496 0.504347
0.505568 0.504068 0.504919
0.505547 0.504641 0.505492
0.505525 0.505214 0.506065
0.505503 0.505787 0.506638
0.505481 0.506360 0.507211
0.505460 0.506933 0.507784
0.506932 0.498297 0.499743
0.506910 0.498870 0.500316
0.506889 0.499443 0.500889
0.506867 0.500016 0.501461
0.506845 0.500589 0.502034
0.506823 0.501161 0.502607
0.506802 0.501734 0.503180
0.506780 0.502307 0.503753
0.506758 0.502880 0.504326
0.506736 0.503453 0.504898
0.506715 0.504026 0.505471
0.506693 0.504598 0.506044
0.506671 0.505171 0.506617
0.506649 0.505744 0.507190
0.506628 0.506317 0.507763
0.506606 0.506890 0.508335
0.506584 0.507463 0.508908
0.508057 0.498827 0.500867
0.508035 0.499400 0.501440
0.508013 0.499973 0.502013
0.507991 0.500546 0.502586
0.507970 0.501119 0.503159
0.507948 0.501691 0.503732
0.507926 0.502264 0.504305
0.507904 0.502837 0.504877
0.507883 0.503410 0.505450
0.507861 0.503983 0.506023
0.507839 0.504556 0.506596
0.507818 0.505128 0.507169
0.507796 0.505701 0.507742
0.507774 0.506274 0.508314
0.507752 0.506847 0.508887
0.507731 0.507420 0.509460
0.507709 0.507993 0.510033
0.509181 0.499357 0.501992
0.509159 0.499930 0.502565
0.509138 0.500503 0.503138
0.509116 0.501076 0.503711
0.509094 0.501649 0.504283
0.509073 0.502221 0.504856
0.509051 0.502794 0.505429
0.509029 0.503367 0.506002
0.509007 0.503940 0.506575
0.508986 0.504513 0.507148
0.508964 0.505086 0.507720
0.508942 0.505658 0.508293
0.508920 0.506231 0.508866
0.508899 0.506804 0.509439
0.508877 0.507377 0.510012
0.508855 0.507950 0.510585
0.508833 0.508523 0.511157
0.510306 0.499887 0.503117
0.510284 0.500460 0.503690
0.510262 0.501033 0.504262
0.510241 0.501606 0.504835
0.510219 0.502179 0.505408
0.510197 0.502751 0.505981
0.510175 0.503324 0.506554
0.510154 0.503897 0.507127
0.510132 0.504470 0.507699
0.510110 0.505043 0.508272
0.510088 0.505616 0.508845
0.510067 0.506188 0.509418
0.510045 0.506761 0.509991
0.510023 0.507334 0.510564
0.510002 0.507907 0.511136
0.509980 0.508480 0.511709
0.509958 0.509053 0.512282
0.511430 0.500417 0.504241
0.511409 0.500990 0.504814
0.511387 0.501563 0.505387
0.511365 0.502136 0.505960
0.511343 0.502709 0.506533
0.511322 0.503281 0.507105
0.511300 0.503854 0.507678
0.511278 0.504427 0.508251
0.511257 0.505000 0.508824
0.511235 0.505573 0.509397
0.511213 0.506146 0.509970
0.511191 0.506718 0.510543
0.511170 0.507291 0.511115
0.511148 0.507864 0.511688
0.511126 0.508437 0.512261
0.511104 0.509010 0.512834
0.511083 0.509583 0.513407
0.493655 0.492155 0.485872
0.493633 0.492728 0.486444
0.493612 0.493301 0.487017
0.493590 0.493874 0.487590
0.493568 0.494447 0.488163
0.493547 0.495019 0.488736
0.493525 0.495592 0.489309
0.493503 0.496165 0.489881
0.493481 0.496738 0.490454
0.493460 0.497311 0.491027
0.493438 0.497884 0.491600
0.493416 0.498456 0.492173
0.493394 0.499029 0.492746
0.493373 0.499602 0.493318
0.493351 0.500175 0.493891
0.493329 0.500748 0.494464
0.493307 0.501321 0.495037
0.494780 0.492685 0.486996
