shared/src/main/assets/luts/film_desert_chrome.cube
TITLE "DALUR Desert Chrome"
LUT_3D_SIZE 9
DOMAIN_MIN 0.0 0.0 0.0
DOMAIN_MAX 1.0 1.0 1.0
0.438000 0.420000 0.402000
0.447094 0.424953 0.406953
0.456188 0.429905 0.411905
0.465281 0.434858 0.416858
0.474375 0.439811 0.421811
0.483469 0.444764 0.426764
0.492563 0.449716 0.431716
0.501656 0.454669 0.436669
0.510750 0.459622 0.441622
0.447723 0.433864 0.411723
0.456817 0.438817 0.416676
0.465911 0.443770 0.421629
0.475005 0.448722 0.426581
0.484098 0.453675 0.431534
0.493192 0.458628 0.436487
0.502286 0.463581 0.441439
0.511380 0.468533 0.446392
0.520473 0.473486 0.451345
0.457446 0.447729 0.421446
0.466540 0.452681 0.426399
0.475634 0.457634 0.431352
0.484728 0.462587 0.436305
0.493821 0.467539 0.441257
0.502915 0.472492 0.446210
0.512009 0.477445 0.451163
0.521103 0.482397 0.456115
0.530197 0.487350 0.461068
0.467170 0.461593 0.431170
0.476263 0.466546 0.436122
0.485357 0.471498 0.441075
0.494451 0.476451 0.446028
0.503545 0.481404 0.450980
0.512638 0.486356 0.455933
0.521732 0.491309 0.460886
0.530826 0.496262 0.465839
0.539920 0.501214 0.470791
0.476893 0.475457 0.440893
0.485987 0.480410 0.445846
0.495080 0.485362 0.450798
0.504174 0.490315 0.455751
0.513268 0.495268 0.460704
0.522362 0.500221 0.465656
0.531455 0.505173 0.470609
0.540549 0.510126 0.475562
0.549643 0.515079 0.480514
0.486616 0.489321 0.450616
0.495710 0.494274 0.455569
0.504804 0.499227 0.460521
0.513897 0.504179 0.465474
0.522991 0.509132 0.470427
0.532085 0.514085 0.475380
0.541179 0.519038 0.480332
0.550272 0.523990 0.485285
0.559366 0.528943 0.490238
0.496339 0.503186 0.460339
0.505433 0.508138 0.465292
0.514527 0.513091 0.470245
0.523621 0.518044 0.475197
0.532714 0.522996 0.480150
0.541808 0.527949 0.485103
0.550902 0.532902 0.490055
0.559996 0.537855 0.495008
0.569089 0.542807 0.499961
0.506062 0.517050 0.470062
0.515156 0.522003 0.475015
0.524250 0.526955 0.479968
0.533344 0.531908 0.484921
0.542438 0.536861 0.489873
0.551531 0.541813 0.494826
0.560625 0.546766 0.499779
0.569719 0.551719 0.504731
0.578813 0.556672 0.509684
0.515786 0.530914 0.479786
0.524879 0.535867 0.484738
0.533973 0.540820 0.489691
0.543067 0.545772 0.494644
0.552161 0.550725 0.499596
0.561255 0.555678 0.504549
0.570348 0.560630 0.509502
0.579442 0.565583 0.514455
0.588536 0.570536 0.519407
0.439888 0.421888 0.408029
0.448982 0.426841 0.412982
0.458076 0.431794 0.417935
0.467170 0.436746 0.422888
0.476263 0.441699 0.427840
0.485357 0.446652 0.432793
0.494451 0.451605 0.437746
0.503545 0.456557 0.442698
0.512638 0.461510 0.447651
0.449612 0.435753 0.417753
0.458705 0.440705 0.422705
0.467799 0.445658 0.427658
0.476893 0.450611 0.432611
0.485987 0.455563 0.437563
0.495080 0.460516 0.442516
0.504174 0.465469 0.447469
0.513268 0.470422 0.452422
0.522362 0.475374 0.457374
0.459335 0.449617 0.427476
0.468429 0.454570 0.432429
0.477522 0.459522 0.437381
0.486616 0.464475 0.442334
0.495710 0.469428 0.447287
0.504804 0.474380 0.452239
0.513897 0.479333 0.457192
0.522991 0.484286 0.462145
0.532085 0.489239 0.467097
0.469058 0.463481 0.437199
0.478152 0.468434 0.442152
0.487245 0.473387 0.447104
0.496339 0.478339 0.452057
0.505433 0.483292 0.457010
0.514527 0.488245 0.461963
0.523621 0.493197 0.466915
0.532714 0.498150 0.471868
0.541808 0.503103 0.476821
0.478781 0.477345 0.446922
0.487875 0.482298 0.451875
0.496969 0.487251 0.456828
0.506062 0.492204 0.461780
0.515156 0.497156 0.466733
0.524250 0.502109 0.471686
0.533344 0.507062 0.476638
0.542438 0.512014 0.481591
0.551531 0.516967 0.486544
0.488504 0.491210 0.456645
0.497598 0.496162 0.461598
0.506692 0.501115 0.466551
0.515786 0.506068 0.471504
0.524879 0.511020 0.476456
0.533973 0.515973 0.481409
0.543067 0.520926 0.486362
0.552161 0.525879 0.491314
0.561255 0.530831 0.496267
0.498228 0.505074 0.466369
0.507321 0.510027 0.471321
0.516415 0.514979 0.476274
0.525509 0.519932 0.481227
0.534603 0.524885 0.486179
0.543696 0.529837 0.491132
0.552790 0.534790 0.496085
0.561884 0.539743 0.501038
0.570978 0.544696 0.505990
0.507951 0.518938 0.476092
0.517045 0.523891 0.481045
0.526138 0.528844 0.485997
0.535232 0.533796 0.490950
0.544326 0.538749 0.495903
0.553420 0.543702 0.500855
0.562513 0.548654 0.505808
0.571607 0.553607 0.510761
0.580701 0.558560 0.515713
0.517674 0.532802 0.485815
0.526768 0.537755 0.490768
0.535862 0.542708 0.495720
0.544955 0.547661 0.500673
0.554049 0.552613 0.505626
0.563143 0.557566 0.510579
0.572237 0.562519 0.515531
0.581330 0.567471 0.520484
0.590424 0.572424 0.525437
0.441777 0.423777 0.414059
0.450870 0.428729 0.419011
0.459964 0.433682 0.423964
0.469058 0.438635 0.428917
0.478152 0.443587 0.433870
0.487245 0.448540 0.438822
0.496339 0.453493 0.443775
0.505433 0.458446 0.448728
0.514527 0.463398 0.453680
0.451500 0.437641 0.423782
0.460594 0.442594 0.428735
0.469687 0.447546 0.433687
0.478781 0.452499 0.438640
0.487875 0.457452 0.443593
0.496969 0.462404 0.448546
0.506062 0.467357 0.453498
0.515156 0.472310 0.458451
0.524250 0.477263 0.463404
0.461223 0.451505 0.433505
0.470317 0.456458 0.438458
0.479411 0.461411 0.443411
0.488504 0.466363 0.448363
0.497598 0.471316 0.453316
0.506692 0.476269 0.458269
0.515786 0.481221 0.463221
0.524879 0.486174 0.468174
0.533973 0.491127 0.473127
0.470946 0.465369 0.443228
0.480040 0.470322 0.448181
0.489134 0.475275 0.453134
0.498228 0.480228 0.458087
0.507321 0.485180 0.463039
0.516415 0.490133 0.467992
0.525509 0.495086 0.472945
0.534603 0.500038 0.477897
0.543696 0.504991 0.482850
0.480669 0.479234 0.452952
0.489763 0.484186 0.457904
0.498857 0.489139 0.462857
0.507951 0.494092 0.467810
0.517045 0.499045 0.472762
0.526138 0.503997 0.477715
0.535232 0.508950 0.482668
0.544326 0.513903 0.487621
0.553420 0.518855 0.492573
0.490393 0.493098 0.462675
0.499486 0.498051 0.467628
0.508580 0.503003 0.472580
0.517674 0.507956 0.477533
0.526768 0.512909 0.482486
0.535862 0.517862 0.487438
0.544955 0.522814 0.492391
0.554049 0.527767 0.497344
0.563143 0.532720 0.502296
0.500116 0.506962 0.472398
0.509210 0.511915 0.477351
0.518303 0.516868 0.482303
0.527397 0.521820 0.487256
0.536491 0.526773 0.492209
0.545585 0.531726 0.497162
0.554678 0.536678 0.502114
0.563772 0.541631 0.507067
0.572866 0.546584 0.512020
0.509839 0.520827 0.482121
0.518933 0.525779 0.487074
0.528027 0.530732 0.492027
0.537120 0.535685 0.496979
0.546214 0.540637 0.501932
0.555308 0.545590 0.506885
0.564402 0.550543 0.511837
0.573495 0.555495 0.516790
0.582589 0.560448 0.521743
0.519562 0.534691 0.491844
0.528656 0.539643 0.496797
0.537750 0.544596 0.501750
0.546844 0.549549 0.506703
0.555937 0.554502 0.511655
0.565031 0.559454 0.516608
0.574125 0.564407 0.521561
0.583219 0.569360 0.526513
0.592312 0.574312 0.531466
0.443665 0.425665 0.420088
0.452759 0.430618 0.425041
0.461853 0.435570 0.429994
0.470946 0.440523 0.434946
0.480040 0.445476 0.439899
0.489134 0.450429 0.444852
0.498228 0.455381 0.449804
0.507321 0.460334 0.454757
0.516415 0.465287 0.459710
0.453388 0.439529 0.429811
0.462482 0.444482 0.434764
0.471576 0.449435 0.439717
0.480669 0.454387 0.444669
0.489763 0.459340 0.449622
0.498857 0.464293 0.454575
0.507951 0.469245 0.459528
0.517045 0.474198 0.464480
0.526138 0.479151 0.469433
0.463111 0.453394 0.439535
0.472205 0.458346 0.444487
0.481299 0.463299 0.449440
0.490393 0.468252 0.454393
0.499486 0.473204 0.459345
0.508580 0.478157 0.464298
0.517674 0.483110 0.469251
0.526768 0.488062 0.474204
0.535862 0.493015 0.479156
0.472835 0.467258 0.449258
0.481928 0.472210 0.454210
0.491022 0.477163 0.459163
0.500116 0.482116 0.464116
0.509210 0.487069 0.469069
0.518303 0.492021 0.474021
0.527397 0.496974 0.478974
0.536491 0.501927 0.483927
0.545585 0.506879 0.488879
0.482558 0.481122 0.458981
0.491652 0.486075 0.463934
0.500745 0.491027 0.468886
0.509839 0.495980 0.473839
0.518933 0.500933 0.478792
0.528027 0.505886 0.483745
0.537120 0.510838 0.488697
0.546214 0.515791 0.493650
0.555308 0.520744 0.498603
0.492281 0.494986 0.468704
0.501375 0.499939 0.473657
0.510469 0.504892 0.478610
0.519562 0.509844 0.483562
0.528656 0.514797 0.488515
0.537750 0.519750 0.493468
0.546844 0.524703 0.498420
0.555937 0.529655 0.503373
0.565031 0.534608 0.508326
0.502004 0.508851 0.478427
0.511098 0.513803 0.483380
0.520192 0.518756 0.488333
0.529286 0.523709 0.493286
0.538379 0.528661 0.498238
0.547473 0.533614 0.503191
0.556567 0.538567 0.508144
0.565661 0.543520 0.513096
0.574754 0.548472 0.518049
0.511727 0.522715 0.488151
0.520821 0.527668 0.493103
0.529915 0.532620 0.498056
0.539009 0.537573 0.503009
0.548102 0.542526 0.507961
0.557196 0.547478 0.512914
0.566290 0.552431 0.517867
0.575384 0.557384 0.522820
0.584478 0.562337 0.527772
0.521451 0.536579 0.497874
0.530544 0.541532 0.502827
0.539638 0.546485 0.507779
0.548732 0.551437 0.512732
0.557826 0.556390 0.517685
0.566919 0.561343 0.522637
0.576013 0.566295 0.527590
0.585107 0.571248 0.532543
0.594201 0.576201 0.537495
0.445553 0.427553 0.426118
0.454647 0.432506 0.431070
0.463741 0.437459 0.436023
0.472835 0.442411 0.440976
0.481928 0.447364 0.445928
0.491022 0.452317 0.450881
0.500116 0.457270 0.455834
0.509210 0.462222 0.460786
0.518303 0.467175 0.465739
0.455277 0.441418 0.435841
0.464370 0.446370 0.440793
0.473464 0.451323 0.445746
0.482558 0.456276 0.450699
0.491652 0.461228 0.455652
0.500745 0.466181 0.460604
0.509839 0.471134 0.465557
0.518933 0.476087 0.470510
0.528027 0.481039 0.475462
0.465000 0.455282 0.445564
0.474093 0.460235 0.450517
0.483187 0.465187 0.455469
0.492281 0.470140 0.460422
0.501375 0.475093 0.465375
0.510469 0.480045 0.470327
0.519562 0.484998 0.475280
0.528656 0.489951 0.480233
0.537750 0.494903 0.485186
0.474723 0.469146 0.455287
0.483817 0.474099 0.460240
0.492910 0.479052 0.465193
0.502004 0.484004 0.470145
0.511098 0.488957 0.475098
0.520192 0.493910 0.480051
0.529286 0.498862 0.485003
0.538379 0.503815 0.489956
0.547473 0.508768 0.494909
0.484446 0.483010 0.465010
0.493540 0.487963 0.469963
0.502634 0.492916 0.474916
0.511727 0.497868 0.479868
0.520821 0.502821 0.484821
0.529915 0.507774 0.489774
0.539009 0.512727 0.494727
0.548102 0.517679 0.499679
0.557196 0.522632 0.504632
0.494169 0.496875 0.474734
0.503263 0.501827 0.479686
0.512357 0.506780 0.484639
0.521451 0.511733 0.489592
0.530544 0.516685 0.494544
0.539638 0.521638 0.499497
0.548732 0.526591 0.504450
0.557826 0.531544 0.509403
0.566919 0.536496 0.514355
0.503893 0.510739 0.484457
0.512986 0.515692 0.489409
0.522080 0.520644 0.494362
0.531174 0.525597 0.499315
0.540268 0.530550 0.504268
0.549361 0.535502 0.509220
0.558455 0.540455 0.514173
0.567549 0.545408 0.519126
0.576643 0.550361 0.524078
0.513616 0.524603 0.494180
0.522710 0.529556 0.499133
0.531803 0.534509 0.504085
0.540897 0.539461 0.509038
0.549991 0.544414 0.513991
0.559085 0.549367 0.518944
0.568178 0.554319 0.523896
0.577272 0.559272 0.528849
0.586366 0.564225 0.533802
0.523339 0.538467 0.503903
0.532433 0.543420 0.508856
0.541526 0.548373 0.513809
0.550620 0.553326 0.518761
0.559714 0.558278 0.523714
0.568808 0.563231 0.528667
0.577902 0.568184 0.533619
0.586995 0.573136 0.538572
0.596089 0.578089 0.543525
0.447442 0.429442 0.432147
0.456535 0.434394 0.437100
0.465629 0.439347 0.442052
0.474723 0.444300 0.447005
0.483817 0.449252 0.451958
0.492910 0.454205 0.456910
0.502004 0.459158 0.461863
0.511098 0.464111 0.466816
0.520192 0.469063 0.471769
0.457165 0.443306 0.441870
0.466259 0.448259 0.446823
0.475352 0.453211 0.451776
0.484446 0.458164 0.456728
0.493540 0.463117 0.461681
0.502634 0.468069 0.466634
0.511727 0.473022 0.471586
0.520821 0.477975 0.476539
0.529915 0.482928 0.481492
0.466888 0.457170 0.451593
0.475982 0.462123 0.456546
0.485076 0.467076 0.461499
0.494169 0.472028 0.466451
0.503263 0.476981 0.471404
0.512357 0.481934 0.476357
0.521451 0.486886 0.481310
0.530544 0.491839 0.486262
0.539638 0.496792 0.491215
0.476611 0.471034 0.461317
0.485705 0.475987 0.466269
0.494799 0.480940 0.471222
0.503893 0.485893 0.476175
0.512986 0.490845 0.481127
0.522080 0.495798 0.486080
0.531174 0.500751 0.491033
0.540268 0.505703 0.495985
0.549361 0.510656 0.500938
0.486334 0.484899 0.471040
0.495428 0.489851 0.475992
0.504522 0.494804 0.480945
0.513616 0.499757 0.485898
0.522710 0.504710 0.490851
0.531803 0.509662 0.495803
0.540897 0.514615 0.500756
0.549991 0.519568 0.505709
0.559085 0.524520 0.510661
0.496058 0.498763 0.480763
0.505151 0.503716 0.485716
0.514245 0.508668 0.490668
0.523339 0.513621 0.495621
0.532433 0.518574 0.500574
0.541526 0.523526 0.505526
0.550620 0.528479 0.510479
0.559714 0.533432 0.515432
0.568808 0.538385 0.520385
0.505781 0.512627 0.490486
0.514875 0.517580 0.495439
0.523968 0.522533 0.500392
0.533062 0.527485 0.505344
0.542156 0.532438 0.510297
0.551250 0.537391 0.515250
0.560343 0.542343 0.520202
0.569437 0.547296 0.525155
0.578531 0.552249 0.530108
0.515504 0.526491 0.500209
0.524598 0.531444 0.505162
0.533692 0.536397 0.510115
0.542785 0.541350 0.515067
0.551879 0.546302 0.520020
0.560973 0.551255 0.524973
0.570067 0.556208 0.529926
0.579160 0.561160 0.534878
0.588254 0.566113 0.539831
0.525227 0.540356 0.509933
0.534321 0.545308 0.514885
0.543415 0.550261 0.519838
0.552509 0.555214 0.524791
0.561602 0.560167 0.529743
0.570696 0.565119 0.534696
0.579790 0.570072 0.539649
0.588884 0.575025 0.544602
0.597977 0.579977 0.549554
0.449330 0.431330 0.438176
0.458424 0.436283 0.443129
0.467517 0.441235 0.448082
0.476611 0.446188 0.453034
0.485705 0.451141 0.457987
0.494799 0.456093 0.462940
0.503893 0.461046 0.467893
0.512986 0.465999 0.472845
0.522080 0.470952 0.477798
0.459053 0.445194 0.447900
0.468147 0.450147 0.452852
0.477241 0.455100 0.457805
0.486334 0.460052 0.462758
0.495428 0.465005 0.467710
0.504522 0.469958 0.472663
0.513616 0.474910 0.477616
0.522710 0.479863 0.482568
0.531803 0.484816 0.487521
0.468776 0.459058 0.457623
0.477870 0.464011 0.462575
0.486964 0.468964 0.467528
0.496058 0.473917 0.472481
0.505151 0.478869 0.477434
0.514245 0.483822 0.482386
0.523339 0.488775 0.487339
0.532433 0.493727 0.492292
0.541526 0.498680 0.497244
0.478500 0.472923 0.467346
0.487593 0.477875 0.472299
0.496687 0.482828 0.477251
0.505781 0.487781 0.482204
0.514875 0.492734 0.487157
0.523968 0.497686 0.492109
0.533062 0.502639 0.497062
0.542156 0.507592 0.502015
0.551250 0.512544 0.506968
0.488223 0.486787 0.477069
0.497317 0.491740 0.482022
0.506410 0.496692 0.486975
0.515504 0.501645 0.491927
0.524598 0.506598 0.496880
0.533692 0.511551 0.501833
0.542785 0.516503 0.506785
0.551879 0.521456 0.511738
0.560973 0.526409 0.516691
0.497946 0.500651 0.486792
0.507040 0.505604 0.491745
0.516134 0.510557 0.496698
0.525227 0.515509 0.501650
0.534321 0.520462 0.506603
0.543415 0.525415 0.511556
0.552509 0.530368 0.516509
0.561602 0.535320 0.521461
0.570696 0.540273 0.526414
0.507669 0.514516 0.496516
0.516763 0.519468 0.501468
0.525857 0.524421 0.506421
0.534950 0.529374 0.511374
0.544044 0.534326 0.516326
0.553138 0.539279 0.521279
0.562232 0.544232 0.526232
0.571326 0.549184 0.531184
0.580419 0.554137 0.536137
0.517392 0.528380 0.506239
0.526486 0.533333 0.511191
0.535580 0.538285 0.516144
0.544674 0.543238 0.521097
0.553767 0.548191 0.526050
0.562861 0.553143 0.531002
0.571955 0.558096 0.535955
0.581049 0.563049 0.540908
0.590143 0.568001 0.545860
0.527116 0.542244 0.515962
0.536209 0.547197 0.520915
0.545303 0.552149 0.525867
0.554397 0.557102 0.530820
0.563491 0.562055 0.535773
0.572584 0.567008 0.540725
0.581678 0.571960 0.545678
0.590772 0.576913 0.550631
0.599866 0.581866 0.555584
0.451218 0.433218 0.444206
0.460312 0.438171 0.449158
0.469406 0.443124 0.454111
0.478500 0.448076 0.459064
0.487593 0.453029 0.464017
0.496687 0.457982 0.468969
0.505781 0.462935 0.473922
0.514875 0.467887 0.478875
0.523968 0.472840 0.483827
0.460941 0.447083 0.453929
0.470035 0.452035 0.458882
0.479129 0.456988 0.463834
0.488223 0.461941 0.468787
0.497317 0.466893 0.473740
0.506410 0.471846 0.478692
0.515504 0.476799 0.483645
0.524598 0.481751 0.488598
0.533692 0.486704 0.493551
0.470665 0.460947 0.463652
0.479758 0.465900 0.468605
0.488852 0.470852 0.473558
0.497946 0.475805 0.478510
0.507040 0.480758 0.483463
0.516134 0.485710 0.488416
0.525227 0.490663 0.493368
0.534321 0.495616 0.498321
0.543415 0.500568 0.503274
0.480388 0.474811 0.473375
0.489482 0.479764 0.478328
0.498575 0.484716 0.483281
0.507669 0.489669 0.488233
0.516763 0.494622 0.493186
0.525857 0.499575 0.498139
0.534950 0.504527 0.503092
0.544044 0.509480 0.508044
0.553138 0.514433 0.512997
0.490111 0.488675 0.483099
0.499205 0.493628 0.488051
0.508299 0.498581 0.493004
0.517392 0.503533 0.497957
0.526486 0.508486 0.502909
0.535580 0.513439 0.507862
0.544674 0.518392 0.512815
0.553767 0.523344 0.517767
0.562861 0.528297 0.522720
0.499834 0.502540 0.492822
0.508928 0.507492 0.497774
0.518022 0.512445 0.502727
0.527116 0.517398 0.507680
0.536209 0.522350 0.512633
0.545303 0.527303 0.517585
0.554397 0.532256 0.522538
0.563491 0.537209 0.527491
0.572584 0.542161 0.532443
0.509558 0.516404 0.502545
0.518651 0.521357 0.507498
0.527745 0.526309 0.512450
0.536839 0.531262 0.517403
0.545933 0.536215 0.522356
0.555026 0.541167 0.527308
0.564120 0.546120 0.532261
0.573214 0.551073 0.537214
0.582308 0.556026 0.542167
0.519281 0.530268 0.512268
0.528374 0.535221 0.517221
0.537468 0.540174 0.522174
0.546562 0.545126 0.527126
0.555656 0.550079 0.532079
0.564750 0.555032 0.537032
0.573843 0.559984 0.541984
0.582937 0.564937 0.546937
0.592031 0.569890 0.551890
0.529004 0.544132 0.521991
0.538098 0.549085 0.526944
0.547191 0.554038 0.531897
0.556285 0.558991 0.536849
0.565379 0.563943 0.541802
0.574473 0.568896 0.546755
0.583567 0.573849 0.551708
0.592660 0.578801 0.556660
0.601754 0.583754 0.561613
0.453107 0.435107 0.450235
0.462200 0.440059 0.455188
0.471294 0.445012 0.460140
0.480388 0.449965 0.465093
0.489482 0.454917 0.470046
0.498575 0.459870 0.474999
0.507669 0.464823 0.479951
0.516763 0.469776 0.484904
0.525857 0.474728 0.489857
0.462830 0.448971 0.459958
0.471924 0.453924 0.464911
0.481017 0.458876 0.469864
0.490111 0.463829 0.474816
0.499205 0.468782 0.479769
0.508299 0.473734 0.484722
0.517392 0.478687 0.489675
0.526486 0.483640 0.494627
0.535580 0.488593 0.499580
0.472553 0.462835 0.469681
0.481647 0.467788 0.474634
0.490741 0.472741 0.479587
0.499834 0.477693 0.484540
0.508928 0.482646 0.489492
0.518022 0.487599 0.494445
0.527116 0.492551 0.499398
0.536209 0.497504 0.504350
0.545303 0.502457 0.509303
0.482276 0.476699 0.479405
0.491370 0.481652 0.484357
0.500464 0.486605 0.489310
0.509558 0.491558 0.494263
0.518651 0.496510 0.499216
0.527745 0.501463 0.504168
0.536839 0.506416 0.509121
0.545933 0.511368 0.514074
0.555026 0.516321 0.519026
0.491999 0.490564 0.489128
0.501093 0.495516 0.494081
0.510187 0.500469 0.499033
0.519281 0.505422 0.503986
0.528374 0.510374 0.508939
0.537468 0.515327 0.513891
0.546562 0.520280 0.518844
0.555656 0.525233 0.523797
0.564750 0.530185 0.528750
0.501723 0.504428 0.498851
0.510816 0.509381 0.503804
0.519910 0.514333 0.508757
0.529004 0.519286 0.513709
0.538098 0.524239 0.518662
0.547191 0.529191 0.523615
0.556285 0.534144 0.528567
0.565379 0.539097 0.533520
0.574473 0.544050 0.538473
0.511446 0.518292 0.508574
0.520540 0.523245 0.513527
0.529633 0.528198 0.518480
0.538727 0.533150 0.523432
0.547821 0.538103 0.528385
0.556915 0.543056 0.533338
0.566008 0.548008 0.538291
0.575102 0.552961 0.543243
0.584196 0.557914 0.548196
0.521169 0.532156 0.518298
0.530263 0.537109 0.523250
0.539357 0.542062 0.528203
0.548450 0.547015 0.533156
0.557544 0.551967 0.538108
0.566638 0.556920 0.543061
0.575732 0.561873 0.548014
0.584825 0.566825 0.552966
0.593919 0.571778 0.557919
0.530892 0.546021 0.528021
0.539986 0.550973 0.532973
0.549080 0.555926 0.537926
0.558174 0.560879 0.542879
0.567267 0.565832 0.547832
0.576361 0.570784 0.552784
0.585455 0.575737 0.557737
0.594549 0.580690 0.562690
0.603642 0.585642 0.567642
