shared/src/main/assets/luts/film_frozen_earth.cube
TITLE "DALUR Frozen Earth"
LUT_3D_SIZE 5
DOMAIN_MIN 0.0 0.0 0.0
DOMAIN_MAX 1.0 1.0 1.0
0.419000 0.440000 0.461000
0.420555 0.451697 0.472697
0.422109 0.463394 0.484394
0.423664 0.475091 0.496091
0.425219 0.486788 0.507788
0.441964 0.452821 0.483964
0.443518 0.464518 0.495661
0.445073 0.476215 0.507358
0.446628 0.487912 0.519055
0.448182 0.499609 0.530752
0.464927 0.465643 0.506927
0.466482 0.477340 0.518624
0.468037 0.489037 0.530321
0.469591 0.500734 0.542018
0.471146 0.512431 0.553715
0.487891 0.478464 0.529891
0.489446 0.490161 0.541588
0.491000 0.501858 0.553285
0.492555 0.513555 0.564982
0.494110 0.525252 0.576679
0.510855 0.491285 0.552855
0.512409 0.502982 0.564552
0.513964 0.514679 0.576249
0.515519 0.526376 0.587946
0.517073 0.538073 0.599643
0.423460 0.444460 0.455317
0.425014 0.456157 0.467014
0.426569 0.467854 0.478711
0.428124 0.479551 0.490408
0.429678 0.491248 0.502105
0.446423 0.457281 0.478281
0.447978 0.468978 0.489978
0.449533 0.480675 0.501675
0.451087 0.492372 0.513372
0.452642 0.504069 0.525069
0.469387 0.470102 0.501245
0.470942 0.481799 0.512942
0.472496 0.493496 0.524639
0.474051 0.505193 0.536336
0.475606 0.516890 0.548033
0.492351 0.482924 0.524208
0.493905 0.494621 0.535905
0.495460 0.506318 0.547602
0.497015 0.518015 0.559299
0.498569 0.529712 0.570996
0.515314 0.495745 0.547172
0.516869 0.507442 0.558869
0.518424 0.519139 0.570566
0.519979 0.530836 0.582263
0.521533 0.542533 0.593960
0.427919 0.448919 0.449635
0.429474 0.460616 0.461332
0.431029 0.472313 0.473029
0.432583 0.484010 0.484726
0.434138 0.495707 0.496423
0.450883 0.461741 0.472598
0.452438 0.473438 0.484295
0.453992 0.485135 0.495992
0.455547 0.496832 0.507689
0.457102 0.508529 0.519387
0.473847 0.474562 0.495562
0.475402 0.486259 0.507259
0.476956 0.497956 0.518956
0.478511 0.509653 0.530653
0.480066 0.521350 0.542350
0.496811 0.487384 0.518526
0.498365 0.499081 0.530223
0.499920 0.510778 0.541920
0.501475 0.522475 0.553617
0.503029 0.534172 0.565314
0.519774 0.500205 0.541490
0.521329 0.511902 0.553187
0.522884 0.523599 0.564884
0.524438 0.535296 0.576581
0.525993 0.546993 0.588278
0.432379 0.453379 0.443952
0.433934 0.465076 0.455649
0.435489 0.476773 0.467346
0.437043 0.488470 0.479043
0.438598 0.500167 0.490740
0.455343 0.466201 0.466916
0.456898 0.477898 0.478613
0.458452 0.489595 0.490310
0.460007 0.501292 0.502007
0.461562 0.512989 0.513704
0.478307 0.479022 0.489880
0.479861 0.490719 0.501577
0.481416 0.502416 0.513274
0.482971 0.514113 0.524971
0.484525 0.525810 0.536668
0.501270 0.491843 0.512843
0.502825 0.503540 0.524540
0.504380 0.515237 0.536237
0.505934 0.526934 0.547934
0.507489 0.538631 0.559631
0.524234 0.504665 0.535807
0.525789 0.516362 0.547504
0.527343 0.528059 0.559201
0.528898 0.539756 0.570898
0.530453 0.551453 0.582595
0.436839 0.457839 0.438270
0.438394 0.469536 0.449967
0.439948 0.481233 0.461664
0.441503 0.492930 0.473361
0.443058 0.504627 0.485058
0.459803 0.470660 0.461233
0.461357 0.482357 0.472930
0.462912 0.494054 0.484627
0.464467 0.505751 0.496324
0.466021 0.517448 0.508021
0.482766 0.483482 0.484197
0.484321 0.495179 0.495894
0.485876 0.506876 0.507591
0.487430 0.518573 0.519288
0.488985 0.530270 0.530985
0.505730 0.496303 0.507161
0.507285 0.508000 0.518858
0.508839 0.519697 0.530555
0.510394 0.531394 0.542252
0.511949 0.543091 0.553949
0.528694 0.509124 0.530124
0.530248 0.520821 0.541821
0.531803 0.532518 0.553518
0.533358 0.544215 0.565215
0.534912 0.555912 0.576912
