shared/src/main/assets/luts/film_bleached_reality.cube
TITLE "DALUR Bleached Reality"
LUT_3D_SIZE 9
DOMAIN_MIN 0.0 0.0 0.0
DOMAIN_MAX 1.0 1.0 1.0
0.493000 0.491500 0.487000
0.492957 0.492646 0.488146
0.492913 0.493791 0.489291
0.492870 0.494937 0.490437
0.492826 0.496083 0.491583
0.492783 0.497228 0.492728
0.492739 0.498374 0.493874
0.492696 0.499520 0.495020
0.492652 0.500665 0.496165
0.495249 0.492560 0.489249
0.495206 0.493706 0.490395
0.495162 0.494851 0.491541
0.495119 0.495997 0.492686
0.495075 0.497143 0.493832
0.495032 0.498288 0.494978
0.494988 0.499434 0.496123
0.494945 0.500580 0.497269
0.494901 0.501725 0.498415
0.497498 0.493620 0.491498
0.497455 0.494766 0.492644
0.497411 0.495911 0.493790
0.497368 0.497057 0.494935
0.497325 0.498203 0.496081
0.497281 0.499348 0.497227
0.497238 0.500494 0.498372
0.497194 0.501640 0.499518
0.497151 0.502786 0.500664
0.499748 0.494680 0.493748
0.499704 0.495826 0.494893
0.499661 0.496972 0.496039
0.499617 0.498117 0.497185
0.499574 0.499263 0.498330
0.499530 0.500409 0.499476
0.499487 0.501554 0.500622
0.499443 0.502700 0.501767
0.499400 0.503846 0.502913
0.501997 0.495740 0.495997
0.501953 0.496886 0.497142
0.501910 0.498032 0.498288
0.501866 0.499177 0.499434
0.501823 0.500323 0.500580
0.501779 0.501469 0.501725
0.501736 0.502614 0.502871
0.501693 0.503760 0.504017
0.501649 0.504906 0.505162
0.504246 0.496800 0.498246
0.504203 0.497946 0.499392
0.504159 0.499092 0.500537
0.504116 0.500237 0.501683
0.504072 0.501383 0.502829
0.504029 0.502529 0.503974
0.503985 0.503674 0.505120
0.503942 0.504820 0.506266
0.503898 0.505966 0.507411
0.506495 0.497860 0.500495
0.506452 0.499006 0.501641
0.506408 0.500152 0.502787
0.506365 0.501297 0.503932
0.506321 0.502443 0.505078
0.506278 0.503589 0.506224
0.506234 0.504734 0.507369
0.506191 0.505880 0.508515
0.506147 0.507026 0.509661
0.508744 0.498920 0.502744
0.508701 0.500066 0.503890
0.508657 0.501212 0.505036
0.508614 0.502357 0.506181
0.508571 0.503503 0.507327
0.508527 0.504649 0.508473
0.508484 0.505794 0.509618
0.508440 0.506940 0.510764
0.508397 0.508086 0.511910
0.510994 0.499980 0.504994
0.510950 0.501126 0.506139
0.510907 0.502272 0.507285
0.510863 0.503417 0.508431
0.510820 0.504563 0.509576
0.510776 0.505709 0.510722
0.510733 0.506855 0.511868
0.510689 0.508000 0.513013
0.510646 0.509146 0.514159
0.493437 0.491937 0.486248
0.493393 0.493082 0.487393
0.493350 0.494228 0.488539
0.493306 0.495374 0.489685
0.493263 0.496520 0.490830
0.493219 0.497665 0.491976
0.493176 0.498811 0.493122
0.493133 0.499957 0.494267
0.493089 0.501102 0.495413
0.495686 0.492997 0.488497
0.495643 0.494143 0.489643
0.495599 0.495288 0.490788
0.495556 0.496434 0.491934
0.495512 0.497580 0.493080
0.495469 0.498725 0.494225
0.495425 0.499871 0.495371
0.495382 0.501017 0.496517
0.495338 0.502162 0.497662
0.497935 0.494057 0.490746
0.497892 0.495203 0.491892
0.497848 0.496348 0.493037
0.497805 0.497494 0.494183
0.497761 0.498640 0.495329
0.497718 0.499785 0.496474
0.497674 0.500931 0.497620
0.497631 0.502077 0.498766
0.497587 0.503222 0.499911
0.500184 0.495117 0.492995
0.500141 0.496263 0.494141
0.500097 0.497408 0.495287
0.500054 0.498554 0.496432
0.500011 0.499700 0.497578
0.499967 0.500845 0.498724
0.499924 0.501991 0.499869
0.499880 0.503137 0.501015
0.499837 0.504282 0.502161
0.502434 0.496177 0.495244
0.502390 0.497323 0.496390
0.502347 0.498468 0.497536
0.502303 0.499614 0.498682
0.502260 0.500760 0.499827
0.502216 0.501905 0.500973
0.502173 0.503051 0.502119
0.502129 0.504197 0.503264
0.502086 0.505342 0.504410
0.504683 0.497237 0.497494
0.504639 0.498383 0.498639
0.504596 0.499528 0.499785
0.504552 0.500674 0.500931
0.504509 0.501820 0.502076
0.504465 0.502965 0.503222
0.504422 0.504111 0.504368
0.504379 0.505257 0.505513
0.504335 0.506403 0.506659
0.506932 0.498297 0.499743
0.506889 0.499443 0.500889
0.506845 0.500589 0.502034
0.506802 0.501734 0.503180
0.506758 0.502880 0.504326
0.506715 0.504026 0.505471
0.506671 0.505171 0.506617
0.506628 0.506317 0.507763
0.506584 0.507463 0.508908
0.509181 0.499357 0.501992
0.509138 0.500503 0.503138
0.509094 0.501649 0.504283
0.509051 0.502794 0.505429
0.509007 0.503940 0.506575
0.508964 0.505086 0.507720
0.508920 0.506231 0.508866
0.508877 0.507377 0.510012
0.508833 0.508523 0.511157
0.511430 0.500417 0.504241
0.511387 0.501563 0.505387
0.511343 0.502709 0.506533
0.511300 0.503854 0.507678
0.511257 0.505000 0.508824
0.511213 0.506146 0.509970
0.511170 0.507291 0.511115
0.511126 0.508437 0.512261
0.511083 0.509583 0.513407
0.493874 0.492374 0.485495
0.493830 0.493519 0.486641
0.493787 0.494665 0.487787
0.493743 0.495811 0.488932
0.493700 0.496956 0.490078
0.493656 0.498102 0.491224
0.493613 0.499248 0.492369
0.493569 0.500393 0.493515
0.493526 0.501539 0.494661
0.496123 0.493434 0.487745
0.496079 0.494579 0.488890
0.496036 0.495725 0.490036
0.495992 0.496871 0.491182
0.495949 0.498016 0.492327
0.495905 0.499162 0.493473
0.495862 0.500308 0.494619
0.495819 0.501453 0.495764
0.495775 0.502599 0.496910
0.498372 0.494494 0.489994
0.498329 0.495639 0.491139
0.498285 0.496785 0.492285
0.498242 0.497931 0.493431
0.498198 0.499076 0.494576
0.498155 0.500222 0.495722
0.498111 0.501368 0.496868
0.498068 0.502513 0.498013
0.498024 0.503659 0.499159
0.500621 0.495554 0.492243
0.500578 0.496699 0.493389
0.500534 0.497845 0.494534
0.500491 0.498991 0.495680
0.500447 0.500136 0.496826
0.500404 0.501282 0.497971
0.500360 0.502428 0.499117
0.500317 0.503574 0.500263
0.500273 0.504719 0.501408
0.502870 0.496614 0.494492
0.502827 0.497760 0.495638
0.502783 0.498905 0.496783
0.502740 0.500051 0.497929
0.502697 0.501197 0.499075
0.502653 0.502342 0.500221
0.502610 0.503488 0.501366
0.502566 0.504634 0.502512
0.502523 0.505779 0.503658
0.505120 0.497674 0.496741
0.505076 0.498820 0.497887
0.505033 0.499965 0.499033
0.504989 0.501111 0.500178
0.504946 0.502257 0.501324
0.504902 0.503402 0.502470
0.504859 0.504548 0.503615
0.504815 0.505694 0.504761
0.504772 0.506839 0.505907
0.507369 0.498734 0.498991
0.507325 0.499880 0.500136
0.507282 0.501025 0.501282
0.507238 0.502171 0.502428
0.507195 0.503317 0.503573
0.507151 0.504462 0.504719
0.507108 0.505608 0.505865
0.507065 0.506754 0.507010
0.507021 0.507899 0.508156
0.509618 0.499794 0.501240
0.509575 0.500940 0.502385
0.509531 0.502085 0.503531
0.509488 0.503231 0.504677
0.509444 0.504377 0.505822
0.509401 0.505522 0.506968
0.509357 0.506668 0.508114
0.509314 0.507814 0.509259
0.509270 0.508959 0.510405
0.511867 0.500854 0.503489
0.511824 0.502000 0.504635
0.511780 0.503145 0.505780
0.511737 0.504291 0.506926
0.511693 0.505437 0.508072
0.511650 0.506582 0.509217
0.511606 0.507728 0.510363
0.511563 0.508874 0.511509
0.511519 0.510019 0.512654
0.494310 0.492810 0.484743
0.494267 0.493956 0.485889
0.494223 0.495102 0.487034
0.494180 0.496247 0.488180
0.494137 0.497393 0.489326
0.494093 0.498539 0.490471
0.494050 0.499684 0.491617
0.494006 0.500830 0.492763
0.493963 0.501976 0.493908
0.496560 0.493870 0.486992
0.496516 0.495016 0.488138
0.496473 0.496162 0.489284
0.496429 0.497308 0.490429
0.496386 0.498453 0.491575
0.496342 0.499599 0.492721
0.496299 0.500745 0.493866
0.496255 0.501890 0.495012
0.496212 0.503036 0.496158
0.498809 0.494931 0.489241
0.498765 0.496076 0.490387
0.498722 0.497222 0.491533
0.498678 0.498368 0.492678
0.498635 0.499513 0.493824
0.498591 0.500659 0.494970
0.498548 0.501805 0.496115
0.498505 0.502950 0.497261
0.498461 0.504096 0.498407
0.501058 0.495991 0.491491
0.501015 0.497136 0.492636
0.500971 0.498282 0.493782
0.500928 0.499428 0.494928
0.500884 0.500573 0.496073
0.500841 0.501719 0.497219
0.500797 0.502865 0.498365
0.500754 0.504010 0.499510
0.500710 0.505156 0.500656
0.503307 0.497051 0.493740
0.503264 0.498196 0.494885
0.503220 0.499342 0.496031
0.503177 0.500488 0.497177
0.503133 0.501633 0.498323
0.503090 0.502779 0.499468
0.503046 0.503925 0.500614
0.503003 0.505070 0.501760
0.502959 0.506216 0.502905
0.505556 0.498111 0.495989
0.505513 0.499256 0.497135
0.505470 0.500402 0.498280
0.505426 0.501548 0.499426
0.505383 0.502693 0.500572
0.505339 0.503839 0.501717
0.505296 0.504985 0.502863
0.505252 0.506130 0.504009
0.505209 0.507276 0.505154
0.507806 0.499171 0.498238
0.507762 0.500316 0.499384
0.507719 0.501462 0.500530
0.507675 0.502608 0.501675
0.507632 0.503753 0.502821
0.507588 0.504899 0.503967
0.507545 0.506045 0.505112
0.507501 0.507191 0.506258
0.507458 0.508336 0.507404
0.510055 0.500231 0.500487
0.510011 0.501377 0.501633
0.509968 0.502522 0.502779
0.509924 0.503668 0.503924
0.509881 0.504814 0.505070
0.509838 0.505959 0.506216
0.509794 0.507105 0.507361
0.509751 0.508251 0.508507
0.509707 0.509396 0.509653
0.512304 0.501291 0.502737
0.512261 0.502437 0.503882
0.512217 0.503582 0.505028
0.512174 0.504728 0.506174
0.512130 0.505874 0.507319
0.512087 0.507019 0.508465
0.512043 0.508165 0.509611
0.512000 0.509311 0.510756
0.511956 0.510456 0.511902
0.494747 0.493247 0.483991
0.494704 0.494393 0.485136
0.494660 0.495539 0.486282
0.494617 0.496684 0.487428
0.494573 0.497830 0.488573
0.494530 0.498976 0.489719
0.494486 0.500121 0.490865
0.494443 0.501267 0.492010
0.494399 0.502413 0.493156
0.496996 0.494307 0.486240
0.496953 0.495453 0.487386
0.496910 0.496599 0.488531
0.496866 0.497744 0.489677
0.496823 0.498890 0.490823
0.496779 0.500036 0.491968
0.496736 0.501181 0.493114
0.496692 0.502327 0.494260
0.496649 0.503473 0.495405
0.499246 0.495367 0.488489
0.499202 0.496513 0.489635
0.499159 0.497659 0.490780
0.499115 0.498804 0.491926
0.499072 0.499950 0.493072
0.499028 0.501096 0.494217
0.498985 0.502241 0.495363
0.498941 0.503387 0.496509
0.498898 0.504533 0.497654
0.501495 0.496427 0.490738
0.501451 0.497573 0.491884
0.501408 0.498719 0.493030
0.501364 0.499864 0.494175
0.501321 0.501010 0.495321
0.501278 0.502156 0.496467
0.501234 0.503301 0.497612
0.501191 0.504447 0.498758
0.501147 0.505593 0.499904
0.503744 0.497487 0.492987
0.503701 0.498633 0.494133
0.503657 0.499779 0.495279
0.503614 0.500925 0.496425
0.503570 0.502070 0.497570
0.503527 0.503216 0.498716
0.503483 0.504362 0.499862
0.503440 0.505507 0.501007
0.503396 0.506653 0.502153
0.505993 0.498548 0.495237
0.505950 0.499693 0.496382
0.505906 0.500839 0.497528
0.505863 0.501985 0.498674
0.505819 0.503130 0.499819
0.505776 0.504276 0.500965
0.505732 0.505422 0.502111
0.505689 0.506567 0.503256
0.505646 0.507713 0.504402
0.508242 0.499608 0.497486
0.508199 0.500753 0.498632
0.508156 0.501899 0.499777
0.508112 0.503045 0.500923
0.508069 0.504190 0.502069
0.508025 0.505336 0.503214
0.507982 0.506482 0.504360
0.507938 0.507627 0.505506
0.507895 0.508773 0.506651
0.510492 0.500668 0.499735
0.510448 0.501813 0.500881
0.510405 0.502959 0.502026
0.510361 0.504105 0.503172
0.510318 0.505250 0.504318
0.510274 0.506396 0.505463
0.510231 0.507542 0.506609
0.510187 0.508687 0.507755
0.510144 0.509833 0.508900
0.512741 0.501728 0.501984
0.512697 0.502873 0.503130
0.512654 0.504019 0.504276
0.512610 0.505165 0.505421
0.512567 0.506310 0.506567
0.512524 0.507456 0.507713
0.512480 0.508602 0.508858
0.512437 0.509747 0.510004
0.512393 0.510893 0.511150
0.495184 0.493684 0.483238
0.495141 0.494830 0.484384
0.495097 0.495975 0.485530
0.495054 0.497121 0.486675
0.495010 0.498267 0.487821
0.494967 0.499412 0.488967
0.494923 0.500558 0.490112
0.494880 0.501704 0.491258
0.494836 0.502849 0.492404
0.497433 0.494744 0.485488
0.497390 0.495890 0.486633
0.497346 0.497035 0.487779
0.497303 0.498181 0.488925
0.497259 0.499327 0.490070
0.497216 0.500472 0.491216
0.497172 0.501618 0.492362
0.497129 0.502764 0.493507
0.497086 0.503910 0.494653
0.499682 0.495804 0.487737
0.499639 0.496950 0.488882
0.499596 0.498096 0.490028
0.499552 0.499241 0.491174
0.499509 0.500387 0.492319
0.499465 0.501533 0.493465
0.499422 0.502678 0.494611
0.499378 0.503824 0.495756
0.499335 0.504970 0.496902
0.501932 0.496864 0.489986
0.501888 0.498010 0.491132
0.501845 0.499156 0.492277
0.501801 0.500301 0.493423
0.501758 0.501447 0.494569
0.501714 0.502593 0.495714
0.501671 0.503738 0.496860
0.501627 0.504884 0.498006
0.501584 0.506030 0.499151
0.504181 0.497924 0.492235
0.504137 0.499070 0.493381
0.504094 0.500216 0.494526
0.504050 0.501361 0.495672
0.504007 0.502507 0.496818
0.503964 0.503653 0.497964
0.503920 0.504798 0.499109
0.503877 0.505944 0.500255
0.503833 0.507090 0.501401
0.506430 0.498984 0.494484
0.506387 0.500130 0.495630
0.506343 0.501276 0.496776
0.506300 0.502421 0.497921
0.506256 0.503567 0.499067
0.506213 0.504713 0.500213
0.506169 0.505858 0.501358
0.506126 0.507004 0.502504
0.506082 0.508150 0.503650
0.508679 0.500044 0.496734
0.508636 0.501190 0.497879
0.508592 0.502336 0.499025
0.508549 0.503481 0.500171
0.508505 0.504627 0.501316
0.508462 0.505773 0.502462
0.508418 0.506918 0.503608
0.508375 0.508064 0.504753
0.508332 0.509210 0.505899
0.510928 0.501104 0.498983
0.510885 0.502250 0.500128
0.510842 0.503396 0.501274
0.510798 0.504541 0.502420
0.510755 0.505687 0.503565
0.510711 0.506833 0.504711
0.510668 0.507979 0.505857
0.510624 0.509124 0.507002
0.510581 0.510270 0.508148
0.513178 0.502165 0.501232
0.513134 0.503310 0.502378
0.513091 0.504456 0.503523
0.513047 0.505602 0.504669
0.513004 0.506747 0.505815
0.512960 0.507893 0.506960
0.512917 0.509039 0.508106
0.512873 0.510184 0.509252
0.512830 0.511330 0.510397
0.495621 0.494121 0.482486
0.495577 0.495267 0.483632
0.495534 0.496412 0.484777
0.495490 0.497558 0.485923
0.495447 0.498704 0.487069
0.495404 0.499849 0.488214
0.495360 0.500995 0.489360
0.495317 0.502141 0.490506
0.495273 0.503286 0.491651
0.497870 0.495181 0.484735
0.497827 0.496327 0.485881
0.497783 0.497472 0.487027
0.497740 0.498618 0.488172
0.497696 0.499764 0.489318
0.497653 0.500909 0.490464
0.497609 0.502055 0.491609
0.497566 0.503201 0.492755
0.497522 0.504346 0.493901
0.500119 0.496241 0.486984
0.500076 0.497387 0.488130
0.500032 0.498532 0.489276
0.499989 0.499678 0.490421
0.499945 0.500824 0.491567
0.499902 0.501969 0.492713
0.499858 0.503115 0.493858
0.499815 0.504261 0.495004
0.499772 0.505406 0.496150
0.502368 0.497301 0.489234
0.502325 0.498447 0.490379
0.502282 0.499592 0.491525
0.502238 0.500738 0.492671
0.502195 0.501884 0.493816
0.502151 0.503029 0.494962
0.502108 0.504175 0.496108
0.502064 0.505321 0.497253
0.502021 0.506466 0.498399
0.504618 0.498361 0.491483
0.504574 0.499507 0.492628
0.504531 0.500652 0.493774
0.504487 0.501798 0.494920
0.504444 0.502944 0.496066
0.504400 0.504089 0.497211
0.504357 0.505235 0.498357
0.504313 0.506381 0.499503
0.504270 0.507527 0.500648
0.506867 0.499421 0.493732
0.506823 0.500567 0.494878
0.506780 0.501713 0.496023
0.506736 0.502858 0.497169
0.506693 0.504004 0.498315
0.506650 0.505150 0.499460
0.506606 0.506295 0.500606
0.506563 0.507441 0.501752
0.506519 0.508587 0.502897
0.509116 0.500481 0.495981
0.509073 0.501627 0.497127
0.509029 0.502773 0.498273
0.508986 0.503918 0.499418
0.508942 0.505064 0.500564
0.508899 0.506210 0.501710
0.508855 0.507355 0.502855
0.508812 0.508501 0.504001
0.508768 0.509647 0.505147
0.511365 0.501541 0.498230
0.511322 0.502687 0.499376
0.511278 0.503833 0.500522
0.511235 0.504978 0.501667
0.511191 0.506124 0.502813
0.511148 0.507270 0.503959
0.511104 0.508415 0.505104
0.511061 0.509561 0.506250
0.511018 0.510707 0.507396
0.513614 0.502601 0.500480
0.513571 0.503747 0.501625
0.513528 0.504893 0.502771
0.513484 0.506038 0.503917
0.513441 0.507184 0.505062
0.513397 0.508330 0.506208
0.513354 0.509475 0.507354
0.513310 0.510621 0.508499
0.513267 0.511767 0.509645
0.496058 0.494558 0.481734
0.496014 0.495703 0.482879
0.495971 0.496849 0.484025
0.495927 0.497995 0.485171
0.495884 0.499140 0.486316
0.495840 0.500286 0.487462
0.495797 0.501432 0.488608
0.495753 0.502577 0.489753
0.495710 0.503723 0.490899
0.498307 0.495618 0.483983
0.498263 0.496763 0.485129
0.498220 0.497909 0.486274
0.498176 0.499055 0.487420
0.498133 0.500200 0.488566
0.498090 0.501346 0.489711
0.498046 0.502492 0.490857
0.498003 0.503637 0.492003
0.497959 0.504783 0.493148
0.500556 0.496678 0.486232
0.500513 0.497823 0.487378
0.500469 0.498969 0.488523
0.500426 0.500115 0.489669
0.500382 0.501261 0.490815
0.500339 0.502406 0.491960
0.500295 0.503552 0.493106
0.500252 0.504698 0.494252
0.500208 0.505843 0.495397
0.502805 0.497738 0.488481
0.502762 0.498884 0.489627
0.502718 0.500029 0.490773
0.502675 0.501175 0.491918
0.502631 0.502321 0.493064
0.502588 0.503466 0.494210
0.502544 0.504612 0.495355
0.502501 0.505758 0.496501
0.502458 0.506903 0.497647
0.505054 0.498798 0.490730
0.505011 0.499944 0.491876
0.504968 0.501089 0.493022
0.504924 0.502235 0.494168
0.504881 0.503381 0.495313
0.504837 0.504526 0.496459
0.504794 0.505672 0.497605
0.504750 0.506818 0.498750
0.504707 0.507963 0.499896
0.507304 0.499858 0.492980
0.507260 0.501004 0.494125
0.507217 0.502149 0.495271
0.507173 0.503295 0.496417
0.507130 0.504441 0.497562
0.507086 0.505586 0.498708
0.507043 0.506732 0.499854
0.506999 0.507878 0.500999
0.506956 0.509023 0.502145
0.509553 0.500918 0.495229
0.509509 0.502064 0.496375
0.509466 0.503209 0.497520
0.509422 0.504355 0.498666
0.509379 0.505501 0.499812
0.509336 0.506646 0.500957
0.509292 0.507792 0.502103
0.509249 0.508938 0.503249
0.509205 0.510083 0.504394
0.511802 0.501978 0.497478
0.511759 0.503124 0.498624
0.511715 0.504269 0.499769
0.511672 0.505415 0.500915
0.511628 0.506561 0.502061
0.511585 0.507706 0.503206
0.511541 0.508852 0.504352
0.511498 0.509998 0.505498
0.511454 0.511143 0.506643
0.514051 0.503038 0.499727
0.514008 0.504184 0.500873
0.513964 0.505329 0.502019
0.513921 0.506475 0.503164
0.513877 0.507621 0.504310
0.513834 0.508767 0.505456
0.513790 0.509912 0.506601
0.513747 0.511058 0.507747
0.513704 0.512204 0.508893
0.496495 0.494995 0.480981
0.496451 0.496140 0.482127
0.496408 0.497286 0.483273
0.496364 0.498432 0.484418
0.496321 0.499577 0.485564
0.496277 0.500723 0.486710
0.496234 0.501869 0.487855
0.496190 0.503014 0.489001
0.496147 0.504160 0.490147
0.498744 0.496055 0.483231
0.498700 0.497200 0.484376
0.498657 0.498346 0.485522
0.498613 0.499492 0.486668
0.498570 0.500637 0.487813
0.498526 0.501783 0.488959
0.498483 0.502929 0.490105
0.498439 0.504074 0.491250
0.498396 0.505220 0.492396
0.500993 0.497115 0.485480
0.500949 0.498260 0.486625
0.500906 0.499406 0.487771
0.500862 0.500552 0.488917
0.500819 0.501697 0.490062
0.500776 0.502843 0.491208
0.500732 0.503989 0.492354
0.500689 0.505134 0.493499
0.500645 0.506280 0.494645
0.503242 0.498175 0.487729
0.503199 0.499320 0.488875
0.503155 0.500466 0.490020
0.503112 0.501612 0.491166
0.503068 0.502757 0.492312
0.503025 0.503903 0.493457
0.502981 0.505049 0.494603
0.502938 0.506194 0.495749
0.502894 0.507340 0.496894
0.505491 0.499235 0.489978
0.505448 0.500380 0.491124
0.505404 0.501526 0.492269
0.505361 0.502672 0.493415
0.505317 0.503817 0.494561
0.505274 0.504963 0.495707
0.505230 0.506109 0.496852
0.505187 0.507254 0.497998
0.505144 0.508400 0.499144
0.507741 0.500295 0.492227
0.507697 0.501440 0.493373
0.507654 0.502586 0.494519
0.507610 0.503732 0.495664
0.507567 0.504877 0.496810
0.507523 0.506023 0.497956
0.507480 0.507169 0.499101
0.507436 0.508315 0.500247
0.507393 0.509460 0.501393
0.509990 0.501355 0.494477
0.509946 0.502501 0.495622
0.509903 0.503646 0.496768
0.509859 0.504792 0.497914
0.509816 0.505938 0.499059
0.509772 0.507083 0.500205
0.509729 0.508229 0.501351
0.509685 0.509375 0.502496
0.509642 0.510520 0.503642
0.512239 0.502415 0.496726
0.512195 0.503561 0.497871
0.512152 0.504706 0.499017
0.512109 0.505852 0.500163
0.512065 0.506998 0.501308
0.512022 0.508143 0.502454
0.511978 0.509289 0.503600
0.511935 0.510435 0.504745
0.511891 0.511580 0.505891
0.514488 0.503475 0.498975
0.514445 0.504621 0.500121
0.514401 0.505766 0.501266
0.514358 0.506912 0.502412
0.514314 0.508058 0.503558
0.514271 0.509203 0.504703
0.514227 0.510349 0.505849
0.514184 0.511495 0.506995
0.514140 0.512640 0.508140
