shared/src/main/assets/luts/film_pastel_mendl.cube
TITLE "DALUR Pastel Mendl"
LUT_3D_SIZE 5
DOMAIN_MIN 0.0 0.0 0.0
DOMAIN_MAX 1.0 1.0 1.0
0.524800 0.515000 0.515200
0.521170 0.511913 0.512113
0.517540 0.508826 0.509026
0.513909 0.505739 0.505939
0.510279 0.502653 0.502853
0.518740 0.508396 0.509140
0.515110 0.505310 0.506053
0.511479 0.502223 0.502966
0.507849 0.499136 0.499879
0.504219 0.496049 0.496792
0.512680 0.501793 0.503080
0.509049 0.498706 0.499993
0.505419 0.495619 0.496906
0.501789 0.492532 0.493819
0.498159 0.489445 0.490732
0.506619 0.495189 0.497019
0.502989 0.492102 0.493933
0.499359 0.489016 0.490846
0.495729 0.485929 0.487759
0.492099 0.482842 0.484672
0.500559 0.488586 0.490959
0.496929 0.485499 0.487872
0.493299 0.482412 0.484786
0.489669 0.479325 0.481699
0.486038 0.476238 0.478612
0.523623 0.513823 0.513480
0.519993 0.510736 0.510393
0.516363 0.507649 0.507306
0.512732 0.504562 0.504219
0.509102 0.501476 0.501132
0.517563 0.507220 0.507420
0.513933 0.504133 0.504333
0.510302 0.501046 0.501246
0.506672 0.497959 0.498159
0.503042 0.494872 0.495072
0.511503 0.500616 0.501359
0.507872 0.497529 0.498272
0.504242 0.494442 0.495186
0.500612 0.491355 0.492099
0.496982 0.488268 0.489012
0.505443 0.494012 0.495299
0.501812 0.490926 0.492212
0.498182 0.487839 0.489125
0.494552 0.484752 0.486039
0.490922 0.481665 0.482952
0.499382 0.487409 0.489239
0.495752 0.484322 0.486152
0.492122 0.481235 0.483065
0.488492 0.478148 0.479978
0.484861 0.475061 0.476892
0.522446 0.512646 0.511759
0.518816 0.509559 0.508673
0.515186 0.506472 0.505586
0.511555 0.503386 0.502499
0.507925 0.500299 0.499412
0.516386 0.506043 0.505699
0.512756 0.502956 0.502612
0.509125 0.499869 0.499525
0.505495 0.496782 0.496439
0.501865 0.493695 0.493352
0.510326 0.499439 0.499639
0.506696 0.496352 0.496552
0.503065 0.493265 0.493465
0.499435 0.490178 0.490378
0.495805 0.487092 0.487292
0.504266 0.492835 0.493579
0.500635 0.489749 0.490492
0.497005 0.486662 0.487405
0.493375 0.483575 0.484318
0.489745 0.480488 0.481231
0.498205 0.486232 0.487519
0.494575 0.483145 0.484432
0.490945 0.480058 0.481345
0.487315 0.476971 0.478258
0.483684 0.473884 0.475171
0.521269 0.511469 0.510039
0.517639 0.508382 0.506952
0.514009 0.505295 0.503865
0.510378 0.502209 0.500778
0.506748 0.499122 0.497692
0.515209 0.504866 0.503979
0.511579 0.501779 0.500892
0.507949 0.498692 0.497805
0.504318 0.495605 0.494718
0.500688 0.492518 0.491631
0.509149 0.498262 0.497919
0.505519 0.495175 0.494832
0.501888 0.492088 0.491745
0.498258 0.489001 0.488658
0.494628 0.485915 0.485571
0.503089 0.491659 0.491859
0.499458 0.488572 0.488772
0.495828 0.485485 0.485685
0.492198 0.482398 0.482598
0.488568 0.479311 0.479511
0.497028 0.485055 0.485798
0.493398 0.481968 0.482712
0.489768 0.478881 0.479625
0.486138 0.475794 0.476538
0.482508 0.472708 0.473451
0.520092 0.510292 0.508319
0.516462 0.507205 0.505232
0.512832 0.504119 0.502145
0.509202 0.501032 0.499058
0.505571 0.497945 0.495971
0.514032 0.503689 0.502259
0.510402 0.500602 0.499172
0.506772 0.497515 0.496085
0.503141 0.494428 0.492998
0.499511 0.491341 0.489911
0.507972 0.497085 0.496198
0.504342 0.493998 0.493112
0.500711 0.490911 0.490025
0.497081 0.487825 0.486938
0.493451 0.484738 0.483851
0.501912 0.490482 0.490138
0.498281 0.487395 0.487051
0.494651 0.484308 0.483965
0.491021 0.481221 0.480878
0.487391 0.478134 0.477791
0.495852 0.483878 0.484078
0.492221 0.480791 0.480991
0.488591 0.477704 0.477904
0.484961 0.474617 0.474817
0.481331 0.471531 0.471731
