shared/src/main/assets/luts/film_toxic_gotham.cube
TITLE "DALUR Toxic Gotham"
LUT_3D_SIZE 9
DOMAIN_MIN 0.0 0.0 0.0
DOMAIN_MAX 1.0 1.0 1.0
0.407000 0.416000 0.413000
0.415784 0.421524 0.418524
0.424567 0.427047 0.424047
0.433351 0.432571 0.429571
0.442134 0.438094 0.435094
0.450918 0.443618 0.440618
0.459702 0.449142 0.446142
0.468485 0.454665 0.451665
0.477269 0.460189 0.457189
0.417844 0.430104 0.423844
0.426628 0.435628 0.429368
0.435411 0.441151 0.434891
0.444195 0.446675 0.440415
0.452978 0.452198 0.445938
0.461762 0.457722 0.451462
0.470546 0.463246 0.456985
0.479329 0.468769 0.462509
0.488113 0.474293 0.468033
0.428688 0.444208 0.434688
0.437472 0.449732 0.440212
0.446255 0.455255 0.445735
0.455039 0.460779 0.451259
0.463822 0.466302 0.456782
0.472606 0.471826 0.462306
0.481390 0.477350 0.467829
0.490173 0.482873 0.473353
0.498957 0.488397 0.478877
0.439532 0.458312 0.445532
0.448316 0.463836 0.451055
0.457099 0.469359 0.456579
0.465883 0.474883 0.462103
0.474666 0.480406 0.467626
0.483450 0.485930 0.473150
0.492234 0.491454 0.478673
0.501017 0.496977 0.484197
0.509801 0.502501 0.489721
0.450376 0.472416 0.456376
0.459159 0.477940 0.461899
0.467943 0.483463 0.467423
0.476727 0.488987 0.472947
0.485510 0.494510 0.478470
0.494294 0.500034 0.483994
0.503078 0.505558 0.489517
0.511861 0.511081 0.495041
0.520645 0.516605 0.500565
0.461220 0.486520 0.467220
0.470003 0.492044 0.472743
0.478787 0.497567 0.478267
0.487571 0.503091 0.483791
0.496354 0.508614 0.489314
0.505138 0.514138 0.494838
0.513922 0.519662 0.500361
0.522705 0.525185 0.505885
0.531489 0.530709 0.511409
0.472064 0.500624 0.478064
0.480847 0.506148 0.483587
0.489631 0.511671 0.489111
0.498415 0.517195 0.494635
0.507198 0.522718 0.500158
0.515982 0.528242 0.505682
0.524766 0.533766 0.511205
0.533549 0.539289 0.516729
0.542333 0.544813 0.522252
0.482908 0.514728 0.488908
0.491691 0.520252 0.494431
0.500475 0.525775 0.499955
0.509259 0.531299 0.505479
0.518042 0.536822 0.511002
0.526826 0.542346 0.516526
0.535609 0.547870 0.522049
0.544393 0.553393 0.527573
0.553177 0.558917 0.533096
0.493752 0.528832 0.499752
0.502535 0.534356 0.505275
0.511319 0.539879 0.510799
0.520103 0.545403 0.516322
0.528886 0.550926 0.521846
0.537670 0.556450 0.527370
0.546453 0.561974 0.532893
0.555237 0.567497 0.538417
0.564021 0.573021 0.543940
0.409106 0.418106 0.418366
0.417890 0.423630 0.423890
0.426673 0.429153 0.429413
0.435457 0.434677 0.434937
0.444240 0.440200 0.440460
0.453024 0.445724 0.445984
0.461808 0.451247 0.451508
0.470591 0.456771 0.457031
0.479375 0.462295 0.462555
0.419950 0.432210 0.429210
0.428734 0.437734 0.434734
0.437517 0.443257 0.440257
0.446301 0.448781 0.445781
0.455084 0.454304 0.451304
0.463868 0.459828 0.456828
0.472652 0.465351 0.462351
0.481435 0.470875 0.467875
0.490219 0.476399 0.473399
0.430794 0.446314 0.440054
0.439578 0.451838 0.445578
0.448361 0.457361 0.451101
0.457145 0.462885 0.456625
0.465928 0.468408 0.462148
0.474712 0.473932 0.467672
0.483496 0.479455 0.473195
0.492279 0.484979 0.478719
0.501063 0.490503 0.484243
0.441638 0.460418 0.450898
0.450421 0.465942 0.456421
0.459205 0.471465 0.461945
0.467989 0.476989 0.467469
0.476772 0.482512 0.472992
0.485556 0.488036 0.478516
0.494340 0.493559 0.484039
0.503123 0.499083 0.489563
0.511907 0.504607 0.495087
0.452482 0.474522 0.461742
0.461265 0.480046 0.467265
0.470049 0.485569 0.472789
0.478833 0.491093 0.478313
0.487616 0.496616 0.483836
0.496400 0.502140 0.489360
0.505184 0.507663 0.494883
0.513967 0.513187 0.500407
0.522751 0.518711 0.505931
0.463326 0.488626 0.472586
0.472109 0.494150 0.478109
0.480893 0.499673 0.483633
0.489677 0.505197 0.489157
0.498460 0.510720 0.494680
0.507244 0.516244 0.500204
0.516028 0.521767 0.505727
0.524811 0.527291 0.511251
0.533595 0.532815 0.516775
0.474170 0.502730 0.483430
0.482953 0.508254 0.488953
0.491737 0.513777 0.494477
0.500521 0.519301 0.500001
0.509304 0.524824 0.505524
0.518088 0.530348 0.511048
0.526871 0.535871 0.516571
0.535655 0.541395 0.522095
0.544439 0.546919 0.527618
0.485014 0.516834 0.494274
0.493797 0.522358 0.499797
0.502581 0.527881 0.505321
0.511365 0.533405 0.510845
0.520148 0.538928 0.516368
0.528932 0.544452 0.521892
0.537715 0.549975 0.527415
0.546499 0.555499 0.532939
0.555283 0.561023 0.538462
0.495858 0.530938 0.505118
0.504641 0.536462 0.510641
0.513425 0.541985 0.516165
0.522209 0.547509 0.521688
0.530992 0.553032 0.527212
0.539776 0.558556 0.532736
0.548559 0.564079 0.538259
0.557343 0.569603 0.543783
0.566127 0.575127 0.549306
0.411212 0.420212 0.423732
0.419996 0.425736 0.429256
0.428779 0.431259 0.434779
0.437563 0.436783 0.440303
0.446346 0.442306 0.445826
0.455130 0.447830 0.451350
0.463914 0.453353 0.456874
0.472697 0.458877 0.462397
0.481481 0.464401 0.467921
0.422056 0.434316 0.434576
0.430840 0.439840 0.440100
0.439623 0.445363 0.445623
0.448407 0.450887 0.451147
0.457190 0.456410 0.456670
0.465974 0.461934 0.462194
0.474758 0.467457 0.467718
0.483541 0.472981 0.473241
0.492325 0.478505 0.478765
0.432900 0.448420 0.445420
0.441684 0.453944 0.450944
0.450467 0.459467 0.456467
0.459251 0.464991 0.461991
0.468034 0.470514 0.467514
0.476818 0.476038 0.473038
0.485602 0.481561 0.478561
0.494385 0.487085 0.484085
0.503169 0.492609 0.489609
0.443744 0.462524 0.456264
0.452527 0.468048 0.461788
0.461311 0.473571 0.467311
0.470095 0.479095 0.472835
0.478878 0.484618 0.478358
0.487662 0.490142 0.483882
0.496446 0.495665 0.489405
0.505229 0.501189 0.494929
0.514013 0.506713 0.500453
0.454588 0.476628 0.467108
0.463371 0.482152 0.472631
0.472155 0.487675 0.478155
0.480939 0.493199 0.483679
0.489722 0.498722 0.489202
0.498506 0.504246 0.494726
0.507290 0.509769 0.500249
0.516073 0.515293 0.505773
0.524857 0.520817 0.511297
0.465432 0.490732 0.477952
0.474215 0.496256 0.483475
0.482999 0.501779 0.488999
0.491783 0.507303 0.494523
0.500566 0.512826 0.500046
0.509350 0.518350 0.505570
0.518134 0.523873 0.511093
0.526917 0.529397 0.516617
0.535701 0.534921 0.522141
0.476276 0.504836 0.488796
0.485059 0.510360 0.494319
0.493843 0.515883 0.499843
0.502627 0.521407 0.505367
0.511410 0.526930 0.510890
0.520194 0.532454 0.516414
0.528977 0.537977 0.521937
0.537761 0.543501 0.527461
0.546545 0.549025 0.532985
0.487120 0.518940 0.499640
0.495903 0.524464 0.505163
0.504687 0.529987 0.510687
0.513471 0.535511 0.516211
0.522254 0.541034 0.521734
0.531038 0.546558 0.527258
0.539821 0.552081 0.532781
0.548605 0.557605 0.538305
0.557389 0.563129 0.543828
0.497964 0.533044 0.510484
0.506747 0.538568 0.516007
0.515531 0.544091 0.521531
0.524315 0.549615 0.527055
0.533098 0.555138 0.532578
0.541882 0.560662 0.538102
0.550665 0.566185 0.543625
0.559449 0.571709 0.549149
0.568233 0.577233 0.554672
0.413318 0.422318 0.429098
0.422102 0.427842 0.434622
0.430885 0.433365 0.440145
0.439669 0.438889 0.445669
0.448452 0.444412 0.451192
0.457236 0.449936 0.456716
0.466020 0.455459 0.462240
0.474803 0.460983 0.467763
0.483587 0.466507 0.473287
0.424162 0.436422 0.439942
0.432946 0.441946 0.445466
0.441729 0.447469 0.450989
0.450513 0.452993 0.456513
0.459296 0.458516 0.462036
0.468080 0.464040 0.467560
0.476864 0.469563 0.473084
0.485647 0.475087 0.478607
0.494431 0.480611 0.484131
0.435006 0.450526 0.450786
0.443789 0.456050 0.456310
0.452573 0.461573 0.461833
0.461357 0.467097 0.467357
0.470140 0.472620 0.472880
0.478924 0.478144 0.478404
0.487708 0.483667 0.483927
0.496491 0.489191 0.489451
0.505275 0.494715 0.494975
0.445850 0.464630 0.461630
0.454633 0.470154 0.467154
0.463417 0.475677 0.472677
0.472201 0.481201 0.478201
0.480984 0.486724 0.483724
0.489768 0.492248 0.489248
0.498552 0.497771 0.494771
0.507335 0.503295 0.500295
0.516119 0.508819 0.505819
0.456694 0.478734 0.472474
0.465477 0.484258 0.477997
0.474261 0.489781 0.483521
0.483045 0.495305 0.489045
0.491828 0.500828 0.494568
0.500612 0.506352 0.500092
0.509396 0.511875 0.505615
0.518179 0.517399 0.511139
0.526963 0.522923 0.516663
0.467538 0.492838 0.483318
0.476321 0.498362 0.488841
0.485105 0.503885 0.494365
0.493889 0.509409 0.499889
0.502672 0.514932 0.505412
0.511456 0.520456 0.510936
0.520239 0.525979 0.516459
0.529023 0.531503 0.521983
0.537807 0.537027 0.527507
0.478382 0.506942 0.494162
0.487165 0.512466 0.499685
0.495949 0.517989 0.505209
0.504733 0.523513 0.510733
0.513516 0.529036 0.516256
0.522300 0.534560 0.521780
0.531083 0.540083 0.527303
0.539867 0.545607 0.532827
0.548651 0.551131 0.538351
0.489226 0.521046 0.505006
0.498009 0.526570 0.510529
0.506793 0.532093 0.516053
0.515577 0.537617 0.521577
0.524360 0.543140 0.527100
0.533144 0.548664 0.532624
0.541927 0.554187 0.538147
0.550711 0.559711 0.543671
0.559495 0.565235 0.549194
0.500070 0.535150 0.515850
0.508853 0.540674 0.521373
0.517637 0.546197 0.526897
0.526421 0.551721 0.532421
0.535204 0.557244 0.537944
0.543988 0.562768 0.543468
0.552771 0.568291 0.548991
0.561555 0.573815 0.554515
0.570339 0.579339 0.560038
0.415424 0.424424 0.434464
0.424208 0.429948 0.439988
0.432991 0.435471 0.445511
0.441775 0.440995 0.451035
0.450558 0.446518 0.456558
0.459342 0.452042 0.462082
0.468126 0.457565 0.467606
0.476909 0.463089 0.473129
0.485693 0.468613 0.478653
0.426268 0.438528 0.445308
0.435052 0.444052 0.450832
0.443835 0.449575 0.456355
0.452619 0.455099 0.461879
0.461402 0.460622 0.467402
0.470186 0.466146 0.472926
0.478970 0.471669 0.478450
0.487753 0.477193 0.483973
0.496537 0.482717 0.489497
0.437112 0.452632 0.456152
0.445895 0.458156 0.461676
0.454679 0.463679 0.467199
0.463463 0.469203 0.472723
0.472246 0.474726 0.478246
0.481030 0.480250 0.483770
0.489814 0.485773 0.489294
0.498597 0.491297 0.494817
0.507381 0.496821 0.500341
0.447956 0.466736 0.466996
0.456739 0.472260 0.472520
0.465523 0.477783 0.478043
0.474307 0.483307 0.483567
0.483090 0.488830 0.489090
0.491874 0.494354 0.494614
0.500658 0.499877 0.500137
0.509441 0.505401 0.505661
0.518225 0.510925 0.511185
0.458800 0.480840 0.477840
0.467583 0.486364 0.483364
0.476367 0.491887 0.488887
0.485151 0.497411 0.494411
0.493934 0.502934 0.499934
0.502718 0.508458 0.505458
0.511502 0.513981 0.510981
0.520285 0.519505 0.516505
0.529069 0.525029 0.522029
0.469644 0.494944 0.488684
0.478427 0.500468 0.494207
0.487211 0.505991 0.499731
0.495995 0.511515 0.505255
0.504778 0.517038 0.510778
0.513562 0.522562 0.516302
0.522345 0.528085 0.521825
0.531129 0.533609 0.527349
0.539913 0.539133 0.532873
0.480488 0.509048 0.499528
0.489271 0.514572 0.505051
0.498055 0.520095 0.510575
0.506839 0.525619 0.516099
0.515622 0.531142 0.521622
0.524406 0.536666 0.527146
0.533189 0.542189 0.532669
0.541973 0.547713 0.538193
0.550757 0.553237 0.543717
0.491332 0.523152 0.510372
0.500115 0.528676 0.515895
0.508899 0.534199 0.521419
0.517683 0.539723 0.526943
0.526466 0.545246 0.532466
0.535250 0.550770 0.537990
0.544033 0.556293 0.543513
0.552817 0.561817 0.549037
0.561601 0.567341 0.554561
0.502176 0.537256 0.521216
0.510959 0.542780 0.526739
0.519743 0.548303 0.532263
0.528527 0.553827 0.537787
0.537310 0.559350 0.543310
0.546094 0.564874 0.548834
0.554877 0.570397 0.554357
0.563661 0.575921 0.559881
0.572445 0.581445 0.565404
0.417530 0.426530 0.439830
0.426314 0.432053 0.445354
0.435097 0.437577 0.450877
0.443881 0.443101 0.456401
0.452664 0.448624 0.461924
0.461448 0.454148 0.467448
0.470232 0.459671 0.472972
0.479015 0.465195 0.478495
0.487799 0.470719 0.484019
0.428374 0.440634 0.450674
0.437157 0.446157 0.456198
0.445941 0.451681 0.461721
0.454725 0.457205 0.467245
0.463508 0.462728 0.472768
0.472292 0.468252 0.478292
0.481076 0.473775 0.483816
0.489859 0.479299 0.489339
0.498643 0.484823 0.494863
0.439218 0.454738 0.461518
0.448001 0.460261 0.467042
0.456785 0.465785 0.472565
0.465569 0.471309 0.478089
0.474352 0.476832 0.483612
0.483136 0.482356 0.489136
0.491920 0.487879 0.494660
0.500703 0.493403 0.500183
0.509487 0.498927 0.505707
0.450062 0.468842 0.472362
0.458845 0.474365 0.477886
0.467629 0.479889 0.483409
0.476413 0.485413 0.488933
0.485196 0.490936 0.494456
0.493980 0.496460 0.499980
0.502764 0.501983 0.505503
0.511547 0.507507 0.511027
0.520331 0.513031 0.516551
0.460906 0.482946 0.483206
0.469689 0.488469 0.488730
0.478473 0.493993 0.494253
0.487257 0.499517 0.499777
0.496040 0.505040 0.505300
0.504824 0.510564 0.510824
0.513607 0.516087 0.516347
0.522391 0.521611 0.521871
0.531175 0.527135 0.527395
0.471750 0.497050 0.494050
0.480533 0.502573 0.499573
0.489317 0.508097 0.505097
0.498101 0.513621 0.510621
0.506884 0.519144 0.516144
0.515668 0.524668 0.521668
0.524451 0.530191 0.527191
0.533235 0.535715 0.532715
0.542019 0.541239 0.538239
0.482594 0.511154 0.504894
0.491377 0.516677 0.510417
0.500161 0.522201 0.515941
0.508945 0.527725 0.521465
0.517728 0.533248 0.526988
0.526512 0.538772 0.532512
0.535295 0.544295 0.538035
0.544079 0.549819 0.543559
0.552863 0.555343 0.549083
0.493438 0.525258 0.515738
0.502221 0.530781 0.521261
0.511005 0.536305 0.526785
0.519789 0.541829 0.532309
0.528572 0.547352 0.537832
0.537356 0.552876 0.543356
0.546139 0.558399 0.548879
0.554923 0.563923 0.554403
0.563707 0.569447 0.559927
0.504282 0.539362 0.526582
0.513065 0.544885 0.532105
0.521849 0.550409 0.537629
0.530632 0.555933 0.543153
0.539416 0.561456 0.548676
0.548200 0.566980 0.554200
0.556983 0.572503 0.559723
0.565767 0.578027 0.565247
0.574551 0.583551 0.570770
0.419636 0.428636 0.445196
0.428420 0.434159 0.450720
0.437203 0.439683 0.456243
0.445987 0.445207 0.461767
0.454770 0.450730 0.467290
0.463554 0.456254 0.472814
0.472338 0.461777 0.478338
0.481121 0.467301 0.483861
0.489905 0.472825 0.489385
0.430480 0.442740 0.456040
0.439263 0.448263 0.461564
0.448047 0.453787 0.467087
0.456831 0.459311 0.472611
0.465614 0.464834 0.478134
0.474398 0.470358 0.483658
0.483182 0.475881 0.489182
0.491965 0.481405 0.494705
0.500749 0.486929 0.500229
0.441324 0.456844 0.466884
0.450107 0.462367 0.472408
0.458891 0.467891 0.477931
0.467675 0.473415 0.483455
0.476458 0.478938 0.488978
0.485242 0.484462 0.494502
0.494026 0.489985 0.500026
0.502809 0.495509 0.505549
0.511593 0.501033 0.511073
0.452168 0.470948 0.477728
0.460951 0.476471 0.483252
0.469735 0.481995 0.488775
0.478519 0.487519 0.494299
0.487302 0.493042 0.499822
0.496086 0.498566 0.505346
0.504870 0.504089 0.510870
0.513653 0.509613 0.516393
0.522437 0.515137 0.521917
0.463012 0.485052 0.488572
0.471795 0.490575 0.494096
0.480579 0.496099 0.499619
0.489363 0.501623 0.505143
0.498146 0.507146 0.510666
0.506930 0.512670 0.516190
0.515713 0.518193 0.521713
0.524497 0.523717 0.527237
0.533281 0.529241 0.532761
0.473856 0.499156 0.499416
0.482639 0.504679 0.504940
0.491423 0.510203 0.510463
0.500207 0.515727 0.515987
0.508990 0.521250 0.521510
0.517774 0.526774 0.527034
0.526557 0.532297 0.532557
0.535341 0.537821 0.538081
0.544125 0.543345 0.543605
0.484700 0.513260 0.510260
0.493483 0.518783 0.515783
0.502267 0.524307 0.521307
0.511051 0.529831 0.526831
0.519834 0.535354 0.532354
0.528618 0.540878 0.537878
0.537401 0.546401 0.543401
0.546185 0.551925 0.548925
0.554969 0.557449 0.554449
0.495544 0.527364 0.521104
0.504327 0.532887 0.526627
0.513111 0.538411 0.532151
0.521895 0.543935 0.537675
0.530678 0.549458 0.543198
0.539462 0.554982 0.548722
0.548245 0.560505 0.554245
0.557029 0.566029 0.559769
0.565813 0.571553 0.565293
0.506388 0.541468 0.531948
0.515171 0.546991 0.537471
0.523955 0.552515 0.542995
0.532738 0.558039 0.548519
0.541522 0.563562 0.554042
0.550306 0.569086 0.559566
0.559089 0.574609 0.565089
0.567873 0.580133 0.570613
0.576657 0.585657 0.576137
0.421742 0.430742 0.450562
0.430526 0.436265 0.456086
0.439309 0.441789 0.461609
0.448093 0.447313 0.467133
0.456876 0.452836 0.472656
0.465660 0.458360 0.478180
0.474444 0.463883 0.483704
0.483227 0.469407 0.489227
0.492011 0.474931 0.494751
0.432586 0.444846 0.461406
0.441369 0.450369 0.466930
0.450153 0.455893 0.472453
0.458937 0.461417 0.477977
0.467720 0.466940 0.483500
0.476504 0.472464 0.489024
0.485288 0.477987 0.494548
0.494071 0.483511 0.500071
0.502855 0.489035 0.505595
0.443430 0.458950 0.472250
0.452213 0.464473 0.477774
0.460997 0.469997 0.483297
0.469781 0.475521 0.488821
0.478564 0.481044 0.494344
0.487348 0.486568 0.499868
0.496132 0.492091 0.505392
0.504915 0.497615 0.510915
0.513699 0.503139 0.516439
0.454274 0.473054 0.483094
0.463057 0.478577 0.488618
0.471841 0.484101 0.494141
0.480625 0.489625 0.499665
0.489408 0.495148 0.505188
0.498192 0.500672 0.510712
0.506975 0.506195 0.516236
0.515759 0.511719 0.521759
0.524543 0.517243 0.527283
0.465118 0.487158 0.493938
0.473901 0.492681 0.499462
0.482685 0.498205 0.504985
0.491469 0.503729 0.510509
0.500252 0.509252 0.516032
0.509036 0.514776 0.521556
0.517819 0.520299 0.527079
0.526603 0.525823 0.532603
0.535387 0.531347 0.538127
0.475962 0.501262 0.504782
0.484745 0.506785 0.510306
0.493529 0.512309 0.515829
0.502313 0.517833 0.521353
0.511096 0.523356 0.526876
0.519880 0.528880 0.532400
0.528663 0.534403 0.537923
0.537447 0.539927 0.543447
0.546231 0.545451 0.548971
0.486806 0.515366 0.515626
0.495589 0.520889 0.521149
0.504373 0.526413 0.526673
0.513157 0.531937 0.532197
0.521940 0.537460 0.537720
0.530724 0.542984 0.543244
0.539507 0.548507 0.548767
0.548291 0.554031 0.554291
0.557075 0.559555 0.559815
0.497650 0.529470 0.526470
0.506433 0.534993 0.531993
0.515217 0.540517 0.537517
0.524000 0.546041 0.543041
0.532784 0.551564 0.548564
0.541568 0.557088 0.554088
0.550351 0.562611 0.559611
0.559135 0.568135 0.565135
0.567919 0.573659 0.570659
0.508494 0.543574 0.537314
0.517277 0.549097 0.542837
0.526061 0.554621 0.548361
0.534844 0.560145 0.553885
0.543628 0.565668 0.559408
0.552412 0.571192 0.564932
0.561195 0.576715 0.570455
0.569979 0.582239 0.575979
0.578763 0.587763 0.581503
0.423848 0.432848 0.455928
0.432631 0.438371 0.461452
0.441415 0.443895 0.466975
0.450199 0.449419 0.472499
0.458982 0.454942 0.478022
0.467766 0.460466 0.483546
0.476550 0.465989 0.489070
0.485333 0.471513 0.494593
0.494117 0.477037 0.500117
0.434692 0.446952 0.466772
0.443475 0.452475 0.472296
0.452259 0.457999 0.477819
0.461043 0.463523 0.483343
0.469826 0.469046 0.488866
0.478610 0.474570 0.494390
0.487394 0.480093 0.499914
0.496177 0.485617 0.505437
0.504961 0.491141 0.510961
0.445536 0.461056 0.477616
0.454319 0.466579 0.483140
0.463103 0.472103 0.488663
0.471887 0.477627 0.494187
0.480670 0.483150 0.499710
0.489454 0.488674 0.505234
0.498238 0.494197 0.510758
0.507021 0.499721 0.516281
0.515805 0.505245 0.521805
0.456380 0.475160 0.488460
0.465163 0.480683 0.493984
0.473947 0.486207 0.499507
0.482731 0.491731 0.505031
0.491514 0.497254 0.510554
0.500298 0.502778 0.516078
0.509081 0.508301 0.521602
0.517865 0.513825 0.527125
0.526649 0.519349 0.532649
0.467224 0.489264 0.499304
0.476007 0.494787 0.504828
0.484791 0.500311 0.510351
0.493575 0.505835 0.515875
0.502358 0.511358 0.521398
0.511142 0.516882 0.526922
0.519925 0.522405 0.532446
0.528709 0.527929 0.537969
0.537493 0.533453 0.543493
0.478068 0.503368 0.510148
0.486851 0.508891 0.515672
0.495635 0.514415 0.521195
0.504419 0.519939 0.526719
0.513202 0.525462 0.532242
0.521986 0.530986 0.537766
0.530769 0.536509 0.543289
0.539553 0.542033 0.548813
0.548337 0.547557 0.554337
0.488912 0.517472 0.520992
0.497695 0.522995 0.526516
0.506479 0.528519 0.532039
0.515263 0.534043 0.537563
0.524046 0.539566 0.543086
0.532830 0.545090 0.548610
0.541613 0.550613 0.554133
0.550397 0.556137 0.559657
0.559181 0.561661 0.565181
0.499756 0.531576 0.531836
0.508539 0.537099 0.537359
0.517323 0.542623 0.542883
0.526106 0.548147 0.548407
0.534890 0.553670 0.553930
0.543674 0.559194 0.559454
0.552457 0.564717 0.564977
0.561241 0.570241 0.570501
0.570025 0.575765 0.576025
0.510600 0.545680 0.542680
0.519383 0.551203 0.548203
0.528167 0.556727 0.553727
0.536950 0.562251 0.559251
0.545734 0.567774 0.564774
0.554518 0.573298 0.570298
0.563301 0.578821 0.575821
0.572085 0.584345 0.581345
0.580869 0.589869 0.586869
