shared/src/main/assets/luts/film_retro_neon.cube
TITLE "DALUR Retro Neon"
LUT_3D_SIZE 5
DOMAIN_MIN 0.0 0.0 0.0
DOMAIN_MAX 1.0 1.0 1.0
0.434000 0.443000 0.446000
0.444696 0.450798 0.453798
0.455392 0.458596 0.461596
0.466087 0.466394 0.469394
0.476783 0.474192 0.477192
0.449309 0.461207 0.461309
0.460005 0.469005 0.469107
0.470701 0.476803 0.476905
0.481397 0.484601 0.484703
0.492092 0.492399 0.492501
0.464618 0.479414 0.476618
0.475314 0.487212 0.484416
0.486010 0.495010 0.492214
0.496706 0.502808 0.500012
0.507402 0.510606 0.507810
0.479927 0.497621 0.491927
0.490623 0.505419 0.499725
0.501319 0.513217 0.507523
0.512015 0.521015 0.515321
0.522711 0.528813 0.523119
0.495236 0.515828 0.507236
0.505932 0.523626 0.515035
0.516628 0.531424 0.522833
0.527324 0.539222 0.530631
0.538020 0.547020 0.538429
0.436973 0.445973 0.451871
0.447669 0.453771 0.459669
0.458365 0.461569 0.467467
0.469061 0.469367 0.475265
0.479756 0.477165 0.483063
0.452282 0.464180 0.467180
0.462978 0.471978 0.474978
0.473674 0.479776 0.482776
0.484370 0.487574 0.490574
0.495066 0.495372 0.498372
0.467591 0.482387 0.482489
0.478287 0.490185 0.490287
0.488983 0.497983 0.498085
0.499679 0.505781 0.505883
0.510375 0.513579 0.513681
0.482901 0.500594 0.497798
0.493596 0.508392 0.505596
0.504292 0.516190 0.513394
0.514988 0.523988 0.521192
0.525684 0.531786 0.528990
0.498210 0.518801 0.513107
0.508905 0.526599 0.520905
0.519601 0.534397 0.528703
0.530297 0.542195 0.536501
0.540993 0.549993 0.544299
0.439946 0.448946 0.457742
0.450642 0.456744 0.465540
0.461338 0.464542 0.473338
0.472034 0.472340 0.481136
0.482730 0.480138 0.488934
0.455255 0.467153 0.473051
0.465951 0.474951 0.480849
0.476647 0.482749 0.488647
0.487343 0.490547 0.496445
0.498039 0.498345 0.504243
0.470565 0.485360 0.488360
0.481260 0.493158 0.496158
0.491956 0.500956 0.503956
0.502652 0.508754 0.511754
0.513348 0.516552 0.519552
0.485874 0.503567 0.503669
0.496569 0.511365 0.511467
0.507265 0.519163 0.519265
0.517961 0.526961 0.527063
0.528657 0.534759 0.534861
0.501183 0.521774 0.518978
0.511879 0.529572 0.526776
0.522574 0.537370 0.534574
0.533270 0.545168 0.542372
0.543966 0.552966 0.550170
0.442919 0.451919 0.463613
0.453615 0.459717 0.471411
0.464311 0.467515 0.479209
0.475007 0.475313 0.487007
0.485703 0.483111 0.494805
0.458229 0.470126 0.478922
0.468924 0.477924 0.486720
0.479620 0.485722 0.494518
0.490316 0.493520 0.502316
0.501012 0.501318 0.510114
0.473538 0.488333 0.494231
0.484234 0.496131 0.502029
0.494929 0.503929 0.509827
0.505625 0.511727 0.517625
0.516321 0.519525 0.525423
0.488847 0.506540 0.509540
0.499543 0.514338 0.517338
0.510238 0.522136 0.525136
0.520934 0.529934 0.532934
0.531630 0.537732 0.540732
0.504156 0.524747 0.524849
0.514852 0.532545 0.532647
0.525548 0.540343 0.540445
0.536243 0.548141 0.548243
0.546939 0.555939 0.556041
0.445893 0.454893 0.469484
0.456588 0.462691 0.477282
0.467284 0.470489 0.485080
0.477980 0.478287 0.492878
0.488676 0.486085 0.500676
0.461202 0.473100 0.484793
0.471898 0.480898 0.492591
0.482593 0.488696 0.500389
0.493289 0.496494 0.508187
0.503985 0.504292 0.515985
0.476511 0.491306 0.500102
0.487207 0.499104 0.507900
0.497902 0.506902 0.515698
0.508598 0.514700 0.523496
0.519294 0.522498 0.531294
0.491820 0.509513 0.515411
0.502516 0.517311 0.523209
0.513212 0.525109 0.531007
0.523907 0.532907 0.538805
0.534603 0.540705 0.546603
0.507129 0.527720 0.530720
0.517825 0.535518 0.538518
0.528521 0.543316 0.546316
0.539217 0.551114 0.554114
0.549912 0.558912 0.561912
