shared/src/main/assets/luts/film_soft_coral.cube
TITLE "DALUR Soft Coral"
LUT_3D_SIZE 5
DOMAIN_MIN 0.0 0.0 0.0
DOMAIN_MAX 1.0 1.0 1.0
0.522000 0.507000 0.498000
0.519994 0.505538 0.496538
0.517989 0.504076 0.495076
0.515983 0.502613 0.493613
0.513978 0.501151 0.492151
0.519129 0.503586 0.495129
0.517124 0.502124 0.493667
0.515118 0.500662 0.492205
0.513113 0.499199 0.490743
0.511107 0.497737 0.489281
0.516259 0.500172 0.492259
0.514253 0.498710 0.490797
0.512248 0.497248 0.489334
0.510242 0.495785 0.487872
0.508237 0.494323 0.486410
0.513388 0.496758 0.489388
0.511383 0.495296 0.487926
0.509377 0.493834 0.486464
0.507371 0.492371 0.485002
0.505366 0.490909 0.483539
0.510518 0.493344 0.486518
0.508512 0.491882 0.485055
0.506506 0.490420 0.483593
0.504501 0.488957 0.482131
0.502495 0.487495 0.480669
0.521443 0.506443 0.496899
0.519437 0.504980 0.495437
0.517431 0.503518 0.493975
0.515426 0.502056 0.492513
0.513420 0.500594 0.491050
0.518572 0.503029 0.494029
0.516566 0.501566 0.492566
0.514561 0.500104 0.491104
0.512555 0.498642 0.489642
0.510550 0.497180 0.488180
0.515701 0.499615 0.491158
0.513696 0.498152 0.489696
0.511690 0.496690 0.488234
0.509685 0.495228 0.486771
0.507679 0.493766 0.485309
0.512831 0.496201 0.488287
0.510825 0.494738 0.486825
0.508820 0.493276 0.485363
0.506814 0.491814 0.483901
0.504808 0.490352 0.482439
0.509960 0.492787 0.485417
0.507954 0.491324 0.483954
0.505949 0.489862 0.482492
0.503943 0.488400 0.481030
0.501938 0.486938 0.479568
0.520885 0.505885 0.495798
0.518879 0.504423 0.494336
0.516874 0.502961 0.492874
0.514868 0.501498 0.491412
0.512863 0.500036 0.489949
0.518014 0.502471 0.492928
0.516009 0.501009 0.491465
0.514003 0.499547 0.490003
0.511998 0.498084 0.488541
0.509992 0.496622 0.487079
0.515144 0.499057 0.490057
0.513138 0.497595 0.488595
0.511133 0.496133 0.487133
0.509127 0.494670 0.485670
0.507122 0.493208 0.484208
0.512273 0.495643 0.487186
0.510268 0.494181 0.485724
0.508262 0.492719 0.484262
0.506256 0.491256 0.482800
0.504251 0.489794 0.481338
0.509403 0.492229 0.484316
0.507397 0.490767 0.482854
0.505391 0.489305 0.481391
0.503386 0.487842 0.479929
0.501380 0.486380 0.478467
0.520328 0.505328 0.494697
0.518322 0.503865 0.493235
0.516316 0.502403 0.491773
0.514311 0.500941 0.490311
0.512305 0.499479 0.488849
0.517457 0.501914 0.491827
0.515451 0.500451 0.490365
0.513446 0.498989 0.488902
0.511440 0.497527 0.487440
0.509435 0.496065 0.485978
0.514586 0.498500 0.488956
0.512581 0.497037 0.487494
0.510575 0.495575 0.486032
0.508570 0.494113 0.484570
0.506564 0.492651 0.483107
0.511716 0.495086 0.486086
0.509710 0.493623 0.484623
0.507705 0.492161 0.483161
0.505699 0.490699 0.481699
0.503693 0.489237 0.480237
0.508845 0.491672 0.483215
0.506840 0.490209 0.481753
0.504834 0.488747 0.480291
0.502828 0.487285 0.478828
0.500823 0.485823 0.477366
0.519770 0.504770 0.493597
0.517764 0.503308 0.492134
0.515759 0.501846 0.490672
0.513753 0.500383 0.489210
0.511748 0.498921 0.487748
0.516899 0.501356 0.490726
0.514894 0.499894 0.489264
0.512888 0.498432 0.487802
0.510883 0.496969 0.486339
0.508877 0.495507 0.484877
0.514029 0.497942 0.487855
0.512023 0.496480 0.486393
0.510018 0.495018 0.484931
0.508012 0.493555 0.483469
0.506007 0.492093 0.482007
0.511158 0.494528 0.484985
0.509153 0.493066 0.483523
0.507147 0.491604 0.482060
0.505141 0.490141 0.480598
0.503136 0.488679 0.479136
0.508288 0.491114 0.482114
0.506282 0.489652 0.480652
0.504276 0.488190 0.479190
0.502271 0.486728 0.477728
0.500265 0.485265 0.476265
