shared/src/main/assets/luts/film_paris_dream.cube
TITLE "DALUR Paris Dream"
LUT_3D_SIZE 17
DOMAIN_MIN 0.0 0.0 0.0
DOMAIN_MAX 1.0 1.0 1.0
0.467200 0.462000 0.452800
0.469836 0.463083 0.453883
0.472473 0.464167 0.454967
0.475109 0.465250 0.456050
0.477745 0.466334 0.457134
0.480382 0.467417 0.458217
0.483018 0.468500 0.459300
0.485654 0.469584 0.460384
0.488290 0.470667 0.461467
0.490927 0.471751 0.462551
0.493563 0.472834 0.463634
0.496199 0.473917 0.464717
0.498836 0.475001 0.465801
0.501472 0.476084 0.466884
0.504108 0.477168 0.467968
0.506745 0.478251 0.469051
0.509381 0.479334 0.470134
0.469327 0.465680 0.454927
0.471963 0.466763 0.456010
0.474600 0.467847 0.457094
0.477236 0.468930 0.458177
0.479872 0.470013 0.459261
0.482508 0.471097 0.460344
0.485145 0.472180 0.461427
0.487781 0.473264 0.462511
0.490417 0.474347 0.463594
0.493054 0.475430 0.464678
0.495690 0.476514 0.465761
0.498326 0.477597 0.466844
0.500963 0.478681 0.467928
0.503599 0.479764 0.469011
0.506235 0.480848 0.470095
0.508871 0.481931 0.471178
0.511508 0.483014 0.472261
0.471454 0.469360 0.457054
0.474090 0.470443 0.458137
0.476727 0.471527 0.459221
0.479363 0.472610 0.460304
0.481999 0.473693 0.461388
0.484635 0.474777 0.462471
0.487272 0.475860 0.463554
0.489908 0.476944 0.464638
0.492544 0.478027 0.465721
0.495181 0.479110 0.466805
0.497817 0.480194 0.467888
0.500453 0.481277 0.468971
0.503090 0.482361 0.470055
0.505726 0.483444 0.471138
0.508362 0.484527 0.472222
0.510998 0.485611 0.473305
0.513635 0.486694 0.474388
0.473581 0.473040 0.459181
0.476217 0.474123 0.460264
0.478853 0.475206 0.461348
0.481490 0.476290 0.462431
0.484126 0.477373 0.463514
0.486762 0.478457 0.464598
0.489399 0.479540 0.465681
0.492035 0.480623 0.466765
0.494671 0.481707 0.467848
0.497308 0.482790 0.468931
0.499944 0.483874 0.470015
0.502580 0.484957 0.471098
0.505216 0.486040 0.472182
0.507853 0.487124 0.473265
0.510489 0.488207 0.474349
0.513125 0.489291 0.475432
0.515762 0.490374 0.476515
0.475708 0.476719 0.461308
0.478344 0.477803 0.462391
0.480980 0.478886 0.463475
0.483617 0.479970 0.464558
0.486253 0.481053 0.465641
0.488889 0.482136 0.466725
0.491526 0.483220 0.467808
0.494162 0.484303 0.468892
0.496798 0.485387 0.469975
0.499435 0.486470 0.471058
0.502071 0.487553 0.472142
0.504707 0.488637 0.473225
0.507343 0.489720 0.474309
0.509980 0.490804 0.475392
0.512616 0.491887 0.476475
0.515252 0.492970 0.477559
0.517889 0.494054 0.478642
0.477835 0.480399 0.463435
0.480471 0.481483 0.464518
0.483107 0.482566 0.465602
0.485744 0.483649 0.466685
0.488380 0.484733 0.467768
0.491016 0.485816 0.468852
0.493653 0.486900 0.469935
0.496289 0.487983 0.471019
0.498925 0.489066 0.472102
0.501561 0.490150 0.473185
0.504198 0.491233 0.474269
0.506834 0.492317 0.475352
0.509470 0.493400 0.476436
0.512107 0.494484 0.477519
0.514743 0.495567 0.478602
0.517379 0.496650 0.479686
0.520016 0.497734 0.480769
0.479962 0.484079 0.465562
0.482598 0.485162 0.466645
0.485234 0.486246 0.467729
0.487871 0.487329 0.468812
0.490507 0.488413 0.469895
0.493143 0.489496 0.470979
0.495780 0.490580 0.472062
0.498416 0.491663 0.473146
0.501052 0.492746 0.474229
0.503688 0.493830 0.475312
0.506325 0.494913 0.476396
0.508961 0.495997 0.477479
0.511597 0.497080 0.478563
0.514234 0.498163 0.479646
0.516870 0.499247 0.480729
0.519506 0.500330 0.481813
0.522143 0.501414 0.482896
0.482089 0.487759 0.467689
0.484725 0.488842 0.468772
0.487361 0.489926 0.469855
0.489998 0.491009 0.470939
0.492634 0.492093 0.472022
0.495270 0.493176 0.473106
0.497906 0.494259 0.474189
0.500543 0.495343 0.475272
0.503179 0.496426 0.476356
0.505815 0.497510 0.477439
0.508452 0.498593 0.478523
0.511088 0.499676 0.479606
0.513724 0.500760 0.480690
0.516361 0.501843 0.481773
0.518997 0.502927 0.482856
0.521633 0.504010 0.483940
0.524269 0.505093 0.485023
0.484216 0.491439 0.469816
0.486852 0.492522 0.470899
0.489488 0.493606 0.471982
0.492125 0.494689 0.473066
0.494761 0.495772 0.474149
0.497397 0.496856 0.475233
0.500033 0.497939 0.476316
0.502670 0.499023 0.477399
0.505306 0.500106 0.478483
0.507942 0.501189 0.479566
0.510579 0.502273 0.480650
0.513215 0.503356 0.481733
0.515851 0.504440 0.482816
0.518488 0.505523 0.483900
0.521124 0.506606 0.484983
0.523760 0.507690 0.486067
0.526396 0.508773 0.487150
0.486343 0.495119 0.471943
0.488979 0.496202 0.473026
0.491615 0.497285 0.474109
0.494251 0.498369 0.475193
0.496888 0.499452 0.476276
0.499524 0.500536 0.477360
0.502160 0.501619 0.478443
0.504797 0.502702 0.479526
0.507433 0.503786 0.480610
0.510069 0.504869 0.481693
0.512706 0.505953 0.482777
0.515342 0.507036 0.483860
0.517978 0.508119 0.484943
0.520614 0.509203 0.486027
0.523251 0.510286 0.487110
0.525887 0.511370 0.488194
0.528523 0.512453 0.489277
0.488470 0.498798 0.474070
0.491106 0.499882 0.475153
0.493742 0.500965 0.476236
0.496378 0.502049 0.477320
0.499015 0.503132 0.478403
0.501651 0.504216 0.479487
0.504287 0.505299 0.480570
0.506924 0.506382 0.481653
0.509560 0.507466 0.482737
0.512196 0.508549 0.483820
0.514833 0.509633 0.484904
0.517469 0.510716 0.485987
0.520105 0.511799 0.487070
0.522741 0.512883 0.488154
0.525378 0.513966 0.489237
0.528014 0.515050 0.490321
0.530650 0.516133 0.491404
0.490596 0.502478 0.476196
0.493233 0.503562 0.477280
0.495869 0.504645 0.478363
0.498505 0.505729 0.479447
0.501142 0.506812 0.480530
0.503778 0.507895 0.481613
0.506414 0.508979 0.482697
0.509051 0.510062 0.483780
0.511687 0.511146 0.484864
0.514323 0.512229 0.485947
0.516959 0.513312 0.487031
0.519596 0.514396 0.488114
0.522232 0.515479 0.489197
0.524868 0.516563 0.490281
0.527505 0.517646 0.491364
0.530141 0.518729 0.492448
0.532777 0.519813 0.493531
0.492723 0.506158 0.478323
0.495360 0.507242 0.479407
0.497996 0.508325 0.480490
0.500632 0.509408 0.481574
0.503269 0.510492 0.482657
0.505905 0.511575 0.483740
0.508541 0.512659 0.484824
0.511178 0.513742 0.485907
0.513814 0.514825 0.486991
0.516450 0.515909 0.488074
0.519086 0.516992 0.489157
0.521723 0.518076 0.490241
0.524359 0.519159 0.491324
0.526995 0.520242 0.492408
0.529632 0.521326 0.493491
0.532268 0.522409 0.494574
0.534904 0.523493 0.495658
0.494850 0.509838 0.480450
0.497487 0.510921 0.481534
0.500123 0.512005 0.482617
0.502759 0.513088 0.483701
0.505396 0.514172 0.484784
0.508032 0.515255 0.485867
0.510668 0.516338 0.486951
0.513304 0.517422 0.488034
0.515941 0.518505 0.489118
0.518577 0.519589 0.490201
0.521213 0.520672 0.491284
0.523850 0.521755 0.492368
0.526486 0.522839 0.493451
0.529122 0.523922 0.494535
0.531759 0.525006 0.495618
0.534395 0.526089 0.496701
0.537031 0.527173 0.497785
0.496977 0.513518 0.482577
0.499614 0.514601 0.483661
0.502250 0.515685 0.484744
0.504886 0.516768 0.485828
0.507523 0.517852 0.486911
0.510159 0.518935 0.487994
0.512795 0.520018 0.489078
0.515431 0.521102 0.490161
0.518068 0.522185 0.491245
0.520704 0.523269 0.492328
0.523340 0.524352 0.493411
0.525977 0.525435 0.494495
0.528613 0.526519 0.495578
0.531249 0.527602 0.496662
0.533886 0.528686 0.497745
0.536522 0.529769 0.498828
0.539158 0.530852 0.499912
0.499104 0.517198 0.484704
0.501741 0.518281 0.485788
0.504377 0.519365 0.486871
0.507013 0.520448 0.487954
0.509649 0.521531 0.489038
0.512286 0.522615 0.490121
0.514922 0.523698 0.491205
0.517558 0.524782 0.492288
0.520195 0.525865 0.493372
0.522831 0.526948 0.494455
0.525467 0.528032 0.495538
0.528104 0.529115 0.496622
0.530740 0.530199 0.497705
0.533376 0.531282 0.498789
0.536013 0.532365 0.499872
0.538649 0.533449 0.500955
0.541285 0.534532 0.502039
0.501231 0.520878 0.486831
0.503868 0.521961 0.487915
0.506504 0.523044 0.488998
0.509140 0.524128 0.490081
0.511776 0.525211 0.491165
0.514413 0.526295 0.492248
0.517049 0.527378 0.493332
0.519685 0.528461 0.494415
0.522322 0.529545 0.495498
0.524958 0.530628 0.496582
0.527594 0.531712 0.497665
0.530231 0.532795 0.498749
0.532867 0.533878 0.499832
0.535503 0.534962 0.500915
0.538139 0.536045 0.501999
0.540776 0.537129 0.503082
0.543412 0.538212 0.504166
0.467613 0.462413 0.454766
0.470249 0.463496 0.455849
0.472886 0.464580 0.456933
0.475522 0.465663 0.458016
0.478158 0.466747 0.459100
0.480795 0.467830 0.460183
0.483431 0.468913 0.461266
0.486067 0.469997 0.462350
0.488703 0.471080 0.463433
0.491340 0.472164 0.464517
0.493976 0.473247 0.465600
0.496612 0.474331 0.466683
0.499249 0.475414 0.467767
0.501885 0.476497 0.468850
0.504521 0.477581 0.469934
0.507158 0.478664 0.471017
0.509794 0.479748 0.472100
0.469740 0.466093 0.456893
0.472376 0.467176 0.457976
0.475013 0.468260 0.459060
0.477649 0.469343 0.460143
0.480285 0.470427 0.461227
0.482922 0.471510 0.462310
0.485558 0.472593 0.463393
0.488194 0.473677 0.464477
0.490830 0.474760 0.465560
0.493467 0.475844 0.466644
0.496103 0.476927 0.467727
0.498739 0.478010 0.468810
0.501376 0.479094 0.469894
0.504012 0.480177 0.470977
0.506648 0.481261 0.472061
0.509285 0.482344 0.473144
0.511921 0.483427 0.474227
0.471867 0.469773 0.459020
0.474503 0.470856 0.460103
0.477140 0.471940 0.461187
0.479776 0.473023 0.462270
0.482412 0.474106 0.463353
0.485048 0.475190 0.464437
0.487685 0.476273 0.465520
0.490321 0.477357 0.466604
0.492957 0.478440 0.467687
0.495594 0.479523 0.468771
0.498230 0.480607 0.469854
0.500866 0.481690 0.470937
0.503503 0.482774 0.472021
0.506139 0.483857 0.473104
0.508775 0.484940 0.474188
0.511412 0.486024 0.475271
0.514048 0.487107 0.476354
0.473994 0.473453 0.461147
0.476630 0.474536 0.462230
0.479267 0.475619 0.463314
0.481903 0.476703 0.464397
0.484539 0.477786 0.465480
0.487175 0.478870 0.466564
0.489812 0.479953 0.467647
0.492448 0.481036 0.468731
0.495084 0.482120 0.469814
0.497721 0.483203 0.470897
0.500357 0.484287 0.471981
0.502993 0.485370 0.473064
0.505630 0.486453 0.474148
0.508266 0.487537 0.475231
0.510902 0.488620 0.476314
0.513538 0.489704 0.477398
0.516175 0.490787 0.478481
0.476121 0.477132 0.463274
0.478757 0.478216 0.464357
0.481393 0.479299 0.465441
0.484030 0.480383 0.466524
0.486666 0.481466 0.467607
0.489302 0.482549 0.468691
0.491939 0.483633 0.469774
0.494575 0.484716 0.470858
0.497211 0.485800 0.471941
0.499848 0.486883 0.473024
0.502484 0.487967 0.474108
0.505120 0.489050 0.475191
0.507757 0.490133 0.476275
0.510393 0.491217 0.477358
0.513029 0.492300 0.478441
0.515665 0.493384 0.479525
0.518302 0.494467 0.480608
0.478248 0.480812 0.465401
0.480884 0.481896 0.466484
0.483520 0.482979 0.467568
0.486157 0.484063 0.468651
0.488793 0.485146 0.469734
0.491429 0.486229 0.470818
0.494066 0.487313 0.471901
0.496702 0.488396 0.472985
0.499338 0.489480 0.474068
0.501975 0.490563 0.475151
0.504611 0.491646 0.476235
0.507247 0.492730 0.477318
0.509883 0.493813 0.478402
0.512520 0.494897 0.479485
0.515156 0.495980 0.480568
0.517792 0.497063 0.481652
0.520429 0.498147 0.482735
0.480375 0.484492 0.467528
0.483011 0.485576 0.468611
0.485647 0.486659 0.469694
0.488284 0.487742 0.470778
0.490920 0.488826 0.471861
0.493556 0.489909 0.472945
0.496193 0.490993 0.474028
0.498829 0.492076 0.475112
0.501465 0.493159 0.476195
0.504102 0.494243 0.477278
0.506738 0.495326 0.478362
0.509374 0.496410 0.479445
0.512010 0.497493 0.480529
0.514647 0.498576 0.481612
0.517283 0.499660 0.482695
0.519919 0.500743 0.483779
0.522556 0.501827 0.484862
0.482502 0.488172 0.469655
0.485138 0.489255 0.470738
0.487774 0.490339 0.471821
0.490411 0.491422 0.472905
0.493047 0.492506 0.473988
0.495683 0.493589 0.475072
0.498320 0.494672 0.476155
0.500956 0.495756 0.477238
0.503592 0.496839 0.478322
0.506228 0.497923 0.479405
0.508865 0.499006 0.480489
0.511501 0.500089 0.481572
0.514137 0.501173 0.482655
0.516774 0.502256 0.483739
0.519410 0.503340 0.484822
0.522046 0.504423 0.485906
0.524683 0.505506 0.486989
0.484629 0.491852 0.471782
0.487265 0.492935 0.472865
0.489901 0.494019 0.473948
0.492538 0.495102 0.475032
0.495174 0.496185 0.476115
0.497810 0.497269 0.477199
0.500446 0.498352 0.478282
0.503083 0.499436 0.479365
0.505719 0.500519 0.480449
0.508355 0.501603 0.481532
0.510992 0.502686 0.482616
0.513628 0.503769 0.483699
0.516264 0.504853 0.484782
0.518901 0.505936 0.485866
0.521537 0.507020 0.486949
0.524173 0.508103 0.488033
0.526810 0.509186 0.489116
0.486756 0.495532 0.473909
0.489392 0.496615 0.474992
0.492028 0.497699 0.476075
0.494665 0.498782 0.477159
0.497301 0.499865 0.478242
0.499937 0.500949 0.479326
0.502573 0.502032 0.480409
0.505210 0.503116 0.481492
0.507846 0.504199 0.482576
0.510482 0.505282 0.483659
0.513119 0.506366 0.484743
0.515755 0.507449 0.485826
0.518391 0.508533 0.486909
0.521028 0.509616 0.487993
0.523664 0.510699 0.489076
0.526300 0.511783 0.490160
0.528936 0.512866 0.491243
0.488883 0.499212 0.476035
0.491519 0.500295 0.477119
0.494155 0.501378 0.478202
0.496791 0.502462 0.479286
0.499428 0.503545 0.480369
0.502064 0.504629 0.481453
0.504700 0.505712 0.482536
0.507337 0.506795 0.483619
0.509973 0.507879 0.484703
0.512609 0.508962 0.485786
0.515246 0.510046 0.486870
0.517882 0.511129 0.487953
0.520518 0.512212 0.489036
0.523155 0.513296 0.490120
0.525791 0.514379 0.491203
0.528427 0.515463 0.492287
0.531063 0.516546 0.493370
0.491010 0.502891 0.478162
0.493646 0.503975 0.479246
0.496282 0.505058 0.480329
0.498918 0.506142 0.481413
0.501555 0.507225 0.482496
0.504191 0.508308 0.483579
0.506827 0.509392 0.484663
0.509464 0.510475 0.485746
0.512100 0.511559 0.486830
0.514736 0.512642 0.487913
0.517373 0.513725 0.488996
0.520009 0.514809 0.490080
0.522645 0.515892 0.491163
0.525281 0.516976 0.492247
0.527918 0.518059 0.493330
0.530554 0.519142 0.494414
0.533190 0.520226 0.495497
0.493136 0.506571 0.480289
0.495773 0.507655 0.481373
0.498409 0.508738 0.482456
0.501045 0.509821 0.483540
0.503682 0.510905 0.484623
0.506318 0.511988 0.485706
0.508954 0.513072 0.486790
0.511591 0.514155 0.487873
0.514227 0.515238 0.488957
0.516863 0.516322 0.490040
0.519500 0.517405 0.491123
0.522136 0.518489 0.492207
0.524772 0.519572 0.493290
0.527408 0.520656 0.494374
0.530045 0.521739 0.495457
0.532681 0.522822 0.496540
0.535317 0.523906 0.497624
0.495263 0.510251 0.482416
0.497900 0.511335 0.483500
0.500536 0.512418 0.484583
0.503172 0.513501 0.485667
0.505809 0.514585 0.486750
0.508445 0.515668 0.487833
0.511081 0.516752 0.488917
0.513718 0.517835 0.490000
0.516354 0.518918 0.491084
0.518990 0.520002 0.492167
0.521626 0.521085 0.493250
0.524263 0.522169 0.494334
0.526899 0.523252 0.495417
0.529535 0.524335 0.496501
0.532172 0.525419 0.497584
0.534808 0.526502 0.498667
0.537444 0.527586 0.499751
0.497390 0.513931 0.484543
0.500027 0.515014 0.485627
0.502663 0.516098 0.486710
0.505299 0.517181 0.487794
0.507936 0.518265 0.488877
0.510572 0.519348 0.489960
0.513208 0.520431 0.491044
0.515845 0.521515 0.492127
0.518481 0.522598 0.493211
0.521117 0.523682 0.494294
0.523753 0.524765 0.495377
0.526390 0.525848 0.496461
0.529026 0.526932 0.497544
0.531662 0.528015 0.498628
0.534299 0.529099 0.499711
0.536935 0.530182 0.500794
0.539571 0.531265 0.501878
0.499517 0.517611 0.486670
0.502154 0.518694 0.487754
0.504790 0.519778 0.488837
0.507426 0.520861 0.489920
0.510063 0.521944 0.491004
0.512699 0.523028 0.492087
0.515335 0.524111 0.493171
0.517971 0.525195 0.494254
0.520608 0.526278 0.495337
0.523244 0.527361 0.496421
0.525880 0.528445 0.497504
0.528517 0.529528 0.498588
0.531153 0.530612 0.499671
0.533789 0.531695 0.500755
0.536426 0.532778 0.501838
0.539062 0.533862 0.502921
0.541698 0.534945 0.504005
0.501644 0.521291 0.488797
0.504281 0.522374 0.489881
0.506917 0.523457 0.490964
0.509553 0.524541 0.492047
0.512190 0.525624 0.493131
0.514826 0.526708 0.494214
0.517462 0.527791 0.495298
0.520098 0.528874 0.496381
0.522735 0.529958 0.497464
0.525371 0.531041 0.498548
0.528007 0.532125 0.499631
0.530644 0.533208 0.500715
0.533280 0.534292 0.501798
0.535916 0.535375 0.502881
0.538553 0.536458 0.503965
0.541189 0.537542 0.505048
0.543825 0.538625 0.506132
0.468026 0.462826 0.456732
0.470662 0.463910 0.457815
0.473299 0.464993 0.458899
0.475935 0.466076 0.459982
0.478571 0.467160 0.461066
0.481208 0.468243 0.462149
0.483844 0.469327 0.463232
0.486480 0.470410 0.464316
0.489117 0.471493 0.465399
0.491753 0.472577 0.466483
0.494389 0.473660 0.467566
0.497025 0.474744 0.468649
0.499662 0.475827 0.469733
0.502298 0.476910 0.470816
0.504934 0.477994 0.471900
0.507571 0.479077 0.472983
0.510207 0.480161 0.474066
0.470153 0.466506 0.458859
0.472789 0.467589 0.459942
0.475426 0.468673 0.461026
0.478062 0.469756 0.462109
0.480698 0.470840 0.463193
0.483335 0.471923 0.464276
0.485971 0.473006 0.465359
0.488607 0.474090 0.466443
0.491244 0.475173 0.467526
0.493880 0.476257 0.468610
0.496516 0.477340 0.469693
0.499152 0.478423 0.470776
0.501789 0.479507 0.471860
0.504425 0.480590 0.472943
0.507061 0.481674 0.474027
0.509698 0.482757 0.475110
0.512334 0.483840 0.476193
0.472280 0.470186 0.460986
0.474916 0.471269 0.462069
0.477553 0.472353 0.463153
0.480189 0.473436 0.464236
0.482825 0.474519 0.465319
0.485462 0.475603 0.466403
0.488098 0.476686 0.467486
0.490734 0.477770 0.468570
0.493370 0.478853 0.469653
0.496007 0.479936 0.470736
0.498643 0.481020 0.471820
0.501279 0.482103 0.472903
0.503916 0.483187 0.473987
0.506552 0.484270 0.475070
0.509188 0.485354 0.476154
0.511825 0.486437 0.477237
0.514461 0.487520 0.478320
0.474407 0.473866 0.463113
0.477043 0.474949 0.464196
0.479680 0.476032 0.465280
0.482316 0.477116 0.466363
0.484952 0.478199 0.467446
0.487589 0.479283 0.468530
0.490225 0.480366 0.469613
0.492861 0.481450 0.470697
0.495497 0.482533 0.471780
0.498134 0.483616 0.472863
0.500770 0.484700 0.473947
0.503406 0.485783 0.475030
0.506043 0.486867 0.476114
0.508679 0.487950 0.477197
0.511315 0.489033 0.478280
0.513952 0.490117 0.479364
0.516588 0.491200 0.480447
0.476534 0.477546 0.465240
0.479170 0.478629 0.466323
0.481807 0.479712 0.467407
0.484443 0.480796 0.468490
0.487079 0.481879 0.469573
0.489715 0.482963 0.470657
0.492352 0.484046 0.471740
0.494988 0.485129 0.472824
0.497624 0.486213 0.473907
0.500261 0.487296 0.474990
0.502897 0.488380 0.476074
0.505533 0.489463 0.477157
0.508170 0.490546 0.478241
0.510806 0.491630 0.479324
0.513442 0.492713 0.480407
0.516078 0.493797 0.481491
0.518715 0.494880 0.482574
0.478661 0.481225 0.467367
0.481297 0.482309 0.468450
0.483934 0.483392 0.469534
0.486570 0.484476 0.470617
0.489206 0.485559 0.471700
0.491842 0.486642 0.472784
0.494479 0.487726 0.473867
0.497115 0.488809 0.474951
0.499751 0.489893 0.476034
0.502388 0.490976 0.477117
0.505024 0.492059 0.478201
0.507660 0.493143 0.479284
0.510297 0.494226 0.480368
0.512933 0.495310 0.481451
0.515569 0.496393 0.482534
0.518205 0.497476 0.483618
0.520842 0.498560 0.484701
0.480788 0.484905 0.469494
0.483424 0.485989 0.470577
0.486060 0.487072 0.471660
0.488697 0.488155 0.472744
0.491333 0.489239 0.473827
0.493969 0.490322 0.474911
0.496606 0.491406 0.475994
0.499242 0.492489 0.477077
0.501878 0.493572 0.478161
0.504515 0.494656 0.479244
0.507151 0.495739 0.480328
0.509787 0.496823 0.481411
0.512423 0.497906 0.482495
0.515060 0.498989 0.483578
0.517696 0.500073 0.484661
0.520332 0.501156 0.485745
0.522969 0.502240 0.486828
0.482915 0.488585 0.471621
0.485551 0.489668 0.472704
0.488187 0.490752 0.473787
0.490824 0.491835 0.474871
0.493460 0.492919 0.475954
0.496096 0.494002 0.477038
0.498733 0.495086 0.478121
0.501369 0.496169 0.479204
0.504005 0.497252 0.480288
0.506642 0.498336 0.481371
0.509278 0.499419 0.482455
0.511914 0.500503 0.483538
0.514550 0.501586 0.484621
0.517187 0.502669 0.485705
0.519823 0.503753 0.486788
0.522459 0.504836 0.487872
0.525096 0.505920 0.488955
0.485042 0.492265 0.473748
0.487678 0.493348 0.474831
0.490314 0.494432 0.475914
0.492951 0.495515 0.476998
0.495587 0.496599 0.478081
0.498223 0.497682 0.479165
0.500860 0.498765 0.480248
0.503496 0.499849 0.481331
0.506132 0.500932 0.482415
0.508768 0.502016 0.483498
0.511405 0.503099 0.484582
0.514041 0.504182 0.485665
0.516677 0.505266 0.486748
0.519314 0.506349 0.487832
0.521950 0.507433 0.488915
0.524586 0.508516 0.489999
0.527223 0.509599 0.491082
0.487169 0.495945 0.475875
0.489805 0.497028 0.476958
0.492441 0.498112 0.478041
0.495078 0.499195 0.479125
0.497714 0.500278 0.480208
0.500350 0.501362 0.481292
0.502987 0.502445 0.482375
0.505623 0.503529 0.483458
0.508259 0.504612 0.484542
0.510895 0.505695 0.485625
0.513532 0.506779 0.486709
0.516168 0.507862 0.487792
0.518804 0.508946 0.488875
0.521441 0.510029 0.489959
0.524077 0.511112 0.491042
0.526713 0.512196 0.492126
0.529350 0.513279 0.493209
0.489296 0.499625 0.478001
0.491932 0.500708 0.479085
0.494568 0.501791 0.480168
0.497205 0.502875 0.481252
0.499841 0.503958 0.482335
0.502477 0.505042 0.483418
0.505113 0.506125 0.484502
0.507750 0.507208 0.485585
0.510386 0.508292 0.486669
0.513022 0.509375 0.487752
0.515659 0.510459 0.488836
0.518295 0.511542 0.489919
0.520931 0.512625 0.491002
0.523568 0.513709 0.492086
0.526204 0.514792 0.493169
0.528840 0.515876 0.494253
0.531476 0.516959 0.495336
0.491423 0.503304 0.480128
0.494059 0.504388 0.481212
0.496695 0.505471 0.482295
0.499332 0.506555 0.483379
0.501968 0.507638 0.484462
0.504604 0.508722 0.485545
0.507240 0.509805 0.486629
0.509877 0.510888 0.487712
0.512513 0.511972 0.488796
0.515149 0.513055 0.489879
0.517786 0.514139 0.490962
0.520422 0.515222 0.492046
0.523058 0.516305 0.493129
0.525695 0.517389 0.494213
0.528331 0.518472 0.495296
0.530967 0.519556 0.496379
0.533603 0.520639 0.497463
0.493550 0.506984 0.482255
0.496186 0.508068 0.483339
0.498822 0.509151 0.484422
0.501458 0.510235 0.485506
0.504095 0.511318 0.486589
0.506731 0.512401 0.487672
0.509367 0.513485 0.488756
0.512004 0.514568 0.489839
0.514640 0.515652 0.490923
0.517276 0.516735 0.492006
0.519913 0.517818 0.493089
0.522549 0.518902 0.494173
0.525185 0.519985 0.495256
0.527821 0.521069 0.496340
0.530458 0.522152 0.497423
0.533094 0.523235 0.498506
0.535730 0.524319 0.499590
0.495677 0.510664 0.484382
0.498313 0.511748 0.485466
0.500949 0.512831 0.486549
0.503585 0.513914 0.487633
0.506222 0.514998 0.488716
0.508858 0.516081 0.489799
0.511494 0.517165 0.490883
0.514131 0.518248 0.491966
0.516767 0.519331 0.493050
0.519403 0.520415 0.494133
0.522040 0.521498 0.495216
0.524676 0.522582 0.496300
0.527312 0.523665 0.497383
0.529948 0.524748 0.498467
0.532585 0.525832 0.499550
0.535221 0.526915 0.500633
0.537857 0.527999 0.501717
0.497803 0.514344 0.486509
0.500440 0.515427 0.487593
0.503076 0.516511 0.488676
0.505712 0.517594 0.489759
0.508349 0.518678 0.490843
0.510985 0.519761 0.491926
0.513621 0.520844 0.493010
0.516258 0.521928 0.494093
0.518894 0.523011 0.495176
0.521530 0.524095 0.496260
0.524166 0.525178 0.497343
0.526803 0.526261 0.498427
0.529439 0.527345 0.499510
0.532075 0.528428 0.500594
0.534712 0.529512 0.501677
0.537348 0.530595 0.502760
0.539984 0.531679 0.503844
0.499930 0.518024 0.488636
0.502567 0.519107 0.489720
0.505203 0.520191 0.490803
0.507839 0.521274 0.491886
0.510476 0.522357 0.492970
0.513112 0.523441 0.494053
0.515748 0.524524 0.495137
0.518385 0.525608 0.496220
0.521021 0.526691 0.497303
0.523657 0.527775 0.498387
0.526293 0.528858 0.499470
0.528930 0.529941 0.500554
0.531566 0.531025 0.501637
0.534202 0.532108 0.502720
0.536839 0.533192 0.503804
0.539475 0.534275 0.504887
0.542111 0.535358 0.505971
0.502057 0.521704 0.490763
0.504694 0.522787 0.491847
0.507330 0.523871 0.492930
0.509966 0.524954 0.494013
0.512603 0.526037 0.495097
0.515239 0.527121 0.496180
0.517875 0.528204 0.497264
0.520511 0.529288 0.498347
0.523148 0.530371 0.499430
0.525784 0.531454 0.500514
0.528420 0.532538 0.501597
0.531057 0.533621 0.502681
0.533693 0.534705 0.503764
0.536329 0.535788 0.504847
0.538966 0.536871 0.505931
0.541602 0.537955 0.507014
0.544238 0.539038 0.508098
0.468439 0.463239 0.458698
0.471076 0.464323 0.459781
0.473712 0.465406 0.460865
0.476348 0.466489 0.461948
0.478984 0.467573 0.463032
0.481621 0.468656 0.464115
0.484257 0.469740 0.465198
0.486893 0.470823 0.466282
0.489530 0.471906 0.467365
0.492166 0.472990 0.468449
0.494802 0.474073 0.469532
0.497439 0.475157 0.470615
0.500075 0.476240 0.471699
0.502711 0.477323 0.472782
0.505347 0.478407 0.473866
0.507984 0.479490 0.474949
0.510620 0.480574 0.476032
0.470566 0.466919 0.460825
