shared/src/main/assets/luts/film_pastel_mendl.cube
TITLE "DALUR Pastel Mendl"
LUT_3D_SIZE 17
DOMAIN_MIN 0.0 0.0 0.0
DOMAIN_MAX 1.0 1.0 1.0
0.524800 0.515000 0.515200
0.523892 0.514228 0.514428
0.522985 0.513457 0.513657
0.522077 0.512685 0.512885
0.521170 0.511913 0.512113
0.520262 0.511141 0.511341
0.519355 0.510370 0.510570
0.518447 0.509598 0.509798
0.517540 0.508826 0.509026
0.516632 0.508055 0.508255
0.515724 0.507283 0.507483
0.514817 0.506511 0.506711
0.513909 0.505739 0.505939
0.513002 0.504968 0.505168
0.512094 0.504196 0.504396
0.511187 0.503424 0.503624
0.510279 0.502653 0.502853
0.523285 0.513349 0.513685
0.522377 0.512577 0.512913
0.521470 0.511806 0.512142
0.520562 0.511034 0.511370
0.519655 0.510262 0.510598
0.518747 0.509491 0.509826
0.517840 0.508719 0.509055
0.516932 0.507947 0.508283
0.516024 0.507175 0.507511
0.515117 0.506404 0.506739
0.514209 0.505632 0.505968
0.513302 0.504860 0.505196
0.512394 0.504089 0.504424
0.511487 0.503317 0.503653
0.510579 0.502545 0.502881
0.509672 0.501773 0.502109
0.508764 0.501002 0.501337
0.521770 0.511698 0.512170
0.520862 0.510927 0.511398
0.519955 0.510155 0.510626
0.519047 0.509383 0.509855
0.518140 0.508611 0.509083
0.517232 0.507840 0.508311
0.516325 0.507068 0.507540
0.515417 0.506296 0.506768
0.514509 0.505524 0.505996
0.513602 0.504753 0.505224
0.512694 0.503981 0.504453
0.511787 0.503209 0.503681
0.510879 0.502438 0.502909
0.509972 0.501666 0.502138
0.509064 0.500894 0.501366
0.508157 0.500122 0.500594
0.507249 0.499351 0.499822
0.520255 0.510047 0.510655
0.519347 0.509276 0.509883
0.518440 0.508504 0.509111
0.517532 0.507732 0.508340
0.516625 0.506960 0.507568
0.515717 0.506189 0.506796
0.514810 0.505417 0.506025
0.513902 0.504645 0.505253
0.512994 0.503874 0.504481
0.512087 0.503102 0.503709
0.511179 0.502330 0.502938
0.510272 0.501558 0.502166
0.509364 0.500787 0.501394
0.508457 0.500015 0.500623
0.507549 0.499243 0.499851
0.506641 0.498472 0.499079
0.505734 0.497700 0.498307
0.518740 0.508396 0.509140
0.517832 0.507625 0.508368
0.516925 0.506853 0.507596
0.516017 0.506081 0.506825
0.515110 0.505310 0.506053
0.514202 0.504538 0.505281
0.513294 0.503766 0.504510
0.512387 0.502994 0.503738
0.511479 0.502223 0.502966
0.510572 0.501451 0.502194
0.509664 0.500679 0.501423
0.508757 0.499908 0.500651
0.507849 0.499136 0.499879
0.506942 0.498364 0.499107
0.506034 0.497592 0.498336
0.505126 0.496821 0.497564
0.504219 0.496049 0.496792
0.517225 0.506746 0.507625
0.516317 0.505974 0.506853
0.515410 0.505202 0.506081
0.514502 0.504430 0.505310
0.513595 0.503659 0.504538
0.512687 0.502887 0.503766
0.511779 0.502115 0.502994
0.510872 0.501344 0.502223
0.509964 0.500572 0.501451
0.509057 0.499800 0.500679
0.508149 0.499028 0.499908
0.507242 0.498257 0.499136
0.506334 0.497485 0.498364
0.505427 0.496713 0.497592
0.504519 0.495942 0.496821
0.503611 0.495170 0.496049
0.502704 0.494398 0.495277
0.515710 0.505095 0.506110
0.514802 0.504323 0.505338
0.513895 0.503551 0.504566
0.512987 0.502780 0.503795
0.512079 0.502008 0.503023
0.511172 0.501236 0.502251
0.510264 0.500464 0.501479
0.509357 0.499693 0.500708
0.508449 0.498921 0.499936
0.507542 0.498149 0.499164
0.506634 0.497378 0.498393
0.505727 0.496606 0.497621
0.504819 0.495834 0.496849
0.503911 0.495062 0.496077
0.503004 0.494291 0.495306
0.502096 0.493519 0.494534
0.501189 0.492747 0.493762
0.514195 0.503444 0.504595
0.513287 0.502672 0.503823
0.512380 0.501900 0.503051
0.511472 0.501129 0.502280
0.510564 0.500357 0.501508
0.509657 0.499585 0.500736
0.508749 0.498813 0.499964
0.507842 0.498042 0.499193
0.506934 0.497270 0.498421
0.506027 0.496498 0.497649
0.505119 0.495727 0.496878
0.504212 0.494955 0.496106
0.503304 0.494183 0.495334
0.502396 0.493411 0.494562
0.501489 0.492640 0.493791
0.500581 0.491868 0.493019
0.499674 0.491096 0.492247
0.512680 0.501793 0.503080
0.511772 0.501021 0.502308
0.510865 0.500249 0.501536
0.509957 0.499478 0.500764
0.509049 0.498706 0.499993
0.508142 0.497934 0.499221
0.507234 0.497163 0.498449
0.506327 0.496391 0.497678
0.505419 0.495619 0.496906
0.504512 0.494847 0.496134
0.503604 0.494076 0.495362
0.502696 0.493304 0.494591
0.501789 0.492532 0.493819
0.500881 0.491761 0.493047
0.499974 0.490989 0.492276
0.499066 0.490217 0.491504
0.498159 0.489445 0.490732
0.511165 0.500142 0.501565
0.510257 0.499370 0.500793
0.509349 0.498599 0.500021
0.508442 0.497827 0.499249
0.507534 0.497055 0.498478
0.506627 0.496283 0.497706
0.505719 0.495512 0.496934
0.504812 0.494740 0.496163
0.503904 0.493968 0.495391
0.502997 0.493197 0.494619
0.502089 0.492425 0.493847
0.501181 0.491653 0.493076
0.500274 0.490881 0.492304
0.499366 0.490110 0.491532
0.498459 0.489338 0.490761
0.497551 0.488566 0.489989
0.496644 0.487795 0.489217
0.509650 0.498491 0.500050
0.508742 0.497719 0.499278
0.507834 0.496948 0.498506
0.506927 0.496176 0.497734
0.506019 0.495404 0.496963
0.505112 0.494633 0.496191
0.504204 0.493861 0.495419
0.503297 0.493089 0.494648
0.502389 0.492317 0.493876
0.501482 0.491546 0.493104
0.500574 0.490774 0.492332
0.499666 0.490002 0.491561
0.498759 0.489231 0.490789
0.497851 0.488459 0.490017
0.496944 0.487687 0.489246
0.496036 0.486915 0.488474
0.495129 0.486144 0.487702
0.508135 0.496840 0.498535
0.507227 0.496069 0.497763
0.506319 0.495297 0.496991
0.505412 0.494525 0.496219
0.504504 0.493753 0.495448
0.503597 0.492982 0.494676
0.502689 0.492210 0.493904
0.501782 0.491438 0.493132
0.500874 0.490667 0.492361
0.499966 0.489895 0.491589
0.499059 0.489123 0.490817
0.498151 0.488351 0.490046
0.497244 0.487580 0.489274
0.496336 0.486808 0.488502
0.495429 0.486036 0.487730
0.494521 0.485264 0.486959
0.493614 0.484493 0.486187
0.506619 0.495189 0.497019
0.505712 0.494418 0.496248
0.504804 0.493646 0.495476
0.503897 0.492874 0.494704
0.502989 0.492102 0.493933
0.502082 0.491331 0.493161
0.501174 0.490559 0.492389
0.500267 0.489787 0.491617
0.499359 0.489016 0.490846
0.498451 0.488244 0.490074
0.497544 0.487472 0.489302
0.496636 0.486700 0.488531
0.495729 0.485929 0.487759
0.494821 0.485157 0.486987
0.493914 0.484385 0.486215
0.493006 0.483614 0.485444
0.492099 0.482842 0.484672
0.505104 0.493538 0.495504
0.504197 0.492767 0.494733
0.503289 0.491995 0.493961
0.502382 0.491223 0.493189
0.501474 0.490452 0.492418
0.500567 0.489680 0.491646
0.499659 0.488908 0.490874
0.498752 0.488136 0.490102
0.497844 0.487365 0.489331
0.496936 0.486593 0.488559
0.496029 0.485821 0.487787
0.495121 0.485050 0.487016
0.494214 0.484278 0.486244
0.493306 0.483506 0.485472
0.492399 0.482734 0.484700
0.491491 0.481963 0.483929
0.490583 0.481191 0.483157
0.503589 0.491888 0.493989
0.502682 0.491116 0.493218
0.501774 0.490344 0.492446
0.500867 0.489572 0.491674
0.499959 0.488801 0.490903
0.499052 0.488029 0.490131
0.498144 0.487257 0.489359
0.497236 0.486486 0.488587
0.496329 0.485714 0.487816
0.495421 0.484942 0.487044
0.494514 0.484170 0.486272
0.493606 0.483399 0.485500
0.492699 0.482627 0.484729
0.491791 0.481855 0.483957
0.490884 0.481084 0.483185
0.489976 0.480312 0.482414
0.489068 0.479540 0.481642
0.502074 0.490237 0.492474
0.501167 0.489465 0.491703
0.500259 0.488693 0.490931
0.499352 0.487922 0.490159
0.498444 0.487150 0.489387
0.497537 0.486378 0.488616
0.496629 0.485606 0.487844
0.495721 0.484835 0.487072
0.494814 0.484063 0.486301
0.493906 0.483291 0.485529
0.492999 0.482520 0.484757
0.492091 0.481748 0.483985
0.491184 0.480976 0.483214
0.490276 0.480204 0.482442
0.489369 0.479433 0.481670
0.488461 0.478661 0.480899
0.487553 0.477889 0.480127
0.500559 0.488586 0.490959
0.499652 0.487814 0.490188
0.498744 0.487042 0.489416
0.497837 0.486271 0.488644
0.496929 0.485499 0.487872
0.496021 0.484727 0.487101
0.495114 0.483956 0.486329
0.494206 0.483184 0.485557
0.493299 0.482412 0.484786
0.492391 0.481640 0.484014
0.491484 0.480869 0.483242
0.490576 0.480097 0.482470
0.489669 0.479325 0.481699
0.488761 0.478553 0.480927
0.487853 0.477782 0.480155
0.486946 0.477010 0.479384
0.486038 0.476238 0.478612
0.524506 0.514706 0.514770
0.523598 0.513934 0.513998
0.522691 0.513162 0.513226
0.521783 0.512391 0.512455
0.520876 0.511619 0.511683
0.519968 0.510847 0.510911
0.519060 0.510075 0.510140
0.518153 0.509304 0.509368
0.517245 0.508532 0.508596
0.516338 0.507760 0.507824
0.515430 0.506989 0.507053
0.514523 0.506217 0.506281
0.513615 0.505445 0.505509
0.512707 0.504673 0.504738
0.511800 0.503902 0.503966
0.510892 0.503130 0.503194
0.509985 0.502358 0.502422
0.522991 0.513055 0.513255
0.522083 0.512283 0.512483
0.521176 0.511511 0.511711
0.520268 0.510740 0.510940
0.519360 0.509968 0.510168
0.518453 0.509196 0.509396
0.517545 0.508425 0.508625
0.516638 0.507653 0.507853
0.515730 0.506881 0.507081
0.514823 0.506109 0.506309
0.513915 0.505338 0.505538
0.513008 0.504566 0.504766
0.512100 0.503794 0.503994
0.511192 0.503023 0.503223
0.510285 0.502251 0.502451
0.509377 0.501479 0.501679
0.508470 0.500707 0.500907
0.521476 0.511404 0.511740
0.520568 0.510632 0.510968
0.519661 0.509861 0.510196
0.518753 0.509089 0.509425
0.517845 0.508317 0.508653
0.516938 0.507545 0.507881
0.516030 0.506774 0.507110
0.515123 0.506002 0.506338
0.514215 0.505230 0.505566
0.513308 0.504459 0.504794
0.512400 0.503687 0.504023
0.511493 0.502915 0.503251
0.510585 0.502143 0.502479
0.509677 0.501372 0.501708
0.508770 0.500600 0.500936
0.507862 0.499828 0.500164
0.506955 0.499057 0.499392
0.519961 0.509753 0.510225
0.519053 0.508981 0.509453
0.518146 0.508210 0.508681
0.517238 0.507438 0.507910
0.516330 0.506666 0.507138
0.515423 0.505895 0.506366
0.514515 0.505123 0.505594
0.513608 0.504351 0.504823
0.512700 0.503579 0.504051
0.511793 0.502808 0.503279
0.510885 0.502036 0.502508
0.509977 0.501264 0.501736
0.509070 0.500492 0.500964
0.508162 0.499721 0.500192
0.507255 0.498949 0.499421
0.506347 0.498177 0.498649
0.505440 0.497406 0.497877
0.518446 0.508102 0.508710
0.517538 0.507331 0.507938
0.516630 0.506559 0.507166
0.515723 0.505787 0.506395
0.514815 0.505015 0.505623
0.513908 0.504244 0.504851
0.513000 0.503472 0.504079
0.512093 0.502700 0.503308
0.511185 0.501928 0.502536
0.510278 0.501157 0.501764
0.509370 0.500385 0.500993
0.508462 0.499613 0.500221
0.507555 0.498842 0.499449
0.506647 0.498070 0.498677
0.505740 0.497298 0.497906
0.504832 0.496526 0.497134
0.503925 0.495755 0.496362
0.516931 0.506451 0.507195
0.516023 0.505680 0.506423
0.515115 0.504908 0.505651
0.514208 0.504136 0.504880
0.513300 0.503364 0.504108
0.512393 0.502593 0.503336
0.511485 0.501821 0.502564
0.510578 0.501049 0.501793
0.509670 0.500278 0.501021
0.508763 0.499506 0.500249
0.507855 0.498734 0.499478
0.506947 0.497962 0.498706
0.506040 0.497191 0.497934
0.505132 0.496419 0.497162
0.504225 0.495647 0.496391
0.503317 0.494876 0.495619
0.502410 0.494104 0.494847
0.515416 0.504800 0.505680
0.514508 0.504029 0.504908
0.513600 0.503257 0.504136
0.512693 0.502485 0.503365
0.511785 0.501714 0.502593
0.510878 0.500942 0.501821
0.509970 0.500170 0.501049
0.509063 0.499398 0.500278
0.508155 0.498627 0.499506
0.507247 0.497855 0.498734
0.506340 0.497083 0.497962
0.505432 0.496312 0.497191
0.504525 0.495540 0.496419
0.503617 0.494768 0.495647
0.502710 0.493996 0.494876
0.501802 0.493225 0.494104
0.500895 0.492453 0.493332
0.513900 0.503150 0.504165
0.512993 0.502378 0.503393
0.512085 0.501606 0.502621
0.511178 0.500834 0.501849
0.510270 0.500063 0.501078
0.509363 0.499291 0.500306
0.508455 0.498519 0.499534
0.507548 0.497748 0.498763
0.506640 0.496976 0.497991
0.505732 0.496204 0.497219
0.504825 0.495432 0.496447
0.503917 0.494661 0.495676
0.503010 0.493889 0.494904
0.502102 0.493117 0.494132
0.501195 0.492346 0.493361
0.500287 0.491574 0.492589
0.499380 0.490802 0.491817
0.512385 0.501499 0.502650
0.511478 0.500727 0.501878
0.510570 0.499955 0.501106
0.509663 0.499184 0.500334
0.508755 0.498412 0.499563
0.507848 0.497640 0.498791
0.506940 0.496868 0.498019
0.506032 0.496097 0.497248
0.505125 0.495325 0.496476
0.504217 0.494553 0.495704
0.503310 0.493782 0.494932
0.502402 0.493010 0.494161
0.501495 0.492238 0.493389
0.500587 0.491466 0.492617
0.499680 0.490695 0.491846
0.498772 0.489923 0.491074
0.497864 0.489151 0.490302
0.510870 0.499848 0.501135
0.509963 0.499076 0.500363
0.509055 0.498304 0.499591
0.508148 0.497533 0.498819
0.507240 0.496761 0.498048
0.506333 0.495989 0.497276
0.505425 0.495217 0.496504
0.504517 0.494446 0.495733
0.503610 0.493674 0.494961
0.502702 0.492902 0.494189
0.501795 0.492131 0.493417
0.500887 0.491359 0.492646
0.499980 0.490587 0.491874
0.499072 0.489815 0.491102
0.498165 0.489044 0.490330
0.497257 0.488272 0.489559
0.496349 0.487500 0.488787
0.509355 0.498197 0.499619
0.508448 0.497425 0.498848
0.507540 0.496653 0.498076
0.506633 0.495882 0.497304
0.505725 0.495110 0.496533
0.504818 0.494338 0.495761
0.503910 0.493567 0.494989
0.503002 0.492795 0.494217
0.502095 0.492023 0.493446
0.501187 0.491251 0.492674
0.500280 0.490480 0.491902
0.499372 0.489708 0.491131
0.498465 0.488936 0.490359
0.497557 0.488165 0.489587
0.496649 0.487393 0.488815
0.495742 0.486621 0.488044
0.494834 0.485849 0.487272
0.507840 0.496546 0.498104
0.506933 0.495774 0.497333
0.506025 0.495003 0.496561
0.505118 0.494231 0.495789
0.504210 0.493459 0.495018
0.503302 0.492687 0.494246
0.502395 0.491916 0.493474
0.501487 0.491144 0.492702
0.500580 0.490372 0.491931
0.499672 0.489601 0.491159
0.498765 0.488829 0.490387
0.497857 0.488057 0.489616
0.496950 0.487285 0.488844
0.496042 0.486514 0.488072
0.495134 0.485742 0.487300
0.494227 0.484970 0.486529
0.493319 0.484199 0.485757
0.506325 0.494895 0.496589
0.505418 0.494123 0.495818
0.504510 0.493352 0.495046
0.503603 0.492580 0.494274
0.502695 0.491808 0.493503
0.501787 0.491037 0.492731
0.500880 0.490265 0.491959
0.499972 0.489493 0.491187
0.499065 0.488721 0.490416
0.498157 0.487950 0.489644
0.497250 0.487178 0.488872
0.496342 0.486406 0.488101
0.495435 0.485635 0.487329
0.494527 0.484863 0.486557
0.493619 0.484091 0.485785
0.492712 0.483319 0.485014
0.491804 0.482548 0.484242
0.504810 0.493244 0.495074
0.503903 0.492473 0.494303
0.502995 0.491701 0.493531
0.502088 0.490929 0.492759
0.501180 0.490157 0.491987
0.500272 0.489386 0.491216
0.499365 0.488614 0.490444
0.498457 0.487842 0.489672
0.497550 0.487071 0.488901
0.496642 0.486299 0.488129
0.495735 0.485527 0.487357
0.494827 0.484755 0.486585
0.493919 0.483984 0.485814
0.493012 0.483212 0.485042
0.492104 0.482440 0.484270
0.491197 0.481668 0.483499
0.490289 0.480897 0.482727
0.503295 0.491593 0.493559
0.502388 0.490822 0.492788
0.501480 0.490050 0.492016
0.500572 0.489278 0.491244
0.499665 0.488506 0.490472
0.498757 0.487735 0.489701
0.497850 0.486963 0.488929
0.496942 0.486191 0.488157
0.496035 0.485420 0.487386
0.495127 0.484648 0.486614
0.494220 0.483876 0.485842
0.493312 0.483104 0.485070
0.492404 0.482333 0.484299
0.491497 0.481561 0.483527
0.490589 0.480789 0.482755
0.489682 0.480018 0.481984
0.488774 0.479246 0.481212
0.501780 0.489942 0.492044
0.500873 0.489171 0.491273
0.499965 0.488399 0.490501
0.499057 0.487627 0.489729
0.498150 0.486856 0.488957
0.497242 0.486084 0.488186
0.496335 0.485312 0.487414
0.495427 0.484540 0.486642
0.494520 0.483769 0.485871
0.493612 0.482997 0.485099
0.492705 0.482225 0.484327
0.491797 0.481454 0.483555
0.490889 0.480682 0.482784
0.489982 0.479910 0.482012
0.489074 0.479138 0.481240
0.488167 0.478367 0.480468
0.487259 0.477595 0.479697
0.500265 0.488292 0.490529
0.499357 0.487520 0.489757
0.498450 0.486748 0.488986
0.497542 0.485976 0.488214
0.496635 0.485205 0.487442
0.495727 0.484433 0.486671
0.494820 0.483661 0.485899
0.493912 0.482890 0.485127
0.493005 0.482118 0.484355
0.492097 0.481346 0.483584
0.491189 0.480574 0.482812
0.490282 0.479803 0.482040
0.489374 0.479031 0.481269
0.488467 0.478259 0.480497
0.487559 0.477488 0.479725
0.486652 0.476716 0.478953
0.485744 0.475944 0.478182
0.524212 0.514412 0.514340
0.523304 0.513640 0.513568
0.522396 0.512868 0.512796
0.521489 0.512096 0.512025
0.520581 0.511325 0.511253
0.519674 0.510553 0.510481
0.518766 0.509781 0.509710
0.517859 0.509010 0.508938
0.516951 0.508238 0.508166
0.516043 0.507466 0.507394
0.515136 0.506694 0.506623
0.514228 0.505923 0.505851
0.513321 0.505151 0.505079
0.512413 0.504379 0.504308
0.511506 0.503607 0.503536
0.510598 0.502836 0.502764
0.509691 0.502064 0.501992
0.522696 0.512761 0.512825
0.521789 0.511989 0.512053
0.520881 0.511217 0.511281
0.519974 0.510445 0.510510
0.519066 0.509674 0.509738
0.518159 0.508902 0.508966
0.517251 0.508130 0.508194
0.516344 0.507359 0.507423
0.515436 0.506587 0.506651
0.514528 0.505815 0.505879
0.513621 0.505043 0.505108
0.512713 0.504272 0.504336
0.511806 0.503500 0.503564
0.510898 0.502728 0.502792
0.509991 0.501957 0.502021
0.509083 0.501185 0.501249
0.508176 0.500413 0.500477
0.521181 0.511110 0.511310
0.520274 0.510338 0.510538
0.519366 0.509566 0.509766
0.518459 0.508795 0.508995
0.517551 0.508023 0.508223
0.516644 0.507251 0.507451
0.515736 0.506479 0.506679
0.514829 0.505708 0.505908
0.513921 0.504936 0.505136
0.513013 0.504164 0.504364
0.512106 0.503393 0.503593
0.511198 0.502621 0.502821
0.510291 0.501849 0.502049
0.509383 0.501077 0.501277
0.508476 0.500306 0.500506
0.507568 0.499534 0.499734
0.506660 0.498762 0.498962
0.519666 0.509459 0.509795
0.518759 0.508687 0.509023
0.517851 0.507915 0.508251
0.516944 0.507144 0.507480
0.516036 0.506372 0.506708
0.515129 0.505600 0.505936
0.514221 0.504829 0.505164
0.513313 0.504057 0.504393
0.512406 0.503285 0.503621
0.511498 0.502513 0.502849
0.510591 0.501742 0.502078
0.509683 0.500970 0.501306
0.508776 0.500198 0.500534
0.507868 0.499427 0.499762
0.506961 0.498655 0.498991
0.506053 0.497883 0.498219
0.505145 0.497111 0.497447
0.518151 0.507808 0.508280
0.517244 0.507036 0.507508
0.516336 0.506265 0.506736
0.515429 0.505493 0.505965
0.514521 0.504721 0.505193
0.513614 0.503949 0.504421
0.512706 0.503178 0.503649
0.511798 0.502406 0.502878
0.510891 0.501634 0.502106
0.509983 0.500863 0.501334
0.509076 0.500091 0.500562
0.508168 0.499319 0.499791
0.507261 0.498547 0.499019
0.506353 0.497776 0.498247
0.505446 0.497004 0.497476
0.504538 0.496232 0.496704
0.503630 0.495461 0.495932
0.516636 0.506157 0.506765
0.515729 0.505385 0.505993
0.514821 0.504614 0.505221
0.513914 0.503842 0.504449
0.513006 0.503070 0.503678
0.512099 0.502299 0.502906
0.511191 0.501527 0.502134
0.510283 0.500755 0.501363
0.509376 0.499983 0.500591
0.508468 0.499212 0.499819
0.507561 0.498440 0.499047
0.506653 0.497668 0.498276
0.505746 0.496896 0.497504
0.504838 0.496125 0.496732
0.503930 0.495353 0.495961
0.503023 0.494581 0.495189
0.502115 0.493810 0.494417
0.515121 0.504506 0.505250
0.514214 0.503734 0.504478
0.513306 0.502963 0.503706
0.512399 0.502191 0.502934
0.511491 0.501419 0.502163
0.510583 0.500648 0.501391
0.509676 0.499876 0.500619
0.508768 0.499104 0.499848
0.507861 0.498332 0.499076
0.506953 0.497561 0.498304
0.506046 0.496789 0.497532
0.505138 0.496017 0.496761
0.504231 0.495246 0.495989
0.503323 0.494474 0.495217
0.502415 0.493702 0.494446
0.501508 0.492930 0.493674
0.500600 0.492159 0.492902
0.513606 0.502855 0.503735
0.512699 0.502084 0.502963
0.511791 0.501312 0.502191
0.510884 0.500540 0.501419
0.509976 0.499768 0.500648
0.509068 0.498997 0.499876
0.508161 0.498225 0.499104
0.507253 0.497453 0.498333
0.506346 0.496682 0.497561
0.505438 0.495910 0.496789
0.504531 0.495138 0.496017
0.503623 0.494366 0.495246
0.502716 0.493595 0.494474
0.501808 0.492823 0.493702
0.500900 0.492051 0.492930
0.499993 0.491280 0.492159
0.499085 0.490508 0.491387
0.512091 0.501204 0.502219
0.511184 0.500433 0.501448
0.510276 0.499661 0.500676
0.509369 0.498889 0.499904
0.508461 0.498118 0.499133
0.507553 0.497346 0.498361
0.506646 0.496574 0.497589
0.505738 0.495802 0.496817
0.504831 0.495031 0.496046
0.503923 0.494259 0.495274
0.503016 0.493487 0.494502
0.502108 0.492716 0.493731
0.501200 0.491944 0.492959
0.500293 0.491172 0.492187
0.499385 0.490400 0.491415
0.498478 0.489629 0.490644
0.497570 0.488857 0.489872
0.510576 0.499554 0.500704
0.509669 0.498782 0.499933
0.508761 0.498010 0.499161
0.507853 0.497238 0.498389
0.506946 0.496467 0.497618
0.506038 0.495695 0.496846
0.505131 0.494923 0.496074
0.504223 0.494152 0.495302
0.503316 0.493380 0.494531
0.502408 0.492608 0.493759
0.501501 0.491836 0.492987
0.500593 0.491065 0.492216
0.499685 0.490293 0.491444
0.498778 0.489521 0.490672
0.497870 0.488750 0.489900
0.496963 0.487978 0.489129
0.496055 0.487206 0.488357
0.509061 0.497903 0.499189
0.508154 0.497131 0.498418
0.507246 0.496359 0.497646
0.506338 0.495588 0.496874
0.505431 0.494816 0.496103
0.504523 0.494044 0.495331
0.503616 0.493272 0.494559
0.502708 0.492501 0.493787
0.501801 0.491729 0.493016
0.500893 0.490957 0.492244
0.499985 0.490185 0.491472
0.499078 0.489414 0.490701
0.498170 0.488642 0.489929
0.497263 0.487870 0.489157
0.496355 0.487099 0.488385
0.495448 0.486327 0.487614
0.494540 0.485555 0.486842
0.507546 0.496252 0.497674
0.506638 0.495480 0.496903
0.505731 0.494708 0.496131
0.504823 0.493937 0.495359
0.503916 0.493165 0.494587
0.503008 0.492393 0.493816
0.502101 0.491621 0.493044
0.501193 0.490850 0.492272
0.500286 0.490078 0.491501
0.499378 0.489306 0.490729
0.498470 0.488535 0.489957
0.497563 0.487763 0.489185
0.496655 0.486991 0.488414
0.495748 0.486219 0.487642
0.494840 0.485448 0.486870
0.493933 0.484676 0.486099
0.493025 0.483904 0.485327
0.506031 0.494601 0.496159
0.505123 0.493829 0.495388
0.504216 0.493057 0.494616
0.503308 0.492286 0.493844
0.502401 0.491514 0.493072
0.501493 0.490742 0.492301
0.500586 0.489971 0.491529
0.499678 0.489199 0.490757
0.498771 0.488427 0.489986
0.497863 0.487655 0.489214
0.496955 0.486884 0.488442
0.496048 0.486112 0.487670
0.495140 0.485340 0.486899
0.494233 0.484569 0.486127
0.493325 0.483797 0.485355
0.492418 0.483025 0.484584
0.491510 0.482253 0.483812
0.504516 0.492950 0.494644
0.503608 0.492178 0.493873
0.502701 0.491407 0.493101
0.501793 0.490635 0.492329
0.500886 0.489863 0.491557
0.499978 0.489091 0.490786
0.499071 0.488320 0.490014
0.498163 0.487548 0.489242
0.497255 0.486776 0.488471
0.496348 0.486005 0.487699
0.495440 0.485233 0.486927
0.494533 0.484461 0.486155
0.493625 0.483689 0.485384
0.492718 0.482918 0.484612
0.491810 0.482146 0.483840
0.490903 0.481374 0.483069
0.489995 0.480603 0.482297
0.503001 0.491299 0.493129
0.502093 0.490527 0.492358
0.501186 0.489756 0.491586
0.500278 0.488984 0.490814
0.499371 0.488212 0.490042
0.498463 0.487441 0.489271
0.497556 0.486669 0.488499
0.496648 0.485897 0.487727
0.495740 0.485125 0.486955
0.494833 0.484354 0.486184
0.493925 0.483582 0.485412
0.493018 0.482810 0.484640
0.492110 0.482039 0.483869
0.491203 0.481267 0.483097
0.490295 0.480495 0.482325
0.489388 0.479723 0.481553
0.488480 0.478952 0.480782
0.501486 0.489648 0.491614
0.500578 0.488877 0.490842
0.499671 0.488105 0.490071
0.498763 0.487333 0.489299
0.497856 0.486561 0.488527
0.496948 0.485790 0.487756
0.496041 0.485018 0.486984
0.495133 0.484246 0.486212
0.494225 0.483475 0.485440
0.493318 0.482703 0.484669
0.492410 0.481931 0.483897
0.491503 0.481159 0.483125
0.490595 0.480388 0.482354
0.489688 0.479616 0.481582
0.488780 0.478844 0.480810
0.487872 0.478072 0.480038
0.486965 0.477301 0.479267
0.499971 0.487997 0.490099
0.499063 0.487226 0.489327
0.498156 0.486454 0.488556
0.497248 0.485682 0.487784
0.496341 0.484910 0.487012
0.495433 0.484139 0.486241
0.494525 0.483367 0.485469
0.493618 0.482595 0.484697
0.492710 0.481824 0.483925
0.491803 0.481052 0.483154
0.490895 0.480280 0.482382
0.489988 0.479508 0.481610
0.489080 0.478737 0.480839
0.488173 0.477965 0.480067
0.487265 0.477193 0.479295
0.486357 0.476422 0.478523
0.485450 0.475650 0.477752
0.523917 0.514117 0.513910
0.523010 0.513346 0.513138
0.522102 0.512574 0.512366
0.521195 0.511802 0.511595
0.520287 0.511030 0.510823
0.519380 0.510259 0.510051
0.518472 0.509487 0.509279
0.517564 0.508715 0.508508
0.516657 0.507944 0.507736
0.515749 0.507172 0.506964
0.514842 0.506400 0.506193
0.513934 0.505628 0.505421
0.513027 0.504857 0.504649
0.512119 0.504085 0.503877
0.511211 0.503313 0.503106
0.510304 0.502542 0.502334
0.509396 0.501770 0.501562
0.522402 0.512466 0.512395
