shared/src/main/assets/luts/film_amber_shadow.cube
TITLE "DALUR Amber Shadow"
LUT_3D_SIZE 17
DOMAIN_MIN 0.0 0.0 0.0
DOMAIN_MAX 1.0 1.0 1.0
0.435000 0.419000 0.405000
0.437106 0.422026 0.408026
0.439213 0.425053 0.411053
0.441319 0.428079 0.414079
0.443425 0.431106 0.417106
0.445532 0.434132 0.420132
0.447638 0.437159 0.423159
0.449744 0.440185 0.426185
0.451850 0.443212 0.429212
0.453957 0.446238 0.432238
0.456063 0.449265 0.435265
0.458169 0.452291 0.438291
0.460276 0.455318 0.441318
0.462382 0.458344 0.444344
0.464488 0.461371 0.447371
0.466595 0.464397 0.450397
0.468701 0.467424 0.453424
0.440942 0.424021 0.410942
0.443048 0.427048 0.413968
0.445154 0.430074 0.416995
0.447261 0.433101 0.420021
0.449367 0.436127 0.423048
0.451473 0.439154 0.426074
0.453580 0.442180 0.429101
0.455686 0.445207 0.432127
0.457792 0.448233 0.435154
0.459898 0.451260 0.438180
0.462005 0.454286 0.441207
0.464111 0.457313 0.444233
0.466217 0.460339 0.447260
0.468324 0.463366 0.450286
0.470430 0.466392 0.453313
0.472536 0.469419 0.456339
0.474643 0.472445 0.459366
0.446883 0.429043 0.416883
0.448990 0.432069 0.419910
0.451096 0.435096 0.422936
0.453202 0.438122 0.425963
0.455309 0.441149 0.428989
0.457415 0.444175 0.432016
0.459521 0.447202 0.435042
0.461627 0.450228 0.438069
0.463734 0.453255 0.441095
0.465840 0.456281 0.444122
0.467946 0.459308 0.447148
0.470053 0.462334 0.450175
0.472159 0.465361 0.453201
0.474265 0.468387 0.456228
0.476372 0.471414 0.459254
0.478478 0.474440 0.462281
0.480584 0.477467 0.465307
0.452825 0.434064 0.422825
0.454931 0.437091 0.425851
0.457038 0.440117 0.428878
0.459144 0.443144 0.431904
0.461250 0.446170 0.434931
0.463357 0.449197 0.437957
0.465463 0.452223 0.440984
0.467569 0.455250 0.444010
0.469675 0.458276 0.447037
0.471782 0.461303 0.450063
0.473888 0.464329 0.453090
0.475994 0.467356 0.456116
0.478101 0.470382 0.459143
0.480207 0.473409 0.462169
0.482313 0.476435 0.465196
0.484420 0.479462 0.468222
0.486526 0.482488 0.471249
0.458767 0.439086 0.428767
0.460873 0.442112 0.431793
0.462979 0.445139 0.434820
0.465086 0.448165 0.437846
0.467192 0.451192 0.440873
0.469298 0.454218 0.443899
0.471404 0.457245 0.446926
0.473511 0.460271 0.449952
0.475617 0.463298 0.452979
0.477723 0.466324 0.456005
0.479830 0.469351 0.459032
0.481936 0.472377 0.462058
0.484042 0.475404 0.465085
0.486149 0.478430 0.468111
0.488255 0.481457 0.471138
0.490361 0.484483 0.474164
0.492468 0.487510 0.477191
0.464708 0.444107 0.434708
0.466815 0.447134 0.437735
0.468921 0.450160 0.440761
0.471027 0.453187 0.443788
0.473133 0.456213 0.446814
0.475240 0.459240 0.449841
0.477346 0.462266 0.452867
0.479452 0.465293 0.455894
0.481559 0.468319 0.458920
0.483665 0.471346 0.461947
0.485771 0.474372 0.464973
0.487878 0.477399 0.468000
0.489984 0.480425 0.471026
0.492090 0.483452 0.474053
0.494197 0.486478 0.477079
0.496303 0.489505 0.480106
0.498409 0.492531 0.483132
0.470650 0.449129 0.440650
0.472756 0.452155 0.443676
0.474863 0.455182 0.446703
0.476969 0.458208 0.449729
0.479075 0.461235 0.452756
0.481181 0.464261 0.455782
0.483288 0.467288 0.458809
0.485394 0.470314 0.461835
0.487500 0.473341 0.464862
0.489607 0.476367 0.467888
0.491713 0.479394 0.470915
0.493819 0.482420 0.473941
0.495926 0.485447 0.476968
0.498032 0.488473 0.479994
0.500138 0.491500 0.483021
0.502245 0.494526 0.486047
0.504351 0.497553 0.489074
0.476592 0.454150 0.446592
0.478698 0.457177 0.449618
0.480804 0.460203 0.452645
0.482910 0.463230 0.455671
0.485017 0.466256 0.458698
0.487123 0.469283 0.461724
0.489229 0.472309 0.464751
0.491336 0.475336 0.467777
0.493442 0.478362 0.470804
0.495548 0.481389 0.473830
0.497655 0.484415 0.476857
0.499761 0.487442 0.479883
0.501867 0.490468 0.482910
0.503974 0.493495 0.485936
0.506080 0.496521 0.488963
0.508186 0.499548 0.491989
0.510293 0.502574 0.495016
0.482533 0.459172 0.452533
0.484640 0.462198 0.455560
0.486746 0.465225 0.458586
0.488852 0.468251 0.461613
0.490958 0.471278 0.464639
0.493065 0.474304 0.467666
0.495171 0.477331 0.470692
0.497277 0.480357 0.473719
0.499384 0.483384 0.476745
0.501490 0.486410 0.479772
0.503596 0.489437 0.482798
0.505703 0.492463 0.485825
0.507809 0.495490 0.488851
0.509915 0.498516 0.491878
0.512022 0.501543 0.494904
0.514128 0.504569 0.497931
0.516234 0.507596 0.500957
0.488475 0.464193 0.458475
0.490581 0.467220 0.461501
0.492687 0.470246 0.464528
0.494794 0.473273 0.467554
0.496900 0.476299 0.470581
0.499006 0.479326 0.473607
0.501113 0.482352 0.476634
0.503219 0.485379 0.479660
0.505325 0.488405 0.482687
0.507432 0.491432 0.485713
0.509538 0.494458 0.488740
0.511644 0.497485 0.491766
0.513751 0.500511 0.494793
0.515857 0.503538 0.497819
0.517963 0.506564 0.500846
0.520070 0.509591 0.503872
0.522176 0.512617 0.506899
0.494417 0.469215 0.464417
0.496523 0.472241 0.467443
0.498629 0.475268 0.470470
0.500735 0.478294 0.473496
0.502842 0.481321 0.476523
0.504948 0.484347 0.479549
0.507054 0.487374 0.482575
0.509161 0.490400 0.485602
0.511267 0.493427 0.488628
0.513373 0.496453 0.491655
0.515480 0.499480 0.494681
0.517586 0.502506 0.497708
0.519692 0.505533 0.500734
0.521799 0.508559 0.503761
0.523905 0.511586 0.506787
0.526011 0.514612 0.509814
0.528117 0.517639 0.512840
0.500358 0.474236 0.470358
0.502464 0.477263 0.473385
0.504571 0.480289 0.476411
0.506677 0.483316 0.479438
0.508783 0.486342 0.482464
0.510890 0.489369 0.485491
0.512996 0.492395 0.488517
0.515102 0.495422 0.491544
0.517209 0.498448 0.494570
0.519315 0.501475 0.497597
0.521421 0.504501 0.500623
0.523528 0.507528 0.503650
0.525634 0.510554 0.506676
0.527740 0.513581 0.509703
0.529847 0.516607 0.512729
0.531953 0.519634 0.515756
0.534059 0.522660 0.518782
0.506300 0.479258 0.476300
0.508406 0.482284 0.479326
0.510512 0.485311 0.482353
0.512619 0.488337 0.485379
0.514725 0.491364 0.488406
0.516831 0.494390 0.491432
0.518938 0.497417 0.494459
0.521044 0.500443 0.497485
0.523150 0.503470 0.500512
0.525257 0.506496 0.503538
0.527363 0.509523 0.506565
0.529469 0.512549 0.509591
0.531576 0.515576 0.512618
0.533682 0.518602 0.515644
0.535788 0.521629 0.518671
0.537894 0.524655 0.521697
0.540001 0.527682 0.524724
0.512241 0.484279 0.482241
0.514348 0.487306 0.485268
0.516454 0.490332 0.488294
0.518560 0.493359 0.491321
0.520667 0.496385 0.494347
0.522773 0.499412 0.497374
0.524879 0.502438 0.500400
0.526986 0.505465 0.503427
0.529092 0.508491 0.506453
0.531198 0.511518 0.509480
0.533305 0.514544 0.512506
0.535411 0.517571 0.515533
0.537517 0.520597 0.518559
0.539623 0.523623 0.521586
0.541730 0.526650 0.524612
0.543836 0.529676 0.527639
0.545942 0.532703 0.530665
0.518183 0.489300 0.488183
0.520289 0.492327 0.491210
0.522396 0.495353 0.494236
0.524502 0.498380 0.497263
0.526608 0.501406 0.500289
0.528715 0.504433 0.503316
0.530821 0.507459 0.506342
0.532927 0.510486 0.509369
0.535034 0.513512 0.512395
0.537140 0.516539 0.515422
0.539246 0.519565 0.518448
0.541353 0.522592 0.521475
0.543459 0.525618 0.524501
0.545565 0.528645 0.527528
0.547671 0.531671 0.530554
0.549778 0.534698 0.533581
0.551884 0.537724 0.536607
0.524125 0.494322 0.494125
0.526231 0.497348 0.497151
0.528337 0.500375 0.500178
0.530444 0.503401 0.503204
0.532550 0.506428 0.506231
0.534656 0.509454 0.509257
0.536763 0.512481 0.512284
0.538869 0.515507 0.515310
0.540975 0.518534 0.518337
0.543082 0.521560 0.521363
0.545188 0.524587 0.524390
0.547294 0.527613 0.527416
0.549400 0.530640 0.530443
0.551507 0.533666 0.533469
0.553613 0.536693 0.536496
0.555719 0.539719 0.539522
0.557826 0.542746 0.542549
0.530066 0.499343 0.500066
0.532173 0.502370 0.503093
0.534279 0.505396 0.506119
0.536385 0.508423 0.509146
0.538492 0.511449 0.512172
0.540598 0.514476 0.515199
0.542704 0.517502 0.518225
0.544811 0.520529 0.521252
0.546917 0.523555 0.524278
0.549023 0.526582 0.527305
0.551130 0.529608 0.530331
0.553236 0.532635 0.533358
0.555342 0.535661 0.536384
0.557448 0.538688 0.539411
0.559555 0.541714 0.542437
0.561661 0.544741 0.545464
0.563767 0.547767 0.548490
0.436154 0.420154 0.405234
0.438260 0.423180 0.408260
0.440367 0.426207 0.411287
0.442473 0.429233 0.414313
0.444579 0.432260 0.417340
0.446685 0.435286 0.420366
0.448792 0.438313 0.423393
0.450898 0.441339 0.426419
0.453004 0.444366 0.429446
0.455111 0.447392 0.432472
0.457217 0.450419 0.435499
0.459323 0.453445 0.438525
0.461430 0.456472 0.441552
0.463536 0.459498 0.444578
0.465642 0.462525 0.447605
0.467749 0.465551 0.450631
0.469855 0.468578 0.453658
0.442096 0.425175 0.411175
0.444202 0.428202 0.414202
0.446308 0.431228 0.417228
0.448414 0.434255 0.420255
0.450521 0.437281 0.423281
0.452627 0.440308 0.426308
0.454733 0.443334 0.429334
0.456840 0.446361 0.432361
0.458946 0.449387 0.435387
0.461052 0.452414 0.438414
0.463159 0.455440 0.441440
0.465265 0.458467 0.444467
0.467371 0.461493 0.447493
0.469478 0.464520 0.450520
0.471584 0.467546 0.453546
0.473690 0.470573 0.456573
0.475797 0.473599 0.459599
0.448037 0.430197 0.417117
0.450144 0.433223 0.420144
0.452250 0.436250 0.423170
0.454356 0.439276 0.426197
0.456462 0.442303 0.429223
0.458569 0.445329 0.432250
0.460675 0.448356 0.435276
0.462781 0.451382 0.438303
0.464888 0.454409 0.441329
0.466994 0.457435 0.444356
0.469100 0.460462 0.447382
0.471207 0.463488 0.450408
0.473313 0.466515 0.453435
0.475419 0.469541 0.456461
0.477526 0.472568 0.459488
0.479632 0.475594 0.462514
0.481738 0.478621 0.465541
0.453979 0.435218 0.423059
0.456085 0.438245 0.426085
0.458191 0.441271 0.429112
0.460298 0.444298 0.432138
0.462404 0.447324 0.435165
0.464510 0.450351 0.438191
0.466617 0.453377 0.441218
0.468723 0.456404 0.444244
0.470829 0.459430 0.447271
0.472936 0.462457 0.450297
0.475042 0.465483 0.453324
0.477148 0.468510 0.456350
0.479255 0.471536 0.459377
0.481361 0.474563 0.462403
0.483467 0.477589 0.465430
0.485574 0.480616 0.468456
0.487680 0.483642 0.471483
0.459921 0.440240 0.429000
0.462027 0.443266 0.432027
0.464133 0.446293 0.435053
0.466239 0.449319 0.438080
0.468346 0.452346 0.441106
0.470452 0.455372 0.444133
0.472558 0.458399 0.447159
0.474665 0.461425 0.450186
0.476771 0.464452 0.453212
0.478877 0.467478 0.456239
0.480984 0.470505 0.459265
0.483090 0.473531 0.462292
0.485196 0.476558 0.465318
0.487303 0.479584 0.468345
0.489409 0.482611 0.471371
0.491515 0.485637 0.474398
0.493621 0.488664 0.477424
0.465862 0.445261 0.434942
0.467968 0.448288 0.437968
0.470075 0.451314 0.440995
0.472181 0.454341 0.444021
0.474287 0.457367 0.447048
0.476394 0.460394 0.450074
0.478500 0.463420 0.453101
0.480606 0.466447 0.456127
0.482713 0.469473 0.459154
0.484819 0.472500 0.462180
0.486925 0.475526 0.465207
0.489032 0.478553 0.468233
0.491138 0.481579 0.471260
0.493244 0.484606 0.474286
0.495351 0.487632 0.477313
0.497457 0.490659 0.480339
0.499563 0.493685 0.483366
0.471804 0.450283 0.440884
0.473910 0.453309 0.443910
0.476016 0.456336 0.446937
0.478123 0.459362 0.449963
0.480229 0.462389 0.452990
0.482335 0.465415 0.456016
0.484442 0.468442 0.459043
0.486548 0.471468 0.462069
0.488654 0.474495 0.465096
0.490761 0.477521 0.468122
0.492867 0.480548 0.471149
0.494973 0.483574 0.474175
0.497080 0.486601 0.477202
0.499186 0.489627 0.480228
0.501292 0.492654 0.483255
0.503398 0.495680 0.486281
0.505505 0.498707 0.489308
0.477745 0.455304 0.446825
0.479852 0.458331 0.449852
0.481958 0.461357 0.452878
0.484064 0.464384 0.455905
0.486171 0.467410 0.458931
0.488277 0.470437 0.461958
0.490383 0.473463 0.464984
0.492490 0.476490 0.468011
0.494596 0.479516 0.471037
0.496702 0.482543 0.474064
0.498809 0.485569 0.477090
0.500915 0.488596 0.480117
0.503021 0.491622 0.483143
0.505128 0.494649 0.486170
0.507234 0.497675 0.489196
0.509340 0.500702 0.492223
0.511446 0.503728 0.495249
0.483687 0.460326 0.452767
0.485793 0.463352 0.455793
0.487900 0.466379 0.458820
0.490006 0.469405 0.461846
0.492112 0.472432 0.464873
0.494219 0.475458 0.467899
0.496325 0.478485 0.470926
0.498431 0.481511 0.473952
0.500538 0.484538 0.476979
0.502644 0.487564 0.480005
0.504750 0.490591 0.483032
0.506857 0.493617 0.486058
0.508963 0.496644 0.489085
0.511069 0.499670 0.492111
0.513175 0.502697 0.495138
0.515282 0.505723 0.498164
0.517388 0.508750 0.501191
0.489629 0.465347 0.458709
0.491735 0.468374 0.461735
0.493841 0.471400 0.464762
0.495948 0.474427 0.467788
0.498054 0.477453 0.470815
0.500160 0.480480 0.473841
0.502267 0.483506 0.476868
0.504373 0.486533 0.479894
0.506479 0.489559 0.482921
0.508586 0.492586 0.485947
0.510692 0.495612 0.488974
0.512798 0.498639 0.492000
0.514904 0.501665 0.495027
0.517011 0.504692 0.498053
0.519117 0.507718 0.501080
0.521223 0.510745 0.504106
0.523330 0.513771 0.507133
0.495570 0.470369 0.464650
0.497677 0.473395 0.467677
0.499783 0.476422 0.470703
0.501889 0.479448 0.473730
0.503996 0.482475 0.476756
0.506102 0.485501 0.479783
0.508208 0.488528 0.482809
0.510315 0.491554 0.485836
0.512421 0.494581 0.488862
0.514527 0.497607 0.491889
0.516634 0.500634 0.494915
0.518740 0.503660 0.497942
0.520846 0.506687 0.500968
0.522952 0.509713 0.503995
0.525059 0.512740 0.507021
0.527165 0.515766 0.510048
0.529271 0.518793 0.513074
0.501512 0.475390 0.470592
0.503618 0.478417 0.473618
0.505725 0.481443 0.476645
0.507831 0.484470 0.479671
0.509937 0.487496 0.482698
0.512044 0.490523 0.485724
0.514150 0.493549 0.488751
0.516256 0.496575 0.491777
0.518363 0.499602 0.494804
0.520469 0.502628 0.497830
0.522575 0.505655 0.500857
0.524681 0.508681 0.503883
0.526788 0.511708 0.506910
0.528894 0.514734 0.509936
0.531000 0.517761 0.512963
0.533107 0.520787 0.515989
0.535213 0.523814 0.519016
0.507454 0.480411 0.476534
0.509560 0.483438 0.479560
0.511666 0.486464 0.482587
0.513773 0.489491 0.485613
0.515879 0.492517 0.488640
0.517985 0.495544 0.491666
0.520092 0.498570 0.494693
0.522198 0.501597 0.497719
0.524304 0.504623 0.500746
0.526411 0.507650 0.503772
0.528517 0.510676 0.506799
0.530623 0.513703 0.509825
0.532729 0.516729 0.512852
0.534836 0.519756 0.515878
0.536942 0.522782 0.518905
0.539048 0.525809 0.521931
0.541155 0.528835 0.524958
0.513395 0.485433 0.482475
0.515502 0.488459 0.485502
0.517608 0.491486 0.488528
0.519714 0.494512 0.491555
0.521821 0.497539 0.494581
0.523927 0.500565 0.497608
0.526033 0.503592 0.500634
0.528140 0.506618 0.503661
0.530246 0.509645 0.506687
0.532352 0.512671 0.509714
0.534458 0.515698 0.512740
0.536565 0.518724 0.515767
0.538671 0.521751 0.518793
0.540777 0.524777 0.521820
0.542884 0.527804 0.524846
0.544990 0.530830 0.527873
0.547096 0.533857 0.530899
0.519337 0.490454 0.488417
0.521443 0.493481 0.491443
0.523550 0.496507 0.494470
0.525656 0.499534 0.497496
0.527762 0.502560 0.500523
0.529869 0.505587 0.503549
0.531975 0.508613 0.506576
0.534081 0.511640 0.509602
0.536188 0.514666 0.512629
0.538294 0.517693 0.515655
0.540400 0.520719 0.518682
0.542506 0.523746 0.521708
0.544613 0.526772 0.524735
0.546719 0.529799 0.527761
0.548825 0.532825 0.530788
0.550932 0.535852 0.533814
0.553038 0.538878 0.536841
0.525279 0.495476 0.494359
0.527385 0.498502 0.497385
0.529491 0.501529 0.500411
0.531598 0.504555 0.503438
0.533704 0.507582 0.506464
0.535810 0.510608 0.509491
0.537917 0.513635 0.512517
0.540023 0.516661 0.515544
0.542129 0.519688 0.518570
0.544235 0.522714 0.521597
0.546342 0.525741 0.524623
0.548448 0.528767 0.527650
0.550554 0.531794 0.530676
0.552661 0.534820 0.533703
0.554767 0.537847 0.536729
0.556873 0.540873 0.539756
0.558980 0.543900 0.542782
0.531220 0.500497 0.500300
0.533327 0.503524 0.503327
0.535433 0.506550 0.506353
0.537539 0.509577 0.509380
0.539646 0.512603 0.512406
0.541752 0.515630 0.515433
0.543858 0.518656 0.518459
0.545965 0.521683 0.521486
0.548071 0.524709 0.524512
0.550177 0.527736 0.527539
0.552283 0.530762 0.530565
0.554390 0.533789 0.533592
0.556496 0.536815 0.536618
0.558602 0.539842 0.539645
0.560709 0.542868 0.542671
0.562815 0.545895 0.545698
0.564921 0.548921 0.548724
0.437308 0.421308 0.405467
0.439414 0.424334 0.408494
0.441520 0.427361 0.411520
0.443627 0.430387 0.414547
0.445733 0.433414 0.417573
0.447839 0.436440 0.420600
0.449946 0.439467 0.423626
0.452052 0.442493 0.426653
0.454158 0.445520 0.429679
0.456265 0.448546 0.432706
0.458371 0.451573 0.435732
0.460477 0.454599 0.438759
0.462584 0.457626 0.441785
0.464690 0.460652 0.444812
0.466796 0.463679 0.447838
0.468902 0.466705 0.450865
0.471009 0.469732 0.453891
0.443249 0.426329 0.411409
0.445356 0.429356 0.414436
0.447462 0.432382 0.417462
0.449568 0.435409 0.420489
0.451675 0.438435 0.423515
0.453781 0.441462 0.426542
0.455887 0.444488 0.429568
0.457994 0.447515 0.432595
0.460100 0.450541 0.435621
0.462206 0.453568 0.438648
0.464313 0.456594 0.441674
0.466419 0.459621 0.444701
0.468525 0.462647 0.447727
0.470632 0.465674 0.450754
0.472738 0.468700 0.453780
0.474844 0.471727 0.456807
0.476950 0.474753 0.459833
0.449191 0.431351 0.417351
0.451297 0.434377 0.420377
0.453404 0.437404 0.423404
0.455510 0.440430 0.426430
0.457616 0.443457 0.429457
0.459723 0.446483 0.432483
0.461829 0.449510 0.435510
0.463935 0.452536 0.438536
0.466042 0.455563 0.441563
0.468148 0.458589 0.444589
0.470254 0.461616 0.447616
0.472361 0.464642 0.450642
0.474467 0.467669 0.453669
0.476573 0.470695 0.456695
0.478679 0.473722 0.459722
0.480786 0.476748 0.462748
0.482892 0.479775 0.465775
0.455133 0.436372 0.423292
0.457239 0.439399 0.426319
0.459345 0.442425 0.429345
0.461452 0.445452 0.432372
0.463558 0.448478 0.435398
0.465664 0.451505 0.438425
0.467771 0.454531 0.441451
0.469877 0.457558 0.444478
0.471983 0.460584 0.447504
0.474090 0.463611 0.450531
0.476196 0.466637 0.453557
0.478302 0.469664 0.456584
0.480408 0.472690 0.459610
0.482515 0.475717 0.462637
0.484621 0.478743 0.465663
0.486727 0.481770 0.468690
0.488834 0.484796 0.471716
0.461074 0.441394 0.429234
0.463181 0.444420 0.432261
0.465287 0.447447 0.435287
0.467393 0.450473 0.438314
0.469500 0.453500 0.441340
0.471606 0.456526 0.444367
0.473712 0.459553 0.447393
0.475819 0.462579 0.450420
0.477925 0.465606 0.453446
0.480031 0.468632 0.456473
0.482138 0.471659 0.459499
0.484244 0.474685 0.462526
0.486350 0.477712 0.465552
0.488456 0.480738 0.468579
0.490563 0.483765 0.471605
0.492669 0.486791 0.474632
0.494775 0.489818 0.477658
0.467016 0.446415 0.435176
0.469122 0.449442 0.438202
0.471229 0.452468 0.441229
0.473335 0.455495 0.444255
0.475441 0.458521 0.447282
0.477548 0.461548 0.450308
0.479654 0.464574 0.453335
0.481760 0.467601 0.456361
0.483867 0.470627 0.459388
0.485973 0.473654 0.462414
0.488079 0.476680 0.465441
0.490185 0.479707 0.468467
0.492292 0.482733 0.471494
0.494398 0.485760 0.474520
0.496504 0.488786 0.477547
0.498611 0.491813 0.480573
0.500717 0.494839 0.483600
0.472958 0.451437 0.441117
0.475064 0.454463 0.444144
0.477170 0.457490 0.447170
0.479277 0.460516 0.450197
0.481383 0.463543 0.453223
0.483489 0.466569 0.456250
0.485596 0.469596 0.459276
0.487702 0.472622 0.462303
0.489808 0.475649 0.465329
0.491915 0.478675 0.468356
0.494021 0.481702 0.471382
0.496127 0.484728 0.474409
0.498233 0.487755 0.477435
0.500340 0.490781 0.480462
0.502446 0.493808 0.483488
0.504552 0.496834 0.486515
0.506659 0.499861 0.489541
0.478899 0.456458 0.447059
0.481006 0.459485 0.450086
0.483112 0.462511 0.453112
0.485218 0.465538 0.456139
0.487325 0.468564 0.459165
0.489431 0.471591 0.462192
0.491537 0.474617 0.465218
0.493644 0.477644 0.468244
0.495750 0.480670 0.471271
0.497856 0.483697 0.474297
0.499962 0.486723 0.477324
0.502069 0.489750 0.480350
0.504175 0.492776 0.483377
0.506281 0.495803 0.486403
0.508388 0.498829 0.489430
0.510494 0.501856 0.492456
0.512600 0.504882 0.495483
0.484841 0.461480 0.453001
0.486947 0.464506 0.456027
0.489054 0.467533 0.459054
0.491160 0.470559 0.462080
0.493266 0.473586 0.465107
0.495373 0.476612 0.468133
0.497479 0.479639 0.471160
0.499585 0.482665 0.474186
0.501692 0.485692 0.477213
0.503798 0.488718 0.480239
0.505904 0.491745 0.483266
0.508010 0.494771 0.486292
0.510117 0.497798 0.489319
0.512223 0.500824 0.492345
0.514329 0.503851 0.495372
0.516436 0.506877 0.498398
0.518542 0.509903 0.501425
0.490783 0.466501 0.458942
0.492889 0.469528 0.461969
0.494995 0.472554 0.464995
0.497102 0.475580 0.468022
0.499208 0.478607 0.471048
0.501314 0.481633 0.474075
0.503421 0.484660 0.477101
0.505527 0.487686 0.480128
0.507633 0.490713 0.483154
0.509739 0.493739 0.486181
0.511846 0.496766 0.489207
0.513952 0.499792 0.492234
0.516058 0.502819 0.495260
0.518165 0.505845 0.498287
0.520271 0.508872 0.501313
0.522377 0.511898 0.504340
0.524484 0.514925 0.507366
0.496724 0.471522 0.464884
0.498831 0.474549 0.467910
0.500937 0.477575 0.470937
0.503043 0.480602 0.473963
0.505150 0.483628 0.476990
0.507256 0.486655 0.480016
0.509362 0.489681 0.483043
0.511469 0.492708 0.486069
0.513575 0.495734 0.489096
0.515681 0.498761 0.492122
0.517787 0.501787 0.495149
0.519894 0.504814 0.498175
0.522000 0.507840 0.501202
0.524106 0.510867 0.504228
0.526213 0.513893 0.507255
0.528319 0.516920 0.510281
0.530425 0.519946 0.513308
0.502666 0.476544 0.470826
0.504772 0.479570 0.473852
0.506879 0.482597 0.476879
0.508985 0.485623 0.479905
0.511091 0.488650 0.482932
0.513198 0.491676 0.485958
0.515304 0.494703 0.488985
0.517410 0.497729 0.492011
0.519516 0.500756 0.495038
0.521623 0.503782 0.498064
0.523729 0.506809 0.501091
0.525835 0.509835 0.504117
0.527942 0.512862 0.507144
0.530048 0.515888 0.510170
0.532154 0.518915 0.513197
0.534261 0.521941 0.516223
0.536367 0.524968 0.519250
0.508608 0.481565 0.476767
0.510714 0.484592 0.479794
0.512820 0.487618 0.482820
0.514927 0.490645 0.485847
0.517033 0.493671 0.488873
0.519139 0.496698 0.491900
0.521246 0.499724 0.494926
0.523352 0.502751 0.497953
0.525458 0.505777 0.500979
0.527564 0.508804 0.504006
0.529671 0.511830 0.507032
0.531777 0.514857 0.510059
0.533883 0.517883 0.513085
0.535990 0.520910 0.516112
0.538096 0.523936 0.519138
0.540202 0.526963 0.522165
0.542309 0.529989 0.525191
0.514549 0.486587 0.482709
0.516656 0.489613 0.485735
0.518762 0.492640 0.488762
0.520868 0.495666 0.491788
0.522975 0.498693 0.494815
0.525081 0.501719 0.497841
0.527187 0.504746 0.500868
0.529293 0.507772 0.503894
0.531400 0.510799 0.506921
0.533506 0.513825 0.509947
0.535612 0.516852 0.512974
0.537719 0.519878 0.516000
0.539825 0.522905 0.519027
0.541931 0.525931 0.522053
0.544038 0.528958 0.525080
0.546144 0.531984 0.528106
0.548250 0.535011 0.531133
0.520491 0.491608 0.488651
0.522597 0.494635 0.491677
0.524704 0.497661 0.494704
0.526810 0.500688 0.497730
0.528916 0.503714 0.500757
0.531023 0.506741 0.503783
0.533129 0.509767 0.506810
0.535235 0.512794 0.509836
0.537341 0.515820 0.512863
0.539448 0.518847 0.515889
0.541554 0.521873 0.518916
0.543660 0.524900 0.521942
0.545767 0.527926 0.524969
0.547873 0.530953 0.527995
0.549979 0.533979 0.531022
0.552086 0.537006 0.534048
0.554192 0.540032 0.537075
0.526433 0.496630 0.494592
0.528539 0.499656 0.497619
0.530645 0.502683 0.500645
0.532752 0.505709 0.503672
0.534858 0.508736 0.506698
0.536964 0.511762 0.509725
0.539070 0.514789 0.512751
0.541177 0.517815 0.515778
0.543283 0.520842 0.518804
0.545389 0.523868 0.521831
0.547496 0.526895 0.524857
0.549602 0.529921 0.527884
0.551708 0.532948 0.530910
0.553815 0.535974 0.533937
0.555921 0.539001 0.536963
0.558027 0.542027 0.539990
0.560134 0.545054 0.543016
0.532374 0.501651 0.500534
0.534481 0.504678 0.503560
0.536587 0.507704 0.506587
0.538693 0.510731 0.509613
0.540799 0.513757 0.512640
0.542906 0.516784 0.515666
0.545012 0.519810 0.518693
0.547118 0.522837 0.521719
0.549225 0.525863 0.524746
0.551331 0.528890 0.527772
0.553437 0.531916 0.530799
0.555544 0.534943 0.533825
0.557650 0.537969 0.536852
0.559756 0.540996 0.539878
0.561863 0.544022 0.542905
0.563969 0.547049 0.545931
0.566075 0.550075 0.548958
0.438462 0.422462 0.405701
0.440568 0.425488 0.408728
0.442674 0.428515 0.411754
0.444781 0.431541 0.414781
0.446887 0.434568 0.417807
0.448993 0.437594 0.420834
0.451100 0.440621 0.423860
0.453206 0.443647 0.426887
0.455312 0.446674 0.429913
0.457419 0.449700 0.432940
0.459525 0.452727 0.435966
0.461631 0.455753 0.438993
0.463737 0.458780 0.442019
0.465844 0.461806 0.445046
0.467950 0.464833 0.448072
0.470056 0.467859 0.451099
0.472163 0.470886 0.454125
0.444403 0.427483 0.411643
