shared/src/main/assets/luts/film_cold_neon.cube
TITLE "DALUR Cold Neon"
LUT_3D_SIZE 9
DOMAIN_MIN 0.0 0.0 0.0
DOMAIN_MAX 1.0 1.0 1.0
0.415600 0.426000 0.444400
0.418870 0.432070 0.450470
0.422139 0.438139 0.456539
0.425409 0.444209 0.462609
0.428679 0.450279 0.468679
0.431948 0.456348 0.474749
0.435218 0.462418 0.480818
0.438488 0.468488 0.486888
0.441758 0.474558 0.492958
0.427516 0.435116 0.456316
0.430786 0.441186 0.462386
0.434055 0.447255 0.468455
0.437325 0.453325 0.474525
0.440595 0.459395 0.480595
0.443865 0.465465 0.486665
0.447134 0.471534 0.492734
0.450404 0.477604 0.498804
0.453674 0.483674 0.504874
0.439432 0.444232 0.468232
0.442702 0.450302 0.474302
0.445972 0.456372 0.480372
0.449241 0.462441 0.486441
0.452511 0.468511 0.492511
0.455781 0.474581 0.498581
0.459050 0.480650 0.504650
0.462320 0.486720 0.510720
0.465590 0.492790 0.516790
0.451348 0.453348 0.480148
0.454618 0.459418 0.486218
0.457888 0.465488 0.492288
0.461157 0.471557 0.498357
0.464427 0.477627 0.504427
0.467697 0.483697 0.510497
0.470966 0.489766 0.516566
0.474236 0.495836 0.522636
0.477506 0.501906 0.528706
0.463264 0.462464 0.492064
0.466534 0.468534 0.498134
0.469804 0.474604 0.504204
0.473073 0.480673 0.510273
0.476343 0.486743 0.516343
0.479613 0.492813 0.522413
0.482883 0.498883 0.528483
0.486152 0.504952 0.534552
0.489422 0.511022 0.540622
0.475180 0.471580 0.503980
0.478450 0.477650 0.510050
0.481720 0.483720 0.516120
0.484990 0.489790 0.522190
0.488259 0.495859 0.528259
0.491529 0.501929 0.534329
0.494799 0.507999 0.540399
0.498068 0.514068 0.546468
0.501338 0.520138 0.552538
0.487097 0.480697 0.515897
0.490366 0.486766 0.521966
0.493636 0.492836 0.528036
0.496906 0.498906 0.534106
0.500175 0.504975 0.540175
0.503445 0.511045 0.546245
0.506715 0.517115 0.552315
0.509984 0.523184 0.558384
0.513254 0.529254 0.564454
0.499013 0.489813 0.527813
0.502282 0.495882 0.533882
0.505552 0.501952 0.539952
0.508822 0.508022 0.546022
0.512092 0.514091 0.552091
0.515361 0.520161 0.558161
0.518631 0.526231 0.564231
0.521901 0.532301 0.570301
0.525170 0.538370 0.576370
0.510929 0.498929 0.539729
0.514199 0.504998 0.545798
0.517468 0.511068 0.551868
0.520738 0.517138 0.557938
0.524008 0.523208 0.564008
0.527277 0.529277 0.570077
0.530547 0.535347 0.576147
0.533817 0.541417 0.582217
0.537086 0.547486 0.588286
0.417914 0.428314 0.443914
0.421184 0.434384 0.449984
0.424454 0.440454 0.456054
0.427723 0.446523 0.462123
0.430993 0.452593 0.468193
0.434263 0.458663 0.474263
0.437532 0.464732 0.480332
0.440802 0.470802 0.486402
0.444072 0.476872 0.492472
0.429830 0.437430 0.455830
0.433100 0.443500 0.461900
0.436370 0.449570 0.467970
0.439639 0.455639 0.474039
0.442909 0.461709 0.480109
0.446179 0.467779 0.486179
0.449448 0.473849 0.492249
0.452718 0.479918 0.498318
0.455988 0.485988 0.504388
0.441746 0.446546 0.467746
0.445016 0.452616 0.473816
0.448286 0.458686 0.479886
0.451555 0.464755 0.485955
0.454825 0.470825 0.492025
0.458095 0.476895 0.498095
0.461365 0.482965 0.504165
0.464634 0.489034 0.510234
0.467904 0.495104 0.516304
0.453662 0.455662 0.479662
0.456932 0.461732 0.485732
0.460202 0.467802 0.491802
0.463472 0.473872 0.497872
0.466741 0.479941 0.503941
0.470011 0.486011 0.510011
0.473281 0.492081 0.516081
0.476550 0.498150 0.522150
0.479820 0.504220 0.528220
0.465579 0.464779 0.491579
0.468848 0.470848 0.497648
0.472118 0.476918 0.503718
0.475388 0.482988 0.509788
0.478657 0.489057 0.515857
0.481927 0.495127 0.521927
0.485197 0.501197 0.527997
0.488466 0.507267 0.534066
0.491736 0.513336 0.540136
0.477495 0.473895 0.503495
0.480764 0.479964 0.509564
0.484034 0.486034 0.515634
0.487304 0.492104 0.521704
0.490573 0.498174 0.527774
0.493843 0.504243 0.533843
0.497113 0.510313 0.539913
0.500383 0.516383 0.545983
0.503652 0.522452 0.552052
0.489411 0.483011 0.515411
0.492680 0.489080 0.521480
0.495950 0.495150 0.527550
0.499220 0.501220 0.533620
0.502490 0.507290 0.539690
0.505759 0.513359 0.545759
0.509029 0.519429 0.551829
0.512299 0.525499 0.557899
0.515568 0.531568 0.563968
0.501327 0.492127 0.527327
0.504597 0.498197 0.533397
0.507866 0.504266 0.539466
0.511136 0.510336 0.545536
0.514406 0.516406 0.551606
0.517675 0.522475 0.557675
0.520945 0.528545 0.563745
0.524215 0.534615 0.569815
0.527485 0.540685 0.575885
0.513243 0.501243 0.539243
0.516513 0.507313 0.545313
0.519782 0.513382 0.551382
0.523052 0.519452 0.557452
0.526322 0.525522 0.563522
0.529592 0.531591 0.569592
0.532861 0.537661 0.575661
0.536131 0.543731 0.581731
0.539401 0.549801 0.587801
0.420228 0.430628 0.443428
0.423498 0.436698 0.449498
0.426768 0.442768 0.455568
0.430037 0.448837 0.461637
0.433307 0.454907 0.467707
0.436577 0.460977 0.473777
0.439847 0.467047 0.479847
0.443116 0.473116 0.485916
0.446386 0.479186 0.491986
0.432144 0.439744 0.455345
0.435414 0.445814 0.461414
0.438684 0.451884 0.467484
0.441954 0.457954 0.473554
0.445223 0.464023 0.479623
0.448493 0.470093 0.485693
0.451763 0.476163 0.491763
0.455032 0.482232 0.497832
0.458302 0.488302 0.503902
0.444061 0.448861 0.467261
0.447330 0.454930 0.473330
0.450600 0.461000 0.479400
0.453870 0.467070 0.485470
0.457139 0.473139 0.491539
0.460409 0.479209 0.497609
0.463679 0.485279 0.503679
0.466948 0.491348 0.509748
0.470218 0.497418 0.515818
0.455977 0.457977 0.479177
0.459246 0.464046 0.485246
0.462516 0.470116 0.491316
0.465786 0.476186 0.497386
0.469055 0.482255 0.503455
0.472325 0.488325 0.509525
0.475595 0.494395 0.515595
0.478865 0.500465 0.521665
0.482134 0.506534 0.527734
0.467893 0.467093 0.491093
0.471162 0.473162 0.497163
0.474432 0.479232 0.503232
0.477702 0.485302 0.509302
0.480972 0.491372 0.515372
0.484241 0.497441 0.521441
0.487511 0.503511 0.527511
0.490781 0.509581 0.533581
0.494050 0.515650 0.539650
0.479809 0.476209 0.503009
0.483079 0.482279 0.509079
0.486348 0.488348 0.515148
0.489618 0.494418 0.521218
0.492888 0.500488 0.527288
0.496157 0.506557 0.533357
0.499427 0.512627 0.539427
0.502697 0.518697 0.545497
0.505966 0.524767 0.551566
0.491725 0.485325 0.514925
0.494995 0.491395 0.520995
0.498264 0.497464 0.527064
0.501534 0.503534 0.533134
0.504804 0.509604 0.539204
0.508074 0.515674 0.545274
0.511343 0.521743 0.551343
0.514613 0.527813 0.557413
0.517883 0.533883 0.563483
0.503641 0.494441 0.526841
0.506911 0.500511 0.532911
0.510180 0.506580 0.538980
0.513450 0.512650 0.545050
0.516720 0.518720 0.551120
0.519990 0.524790 0.557190
0.523259 0.530859 0.563259
0.526529 0.536929 0.569329
0.529799 0.542999 0.575399
0.515557 0.503557 0.538757
0.518827 0.509627 0.544827
0.522097 0.515697 0.550897
0.525366 0.521766 0.556966
0.528636 0.527836 0.563036
0.531906 0.533906 0.569106
0.535175 0.539975 0.575175
0.538445 0.546045 0.581245
0.541715 0.552115 0.587315
0.422543 0.432943 0.442943
0.425812 0.439012 0.449012
0.429082 0.445082 0.455082
0.432352 0.451152 0.461152
0.435621 0.457221 0.467221
0.438891 0.463291 0.473291
0.442161 0.469361 0.479361
0.445430 0.475430 0.485431
0.448700 0.481500 0.491500
0.434459 0.442059 0.454859
0.437728 0.448128 0.460928
0.440998 0.454198 0.466998
0.444268 0.460268 0.473068
0.447537 0.466337 0.479137
0.450807 0.472407 0.485207
0.454077 0.478477 0.491277
0.457347 0.484547 0.497347
0.460616 0.490616 0.503416
0.446375 0.451175 0.466775
0.449644 0.457244 0.472845
0.452914 0.463314 0.478914
0.456184 0.469384 0.484984
0.459454 0.475454 0.491054
0.462723 0.481523 0.497123
0.465993 0.487593 0.503193
0.469263 0.493663 0.509263
0.472532 0.499732 0.515332
0.458291 0.460291 0.478691
0.461561 0.466361 0.484761
0.464830 0.472430 0.490830
0.468100 0.478500 0.496900
0.471370 0.484570 0.502970
0.474639 0.490639 0.509039
0.477909 0.496709 0.515109
0.481179 0.502779 0.521179
0.484448 0.508848 0.527248
0.470207 0.469407 0.490607
0.473477 0.475477 0.496677
0.476746 0.481546 0.502746
0.480016 0.487616 0.508816
0.483286 0.493686 0.514886
0.486555 0.499756 0.520956
0.489825 0.505825 0.527025
0.493095 0.511895 0.533095
0.496365 0.517965 0.539165
0.482123 0.478523 0.502523
0.485393 0.484593 0.508593
0.488662 0.490662 0.514662
0.491932 0.496732 0.520732
0.495202 0.502802 0.526802
0.498472 0.508872 0.532872
0.501741 0.514941 0.538941
0.505011 0.521011 0.545011
0.508281 0.527081 0.551081
0.494039 0.487639 0.514439
0.497309 0.493709 0.520509
0.500579 0.499779 0.526579
0.503848 0.505848 0.532648
0.507118 0.511918 0.538718
0.510388 0.517988 0.544788
0.513657 0.524057 0.550857
0.516927 0.530127 0.556927
0.520197 0.536197 0.562997
0.505955 0.496755 0.526355
0.509225 0.502825 0.532425
0.512495 0.508895 0.538495
0.515764 0.514964 0.544564
0.519034 0.521034 0.550634
0.522304 0.527104 0.556704
0.525573 0.533173 0.562773
0.528843 0.539243 0.568843
0.532113 0.545313 0.574913
0.517871 0.505871 0.538271
0.521141 0.511941 0.544341
0.524411 0.518011 0.550411
0.527681 0.524081 0.556481
0.530950 0.530150 0.562550
0.534220 0.536220 0.568620
0.537490 0.542290 0.574690
0.540759 0.548359 0.580759
0.544029 0.554429 0.586829
0.424857 0.435257 0.442457
0.428126 0.441326 0.448526
0.431396 0.447396 0.454596
0.434666 0.453466 0.460666
0.437936 0.459536 0.466736
0.441205 0.465605 0.472805
0.444475 0.471675 0.478875
0.447745 0.477745 0.484945
0.451014 0.483814 0.491014
0.436773 0.444373 0.454373
0.440043 0.450443 0.460443
0.443312 0.456512 0.466512
0.446582 0.462582 0.472582
0.449852 0.468652 0.478652
0.453121 0.474721 0.484721
0.456391 0.480791 0.490791
0.459661 0.486861 0.496861
0.462930 0.492930 0.502931
0.448689 0.453489 0.466289
0.451959 0.459559 0.472359
0.455228 0.465628 0.478428
0.458498 0.471698 0.484498
0.461768 0.477768 0.490568
0.465037 0.483837 0.496637
0.468307 0.489907 0.502707
0.471577 0.495977 0.508777
0.474847 0.502047 0.514847
0.460605 0.462605 0.478205
0.463875 0.468675 0.484275
0.467144 0.474744 0.490345
0.470414 0.480814 0.496414
0.473684 0.486884 0.502484
0.476954 0.492954 0.508554
0.480223 0.499023 0.514623
0.483493 0.505093 0.520693
0.486763 0.511163 0.526763
0.472521 0.471721 0.490121
0.475791 0.477791 0.496191
0.479061 0.483861 0.502261
0.482330 0.489930 0.508330
0.485600 0.496000 0.514400
0.488870 0.502070 0.520470
0.492139 0.508139 0.526539
0.495409 0.514209 0.532609
0.498679 0.520279 0.538679
0.484437 0.480837 0.502037
0.487707 0.486907 0.508107
0.490977 0.492977 0.514177
0.494246 0.499046 0.520246
0.497516 0.505116 0.526316
0.500786 0.511186 0.532386
0.504055 0.517255 0.538455
0.507325 0.523325 0.544525
0.510595 0.529395 0.550595
0.496353 0.489953 0.513953
0.499623 0.496023 0.520023
0.502893 0.502093 0.526093
0.506163 0.508163 0.532163
0.509432 0.514232 0.538232
0.512702 0.520302 0.544302
0.515972 0.526372 0.550372
0.519241 0.532441 0.556441
0.522511 0.538511 0.562511
0.508270 0.499070 0.525869
0.511539 0.505139 0.531939
0.514809 0.511209 0.538009
0.518079 0.517279 0.544079
0.521348 0.523348 0.550148
0.524618 0.529418 0.556218
0.527888 0.535488 0.562288
0.531157 0.541557 0.568357
0.534427 0.547627 0.574427
0.520186 0.508186 0.537786
0.523455 0.514255 0.543855
0.526725 0.520325 0.549925
0.529995 0.526395 0.555995
0.533264 0.532464 0.562064
0.536534 0.538534 0.568134
0.539804 0.544604 0.574204
0.543073 0.550673 0.580273
0.546343 0.556743 0.586343
0.427171 0.437571 0.441971
0.430441 0.443641 0.448041
0.433710 0.449710 0.454110
0.436980 0.455780 0.460180
0.440250 0.461850 0.466250
0.443519 0.467919 0.472320
0.446789 0.473989 0.478389
0.450059 0.480059 0.484459
0.453329 0.486129 0.490529
0.439087 0.446687 0.453887
0.442357 0.452757 0.459957
0.445626 0.458826 0.466027
0.448896 0.464896 0.472096
0.452166 0.470966 0.478166
0.455436 0.477036 0.484236
0.458705 0.483105 0.490305
0.461975 0.489175 0.496375
0.465245 0.495245 0.502445
0.451003 0.455803 0.465803
0.454273 0.461873 0.471873
0.457543 0.467943 0.477943
0.460812 0.474012 0.484012
0.464082 0.480082 0.490082
0.467352 0.486152 0.496152
0.470621 0.492221 0.502221
0.473891 0.498291 0.508291
0.477161 0.504361 0.514361
0.462919 0.464919 0.477719
0.466189 0.470989 0.483789
0.469459 0.477059 0.489859
0.472728 0.483128 0.495928
0.475998 0.489198 0.501998
0.479268 0.495268 0.508068
0.482538 0.501337 0.514138
0.485807 0.507407 0.520207
0.489077 0.513477 0.526277
0.474835 0.474035 0.489635
0.478105 0.480105 0.495705
0.481375 0.486175 0.501775
0.484644 0.492244 0.507845
0.487914 0.498314 0.513914
0.491184 0.504384 0.519984
0.494454 0.510454 0.526054
0.497723 0.516523 0.532123
0.500993 0.522593 0.538193
0.486751 0.483151 0.501551
0.490021 0.489221 0.507621
0.493291 0.495291 0.513691
0.496561 0.501361 0.519761
0.499830 0.507430 0.525830
0.503100 0.513500 0.531900
0.506370 0.519570 0.537970
0.509639 0.525639 0.544039
0.512909 0.531709 0.550109
0.498668 0.492268 0.513468
0.501937 0.498337 0.519537
0.505207 0.504407 0.525607
0.508477 0.510477 0.531677
0.511746 0.516546 0.537746
0.515016 0.522616 0.543816
0.518286 0.528686 0.549886
0.521556 0.534756 0.555956
0.524825 0.540825 0.562025
0.510584 0.501384 0.525384
0.513853 0.507453 0.531453
0.517123 0.513523 0.537523
0.520393 0.519593 0.543593
0.523663 0.525663 0.549663
0.526932 0.531732 0.555732
0.530202 0.537802 0.561802
0.533472 0.543872 0.567872
0.536741 0.549941 0.573941
0.522500 0.510500 0.537300
0.525770 0.516570 0.543369
0.529039 0.522639 0.549439
0.532309 0.528709 0.555509
0.535579 0.534779 0.561579
0.538848 0.540848 0.567648
0.542118 0.546918 0.573718
0.545388 0.552988 0.579788
0.548657 0.559057 0.585857
0.429485 0.439885 0.441485
0.432755 0.445955 0.447555
0.436025 0.452025 0.453625
0.439294 0.458094 0.459694
0.442564 0.464164 0.465764
0.445834 0.470234 0.471834
0.449103 0.476303 0.477903
0.452373 0.482373 0.483973
0.455643 0.488443 0.490043
0.441401 0.449001 0.453401
0.444671 0.455071 0.459471
0.447941 0.461141 0.465541
0.451210 0.467210 0.471610
0.454480 0.473280 0.477680
0.457750 0.479350 0.483750
0.461019 0.485419 0.489819
0.464289 0.491489 0.495889
0.467559 0.497559 0.501959
0.453317 0.458117 0.465317
0.456587 0.464187 0.471387
0.459857 0.470257 0.477457
0.463126 0.476326 0.483526
0.466396 0.482396 0.489596
0.469666 0.488466 0.495666
0.472936 0.494536 0.501736
0.476205 0.500605 0.507805
0.479475 0.506675 0.513875
0.465233 0.467233 0.477233
0.468503 0.473303 0.483303
0.471773 0.479373 0.489373
0.475043 0.485443 0.495443
0.478312 0.491512 0.501512
0.481582 0.497582 0.507582
0.484852 0.503652 0.513652
0.488121 0.509721 0.519721
0.491391 0.515791 0.525791
0.477150 0.476350 0.489150
0.480419 0.482419 0.495219
0.483689 0.488489 0.501289
0.486959 0.494559 0.507359
0.490228 0.500628 0.513428
0.493498 0.506698 0.519498
0.496768 0.512768 0.525568
0.500038 0.518837 0.531637
0.503307 0.524907 0.537707
0.489066 0.485466 0.501066
0.492335 0.491535 0.507135
0.495605 0.497605 0.513205
0.498875 0.503675 0.519275
0.502144 0.509744 0.525344
0.505414 0.515814 0.531414
0.508684 0.521884 0.537484
0.511954 0.527954 0.543554
0.515223 0.534023 0.549623
0.500982 0.494582 0.512982
0.504252 0.500652 0.519051
0.507521 0.506721 0.525121
0.510791 0.512791 0.531191
0.514061 0.518861 0.537261
0.517330 0.524930 0.543330
0.520600 0.531000 0.549400
0.523870 0.537070 0.555470
0.527139 0.543139 0.561539
0.512898 0.503698 0.524898
0.516168 0.509768 0.530968
0.519437 0.515837 0.537037
0.522707 0.521907 0.543107
0.525977 0.527977 0.549177
0.529246 0.534046 0.555246
0.532516 0.540116 0.561316
0.535786 0.546186 0.567386
0.539056 0.552256 0.573456
0.524814 0.512814 0.536814
0.528084 0.518884 0.542884
0.531353 0.524953 0.548953
0.534623 0.531023 0.555023
0.537893 0.537093 0.561093
0.541162 0.543162 0.567162
0.544432 0.549232 0.573232
0.547702 0.555302 0.579302
0.550972 0.561372 0.585372
0.431799 0.442199 0.440999
0.435069 0.448269 0.447069
0.438339 0.454339 0.453139
0.441608 0.460408 0.459209
0.444878 0.466478 0.465278
0.448148 0.472548 0.471348
0.451418 0.478618 0.477418
0.454687 0.484687 0.483487
0.457957 0.490757 0.489557
0.443715 0.451316 0.452916
0.446985 0.457385 0.458985
0.450255 0.463455 0.465055
0.453525 0.469525 0.471125
0.456794 0.475594 0.477194
0.460064 0.481664 0.483264
0.463334 0.487734 0.489334
0.466603 0.493803 0.495403
0.469873 0.499873 0.501473
0.455632 0.460432 0.464832
0.458901 0.466501 0.470901
0.462171 0.472571 0.476971
0.465441 0.478641 0.483041
0.468710 0.484710 0.489110
0.471980 0.490780 0.495180
0.475250 0.496850 0.501250
0.478519 0.502919 0.507319
0.481789 0.508989 0.513389
0.467548 0.469548 0.476748
0.470817 0.475617 0.482817
0.474087 0.481687 0.488887
0.477357 0.487757 0.494957
0.480626 0.493826 0.501026
0.483896 0.499896 0.507096
0.487166 0.505966 0.513166
0.490436 0.512036 0.519236
0.493705 0.518105 0.525305
0.479464 0.478664 0.488664
0.482733 0.484733 0.494733
0.486003 0.490803 0.500803
0.489273 0.496873 0.506873
0.492543 0.502943 0.512943
0.495812 0.509012 0.519012
0.499082 0.515082 0.525082
0.502352 0.521152 0.531152
0.505621 0.527221 0.537221
0.491380 0.487780 0.500580
0.494650 0.493850 0.506650
0.497919 0.499919 0.512719
0.501189 0.505989 0.518789
0.504459 0.512059 0.524859
0.507728 0.518128 0.530928
0.510998 0.524198 0.536998
0.514268 0.530268 0.543068
0.517537 0.536337 0.549137
0.503296 0.496896 0.512496
0.506566 0.502966 0.518566
0.509835 0.509035 0.524635
0.513105 0.515105 0.530705
0.516375 0.521175 0.536775
0.519645 0.527245 0.542844
0.522914 0.533314 0.548914
0.526184 0.539384 0.554984
0.529454 0.545454 0.561054
0.515212 0.506012 0.524412
0.518482 0.512082 0.530482
0.521751 0.518151 0.536551
0.525021 0.524221 0.542621
0.528291 0.530291 0.548691
0.531561 0.536361 0.554761
0.534830 0.542430 0.560830
0.538100 0.548500 0.566900
0.541370 0.554570 0.572970
0.527128 0.515128 0.536328
0.530398 0.521198 0.542398
0.533668 0.527268 0.548468
0.536937 0.533337 0.554537
0.540207 0.539407 0.560607
0.543477 0.545477 0.566677
0.546746 0.551546 0.572746
0.550016 0.557616 0.578816
0.553286 0.563686 0.584886
0.434114 0.444514 0.440514
0.437383 0.450583 0.446583
0.440653 0.456653 0.452653
0.443923 0.462723 0.458723
0.447192 0.468792 0.464792
0.450462 0.474862 0.470862
0.453732 0.480932 0.476932
0.457001 0.487001 0.483001
0.460271 0.493071 0.489071
0.446030 0.453630 0.452430
0.449299 0.459699 0.458499
0.452569 0.465769 0.464569
0.455839 0.471839 0.470639
0.459109 0.477909 0.476709
0.462378 0.483978 0.482778
0.465648 0.490048 0.488848
0.468918 0.496118 0.494918
0.472187 0.502187 0.500987
0.457946 0.462746 0.464346
0.461215 0.468815 0.470415
0.464485 0.474885 0.476485
0.467755 0.480955 0.482555
0.471025 0.487025 0.488625
0.474294 0.493094 0.494694
0.477564 0.499164 0.500764
0.480834 0.505234 0.506834
0.484103 0.511303 0.512903
0.469862 0.471862 0.476262
0.473132 0.477932 0.482332
0.476401 0.484001 0.488401
0.479671 0.490071 0.494471
0.482941 0.496141 0.500541
0.486210 0.502210 0.506610
0.489480 0.508280 0.512680
0.492750 0.514350 0.518750
0.496019 0.520419 0.524819
0.481778 0.480978 0.488178
0.485048 0.487048 0.494248
0.488317 0.493117 0.500317
0.491587 0.499187 0.506387
0.494857 0.505257 0.512457
0.498126 0.511326 0.518526
0.501396 0.517396 0.524596
0.504666 0.523466 0.530666
0.507936 0.529536 0.536736
0.493694 0.490094 0.500094
0.496964 0.496164 0.506164
0.500233 0.502233 0.512233
0.503503 0.508303 0.518303
0.506773 0.514373 0.524373
0.510043 0.520443 0.530443
0.513312 0.526512 0.536512
0.516582 0.532582 0.542582
0.519852 0.538652 0.548652
0.505610 0.499210 0.512010
0.508880 0.505280 0.518080
0.512150 0.511350 0.524150
0.515419 0.517419 0.530219
0.518689 0.523489 0.536289
0.521959 0.529559 0.542359
0.525228 0.535628 0.548428
0.528498 0.541698 0.554498
0.531768 0.547768 0.560568
0.517526 0.508326 0.523926
0.520796 0.514396 0.529996
0.524066 0.520466 0.536066
0.527335 0.526535 0.542135
0.530605 0.532605 0.548205
0.533875 0.538675 0.554275
0.537145 0.544744 0.560344
0.540414 0.550814 0.566414
0.543684 0.556884 0.572484
0.529442 0.517442 0.535842
0.532712 0.523512 0.541912
0.535982 0.529582 0.547982
0.539251 0.535651 0.554051
0.542521 0.541721 0.560121
0.545791 0.547791 0.566191
0.549061 0.553861 0.572261
0.552330 0.559930 0.578330
0.555600 0.566000 0.584400
