shared/src/main/assets/luts/film_hollywood_blue.cube
TITLE "DALUR Hollywood Blue"
LUT_3D_SIZE 9
DOMAIN_MIN 0.0 0.0 0.0
DOMAIN_MAX 1.0 1.0 1.0
0.424000 0.429000 0.436000
0.432299 0.432924 0.439924
0.440599 0.436849 0.443849
0.448898 0.440773 0.447773
0.457197 0.444697 0.451697
0.465497 0.448622 0.455622
0.473796 0.452546 0.459546
0.482096 0.456471 0.463471
0.490395 0.460395 0.467395
0.431704 0.441079 0.443704
0.440004 0.445004 0.447629
0.448303 0.448928 0.451553
0.456602 0.452852 0.455477
0.464902 0.456777 0.459402
0.473201 0.460701 0.463326
0.481501 0.464626 0.467251
0.489800 0.468550 0.471175
0.498099 0.472474 0.475099
0.439409 0.453159 0.451409
0.447708 0.457083 0.455333
0.456007 0.461007 0.459257
0.464307 0.464932 0.463182
0.472606 0.468856 0.467106
0.480906 0.472781 0.471031
0.489205 0.476705 0.474955
0.497504 0.480629 0.478879
0.505804 0.484554 0.482804
0.447113 0.465238 0.459113
0.455412 0.469162 0.463037
0.463712 0.473087 0.466962
0.472011 0.477011 0.470886
0.480311 0.480936 0.474811
0.488610 0.484860 0.478735
0.496909 0.488784 0.482659
0.505209 0.492709 0.486584
0.513508 0.496633 0.490508
0.454817 0.477317 0.466817
0.463117 0.481242 0.470742
0.471416 0.485166 0.474666
0.479716 0.489091 0.478591
0.488015 0.493015 0.482515
0.496314 0.496939 0.486439
0.504614 0.500864 0.490364
0.512913 0.504788 0.494288
0.521212 0.508712 0.498212
0.462522 0.489397 0.474522
0.470821 0.493321 0.478446
0.479121 0.497246 0.482371
0.487420 0.501170 0.486295
0.495719 0.505094 0.490219
0.504019 0.509019 0.494144
0.512318 0.512943 0.498068
0.520617 0.516867 0.501992
0.528917 0.520792 0.505917
0.470226 0.501476 0.482226
0.478526 0.505401 0.486151
0.486825 0.509325 0.490075
0.495124 0.513249 0.493999
0.503424 0.517174 0.497924
0.511723 0.521098 0.501848
0.520023 0.525023 0.505772
0.528322 0.528947 0.509697
0.536621 0.532871 0.513621
0.477931 0.513556 0.489931
0.486230 0.517480 0.493855
0.494529 0.521404 0.497779
0.502829 0.525329 0.501704
0.511128 0.529253 0.505628
0.519427 0.533177 0.509552
0.527727 0.537102 0.513477
0.536026 0.541026 0.517401
0.544326 0.544951 0.521326
0.485635 0.525635 0.497635
0.493934 0.529559 0.501559
0.502234 0.533484 0.505484
0.510533 0.537408 0.509408
0.518833 0.541332 0.513332
0.527132 0.545257 0.517257
0.535431 0.549181 0.521181
0.543731 0.553106 0.525106
0.552030 0.557030 0.529030
0.425496 0.430496 0.441871
0.433796 0.434421 0.445796
0.442095 0.438345 0.449720
0.450394 0.442269 0.453644
0.458694 0.446194 0.457569
0.466993 0.450118 0.461493
0.475293 0.454042 0.465417
0.483592 0.457967 0.469342
0.491891 0.461891 0.473266
0.433201 0.442576 0.449576
0.441500 0.446500 0.453500
0.449799 0.450424 0.457424
0.458099 0.454349 0.461349
0.466398 0.458273 0.465273
0.474697 0.462198 0.469198
0.482997 0.466122 0.473122
0.491296 0.470046 0.477046
0.499596 0.473971 0.480971
0.440905 0.454655 0.457280
0.449204 0.458579 0.461204
0.457504 0.462504 0.465129
0.465803 0.466428 0.469053
0.474102 0.470352 0.472977
0.482402 0.474277 0.476902
0.490701 0.478201 0.480826
0.499001 0.482126 0.484751
0.507300 0.486050 0.488675
0.448609 0.466734 0.464984
0.456909 0.470659 0.468909
0.465208 0.474583 0.472833
0.473507 0.478507 0.476758
0.481807 0.482432 0.480682
0.490106 0.486356 0.484606
0.498406 0.490281 0.488531
0.506705 0.494205 0.492455
0.515004 0.498129 0.496379
0.456314 0.478814 0.472689
0.464613 0.482738 0.476613
0.472913 0.486662 0.480538
0.481212 0.490587 0.484462
0.489511 0.494511 0.488386
0.497811 0.498436 0.492311
0.506110 0.502360 0.496235
0.514409 0.506284 0.500159
0.522709 0.510209 0.504084
0.464018 0.490893 0.480393
0.472317 0.494817 0.484317
0.480617 0.498742 0.488242
0.488916 0.502666 0.492166
0.497216 0.506591 0.496091
0.505515 0.510515 0.500015
0.513814 0.514439 0.503939
0.522114 0.518364 0.507864
0.530413 0.522288 0.511788
0.471722 0.502973 0.488098
0.480022 0.506897 0.492022
0.488321 0.510821 0.495946
0.496621 0.514746 0.499871
0.504920 0.518670 0.503795
0.513219 0.522594 0.507719
0.521519 0.526519 0.511644
0.529818 0.530443 0.515568
0.538118 0.534367 0.519493
0.479427 0.515052 0.495802
0.487726 0.518976 0.499726
0.496026 0.522901 0.503651
0.504325 0.526825 0.507575
0.512624 0.530749 0.511499
0.520924 0.534674 0.515424
0.529223 0.538598 0.519348
0.537522 0.542522 0.523273
0.545822 0.546447 0.527197
0.487131 0.527131 0.503506
0.495431 0.531056 0.507431
0.503730 0.534980 0.511355
0.512029 0.538904 0.515279
0.520329 0.542829 0.519204
0.528628 0.546753 0.523128
0.536928 0.550678 0.527053
0.545227 0.554602 0.530977
0.553526 0.558526 0.534901
0.426992 0.431993 0.447742
0.435292 0.435917 0.451667
0.443591 0.439841 0.455591
0.451891 0.443766 0.459516
0.460190 0.447690 0.463440
0.468489 0.451614 0.467364
0.476789 0.455539 0.471289
0.485088 0.459463 0.475213
0.493387 0.463388 0.479137
0.434697 0.444072 0.455447
0.442996 0.447996 0.459371
0.451296 0.451921 0.463296
0.459595 0.455845 0.467220
0.467894 0.459769 0.471144
0.476194 0.463694 0.475069
0.484493 0.467618 0.478993
0.492792 0.471542 0.482917
0.501092 0.475467 0.486842
0.442401 0.456151 0.463151
0.450701 0.460076 0.467076
0.459000 0.464000 0.471000
0.467299 0.467924 0.474924
0.475599 0.471849 0.478849
0.483898 0.475773 0.482773
0.492197 0.479697 0.486698
0.500497 0.483622 0.490622
0.508796 0.487546 0.494546
0.450106 0.468231 0.470856
0.458405 0.472155 0.474780
0.466704 0.476079 0.478704
0.475004 0.480004 0.482629
0.483303 0.483928 0.486553
0.491602 0.487852 0.490477
0.499902 0.491777 0.494402
0.508201 0.495701 0.498326
0.516501 0.499626 0.502251
0.457810 0.480310 0.478560
0.466109 0.484234 0.482484
0.474409 0.488159 0.486409
0.482708 0.492083 0.490333
0.491007 0.496007 0.494257
0.499307 0.499932 0.498182
0.507606 0.503856 0.502106
0.515906 0.507781 0.506031
0.524205 0.511705 0.509955
0.465514 0.492389 0.486264
0.473814 0.496314 0.490189
0.482113 0.500238 0.494113
0.490412 0.504162 0.498038
0.498712 0.508087 0.501962
0.507011 0.512011 0.505886
0.515311 0.515936 0.509811
0.523610 0.519860 0.513735
0.531909 0.523784 0.517659
0.473219 0.504469 0.493969
0.481518 0.508393 0.497893
0.489818 0.512318 0.501818
0.498117 0.516242 0.505742
0.506416 0.520166 0.509666
0.514716 0.524091 0.513591
0.523015 0.528015 0.517515
0.531314 0.531939 0.521439
0.539614 0.535864 0.525364
0.480923 0.516548 0.501673
0.489223 0.520473 0.505597
0.497522 0.524397 0.509522
0.505821 0.528321 0.513446
0.514121 0.532246 0.517371
0.522420 0.536170 0.521295
0.530719 0.540094 0.525219
0.539019 0.544019 0.529144
0.547318 0.547943 0.533068
0.488627 0.528628 0.509378
0.496927 0.532552 0.513302
0.505226 0.536476 0.517226
0.513526 0.540401 0.521151
0.521825 0.544325 0.525075
0.530124 0.548249 0.528999
0.538424 0.552174 0.532924
0.546723 0.556098 0.536848
0.555022 0.560022 0.540772
0.428489 0.433489 0.453614
0.436788 0.437413 0.457538
0.445087 0.441337 0.461462
0.453387 0.445262 0.465387
0.461686 0.449186 0.469311
0.469986 0.453111 0.473236
0.478285 0.457035 0.477160
0.486584 0.460959 0.481084
0.494884 0.464884 0.485009
0.436193 0.445568 0.461318
0.444492 0.449492 0.465242
0.452792 0.453417 0.469167
0.461091 0.457341 0.473091
0.469391 0.461266 0.477016
0.477690 0.465190 0.480940
0.485989 0.469114 0.484864
0.494289 0.473039 0.488789
0.502588 0.476963 0.492713
0.443897 0.457647 0.469022
0.452197 0.461572 0.472947
0.460496 0.465496 0.476871
0.468796 0.469421 0.480796
0.477095 0.473345 0.484720
0.485394 0.477269 0.488644
0.493694 0.481194 0.492569
0.501993 0.485118 0.496493
0.510292 0.489042 0.500417
0.451602 0.469727 0.476727
0.459901 0.473651 0.480651
0.468201 0.477576 0.484576
0.476500 0.481500 0.488500
0.484799 0.485424 0.492424
0.493099 0.489349 0.496349
0.501398 0.493273 0.500273
0.509697 0.497197 0.504197
0.517997 0.501122 0.508122
0.459306 0.481806 0.484431
0.467606 0.485731 0.488356
0.475905 0.489655 0.492280
0.484204 0.493579 0.496204
0.492504 0.497504 0.500129
0.500803 0.501428 0.504053
0.509103 0.505352 0.507977
0.517402 0.509277 0.511902
0.525701 0.513201 0.515826
0.467011 0.493886 0.492136
0.475310 0.497810 0.496060
0.483609 0.501734 0.499984
0.491909 0.505659 0.503909
0.500208 0.509583 0.507833
0.508507 0.513507 0.511757
0.516807 0.517432 0.515682
0.525106 0.521356 0.519606
0.533406 0.525281 0.523531
0.474715 0.505965 0.499840
0.483014 0.509889 0.503764
0.491314 0.513814 0.507689
0.499613 0.517738 0.511613
0.507912 0.521663 0.515537
0.516212 0.525587 0.519462
0.524511 0.529511 0.523386
0.532811 0.533436 0.527311
0.541110 0.537360 0.531235
0.482419 0.518044 0.507544
0.490719 0.521969 0.511469
0.499018 0.525893 0.515393
0.507317 0.529817 0.519317
0.515617 0.533742 0.523242
0.523916 0.537666 0.527166
0.532216 0.541591 0.531091
0.540515 0.545515 0.535015
0.548814 0.549439 0.538939
0.490124 0.530124 0.515249
0.498423 0.534048 0.519173
0.506722 0.537972 0.523097
0.515022 0.541897 0.527022
0.523321 0.545821 0.530946
0.531621 0.549746 0.534871
0.539920 0.553670 0.538795
0.548219 0.557594 0.542719
0.556519 0.561519 0.546644
0.429985 0.434985 0.459485
0.438284 0.438909 0.463409
0.446584 0.442834 0.467334
0.454883 0.446758 0.471258
0.463182 0.450682 0.475183
0.471482 0.454607 0.479107
0.479781 0.458531 0.483031
0.488081 0.462456 0.486956
0.496380 0.466380 0.490880
0.437689 0.447064 0.467189
0.445989 0.450989 0.471114
0.454288 0.454913 0.475038
0.462587 0.458838 0.478962
0.470887 0.462762 0.482887
0.479186 0.466686 0.486811
0.487486 0.470611 0.490736
0.495785 0.474535 0.494660
0.504084 0.478459 0.498584
0.445394 0.459144 0.474894
0.453693 0.463068 0.478818
0.461992 0.466992 0.482742
0.470292 0.470917 0.486667
0.478591 0.474841 0.490591
0.486891 0.478766 0.494516
0.495190 0.482690 0.498440
0.503489 0.486614 0.502364
0.511789 0.490539 0.506289
0.453098 0.471223 0.482598
0.461397 0.475147 0.486522
0.469697 0.479072 0.490447
0.477996 0.482996 0.494371
0.486296 0.486921 0.498296
0.494595 0.490845 0.502220
0.502894 0.494769 0.506144
0.511194 0.498694 0.510069
0.519493 0.502618 0.513993
0.460802 0.483302 0.490302
0.469102 0.487227 0.494227
0.477401 0.491151 0.498151
0.485701 0.495076 0.502076
0.494000 0.499000 0.506000
0.502299 0.502924 0.509924
0.510599 0.506849 0.513849
0.518898 0.510773 0.517773
0.527197 0.514698 0.521698
0.468507 0.495382 0.498007
0.476806 0.499306 0.501931
0.485106 0.503231 0.505856
0.493405 0.507155 0.509780
0.501704 0.511079 0.513704
0.510004 0.515004 0.517629
0.518303 0.518928 0.521553
0.526602 0.522852 0.525477
0.534902 0.526777 0.529402
0.476211 0.507461 0.505711
0.484511 0.511386 0.509636
0.492810 0.515310 0.513560
0.501109 0.519234 0.517484
0.509409 0.523159 0.521409
0.517708 0.527083 0.525333
0.526008 0.531008 0.529258
0.534307 0.534932 0.533182
0.542606 0.538856 0.537106
0.483916 0.519541 0.513416
0.492215 0.523465 0.517340
0.500514 0.527389 0.521264
0.508814 0.531314 0.525189
0.517113 0.535238 0.529113
0.525413 0.539162 0.533038
0.533712 0.543087 0.536962
0.542011 0.547011 0.540886
0.550311 0.550936 0.544811
0.491620 0.531620 0.521120
0.499919 0.535544 0.525044
0.508219 0.539469 0.528969
0.516518 0.543393 0.532893
0.524818 0.547318 0.536818
0.533117 0.551242 0.540742
0.541416 0.555166 0.544666
0.549716 0.559091 0.548591
0.558015 0.563015 0.552515
0.431481 0.436481 0.465356
0.439781 0.440406 0.469281
0.448080 0.444330 0.473205
0.456379 0.448254 0.477129
0.464679 0.452179 0.481054
0.472978 0.456103 0.484978
0.481277 0.460027 0.488902
0.489577 0.463952 0.492827
0.497876 0.467876 0.496751
0.439186 0.448561 0.473061
0.447485 0.452485 0.476985
0.455784 0.456409 0.480909
0.464084 0.460334 0.484834
0.472383 0.464258 0.488758
0.480683 0.468183 0.492683
0.488982 0.472107 0.496607
0.497281 0.476031 0.500531
0.505581 0.479956 0.504456
0.446890 0.460640 0.480765
0.455189 0.464564 0.484689
0.463489 0.468489 0.488614
0.471788 0.472413 0.492538
0.480087 0.476337 0.496462
0.488387 0.480262 0.500387
0.496686 0.484186 0.504311
0.504986 0.488111 0.508236
0.513285 0.492035 0.512160
0.454594 0.472719 0.488469
0.462894 0.476644 0.492394
0.471193 0.480568 0.496318
0.479492 0.484492 0.500242
0.487792 0.488417 0.504167
0.496091 0.492341 0.508091
0.504391 0.496266 0.512016
0.512690 0.500190 0.515940
0.520989 0.504114 0.519864
0.462299 0.484799 0.496174
0.470598 0.488723 0.500098
0.478897 0.492648 0.504023
0.487197 0.496572 0.507947
0.495496 0.500496 0.511871
0.503796 0.504421 0.515796
0.512095 0.508345 0.519720
0.520394 0.512269 0.523644
0.528694 0.516194 0.527569
0.470003 0.496878 0.503878
0.478302 0.500802 0.507802
0.486602 0.504727 0.511727
0.494901 0.508651 0.515651
0.503201 0.512576 0.519576
0.511500 0.516500 0.523500
0.519799 0.520424 0.527424
0.528099 0.524349 0.531349
0.536398 0.528273 0.535273
0.477708 0.508958 0.511583
0.486007 0.512882 0.515507
0.494306 0.516806 0.519431
0.502606 0.520731 0.523356
0.510905 0.524655 0.527280
0.519204 0.528579 0.531204
0.527504 0.532504 0.535129
0.535803 0.536428 0.539053
0.544103 0.540353 0.542978
0.485412 0.521037 0.519287
0.493711 0.524961 0.523211
0.502011 0.528886 0.527136
0.510310 0.532810 0.531060
0.518609 0.536734 0.534984
0.526909 0.540659 0.538909
0.535208 0.544583 0.542833
0.543507 0.548507 0.546758
0.551807 0.552432 0.550682
0.493116 0.533116 0.526991
0.501416 0.537041 0.530916
0.509715 0.540965 0.534840
0.518014 0.544889 0.538764
0.526314 0.548814 0.542689
0.534613 0.552738 0.546613
0.542913 0.556662 0.550538
0.551212 0.560587 0.554462
0.559511 0.564511 0.558386
0.432977 0.437977 0.471228
0.441277 0.441902 0.475152
0.449576 0.445826 0.479076
0.457876 0.449751 0.483001
0.466175 0.453675 0.486925
0.474474 0.457599 0.490849
0.482774 0.461524 0.494774
0.491073 0.465448 0.498698
0.499372 0.469372 0.502622
0.440682 0.450057 0.478932
0.448981 0.453981 0.482856
0.457281 0.457906 0.486781
0.465580 0.461830 0.490705
0.473879 0.465754 0.494629
0.482179 0.469679 0.498554
0.490478 0.473603 0.502478
0.498777 0.477527 0.506402
0.507077 0.481452 0.510327
0.448386 0.462136 0.486636
0.456686 0.466061 0.490561
0.464985 0.469985 0.494485
0.473284 0.473909 0.498409
0.481584 0.477834 0.502334
0.489883 0.481758 0.506258
0.498182 0.485682 0.510182
0.506482 0.489607 0.514107
0.514781 0.493531 0.518031
0.456091 0.474216 0.494341
0.464390 0.478140 0.498265
0.472689 0.482064 0.502189
0.480989 0.485989 0.506114
0.489288 0.489913 0.510038
0.497587 0.493837 0.513962
0.505887 0.497762 0.517887
0.514186 0.501686 0.521811
0.522486 0.505611 0.525736
0.463795 0.486295 0.502045
0.472094 0.490219 0.505969
0.480394 0.494144 0.509894
0.488693 0.498068 0.513818
0.496992 0.501992 0.517742
0.505292 0.505917 0.521667
0.513591 0.509841 0.525591
0.521891 0.513766 0.529516
0.530190 0.517690 0.533440
0.471499 0.498374 0.509749
0.479799 0.502299 0.513674
0.488098 0.506223 0.517598
0.496397 0.510147 0.521522
0.504697 0.514072 0.525447
0.512996 0.517996 0.529371
0.521296 0.521921 0.533296
0.529595 0.525845 0.537220
0.537894 0.529769 0.541144
0.479204 0.510454 0.517454
0.487503 0.514378 0.521378
0.495803 0.518302 0.525303
0.504102 0.522227 0.529227
0.512401 0.526151 0.533151
0.520701 0.530076 0.537076
0.529000 0.534000 0.541000
0.537299 0.537924 0.544924
0.545599 0.541849 0.548849
0.486908 0.522533 0.525158
0.495208 0.526457 0.529083
0.503507 0.530382 0.533007
0.511806 0.534306 0.536931
0.520106 0.538231 0.540856
0.528405 0.542155 0.544780
0.536704 0.546079 0.548704
0.545004 0.550004 0.552629
0.553303 0.553928 0.556553
0.494613 0.534613 0.532863
0.502912 0.538537 0.536787
0.511211 0.542461 0.540711
0.519511 0.546386 0.544636
0.527810 0.550310 0.548560
0.536109 0.554234 0.552484
0.544409 0.558159 0.556409
0.552708 0.562083 0.560333
0.561007 0.566007 0.564258
0.434474 0.439474 0.477099
0.442773 0.443398 0.481023
0.451072 0.447322 0.484947
0.459372 0.451247 0.488872
0.467671 0.455171 0.492796
0.475971 0.459096 0.496721
0.484270 0.463020 0.500645
0.492569 0.466944 0.504569
0.500869 0.470869 0.508494
0.442178 0.451553 0.484803
0.450477 0.455477 0.488727
0.458777 0.459402 0.492652
0.467076 0.463326 0.496576
0.475376 0.467251 0.500501
0.483675 0.471175 0.504425
0.491974 0.475099 0.508349
0.500274 0.479024 0.512274
0.508573 0.482948 0.516198
0.449882 0.463632 0.492507
0.458182 0.467557 0.496432
0.466481 0.471481 0.500356
0.474781 0.475406 0.504281
0.483080 0.479330 0.508205
0.491379 0.483254 0.512129
0.499679 0.487179 0.516054
0.507978 0.491103 0.519978
0.516277 0.495027 0.523902
0.457587 0.475712 0.500212
0.465886 0.479636 0.504136
0.474186 0.483561 0.508061
0.482485 0.487485 0.511985
0.490784 0.491409 0.515909
0.499084 0.495334 0.519834
0.507383 0.499258 0.523758
0.515682 0.503182 0.527682
0.523982 0.507107 0.531607
0.465291 0.487791 0.507916
0.473591 0.491716 0.511841
0.481890 0.495640 0.515765
0.490189 0.499564 0.519689
0.498489 0.503489 0.523614
0.506788 0.507413 0.527538
0.515087 0.511338 0.531462
0.523387 0.515262 0.535387
0.531686 0.519186 0.539311
0.472996 0.499871 0.515621
0.481295 0.503795 0.519545
0.489594 0.507719 0.523469
0.497894 0.511644 0.527394
0.506193 0.515568 0.531318
0.514492 0.519492 0.535242
0.522792 0.523417 0.539167
0.531091 0.527341 0.543091
0.539391 0.531266 0.547016
0.480700 0.511950 0.523325
0.488999 0.515874 0.527249
0.497299 0.519799 0.531174
0.505598 0.523723 0.535098
0.513897 0.527647 0.539022
0.522197 0.531572 0.542947
0.530496 0.535496 0.546871
0.538796 0.539421 0.550796
0.547095 0.543345 0.554720
0.488404 0.524029 0.531029
0.496704 0.527954 0.534954
0.505003 0.531878 0.538878
0.513302 0.535802 0.542802
0.521602 0.539727 0.546727
0.529901 0.543651 0.550651
0.538201 0.547576 0.554576
0.546500 0.551500 0.558500
0.554799 0.555424 0.562424
0.496109 0.536109 0.538734
0.504408 0.540033 0.542658
0.512707 0.543957 0.546582
0.521007 0.547882 0.550507
0.529306 0.551806 0.554431
0.537606 0.555731 0.558356
0.545905 0.559655 0.562280
0.554204 0.563579 0.566204
0.562504 0.567504 0.570129
0.435970 0.440970 0.482970
0.444269 0.444894 0.486894
0.452569 0.448819 0.490819
0.460868 0.452743 0.494743
0.469168 0.456668 0.498668
0.477467 0.460592 0.502592
0.485766 0.464516 0.506516
0.494066 0.468441 0.510441
0.502365 0.472365 0.514365
0.443674 0.453049 0.490674
0.451974 0.456974 0.494599
0.460273 0.460898 0.498523
0.468572 0.464822 0.502447
0.476872 0.468747 0.506372
0.485171 0.472671 0.510296
0.493471 0.476596 0.514221
0.501770 0.480520 0.518145
0.510069 0.484444 0.522069
0.451379 0.465129 0.498379
0.459678 0.469053 0.502303
0.467977 0.472977 0.506228
0.476277 0.476902 0.510152
0.484576 0.480826 0.514076
0.492876 0.484751 0.518001
0.501175 0.488675 0.521925
0.509474 0.492599 0.525849
0.517774 0.496524 0.529774
0.459083 0.477208 0.506083
0.467382 0.481132 0.510007
0.475682 0.485057 0.513932
0.483981 0.488981 0.517856
0.492281 0.492906 0.521781
0.500580 0.496830 0.525705
0.508879 0.500754 0.529629
0.517179 0.504679 0.533554
0.525478 0.508603 0.537478
0.466787 0.489287 0.513788
0.475087 0.493212 0.517712
0.483386 0.497136 0.521636
0.491686 0.501061 0.525561
0.499985 0.504985 0.529485
0.508284 0.508909 0.533409
0.516584 0.512834 0.537334
0.524883 0.516758 0.541258
0.533183 0.520683 0.545183
0.474492 0.501367 0.521492
0.482791 0.505291 0.525416
0.491091 0.509216 0.529341
0.499390 0.513140 0.533265
0.507689 0.517064 0.537189
0.515989 0.520989 0.541114
0.524288 0.524913 0.545038
0.532587 0.528837 0.548963
0.540887 0.532762 0.552887
0.482196 0.513446 0.529196
0.490496 0.517371 0.533121
0.498795 0.521295 0.537045
0.507094 0.525219 0.540969
0.515394 0.529144 0.544894
0.523693 0.533068 0.548818
0.531993 0.536993 0.552743
0.540292 0.540917 0.556667
0.548591 0.544841 0.560591
0.489901 0.525526 0.536901
0.498200 0.529450 0.540825
0.506499 0.533374 0.544749
0.514799 0.537299 0.548674
0.523098 0.541223 0.552598
0.531397 0.545148 0.556523
0.539697 0.549072 0.560447
0.547996 0.552996 0.564371
0.556296 0.556921 0.568296
0.497605 0.537605 0.544605
0.505904 0.541529 0.548529
0.514204 0.545454 0.552454
0.522503 0.549378 0.556378
0.530803 0.553303 0.560303
0.539102 0.557227 0.564227
0.547401 0.561151 0.568151
0.555701 0.565076 0.572076
0.564000 0.569000 0.576000
