shared/src/main/assets/luts/film_cold_neon.cube
TITLE "DALUR Cold Neon"
LUT_3D_SIZE 17
DOMAIN_MIN 0.0 0.0 0.0
DOMAIN_MAX 1.0 1.0 1.0
0.415600 0.426000 0.444400
0.417235 0.429035 0.447435
0.418870 0.432070 0.450470
0.420505 0.435105 0.453505
0.422139 0.438139 0.456539
0.423774 0.441174 0.459574
0.425409 0.444209 0.462609
0.427044 0.447244 0.465644
0.428679 0.450279 0.468679
0.430314 0.453314 0.471714
0.431948 0.456348 0.474749
0.433583 0.459383 0.477783
0.435218 0.462418 0.480818
0.436853 0.465453 0.483853
0.438488 0.468488 0.486888
0.440123 0.471523 0.489923
0.441758 0.474558 0.492958
0.421558 0.430558 0.450358
0.423193 0.433593 0.453393
0.424828 0.436628 0.456428
0.426463 0.439663 0.459463
0.428097 0.442697 0.462497
0.429732 0.445732 0.465532
0.431367 0.448767 0.468567
0.433002 0.451802 0.471602
0.434637 0.454837 0.474637
0.436272 0.457872 0.477672
0.437907 0.460907 0.480707
0.439541 0.463941 0.483741
0.441176 0.466976 0.486776
0.442811 0.470011 0.489811
0.444446 0.473046 0.492846
0.446081 0.476081 0.495881
0.447716 0.479116 0.498916
0.427516 0.435116 0.456316
0.429151 0.438151 0.459351
0.430786 0.441186 0.462386
0.432421 0.444221 0.465421
0.434055 0.447255 0.468455
0.435690 0.450290 0.471490
0.437325 0.453325 0.474525
0.438960 0.456360 0.477560
0.440595 0.459395 0.480595
0.442230 0.462430 0.483630
0.443865 0.465465 0.486665
0.445499 0.468499 0.489699
0.447134 0.471534 0.492734
0.448769 0.474569 0.495769
0.450404 0.477604 0.498804
0.452039 0.480639 0.501839
0.453674 0.483674 0.504874
0.433474 0.439674 0.462274
0.435109 0.442709 0.465309
0.436744 0.445744 0.468344
0.438379 0.448779 0.471379
0.440014 0.451814 0.474414
0.441648 0.454848 0.477448
0.443283 0.457883 0.480483
0.444918 0.460918 0.483518
0.446553 0.463953 0.486553
0.448188 0.466988 0.489588
0.449823 0.470023 0.492623
0.451457 0.473057 0.495658
0.453092 0.476092 0.498692
0.454727 0.479127 0.501727
0.456362 0.482162 0.504762
0.457997 0.485197 0.507797
0.459632 0.488232 0.510832
0.439432 0.444232 0.468232
0.441067 0.447267 0.471267
0.442702 0.450302 0.474302
0.444337 0.453337 0.477337
0.445972 0.456372 0.480372
0.447606 0.459406 0.483406
0.449241 0.462441 0.486441
0.450876 0.465476 0.489476
0.452511 0.468511 0.492511
0.454146 0.471546 0.495546
0.455781 0.474581 0.498581
0.457416 0.477616 0.501616
0.459050 0.480650 0.504650
0.460685 0.483685 0.507685
0.462320 0.486720 0.510720
0.463955 0.489755 0.513755
0.465590 0.492790 0.516790
0.445390 0.448790 0.474190
0.447025 0.451825 0.477225
0.448660 0.454860 0.480260
0.450295 0.457895 0.483295
0.451930 0.460930 0.486330
0.453564 0.463965 0.489365
0.455199 0.466999 0.492399
0.456834 0.470034 0.495434
0.458469 0.473069 0.498469
0.460104 0.476104 0.501504
0.461739 0.479139 0.504539
0.463374 0.482174 0.507574
0.465008 0.485208 0.510608
0.466643 0.488243 0.513643
0.468278 0.491278 0.516678
0.469913 0.494313 0.519713
0.471548 0.497348 0.522748
0.451348 0.453348 0.480148
0.452983 0.456383 0.483183
0.454618 0.459418 0.486218
0.456253 0.462453 0.489253
0.457888 0.465488 0.492288
0.459523 0.468523 0.495323
0.461157 0.471557 0.498357
0.462792 0.474592 0.501392
0.464427 0.477627 0.504427
0.466062 0.480662 0.507462
0.467697 0.483697 0.510497
0.469332 0.486732 0.513532
0.470966 0.489766 0.516566
0.472601 0.492801 0.519601
0.474236 0.495836 0.522636
0.475871 0.498871 0.525671
0.477506 0.501906 0.528706
0.457306 0.457906 0.486106
0.458941 0.460941 0.489141
0.460576 0.463976 0.492176
0.462211 0.467011 0.495211
0.463846 0.470046 0.498246
0.465481 0.473081 0.501281
0.467115 0.476115 0.504315
0.468750 0.479150 0.507350
0.470385 0.482185 0.510385
0.472020 0.485220 0.513420
0.473655 0.488255 0.516455
0.475290 0.491290 0.519490
0.476925 0.494325 0.522525
0.478559 0.497359 0.525559
0.480194 0.500394 0.528594
0.481829 0.503429 0.531629
0.483464 0.506464 0.534664
0.463264 0.462464 0.492064
0.464899 0.465499 0.495099
0.466534 0.468534 0.498134
0.468169 0.471569 0.501169
0.469804 0.474604 0.504204
0.471439 0.477639 0.507239
0.473073 0.480673 0.510273
0.474708 0.483708 0.513308
0.476343 0.486743 0.516343
0.477978 0.489778 0.519378
0.479613 0.492813 0.522413
0.481248 0.495848 0.525448
0.482883 0.498883 0.528483
0.484517 0.501917 0.531517
0.486152 0.504952 0.534552
0.487787 0.507987 0.537587
0.489422 0.511022 0.540622
0.469222 0.467022 0.498022
0.470857 0.470057 0.501057
0.472492 0.473092 0.504092
0.474127 0.476127 0.507127
0.475762 0.479162 0.510162
0.477397 0.482197 0.513197
0.479032 0.485232 0.516232
0.480666 0.488266 0.519266
0.482301 0.491301 0.522301
0.483936 0.494336 0.525336
0.485571 0.497371 0.528371
0.487206 0.500406 0.531406
0.488841 0.503441 0.534441
0.490475 0.506475 0.537475
0.492110 0.509510 0.540510
0.493745 0.512545 0.543545
0.495380 0.515580 0.546580
0.475180 0.471580 0.503980
0.476815 0.474615 0.507015
0.478450 0.477650 0.510050
0.480085 0.480685 0.513085
0.481720 0.483720 0.516120
0.483355 0.486755 0.519155
0.484990 0.489790 0.522190
0.486624 0.492824 0.525224
0.488259 0.495859 0.528259
0.489894 0.498894 0.531294
0.491529 0.501929 0.534329
0.493164 0.504964 0.537364
0.494799 0.507999 0.540399
0.496434 0.511034 0.543434
0.498068 0.514068 0.546468
0.499703 0.517103 0.549503
0.501338 0.520138 0.552538
0.481139 0.476139 0.509939
0.482773 0.479173 0.512973
0.484408 0.482208 0.516008
0.486043 0.485243 0.519043
0.487678 0.488278 0.522078
0.489313 0.491313 0.525113
0.490948 0.494348 0.528148
0.492582 0.497382 0.531182
0.494217 0.500417 0.534217
0.495852 0.503452 0.537252
0.497487 0.506487 0.540287
0.499122 0.509522 0.543322
0.500757 0.512557 0.546357
0.502392 0.515592 0.549392
0.504026 0.518626 0.552426
0.505661 0.521661 0.555461
0.507296 0.524696 0.558496
0.487097 0.480697 0.515897
0.488731 0.483731 0.518931
0.490366 0.486766 0.521966
0.492001 0.489801 0.525001
0.493636 0.492836 0.528036
0.495271 0.495871 0.531071
0.496906 0.498906 0.534106
0.498541 0.501941 0.537141
0.500175 0.504975 0.540175
0.501810 0.508010 0.543210
0.503445 0.511045 0.546245
0.505080 0.514080 0.549280
0.506715 0.517115 0.552315
0.508350 0.520150 0.555350
0.509984 0.523184 0.558384
0.511619 0.526219 0.561419
0.513254 0.529254 0.564454
0.493055 0.485255 0.521855
0.494689 0.488289 0.524889
0.496324 0.491324 0.527924
0.497959 0.494359 0.530959
0.499594 0.497394 0.533994
0.501229 0.500429 0.537029
0.502864 0.503464 0.540064
0.504499 0.506499 0.543099
0.506133 0.509533 0.546133
0.507768 0.512568 0.549168
0.509403 0.515603 0.552203
0.511038 0.518638 0.555238
0.512673 0.521673 0.558273
0.514308 0.524708 0.561308
0.515943 0.527743 0.564343
0.517577 0.530777 0.567377
0.519212 0.533812 0.570412
0.499013 0.489813 0.527813
0.500648 0.492848 0.530848
0.502282 0.495882 0.533882
0.503917 0.498917 0.536917
0.505552 0.501952 0.539952
0.507187 0.504987 0.542987
0.508822 0.508022 0.546022
0.510457 0.511057 0.549057
0.512092 0.514091 0.552091
0.513726 0.517126 0.555126
0.515361 0.520161 0.558161
0.516996 0.523196 0.561196
0.518631 0.526231 0.564231
0.520266 0.529266 0.567266
0.521901 0.532301 0.570301
0.523535 0.535335 0.573335
0.525170 0.538370 0.576370
0.504971 0.494371 0.533771
0.506606 0.497406 0.536806
0.508240 0.500440 0.539840
0.509875 0.503475 0.542875
0.511510 0.506510 0.545910
0.513145 0.509545 0.548945
0.514780 0.512580 0.551980
0.516415 0.515615 0.555015
0.518050 0.518650 0.558050
0.519684 0.521684 0.561084
0.521319 0.524719 0.564119
0.522954 0.527754 0.567154
0.524589 0.530789 0.570189
0.526224 0.533824 0.573224
0.527859 0.536859 0.576259
0.529493 0.539893 0.579293
0.531128 0.542928 0.582328
0.510929 0.498929 0.539729
0.512564 0.501964 0.542764
0.514199 0.504998 0.545798
0.515833 0.508033 0.548833
0.517468 0.511068 0.551868
0.519103 0.514103 0.554903
0.520738 0.517138 0.557938
0.522373 0.520173 0.560973
0.524008 0.523208 0.564008
0.525642 0.526242 0.567042
0.527277 0.529277 0.570077
0.528912 0.532312 0.573112
0.530547 0.535347 0.576147
0.532182 0.538382 0.579182
0.533817 0.541417 0.582217
0.535452 0.544452 0.585252
0.537086 0.547486 0.588286
0.416757 0.427157 0.444157
0.418392 0.430192 0.447192
0.420027 0.433227 0.450227
0.421662 0.436262 0.453262
0.423296 0.439296 0.456296
0.424931 0.442331 0.459331
0.426566 0.445366 0.462366
0.428201 0.448401 0.465401
0.429836 0.451436 0.468436
0.431471 0.454471 0.471471
0.433106 0.457506 0.474506
0.434740 0.460540 0.477540
0.436375 0.463575 0.480575
0.438010 0.466610 0.483610
0.439645 0.469645 0.486645
0.441280 0.472680 0.489680
0.442915 0.475715 0.492715
0.422715 0.431715 0.450115
0.424350 0.434750 0.453150
0.425985 0.437785 0.456185
0.427620 0.440820 0.459220
0.429255 0.443855 0.462255
0.430889 0.446889 0.465289
0.432524 0.449924 0.468324
0.434159 0.452959 0.471359
0.435794 0.455994 0.474394
0.437429 0.459029 0.477429
0.439064 0.462064 0.480464
0.440698 0.465098 0.483498
0.442333 0.468133 0.486533
0.443968 0.471168 0.489568
0.445603 0.474203 0.492603
0.447238 0.477238 0.495638
0.448873 0.480273 0.498673
0.428673 0.436273 0.456073
0.430308 0.439308 0.459108
0.431943 0.442343 0.462143
0.433578 0.445378 0.465178
0.435213 0.448413 0.468213
0.436847 0.451447 0.471247
0.438482 0.454482 0.474282
0.440117 0.457517 0.477317
0.441752 0.460552 0.480352
0.443387 0.463587 0.483387
0.445022 0.466622 0.486422
0.446657 0.469657 0.489457
0.448291 0.472691 0.492491
0.449926 0.475726 0.495526
0.451561 0.478761 0.498561
0.453196 0.481796 0.501596
0.454831 0.484831 0.504631
0.434631 0.440831 0.462031
0.436266 0.443866 0.465066
0.437901 0.446901 0.468101
0.439536 0.449936 0.471136
0.441171 0.452971 0.474171
0.442805 0.456006 0.477206
0.444440 0.459040 0.480240
0.446075 0.462075 0.483275
0.447710 0.465110 0.486310
0.449345 0.468145 0.489345
0.450980 0.471180 0.492380
0.452615 0.474215 0.495415
0.454249 0.477249 0.498449
0.455884 0.480284 0.501484
0.457519 0.483319 0.504519
0.459154 0.486354 0.507554
0.460789 0.489389 0.510589
0.440589 0.445389 0.467989
0.442224 0.448424 0.471024
0.443859 0.451459 0.474059
0.445494 0.454494 0.477094
0.447129 0.457529 0.480129
0.448764 0.460564 0.483164
0.450398 0.463598 0.486198
0.452033 0.466633 0.489233
0.453668 0.469668 0.492268
0.455303 0.472703 0.495303
0.456938 0.475738 0.498338
0.458573 0.478773 0.501373
0.460207 0.481807 0.504408
0.461842 0.484842 0.507442
0.463477 0.487877 0.510477
0.465112 0.490912 0.513512
0.466747 0.493947 0.516547
0.446547 0.449947 0.473947
0.448182 0.452982 0.476982
0.449817 0.456017 0.480017
0.451452 0.459052 0.483052
0.453087 0.462087 0.486087
0.454722 0.465122 0.489122
0.456356 0.468156 0.492156
0.457991 0.471191 0.495191
0.459626 0.474226 0.498226
0.461261 0.477261 0.501261
0.462896 0.480296 0.504296
0.464531 0.483331 0.507331
0.466166 0.486366 0.510366
0.467800 0.489400 0.513400
0.469435 0.492435 0.516435
0.471070 0.495470 0.519470
0.472705 0.498505 0.522505
0.452505 0.454505 0.479905
0.454140 0.457540 0.482940
0.455775 0.460575 0.485975
0.457410 0.463610 0.489010
0.459045 0.466645 0.492045
0.460680 0.469680 0.495080
0.462314 0.472714 0.498114
0.463949 0.475749 0.501149
0.465584 0.478784 0.504184
0.467219 0.481819 0.507219
0.468854 0.484854 0.510254
0.470489 0.487889 0.513289
0.472124 0.490924 0.516324
0.473758 0.493958 0.519358
0.475393 0.496993 0.522393
0.477028 0.500028 0.525428
0.478663 0.503063 0.528463
0.458463 0.459063 0.485863
0.460098 0.462098 0.488898
0.461733 0.465133 0.491933
0.463368 0.468168 0.494968
0.465003 0.471203 0.498003
0.466638 0.474238 0.501038
0.468273 0.477273 0.504073
0.469907 0.480307 0.507107
0.471542 0.483342 0.510142
0.473177 0.486377 0.513177
0.474812 0.489412 0.516212
0.476447 0.492447 0.519247
0.478082 0.495482 0.522282
0.479716 0.498516 0.525316
0.481351 0.501551 0.528351
0.482986 0.504586 0.531386
0.484621 0.507621 0.534421
0.464421 0.463621 0.491821
0.466056 0.466656 0.494856
0.467691 0.469691 0.497891
0.469326 0.472726 0.500926
0.470961 0.475761 0.503961
0.472596 0.478796 0.506996
0.474231 0.481831 0.510031
0.475865 0.484865 0.513065
0.477500 0.487900 0.516100
0.479135 0.490935 0.519135
0.480770 0.493970 0.522170
0.482405 0.497005 0.525205
0.484040 0.500040 0.528240
0.485675 0.503075 0.531275
0.487309 0.506109 0.534309
0.488944 0.509144 0.537344
0.490579 0.512179 0.540379
0.470380 0.468180 0.497780
0.472014 0.471214 0.500814
0.473649 0.474249 0.503849
0.475284 0.477284 0.506884
0.476919 0.480319 0.509919
0.478554 0.483354 0.512954
0.480189 0.486389 0.515989
0.481824 0.489424 0.519023
0.483458 0.492458 0.522058
0.485093 0.495493 0.525093
0.486728 0.498528 0.528128
0.488363 0.501563 0.531163
0.489998 0.504598 0.534198
0.491633 0.507633 0.537233
0.493267 0.510667 0.540267
0.494902 0.513702 0.543302
0.496537 0.516737 0.546337
0.476338 0.472738 0.503738
0.477972 0.475772 0.506772
0.479607 0.478807 0.509807
0.481242 0.481842 0.512842
0.482877 0.484877 0.515877
0.484512 0.487912 0.518912
0.486147 0.490947 0.521947
0.487782 0.493982 0.524982
0.489416 0.497016 0.528016
0.491051 0.500051 0.531051
0.492686 0.503086 0.534086
0.494321 0.506121 0.537121
0.495956 0.509156 0.540156
0.497591 0.512191 0.543191
0.499225 0.515225 0.546225
0.500860 0.518260 0.549260
0.502495 0.521295 0.552295
0.482296 0.477296 0.509696
0.483930 0.480330 0.512730
0.485565 0.483365 0.515765
0.487200 0.486400 0.518800
0.488835 0.489435 0.521835
0.490470 0.492470 0.524870
0.492105 0.495505 0.527905
0.493740 0.498540 0.530940
0.495374 0.501574 0.533974
0.497009 0.504609 0.537009
0.498644 0.507644 0.540044
0.500279 0.510679 0.543079
0.501914 0.513714 0.546114
0.503549 0.516749 0.549149
0.505184 0.519784 0.552184
0.506818 0.522818 0.555218
0.508453 0.525853 0.558253
0.488254 0.481854 0.515654
0.489889 0.484889 0.518689
0.491523 0.487923 0.521723
0.493158 0.490958 0.524758
0.494793 0.493993 0.527793
0.496428 0.497028 0.530828
0.498063 0.500063 0.533863
0.499698 0.503098 0.536898
0.501333 0.506132 0.539933
0.502967 0.509167 0.542967
0.504602 0.512202 0.546002
0.506237 0.515237 0.549037
0.507872 0.518272 0.552072
0.509507 0.521307 0.555107
0.511142 0.524342 0.558142
0.512776 0.527376 0.561176
0.514411 0.530411 0.564211
0.494212 0.486412 0.521612
0.495847 0.489447 0.524647
0.497481 0.492481 0.527681
0.499116 0.495516 0.530716
0.500751 0.498551 0.533751
0.502386 0.501586 0.536786
0.504021 0.504621 0.539821
0.505656 0.507656 0.542856
0.507291 0.510691 0.545891
0.508925 0.513725 0.548925
0.510560 0.516760 0.551960
0.512195 0.519795 0.554995
0.513830 0.522830 0.558030
0.515465 0.525865 0.561065
0.517100 0.528900 0.564100
0.518734 0.531934 0.567134
0.520369 0.534969 0.570169
0.500170 0.490970 0.527570
0.501805 0.494005 0.530605
0.503440 0.497039 0.533640
0.505074 0.500074 0.536674
0.506709 0.503109 0.539709
0.508344 0.506144 0.542744
0.509979 0.509179 0.545779
0.511614 0.512214 0.548814
0.513249 0.515249 0.551849
0.514883 0.518283 0.554883
0.516518 0.521318 0.557918
0.518153 0.524353 0.560953
0.519788 0.527388 0.563988
0.521423 0.530423 0.567023
0.523058 0.533458 0.570058
0.524693 0.536493 0.573093
0.526327 0.539527 0.576127
0.506128 0.495528 0.533528
0.507763 0.498563 0.536563
0.509398 0.501598 0.539598
0.511032 0.504632 0.542632
0.512667 0.507667 0.545667
0.514302 0.510702 0.548702
0.515937 0.513737 0.551737
0.517572 0.516772 0.554772
0.519207 0.519807 0.557807
0.520842 0.522841 0.560841
0.522476 0.525876 0.563876
0.524111 0.528911 0.566911
0.525746 0.531946 0.569946
0.527381 0.534981 0.572981
0.529016 0.538016 0.576016
0.530651 0.541051 0.579051
0.532285 0.544085 0.582085
0.512086 0.500086 0.539486
0.513721 0.503121 0.542521
0.515356 0.506156 0.545556
0.516990 0.509190 0.548590
0.518625 0.512225 0.551625
0.520260 0.515260 0.554660
0.521895 0.518295 0.557695
0.523530 0.521330 0.560730
0.525165 0.524365 0.563765
0.526800 0.527400 0.566800
0.528434 0.530434 0.569834
0.530069 0.533469 0.572869
0.531704 0.536504 0.575904
0.533339 0.539539 0.578939
0.534974 0.542574 0.581974
0.536609 0.545609 0.585009
0.538244 0.548644 0.588044
0.417914 0.428314 0.443914
0.419549 0.431349 0.446949
0.421184 0.434384 0.449984
0.422819 0.437419 0.453019
0.424454 0.440454 0.456054
0.426088 0.443488 0.459088
0.427723 0.446523 0.462123
0.429358 0.449558 0.465158
0.430993 0.452593 0.468193
0.432628 0.455628 0.471228
0.434263 0.458663 0.474263
0.435898 0.461698 0.477298
0.437532 0.464732 0.480332
0.439167 0.467767 0.483367
0.440802 0.470802 0.486402
0.442437 0.473837 0.489437
0.444072 0.476872 0.492472
0.423872 0.432872 0.449872
0.425507 0.435907 0.452907
0.427142 0.438942 0.455942
0.428777 0.441977 0.458977
0.430412 0.445012 0.462012
0.432046 0.448047 0.465047
0.433681 0.451081 0.468081
0.435316 0.454116 0.471116
0.436951 0.457151 0.474151
0.438586 0.460186 0.477186
0.440221 0.463221 0.480221
0.441856 0.466256 0.483256
0.443490 0.469290 0.486290
0.445125 0.472325 0.489325
0.446760 0.475360 0.492360
0.448395 0.478395 0.495395
0.450030 0.481430 0.498430
0.429830 0.437430 0.455830
0.431465 0.440465 0.458865
0.433100 0.443500 0.461900
0.434735 0.446535 0.464935
0.436370 0.449570 0.467970
0.438005 0.452605 0.471005
0.439639 0.455639 0.474039
0.441274 0.458674 0.477074
0.442909 0.461709 0.480109
0.444544 0.464744 0.483144
0.446179 0.467779 0.486179
0.447814 0.470814 0.489214
0.449448 0.473849 0.492249
0.451083 0.476883 0.495283
0.452718 0.479918 0.498318
0.454353 0.482953 0.501353
0.455988 0.485988 0.504388
0.435788 0.441988 0.461788
0.437423 0.445023 0.464823
0.439058 0.448058 0.467858
0.440693 0.451093 0.470893
0.442328 0.454128 0.473928
0.443963 0.457163 0.476963
0.445597 0.460197 0.479997
0.447232 0.463232 0.483032
0.448867 0.466267 0.486067
0.450502 0.469302 0.489102
0.452137 0.472337 0.492137
0.453772 0.475372 0.495172
0.455407 0.478407 0.498207
0.457041 0.481441 0.501241
0.458676 0.484476 0.504276
0.460311 0.487511 0.507311
0.461946 0.490546 0.510346
0.441746 0.446546 0.467746
0.443381 0.449581 0.470781
0.445016 0.452616 0.473816
0.446651 0.455651 0.476851
0.448286 0.458686 0.479886
0.449921 0.461721 0.482921
0.451555 0.464755 0.485955
0.453190 0.467790 0.488990
0.454825 0.470825 0.492025
0.456460 0.473860 0.495060
0.458095 0.476895 0.498095
0.459730 0.479930 0.501130
0.461365 0.482965 0.504165
0.462999 0.485999 0.507199
0.464634 0.489034 0.510234
0.466269 0.492069 0.513269
0.467904 0.495104 0.516304
0.447704 0.451104 0.473704
0.449339 0.454139 0.476739
0.450974 0.457174 0.479774
0.452609 0.460209 0.482809
0.454244 0.463244 0.485844
0.455879 0.466279 0.488879
0.457514 0.469314 0.491914
0.459148 0.472348 0.494948
0.460783 0.475383 0.497983
0.462418 0.478418 0.501018
0.464053 0.481453 0.504053
0.465688 0.484488 0.507088
0.467323 0.487523 0.510123
0.468958 0.490558 0.513158
0.470592 0.493592 0.516192
0.472227 0.496627 0.519227
0.473862 0.499662 0.522262
0.453662 0.455662 0.479662
0.455297 0.458697 0.482697
0.456932 0.461732 0.485732
0.458567 0.464767 0.488767
0.460202 0.467802 0.491802
0.461837 0.470837 0.494837
0.463472 0.473872 0.497872
0.465106 0.476906 0.500906
0.466741 0.479941 0.503941
0.468376 0.482976 0.506976
0.470011 0.486011 0.510011
0.471646 0.489046 0.513046
0.473281 0.492081 0.516081
0.474916 0.495116 0.519116
0.476550 0.498150 0.522150
0.478185 0.501185 0.525185
0.479820 0.504220 0.528220
0.459621 0.460221 0.485621
0.461255 0.463255 0.488655
0.462890 0.466290 0.491690
0.464525 0.469325 0.494725
0.466160 0.472360 0.497760
0.467795 0.475395 0.500795
0.469430 0.478430 0.503830
0.471064 0.481465 0.506865
0.472699 0.484499 0.509899
0.474334 0.487534 0.512934
0.475969 0.490569 0.515969
0.477604 0.493604 0.519004
0.479239 0.496639 0.522039
0.480874 0.499674 0.525074
0.482508 0.502708 0.528108
0.484143 0.505743 0.531143
0.485778 0.508778 0.534178
0.465579 0.464779 0.491579
0.467213 0.467813 0.494613
0.468848 0.470848 0.497648
0.470483 0.473883 0.500683
0.472118 0.476918 0.503718
0.473753 0.479953 0.506753
0.475388 0.482988 0.509788
0.477023 0.486023 0.512823
0.478657 0.489057 0.515857
0.480292 0.492092 0.518892
0.481927 0.495127 0.521927
0.483562 0.498162 0.524962
0.485197 0.501197 0.527997
0.486832 0.504232 0.531032
0.488466 0.507267 0.534066
0.490101 0.510301 0.537101
0.491736 0.513336 0.540136
0.471537 0.469337 0.497537
0.473172 0.472371 0.500572
0.474806 0.475406 0.503606
0.476441 0.478441 0.506641
0.478076 0.481476 0.509676
0.479711 0.484511 0.512711
0.481346 0.487546 0.515746
0.482981 0.490581 0.518781
0.484615 0.493615 0.521815
0.486250 0.496650 0.524850
0.487885 0.499685 0.527885
0.489520 0.502720 0.530920
0.491155 0.505755 0.533955
0.492790 0.508790 0.536990
0.494425 0.511825 0.540025
0.496059 0.514859 0.543059
0.497694 0.517894 0.546094
0.477495 0.473895 0.503495
0.479130 0.476930 0.506530
0.480764 0.479964 0.509564
0.482399 0.482999 0.512599
0.484034 0.486034 0.515634
0.485669 0.489069 0.518669
0.487304 0.492104 0.521704
0.488939 0.495139 0.524739
0.490573 0.498174 0.527774
0.492208 0.501208 0.530808
0.493843 0.504243 0.533843
0.495478 0.507278 0.536878
0.497113 0.510313 0.539913
0.498748 0.513348 0.542948
0.500383 0.516383 0.545983
0.502017 0.519417 0.549017
0.503652 0.522452 0.552052
0.483453 0.478453 0.509453
0.485088 0.481488 0.512488
0.486722 0.484522 0.515522
0.488357 0.487557 0.518557
0.489992 0.490592 0.521592
0.491627 0.493627 0.524627
0.493262 0.496662 0.527662
0.494897 0.499697 0.530697
0.496532 0.502732 0.533732
0.498166 0.505766 0.536766
0.499801 0.508801 0.539801
0.501436 0.511836 0.542836
0.503071 0.514871 0.545871
0.504706 0.517906 0.548906
0.506341 0.520941 0.551941
0.507976 0.523975 0.554975
0.509610 0.527010 0.558010
0.489411 0.483011 0.515411
0.491046 0.486046 0.518446
0.492680 0.489080 0.521480
0.494315 0.492115 0.524515
0.495950 0.495150 0.527550
0.497585 0.498185 0.530585
0.499220 0.501220 0.533620
0.500855 0.504255 0.536655
0.502490 0.507290 0.539690
0.504124 0.510324 0.542724
0.505759 0.513359 0.545759
0.507394 0.516394 0.548794
0.509029 0.519429 0.551829
0.510664 0.522464 0.554864
0.512299 0.525499 0.557899
0.513934 0.528534 0.560934
0.515568 0.531568 0.563968
0.495369 0.487569 0.521369
0.497004 0.490604 0.524404
0.498639 0.493639 0.527439
0.500273 0.496673 0.530473
0.501908 0.499708 0.533508
0.503543 0.502743 0.536543
0.505178 0.505778 0.539578
0.506813 0.508813 0.542613
0.508448 0.511848 0.545648
0.510082 0.514882 0.548682
0.511717 0.517917 0.551717
0.513352 0.520952 0.554752
0.514987 0.523987 0.557787
0.516622 0.527022 0.560822
0.518257 0.530057 0.563857
0.519892 0.533092 0.566892
0.521526 0.536126 0.569926
0.501327 0.492127 0.527327
0.502962 0.495162 0.530362
0.504597 0.498197 0.533397
0.506231 0.501231 0.536431
0.507866 0.504266 0.539466
0.509501 0.507301 0.542501
0.511136 0.510336 0.545536
0.512771 0.513371 0.548571
0.514406 0.516406 0.551606
0.516041 0.519441 0.554641
0.517675 0.522475 0.557675
0.519310 0.525510 0.560710
0.520945 0.528545 0.563745
0.522580 0.531580 0.566780
0.524215 0.534615 0.569815
0.525850 0.537650 0.572850
0.527485 0.540685 0.575885
0.507285 0.496685 0.533285
0.508920 0.499720 0.536320
0.510555 0.502755 0.539355
0.512189 0.505789 0.542389
0.513824 0.508824 0.545424
0.515459 0.511859 0.548459
0.517094 0.514894 0.551494
0.518729 0.517929 0.554529
0.520364 0.520964 0.557564
0.521999 0.523999 0.560599
0.523633 0.527033 0.563633
0.525268 0.530068 0.566668
0.526903 0.533103 0.569703
0.528538 0.536138 0.572738
0.530173 0.539173 0.575773
0.531808 0.542208 0.578808
0.533443 0.545243 0.581843
0.513243 0.501243 0.539243
0.514878 0.504278 0.542278
0.516513 0.507313 0.545313
0.518148 0.510348 0.548348
0.519782 0.513382 0.551382
0.521417 0.516417 0.554417
0.523052 0.519452 0.557452
0.524687 0.522487 0.560487
0.526322 0.525522 0.563522
0.527957 0.528557 0.566557
0.529592 0.531591 0.569592
0.531226 0.534626 0.572626
0.532861 0.537661 0.575661
0.534496 0.540696 0.578696
0.536131 0.543731 0.581731
0.537766 0.546766 0.584766
0.539401 0.549801 0.587801
0.419071 0.429471 0.443671
0.420706 0.432506 0.446706
0.422341 0.435541 0.449741
0.423976 0.438576 0.452776
0.425611 0.441611 0.455811
0.427246 0.444646 0.458846
0.428880 0.447680 0.461880
0.430515 0.450715 0.464915
0.432150 0.453750 0.467950
0.433785 0.456785 0.470985
0.435420 0.459820 0.474020
0.437055 0.462855 0.477055
0.438689 0.465889 0.480089
0.440324 0.468924 0.483124
0.441959 0.471959 0.486159
0.443594 0.474994 0.489194
0.445229 0.478029 0.492229
0.425029 0.434029 0.449629
