shared/src/main/assets/luts/film_dusty_sepia.cube
TITLE "DALUR Dusty Sepia"
LUT_3D_SIZE 5
DOMAIN_MIN 0.0 0.0 0.0
DOMAIN_MAX 1.0 1.0 1.0
0.488000 0.470000 0.452000
0.489922 0.475804 0.457804
0.491843 0.481608 0.463608
0.493765 0.487412 0.469412
0.495687 0.493216 0.475216
0.499394 0.477512 0.463394
0.501316 0.483316 0.469198
0.503238 0.489120 0.475002
0.505160 0.494924 0.480806
0.507081 0.500728 0.486610
0.510789 0.485024 0.474789
0.512710 0.490828 0.480593
0.514632 0.496632 0.486397
0.516554 0.502436 0.492201
0.518476 0.508240 0.498005
0.522183 0.492536 0.486183
0.524105 0.498340 0.491987
0.526027 0.504144 0.497791
0.527948 0.509948 0.503595
0.529870 0.515752 0.509399
0.533578 0.500049 0.497578
0.535499 0.505853 0.503381
0.537421 0.511656 0.509185
0.539343 0.517460 0.514989
0.541264 0.523264 0.520793
0.490213 0.472213 0.450331
0.492135 0.478017 0.456135
0.494056 0.483821 0.461939
0.495978 0.489625 0.467742
0.497900 0.495429 0.473546
0.501607 0.479725 0.461725
0.503529 0.485529 0.467529
0.505451 0.491333 0.473333
0.507372 0.497137 0.479137
0.509294 0.502941 0.484941
0.513002 0.487237 0.473119
0.514923 0.493041 0.478923
0.516845 0.498845 0.484727
0.518767 0.504649 0.490531
0.520688 0.510453 0.496335
0.524396 0.494749 0.484514
0.526318 0.500553 0.490318
0.528239 0.506357 0.496122
0.530161 0.512161 0.501926
0.532083 0.517965 0.507730
0.535790 0.502261 0.495908
0.537712 0.508065 0.501712
0.539634 0.513869 0.507516
0.541556 0.519673 0.513320
0.543477 0.525477 0.519124
0.492426 0.474426 0.448661
0.494347 0.480230 0.454465
0.496269 0.486034 0.460269
0.498191 0.491838 0.466073
0.500113 0.497642 0.471877
0.503820 0.481938 0.460056
0.505742 0.487742 0.465860
0.507664 0.493546 0.471664
0.509585 0.499350 0.477468
0.511507 0.505154 0.483271
0.515215 0.489450 0.471450
0.517136 0.495254 0.477254
0.519058 0.501058 0.483058
0.520980 0.506862 0.488862
0.522901 0.512666 0.494666
0.526609 0.496962 0.482844
0.528531 0.502766 0.488648
0.530452 0.508570 0.494452
0.532374 0.514374 0.500256
0.534296 0.520178 0.506060
0.538003 0.504474 0.494239
0.539925 0.510278 0.500043
0.541847 0.516082 0.505847
0.543768 0.521886 0.511651
0.545690 0.527690 0.517455
0.494639 0.476639 0.446992
0.496560 0.482443 0.452796
0.498482 0.488247 0.458600
0.500404 0.494050 0.464404
0.502325 0.499854 0.470208
0.506033 0.484151 0.458386
0.507955 0.489955 0.464190
0.509876 0.495759 0.469994
0.511798 0.501563 0.475798
0.513720 0.507367 0.481602
0.517427 0.491663 0.469781
0.519349 0.497467 0.475585
0.521271 0.503271 0.481389
0.523193 0.509075 0.487193
0.525114 0.514879 0.492996
0.528822 0.499175 0.481175
0.530744 0.504979 0.486979
0.532665 0.510783 0.492783
0.534587 0.516587 0.498587
0.536509 0.522391 0.504391
0.540216 0.506687 0.492569
0.542138 0.512491 0.498373
0.544060 0.518295 0.504177
0.545981 0.524099 0.509981
0.547903 0.529903 0.515785
0.496852 0.478852 0.445323
0.498773 0.484655 0.451126
0.500695 0.490459 0.456930
0.502617 0.496263 0.462734
0.504538 0.502067 0.468538
0.508246 0.486364 0.456717
0.510168 0.492168 0.462521
0.512089 0.497972 0.468325
0.514011 0.503776 0.474129
0.515933 0.509579 0.479933
0.519640 0.493876 0.468111
0.521562 0.499680 0.473915
0.523484 0.505484 0.479719
0.525405 0.511288 0.485523
0.527327 0.517092 0.491327
0.531035 0.501388 0.479506
0.532956 0.507192 0.485310
0.534878 0.512996 0.491114
0.536800 0.518800 0.496918
0.538722 0.524604 0.502722
0.542429 0.508900 0.490900
0.544351 0.514704 0.496704
0.546272 0.520508 0.502508
0.548194 0.526312 0.508312
0.550116 0.532116 0.514116
