shared/src/main/assets/luts/film_hollywood_blue.cube
TITLE "DALUR Hollywood Blue"
LUT_3D_SIZE 17
DOMAIN_MIN 0.0 0.0 0.0
DOMAIN_MAX 1.0 1.0 1.0
0.424000 0.429000 0.436000
0.428150 0.430962 0.437962
0.432299 0.432924 0.439924
0.436449 0.434887 0.441887
0.440599 0.436849 0.443849
0.444748 0.438811 0.445811
0.448898 0.440773 0.447773
0.453048 0.442735 0.449735
0.457197 0.444697 0.451697
0.461347 0.446660 0.453660
0.465497 0.448622 0.455622
0.469647 0.450584 0.457584
0.473796 0.452546 0.459546
0.477946 0.454508 0.461508
0.482096 0.456471 0.463471
0.486245 0.458433 0.465433
0.490395 0.460395 0.467395
0.427852 0.435040 0.439852
0.432002 0.437002 0.441814
0.436152 0.438964 0.443777
0.440301 0.440926 0.445739
0.444451 0.442888 0.447701
0.448601 0.444851 0.449663
0.452750 0.446813 0.451625
0.456900 0.448775 0.453587
0.461050 0.450737 0.455550
0.465199 0.452699 0.457512
0.469349 0.454662 0.459474
0.473499 0.456624 0.461436
0.477648 0.458586 0.463398
0.481798 0.460548 0.465361
0.485948 0.462510 0.467323
0.490097 0.464472 0.469285
0.494247 0.466435 0.471247
0.431704 0.441079 0.443704
0.435854 0.443042 0.445667
0.440004 0.445004 0.447629
0.444153 0.446966 0.449591
0.448303 0.448928 0.451553
0.452453 0.450890 0.453515
0.456602 0.452852 0.455477
0.460752 0.454815 0.457440
0.464902 0.456777 0.459402
0.469052 0.458739 0.461364
0.473201 0.460701 0.463326
0.477351 0.462663 0.465288
0.481501 0.464626 0.467251
0.485650 0.466588 0.469213
0.489800 0.468550 0.471175
0.493950 0.470512 0.473137
0.498099 0.472474 0.475099
0.435557 0.447119 0.447557
0.439706 0.449081 0.449519
0.443856 0.451043 0.451481
0.448006 0.453006 0.453443
0.452155 0.454968 0.455405
0.456305 0.456930 0.457368
0.460455 0.458892 0.459330
0.464604 0.460854 0.461292
0.468754 0.462817 0.463254
0.472904 0.464779 0.465216
0.477053 0.466741 0.467178
0.481203 0.468703 0.469141
0.485353 0.470665 0.471103
0.489503 0.472627 0.473065
0.493652 0.474590 0.475027
0.497802 0.476552 0.476989
0.501952 0.478514 0.478952
0.439409 0.453159 0.451409
0.443558 0.455121 0.453371
0.447708 0.457083 0.455333
0.451858 0.459045 0.457295
0.456007 0.461007 0.459257
0.460157 0.462970 0.461220
0.464307 0.464932 0.463182
0.468457 0.466894 0.465144
0.472606 0.468856 0.467106
0.476756 0.470818 0.469068
0.480906 0.472781 0.471031
0.485055 0.474743 0.472993
0.489205 0.476705 0.474955
0.493355 0.478667 0.476917
0.497504 0.480629 0.478879
0.501654 0.482592 0.480842
0.505804 0.484554 0.482804
0.443261 0.459198 0.455261
0.447411 0.461161 0.457223
0.451560 0.463123 0.459185
0.455710 0.465085 0.461147
0.459860 0.467047 0.463110
0.464009 0.469009 0.465072
0.468159 0.470972 0.467034
0.472309 0.472934 0.468996
0.476458 0.474896 0.470958
0.480608 0.476858 0.472921
0.484758 0.478820 0.474883
0.488907 0.480783 0.476845
0.493057 0.482745 0.478807
0.497207 0.484707 0.480769
0.501357 0.486669 0.482732
0.505506 0.488631 0.484694
0.509656 0.490593 0.486656
0.447113 0.465238 0.459113
0.451263 0.467200 0.461075
0.455412 0.469162 0.463037
0.459562 0.471125 0.465000
0.463712 0.473087 0.466962
0.467862 0.475049 0.468924
0.472011 0.477011 0.470886
0.476161 0.478973 0.472848
0.480311 0.480936 0.474811
0.484460 0.482898 0.476773
0.488610 0.484860 0.478735
0.492760 0.486822 0.480697
0.496909 0.488784 0.482659
0.501059 0.490747 0.484622
0.505209 0.492709 0.486584
0.509358 0.494671 0.488546
0.513508 0.496633 0.490508
0.450965 0.471278 0.462965
0.455115 0.473240 0.464927
0.459265 0.475202 0.466890
0.463414 0.477164 0.468852
0.467564 0.479127 0.470814
0.471714 0.481089 0.472776
0.475863 0.483051 0.474738
0.480013 0.485013 0.476701
0.484163 0.486975 0.478663
0.488312 0.488938 0.480625
0.492462 0.490900 0.482587
0.496612 0.492862 0.484549
0.500762 0.494824 0.486512
0.504911 0.496786 0.488474
0.509061 0.498748 0.490436
0.513211 0.500711 0.492398
0.517360 0.502673 0.494360
0.454817 0.477317 0.466817
0.458967 0.479280 0.468780
0.463117 0.481242 0.470742
0.467267 0.483204 0.472704
0.471416 0.485166 0.474666
0.475566 0.487128 0.476628
0.479716 0.489091 0.478591
0.483865 0.491053 0.480553
0.488015 0.493015 0.482515
0.492165 0.494977 0.484477
0.496314 0.496939 0.486439
0.500464 0.498902 0.488402
0.504614 0.500864 0.490364
0.508763 0.502826 0.492326
0.512913 0.504788 0.494288
0.517063 0.506750 0.496250
0.521212 0.508712 0.498212
0.458670 0.483357 0.470670
0.462819 0.485319 0.472632
0.466969 0.487282 0.474594
0.471119 0.489244 0.476556
0.475268 0.491206 0.478518
0.479418 0.493168 0.480481
0.483568 0.495130 0.482443
0.487718 0.497093 0.484405
0.491867 0.499055 0.486367
0.496017 0.501017 0.488329
0.500167 0.502979 0.490292
0.504316 0.504941 0.492254
0.508466 0.506903 0.494216
0.512616 0.508866 0.496178
0.516765 0.510828 0.498140
0.520915 0.512790 0.500103
0.525065 0.514752 0.502065
0.462522 0.489397 0.474522
0.466672 0.491359 0.476484
0.470821 0.493321 0.478446
0.474971 0.495283 0.480408
0.479121 0.497246 0.482371
0.483270 0.499208 0.484333
0.487420 0.501170 0.486295
0.491570 0.503132 0.488257
0.495719 0.505094 0.490219
0.499869 0.507057 0.492182
0.504019 0.509019 0.494144
0.508168 0.510981 0.496106
0.512318 0.512943 0.498068
0.516468 0.514905 0.500030
0.520617 0.516867 0.501992
0.524767 0.518830 0.503955
0.528917 0.520792 0.505917
0.466374 0.495437 0.478374
0.470524 0.497399 0.480336
0.474673 0.499361 0.482298
0.478823 0.501323 0.484261
0.482973 0.503285 0.486223
0.487122 0.505247 0.488185
0.491272 0.507210 0.490147
0.495422 0.509172 0.492109
0.499572 0.511134 0.494072
0.503721 0.513096 0.496034
0.507871 0.515058 0.497996
0.512021 0.517021 0.499958
0.516170 0.518983 0.501920
0.520320 0.520945 0.503882
0.524470 0.522907 0.505845
0.528619 0.524869 0.507807
0.532769 0.526832 0.509769
0.470226 0.501476 0.482226
0.474376 0.503438 0.484188
0.478526 0.505401 0.486151
0.482675 0.507363 0.488113
0.486825 0.509325 0.490075
0.490975 0.511287 0.492037
0.495124 0.513249 0.493999
0.499274 0.515212 0.495962
0.503424 0.517174 0.497924
0.507573 0.519136 0.499886
0.511723 0.521098 0.501848
0.515873 0.523060 0.503810
0.520023 0.525023 0.505772
0.524172 0.526985 0.507735
0.528322 0.528947 0.509697
0.532472 0.530909 0.511659
0.536621 0.532871 0.513621
0.474078 0.507516 0.486078
0.478228 0.509478 0.488041
0.482378 0.511440 0.490003
0.486527 0.513402 0.491965
0.490677 0.515365 0.493927
0.494827 0.517327 0.495889
0.498977 0.519289 0.497852
0.503126 0.521251 0.499814
0.507276 0.523213 0.501776
0.511426 0.525176 0.503738
0.515575 0.527138 0.505700
0.519725 0.529100 0.507663
0.523875 0.531062 0.509625
0.528024 0.533024 0.511587
0.532174 0.534987 0.513549
0.536324 0.536949 0.515511
0.540473 0.538911 0.517473
0.477931 0.513556 0.489931
0.482080 0.515518 0.491893
0.486230 0.517480 0.493855
0.490380 0.519442 0.495817
0.494529 0.521404 0.497779
0.498679 0.523367 0.499742
0.502829 0.525329 0.501704
0.506978 0.527291 0.503666
0.511128 0.529253 0.505628
0.515278 0.531215 0.507590
0.519427 0.533177 0.509552
0.523577 0.535140 0.511515
0.527727 0.537102 0.513477
0.531877 0.539064 0.515439
0.536026 0.541026 0.517401
0.540176 0.542988 0.519363
0.544326 0.544951 0.521326
0.481783 0.519595 0.493783
0.485932 0.521557 0.495745
0.490082 0.523520 0.497707
0.494232 0.525482 0.499669
0.498382 0.527444 0.501632
0.502531 0.529406 0.503594
0.506681 0.531368 0.505556
0.510831 0.533331 0.507518
0.514980 0.535293 0.509480
0.519130 0.537255 0.511443
0.523280 0.539217 0.513405
0.527429 0.541179 0.515367
0.531579 0.543142 0.517329
0.535729 0.545104 0.519291
0.539878 0.547066 0.521253
0.544028 0.549028 0.523216
0.548178 0.550990 0.525178
0.485635 0.525635 0.497635
0.489785 0.527597 0.499597
0.493934 0.529559 0.501559
0.498084 0.531522 0.503522
0.502234 0.533484 0.505484
0.506383 0.535446 0.507446
0.510533 0.537408 0.509408
0.514683 0.539370 0.511370
0.518833 0.541332 0.513332
0.522982 0.543295 0.515295
0.527132 0.545257 0.517257
0.531282 0.547219 0.519219
0.535431 0.549181 0.521181
0.539581 0.551143 0.523143
0.543731 0.553106 0.525106
0.547880 0.555068 0.527068
0.552030 0.557030 0.529030
0.424748 0.429748 0.438936
0.428898 0.431710 0.440898
0.433047 0.433672 0.442860
0.437197 0.435635 0.444822
0.441347 0.437597 0.446784
0.445497 0.439559 0.448747
0.449646 0.441521 0.450709
0.453796 0.443483 0.452671
0.457946 0.445446 0.454633
0.462095 0.447408 0.456595
0.466245 0.449370 0.458557
0.470395 0.451332 0.460520
0.474544 0.453294 0.462482
0.478694 0.455257 0.464444
0.482844 0.457219 0.466406
0.486993 0.459181 0.468368
0.491143 0.461143 0.470331
0.428600 0.435788 0.442788
0.432750 0.437750 0.444750
0.436900 0.439712 0.446712
0.441049 0.441674 0.448674
0.445199 0.443637 0.450637
0.449349 0.445599 0.452599
0.453498 0.447561 0.454561
0.457648 0.449523 0.456523
0.461798 0.451485 0.458485
0.465947 0.453448 0.460448
0.470097 0.455410 0.462410
0.474247 0.457372 0.464372
0.478397 0.459334 0.466334
0.482546 0.461296 0.468296
0.486696 0.463258 0.470258
0.490846 0.465221 0.472221
0.494995 0.467183 0.474183
0.432453 0.441827 0.446640
0.436602 0.443790 0.448602
0.440752 0.445752 0.450564
0.444902 0.447714 0.452527
0.449051 0.449676 0.454489
0.453201 0.451638 0.456451
0.457351 0.453601 0.458413
0.461500 0.455563 0.460375
0.465650 0.457525 0.462338
0.469800 0.459487 0.464300
0.473949 0.461449 0.466262
0.478099 0.463412 0.468224
0.482249 0.465374 0.470186
0.486398 0.467336 0.472148
0.490548 0.469298 0.474111
0.494698 0.471260 0.476073
0.498847 0.473222 0.478035
0.436305 0.447867 0.450492
0.440454 0.449829 0.452454
0.444604 0.451792 0.454417
0.448754 0.453754 0.456379
0.452903 0.455716 0.458341
0.457053 0.457678 0.460303
0.461203 0.459640 0.462265
0.465352 0.461602 0.464227
0.469502 0.463565 0.466190
0.473652 0.465527 0.468152
0.477802 0.467489 0.470114
0.481951 0.469451 0.472076
0.486101 0.471413 0.474038
0.490251 0.473376 0.476001
0.494400 0.475338 0.477963
0.498550 0.477300 0.479925
0.502700 0.479262 0.481887
0.440157 0.453907 0.454344
0.444307 0.455869 0.456307
0.448456 0.457831 0.458269
0.452606 0.459793 0.460231
0.456756 0.461756 0.462193
0.460905 0.463718 0.464155
0.465055 0.465680 0.466117
0.469205 0.467642 0.468080
0.473354 0.469604 0.470042
0.477504 0.471567 0.472004
0.481654 0.473529 0.473966
0.485803 0.475491 0.475928
0.489953 0.477453 0.477891
0.494103 0.479415 0.479853
0.498252 0.481377 0.481815
0.502402 0.483340 0.483777
0.506552 0.485302 0.485739
0.444009 0.459947 0.458197
0.448159 0.461909 0.460159
0.452308 0.463871 0.462121
0.456458 0.465833 0.464083
0.460608 0.467795 0.466045
0.464757 0.469757 0.468008
0.468907 0.471720 0.469970
0.473057 0.473682 0.471932
0.477207 0.475644 0.473894
0.481356 0.477606 0.475856
0.485506 0.479568 0.477818
0.489656 0.481531 0.479781
0.493805 0.483493 0.481743
0.497955 0.485455 0.483705
0.502105 0.487417 0.485667
0.506254 0.489379 0.487629
0.510404 0.491342 0.489592
0.447861 0.465986 0.462049
0.452011 0.467948 0.464011
0.456161 0.469911 0.465973
0.460310 0.471873 0.467935
0.464460 0.473835 0.469897
0.468610 0.475797 0.471860
0.472759 0.477759 0.473822
0.476909 0.479722 0.475784
0.481059 0.481684 0.477746
0.485208 0.483646 0.479708
0.489358 0.485608 0.481671
0.493508 0.487570 0.483633
0.497657 0.489532 0.485595
0.501807 0.491495 0.487557
0.505957 0.493457 0.489519
0.510107 0.495419 0.491482
0.514256 0.497381 0.493444
0.451713 0.472026 0.465901
0.455863 0.473988 0.467863
0.460013 0.475950 0.469825
0.464162 0.477912 0.471787
0.468312 0.479875 0.473750
0.472462 0.481837 0.475712
0.476612 0.483799 0.477674
0.480761 0.485761 0.479636
0.484911 0.487723 0.481598
0.489061 0.489686 0.483561
0.493210 0.491648 0.485523
0.497360 0.493610 0.487485
0.501510 0.495572 0.489447
0.505659 0.497534 0.491409
0.509809 0.499497 0.493372
0.513959 0.501459 0.495334
0.518108 0.503421 0.497296
0.455566 0.478066 0.469753
0.459715 0.480028 0.471715
0.463865 0.481990 0.473677
0.468015 0.483952 0.475640
0.472164 0.485914 0.477602
0.476314 0.487877 0.479564
0.480464 0.489839 0.481526
0.484613 0.491801 0.483488
0.488763 0.493763 0.485451
0.492913 0.495725 0.487413
0.497062 0.497687 0.489375
0.501212 0.499650 0.491337
0.505362 0.501612 0.493299
0.509512 0.503574 0.495262
0.513661 0.505536 0.497224
0.517811 0.507498 0.499186
0.521961 0.509461 0.501148
0.459418 0.484105 0.473605
0.463567 0.486067 0.475567
0.467717 0.488030 0.477530
0.471867 0.489992 0.479492
0.476017 0.491954 0.481454
0.480166 0.493916 0.483416
0.484316 0.495878 0.485378
0.488466 0.497841 0.487341
0.492615 0.499803 0.489303
0.496765 0.501765 0.491265
0.500915 0.503727 0.493227
0.505064 0.505689 0.495189
0.509214 0.507652 0.497152
0.513364 0.509614 0.499114
0.517513 0.511576 0.501076
0.521663 0.513538 0.503038
0.525813 0.515500 0.505000
0.463270 0.490145 0.477457
0.467420 0.492107 0.479420
0.471569 0.494069 0.481382
0.475719 0.496032 0.483344
0.479869 0.497994 0.485306
0.484018 0.499956 0.487268
0.488168 0.501918 0.489231
0.492318 0.503880 0.491193
0.496468 0.505842 0.493155
0.500617 0.507805 0.495117
0.504767 0.509767 0.497079
0.508917 0.511729 0.499042
0.513066 0.513691 0.501004
0.517216 0.515653 0.502966
0.521366 0.517616 0.504928
0.525515 0.519578 0.506890
0.529665 0.521540 0.508853
0.467122 0.496185 0.481310
0.471272 0.498147 0.483272
0.475422 0.500109 0.485234
0.479571 0.502071 0.487196
0.483721 0.504033 0.489158
0.487871 0.505996 0.491121
0.492020 0.507958 0.493083
0.496170 0.509920 0.495045
0.500320 0.511882 0.497007
0.504469 0.513844 0.498969
0.508619 0.515807 0.500932
0.512769 0.517769 0.502894
0.516918 0.519731 0.504856
0.521068 0.521693 0.506818
0.525218 0.523655 0.508780
0.529367 0.525617 0.510742
0.533517 0.527580 0.512705
0.470974 0.502224 0.485162
0.475124 0.504187 0.487124
0.479274 0.506149 0.489086
0.483423 0.508111 0.491048
0.487573 0.510073 0.493011
0.491723 0.512035 0.494973
0.495873 0.513997 0.496935
0.500022 0.515960 0.498897
0.504172 0.517922 0.500859
0.508322 0.519884 0.502822
0.512471 0.521846 0.504784
0.516621 0.523808 0.506746
0.520771 0.525771 0.508708
0.524920 0.527733 0.510670
0.529070 0.529695 0.512633
0.533220 0.531657 0.514595
0.537369 0.533619 0.516557
0.474827 0.508264 0.489014
0.478976 0.510226 0.490976
0.483126 0.512188 0.492938
0.487276 0.514151 0.494901
0.491425 0.516113 0.496863
0.495575 0.518075 0.498825
0.499725 0.520037 0.500787
0.503874 0.521999 0.502749
0.508024 0.523962 0.504712
0.512174 0.525924 0.506674
0.516323 0.527886 0.508636
0.520473 0.529848 0.510598
0.524623 0.531810 0.512560
0.528772 0.533772 0.514522
0.532922 0.535735 0.516485
0.537072 0.537697 0.518447
0.541222 0.539659 0.520409
0.478679 0.514304 0.492866
0.482828 0.516266 0.494828
0.486978 0.518228 0.496791
0.491128 0.520190 0.498753
0.495278 0.522153 0.500715
0.499427 0.524115 0.502677
0.503577 0.526077 0.504639
0.507727 0.528039 0.506602
0.511876 0.530001 0.508564
0.516026 0.531963 0.510526
0.520176 0.533926 0.512488
0.524325 0.535888 0.514450
0.528475 0.537850 0.516412
0.532625 0.539812 0.518375
0.536774 0.541774 0.520337
0.540924 0.543737 0.522299
0.545074 0.545699 0.524261
0.482531 0.520343 0.496718
0.486681 0.522306 0.498681
0.490830 0.524268 0.500643
0.494980 0.526230 0.502605
0.499130 0.528192 0.504567
0.503279 0.530154 0.506529
0.507429 0.532117 0.508492
0.511579 0.534079 0.510454
0.515728 0.536041 0.512416
0.519878 0.538003 0.514378
0.524028 0.539965 0.516340
0.528177 0.541928 0.518302
0.532327 0.543890 0.520265
0.536477 0.545852 0.522227
0.540627 0.547814 0.524189
0.544776 0.549776 0.526151
0.548926 0.551738 0.528113
0.486383 0.526383 0.500571
0.490533 0.528345 0.502533
0.494683 0.530308 0.504495
0.498832 0.532270 0.506457
0.502982 0.534232 0.508419
0.507132 0.536194 0.510382
0.511281 0.538156 0.512344
0.515431 0.540118 0.514306
0.519581 0.542081 0.516268
0.523730 0.544043 0.518230
0.527880 0.546005 0.520193
0.532030 0.547967 0.522155
0.536179 0.549929 0.524117
0.540329 0.551892 0.526079
0.544479 0.553854 0.528041
0.548628 0.555816 0.530003
0.552778 0.557778 0.531966
0.425496 0.430496 0.441871
0.429646 0.432458 0.443833
0.433796 0.434421 0.445796
0.437945 0.436383 0.447758
0.442095 0.438345 0.449720
0.446245 0.440307 0.451682
0.450394 0.442269 0.453644
0.454544 0.444232 0.455607
0.458694 0.446194 0.457569
0.462843 0.448156 0.459531
0.466993 0.450118 0.461493
0.471143 0.452080 0.463455
0.475293 0.454042 0.465417
0.479442 0.456005 0.467380
0.483592 0.457967 0.469342
0.487742 0.459929 0.471304
0.491891 0.461891 0.473266
0.429348 0.436536 0.445723
0.433498 0.438498 0.447686
0.437648 0.440460 0.449648
0.441797 0.442422 0.451610
0.445947 0.444385 0.453572
0.450097 0.446347 0.455534
0.454247 0.448309 0.457497
0.458396 0.450271 0.459459
0.462546 0.452233 0.461421
0.466696 0.454196 0.463383
0.470845 0.456158 0.465345
0.474995 0.458120 0.467307
0.479145 0.460082 0.469270
0.483294 0.462044 0.471232
0.487444 0.464007 0.473194
0.491594 0.465969 0.475156
0.495743 0.467931 0.477118
0.433201 0.442576 0.449576
0.437350 0.444538 0.451538
0.441500 0.446500 0.453500
0.445650 0.448462 0.455462
0.449799 0.450424 0.457424
0.453949 0.452387 0.459387
0.458099 0.454349 0.461349
0.462248 0.456311 0.463311
0.466398 0.458273 0.465273
0.470548 0.460235 0.467235
0.474697 0.462198 0.469198
0.478847 0.464160 0.471160
0.482997 0.466122 0.473122
0.487147 0.468084 0.475084
0.491296 0.470046 0.477046
0.495446 0.472008 0.479008
0.499596 0.473971 0.480971
0.437053 0.448615 0.453428
0.441202 0.450577 0.455390
0.445352 0.452540 0.457352
0.449502 0.454502 0.459314
0.453652 0.456464 0.461277
0.457801 0.458426 0.463239
0.461951 0.460388 0.465201
0.466101 0.462351 0.467163
0.470250 0.464313 0.469125
0.474400 0.466275 0.471087
0.478550 0.468237 0.473050
0.482699 0.470199 0.475012
0.486849 0.472162 0.476974
0.490999 0.474124 0.478936
0.495148 0.476086 0.480898
0.499298 0.478048 0.482861
0.503448 0.480010 0.484823
0.440905 0.454655 0.457280
0.445055 0.456617 0.459242
0.449204 0.458579 0.461204
0.453354 0.460542 0.463167
0.457504 0.462504 0.465129
0.461653 0.464466 0.467091
0.465803 0.466428 0.469053
0.469953 0.468390 0.471015
0.474102 0.470352 0.472977
0.478252 0.472315 0.474940
0.482402 0.474277 0.476902
0.486552 0.476239 0.478864
0.490701 0.478201 0.480826
0.494851 0.480163 0.482788
0.499001 0.482126 0.484751
0.503150 0.484088 0.486713
0.507300 0.486050 0.488675
0.444757 0.460695 0.461132
0.448907 0.462657 0.463094
0.453057 0.464619 0.465057
0.457206 0.466581 0.467019
0.461356 0.468543 0.468981
0.465506 0.470506 0.470943
0.469655 0.472468 0.472905
0.473805 0.474430 0.474867
0.477955 0.476392 0.476830
0.482104 0.478354 0.478792
0.486254 0.480317 0.480754
0.490404 0.482279 0.482716
0.494553 0.484241 0.484678
0.498703 0.486203 0.486641
0.502853 0.488165 0.488603
0.507003 0.490128 0.490565
0.511152 0.492090 0.492527
0.448609 0.466734 0.464984
0.452759 0.468697 0.466947
0.456909 0.470659 0.468909
0.461058 0.472621 0.470871
0.465208 0.474583 0.472833
0.469358 0.476545 0.474795
0.473507 0.478507 0.476758
0.477657 0.480470 0.478720
0.481807 0.482432 0.480682
0.485957 0.484394 0.482644
0.490106 0.486356 0.484606
0.494256 0.488318 0.486568
0.498406 0.490281 0.488531
0.502555 0.492243 0.490493
0.506705 0.494205 0.492455
0.510855 0.496167 0.494417
0.515004 0.498129 0.496379
0.452462 0.472774 0.468837
0.456611 0.474736 0.470799
0.460761 0.476698 0.472761
0.464911 0.478661 0.474723
0.469060 0.480623 0.476685
0.473210 0.482585 0.478648
0.477360 0.484547 0.480610
0.481509 0.486509 0.482572
0.485659 0.488472 0.484534
0.489809 0.490434 0.486496
0.493958 0.492396 0.488458
0.498108 0.494358 0.490421
0.502258 0.496320 0.492383
0.506407 0.498282 0.494345
0.510557 0.500245 0.496307
0.514707 0.502207 0.498269
0.518857 0.504169 0.500232
0.456314 0.478814 0.472689
0.460463 0.480776 0.474651
0.464613 0.482738 0.476613
0.468763 0.484700 0.478575
0.472913 0.486662 0.480538
0.477062 0.488625 0.482500
0.481212 0.490587 0.484462
0.485362 0.492549 0.486424
0.489511 0.494511 0.488386
0.493661 0.496473 0.490348
0.497811 0.498436 0.492311
0.501960 0.500398 0.494273
0.506110 0.502360 0.496235
0.510260 0.504322 0.498197
0.514409 0.506284 0.500159
0.518559 0.508247 0.502122
0.522709 0.510209 0.504084
0.460166 0.484853 0.476541
0.464316 0.486816 0.478503
0.468465 0.488778 0.480465
0.472615 0.490740 0.482428
0.476765 0.492702 0.484390
0.480914 0.494664 0.486352
0.485064 0.496627 0.488314
0.489214 0.498589 0.490276
0.493363 0.500551 0.492238
0.497513 0.502513 0.494201
0.501663 0.504475 0.496163
0.505812 0.506437 0.498125
0.509962 0.508400 0.500087
0.514112 0.510362 0.502049
0.518262 0.512324 0.504012
0.522411 0.514286 0.505974
0.526561 0.516248 0.507936
0.464018 0.490893 0.480393
0.468168 0.492855 0.482355
0.472317 0.494817 0.484317
0.476467 0.496780 0.486280
0.480617 0.498742 0.488242
0.484767 0.500704 0.490204
0.488916 0.502666 0.492166
0.493066 0.504628 0.494128
0.497216 0.506591 0.496091
0.501365 0.508553 0.498053
0.505515 0.510515 0.500015
0.509665 0.512477 0.501977
0.513814 0.514439 0.503939
0.517964 0.516402 0.505902
0.522114 0.518364 0.507864
0.526263 0.520326 0.509826
0.530413 0.522288 0.511788
0.467870 0.496933 0.484245
0.472020 0.498895 0.486207
0.476170 0.500857 0.488170
0.480319 0.502819 0.490132
0.484469 0.504782 0.492094
0.488619 0.506744 0.494056
0.492768 0.508706 0.496018
0.496918 0.510668 0.497981
0.501068 0.512630 0.499943
0.505217 0.514592 0.501905
0.509367 0.516555 0.503867
0.513517 0.518517 0.505829
0.517667 0.520479 0.507792
0.521816 0.522441 0.509754
0.525966 0.524403 0.511716
0.530116 0.526366 0.513678
0.534265 0.528328 0.515640
0.471722 0.502973 0.488098
0.475872 0.504935 0.490060
0.480022 0.506897 0.492022
0.484172 0.508859 0.493984
0.488321 0.510821 0.495946
0.492471 0.512783 0.497908
0.496621 0.514746 0.499871
0.500770 0.516708 0.501833
0.504920 0.518670 0.503795
0.509070 0.520632 0.505757
0.513219 0.522594 0.507719
0.517369 0.524557 0.509682
0.521519 0.526519 0.511644
0.525668 0.528481 0.513606
0.529818 0.530443 0.515568
0.533968 0.532405 0.517530
0.538118 0.534367 0.519493
0.475575 0.509012 0.491950
0.479724 0.510974 0.493912
0.483874 0.512937 0.495874
0.488024 0.514899 0.497836
0.492173 0.516861 0.499798
0.496323 0.518823 0.501761
0.500473 0.520785 0.503723
0.504622 0.522748 0.505685
0.508772 0.524710 0.507647
0.512922 0.526672 0.509609
0.517072 0.528634 0.511572
0.521221 0.530596 0.513534
0.525371 0.532558 0.515496
0.529521 0.534521 0.517458
0.533670 0.536483 0.519420
0.537820 0.538445 0.521382
0.541970 0.540407 0.523345
0.479427 0.515052 0.495802
0.483577 0.517014 0.497764
0.487726 0.518976 0.499726
0.491876 0.520938 0.501688
0.496026 0.522901 0.503651
0.500175 0.524863 0.505613
0.504325 0.526825 0.507575
0.508475 0.528787 0.509537
0.512624 0.530749 0.511499
0.516774 0.532712 0.513462
0.520924 0.534674 0.515424
0.525073 0.536636 0.517386
0.529223 0.538598 0.519348
0.533373 0.540560 0.521310
0.537522 0.542522 0.523273
0.541672 0.544485 0.525235
0.545822 0.546447 0.527197
0.483279 0.521092 0.499654
0.487429 0.523054 0.501616
0.491578 0.525016 0.503578
0.495728 0.526978 0.505541
0.499878 0.528940 0.507503
0.504028 0.530903 0.509465
0.508177 0.532865 0.511427
0.512327 0.534827 0.513389
0.516477 0.536789 0.515352
0.520626 0.538751 0.517314
0.524776 0.540713 0.519276
0.528926 0.542676 0.521238
0.533075 0.544638 0.523200
0.537225 0.546600 0.525162
0.541375 0.548562 0.527125
0.545524 0.550524 0.529087
0.549674 0.552487 0.531049
0.487131 0.527131 0.503506
0.491281 0.529093 0.505468
0.495431 0.531056 0.507431
0.499580 0.533018 0.509393
0.503730 0.534980 0.511355
0.507880 0.536942 0.513317
0.512029 0.538904 0.515279
0.516179 0.540867 0.517242
0.520329 0.542829 0.519204
0.524478 0.544791 0.521166
0.528628 0.546753 0.523128
0.532778 0.548715 0.525090
0.536928 0.550678 0.527053
0.541077 0.552640 0.529015
0.545227 0.554602 0.530977
0.549377 0.556564 0.532939
0.553526 0.558526 0.534901
0.426244 0.431244 0.444807
0.430394 0.433207 0.446769
0.434544 0.435169 0.448731
0.438693 0.437131 0.450693
0.442843 0.439093 0.452656
0.446993 0.441055 0.454618
0.451143 0.443017 0.456580
0.455292 0.444980 0.458542
0.459442 0.446942 0.460504
0.463592 0.448904 0.462467
0.467741 0.450866 0.464429
0.471891 0.452828 0.466391
0.476041 0.454791 0.468353
0.480190 0.456753 0.470315
0.484340 0.458715 0.472278
0.488490 0.460677 0.474240
0.492639 0.462639 0.476202
0.430097 0.437284 0.448659
