shared/src/main/assets/luts/film_dirty_rain.cube
TITLE "DALUR Dirty Rain"
LUT_3D_SIZE 5
DOMAIN_MIN 0.0 0.0 0.0
DOMAIN_MAX 1.0 1.0 1.0
0.394000 0.403000 0.406000
0.397915 0.420155 0.423155
0.401830 0.437311 0.440311
0.405744 0.454466 0.457466
0.409659 0.471621 0.474621
0.427680 0.423439 0.439680
0.431594 0.440594 0.456835
0.435509 0.457750 0.473990
0.439424 0.474905 0.491146
0.443339 0.492060 0.508301
0.461359 0.443878 0.473359
0.465274 0.461033 0.490514
0.469189 0.478189 0.507670
0.473103 0.495344 0.524825
0.477018 0.512499 0.541980
0.495039 0.464317 0.507039
0.498953 0.481472 0.524194
0.502868 0.498628 0.541349
0.506783 0.515783 0.558505
0.510698 0.532938 0.575660
0.528718 0.484756 0.540718
0.532633 0.501911 0.557873
0.536548 0.519067 0.575029
0.540462 0.536222 0.592184
0.544377 0.553377 0.609339
0.400541 0.409541 0.399300
0.404456 0.426696 0.416456
0.408370 0.443851 0.433611
0.412285 0.461007 0.450766
0.416200 0.478162 0.467922
0.434220 0.429980 0.432980
0.438135 0.447135 0.450135
0.442050 0.464290 0.467290
0.445965 0.481446 0.484446
0.449880 0.498601 0.501601
0.467900 0.450419 0.466659
0.471815 0.467574 0.483815
0.475729 0.484729 0.500970
0.479644 0.501885 0.518125
0.483559 0.519040 0.535281
0.501579 0.470858 0.500339
0.505494 0.488013 0.517494
0.509409 0.505168 0.534650
0.513324 0.522324 0.551805
0.517239 0.539479 0.568960
0.535259 0.491297 0.534018
0.539174 0.508452 0.551174
0.543089 0.525607 0.568329
0.547003 0.542763 0.585484
0.550918 0.559918 0.602640
0.407082 0.416082 0.392601
0.410996 0.433237 0.409756
0.414911 0.450392 0.426911
0.418826 0.467548 0.444067
0.422741 0.484703 0.461222
0.440761 0.436521 0.426280
0.444676 0.453676 0.443435
0.448591 0.470831 0.460591
0.452506 0.487987 0.477746
0.456420 0.505142 0.494901
0.474441 0.456960 0.459960
0.478356 0.474115 0.477115
0.482270 0.491270 0.494270
0.486185 0.508426 0.511426
0.490100 0.525581 0.528581
0.508120 0.477399 0.493639
0.512035 0.494554 0.510794
0.515950 0.511709 0.527950
0.519865 0.528865 0.545105
0.523779 0.546020 0.562260
0.541800 0.497838 0.527319
0.545715 0.514993 0.544474
0.549629 0.532148 0.561629
0.553544 0.549304 0.578785
0.557459 0.566459 0.595940
0.413622 0.422622 0.385901
0.417537 0.439778 0.403056
0.421452 0.456933 0.420212
0.425367 0.474088 0.437367
0.429282 0.491244 0.454522
0.447302 0.443061 0.419580
0.451217 0.460217 0.436736
0.455132 0.477372 0.453891
0.459046 0.494527 0.471046
0.462961 0.511683 0.488202
0.480982 0.463500 0.453260
0.484896 0.480656 0.470415
0.488811 0.497811 0.487571
0.492726 0.514966 0.504726
0.496641 0.532122 0.521881
0.514661 0.483939 0.486939
0.518576 0.501095 0.504095
0.522491 0.518250 0.521250
0.526405 0.535405 0.538405
0.530320 0.552561 0.555561
0.548341 0.504378 0.520619
0.552255 0.521534 0.537774
0.556170 0.538689 0.554930
0.560085 0.555844 0.572085
0.564000 0.573000 0.589240
0.420163 0.429163 0.379201
0.424078 0.446319 0.396356
0.427993 0.463474 0.413512
0.431908 0.480629 0.430667
0.435822 0.497785 0.447822
0.453843 0.449602 0.412881
0.457758 0.466758 0.430036
0.461672 0.483913 0.447191
0.465587 0.501068 0.464347
0.469502 0.518224 0.481502
0.487522 0.470041 0.446560
0.491437 0.487197 0.463716
0.495352 0.504352 0.480871
0.499267 0.521507 0.498026
0.503182 0.538663 0.515182
0.521202 0.490480 0.480240
0.525117 0.507636 0.497395
0.529031 0.524791 0.514550
0.532946 0.541946 0.531706
0.536861 0.559102 0.548861
0.554881 0.510919 0.513919
0.558796 0.528075 0.531075
0.562711 0.545230 0.548230
0.566626 0.562385 0.565385
0.570541 0.579541 0.582541
