shared/src/main/assets/luts/film_digital_green.cube
TITLE "DALUR Digital Green"
LUT_3D_SIZE 9
DOMAIN_MIN 0.0 0.0 0.0
DOMAIN_MAX 1.0 1.0 1.0
0.416000 0.430000 0.434000
0.421844 0.434969 0.438969
0.427688 0.439939 0.443939
0.433532 0.444908 0.448908
0.439376 0.449877 0.453877
0.445220 0.454846 0.458846
0.451064 0.459816 0.463816
0.456908 0.464785 0.468785
0.462752 0.469754 0.473754
0.425756 0.440630 0.443756
0.431600 0.445600 0.448725
0.437444 0.450569 0.453694
0.443288 0.455538 0.458664
0.449132 0.460508 0.463633
0.454976 0.465477 0.468602
0.460820 0.470446 0.473571
0.466664 0.475415 0.478541
0.472508 0.480385 0.483510
0.435511 0.451261 0.453511
0.441355 0.456230 0.458481
0.447199 0.461199 0.463450
0.453043 0.466169 0.468419
0.458887 0.471138 0.473389
0.464731 0.476107 0.478358
0.470575 0.481077 0.483327
0.476419 0.486046 0.488296
0.482263 0.491015 0.493266
0.445267 0.461891 0.463267
0.451111 0.466861 0.468236
0.456955 0.471830 0.473206
0.462799 0.476799 0.478175
0.468643 0.481768 0.483144
0.474487 0.486738 0.488114
0.480331 0.491707 0.493083
0.486175 0.496676 0.498052
0.492019 0.501646 0.503021
0.455023 0.472522 0.473023
0.460867 0.477491 0.477992
0.466711 0.482460 0.482961
0.472555 0.487430 0.487931
0.478399 0.492399 0.492900
0.484243 0.497368 0.497869
0.490087 0.502337 0.502839
0.495931 0.507307 0.507808
0.501775 0.512276 0.512777
0.464779 0.483152 0.482779
0.470623 0.488122 0.487748
0.476467 0.493091 0.492717
0.482311 0.498060 0.497686
0.488155 0.503029 0.502656
0.493999 0.507999 0.507625
0.499843 0.512968 0.512594
0.505687 0.517937 0.517564
0.511531 0.522906 0.522533
0.474534 0.493783 0.492534
0.480378 0.498752 0.497504
0.486222 0.503721 0.502473
0.492066 0.508691 0.507442
0.497910 0.513660 0.512412
0.503754 0.518629 0.517381
0.509598 0.523598 0.522350
0.515442 0.528568 0.527319
0.521286 0.533537 0.532289
0.484290 0.504413 0.502290
0.490134 0.509382 0.507259
0.495978 0.514352 0.512229
0.501822 0.519321 0.517198
0.507666 0.524290 0.522167
0.513510 0.529260 0.527137
0.519354 0.534229 0.532106
0.525198 0.539198 0.537075
0.531042 0.544167 0.542044
0.494046 0.515044 0.512046
0.499890 0.520013 0.517015
0.505734 0.524982 0.521984
0.511578 0.529951 0.526954
0.517422 0.534921 0.531923
0.523266 0.539890 0.536892
0.529110 0.544859 0.541862
0.534954 0.549829 0.546831
0.540798 0.554798 0.551800
0.417895 0.431895 0.436769
0.423739 0.436864 0.441739
0.429583 0.441833 0.446708
0.435427 0.446802 0.451677
0.441271 0.451772 0.456646
0.447115 0.456741 0.461616
0.452959 0.461710 0.466585
0.458803 0.466680 0.471554
0.464647 0.471649 0.476524
0.427650 0.442525 0.446525
0.433494 0.447494 0.451494
0.439338 0.452464 0.456464
0.445182 0.457433 0.461433
0.451026 0.462402 0.466402
0.456870 0.467371 0.471371
0.462714 0.472341 0.476341
0.468558 0.477310 0.481310
0.474402 0.482279 0.486279
0.437406 0.453156 0.456281
0.443250 0.458125 0.461250
0.449094 0.463094 0.466219
0.454938 0.468063 0.471189
0.460782 0.473033 0.476158
0.466626 0.478002 0.481127
0.472470 0.482971 0.486096
0.478314 0.487940 0.491066
0.484158 0.492910 0.496035
0.447162 0.463786 0.466037
0.453006 0.468755 0.471006
0.458850 0.473725 0.475975
0.464694 0.478694 0.480944
0.470538 0.483663 0.485914
0.476382 0.488632 0.490883
0.482226 0.493602 0.495852
0.488070 0.498571 0.500821
0.493914 0.503540 0.505791
0.456918 0.474416 0.475792
0.462762 0.479386 0.480762
0.468606 0.484355 0.485731
0.474450 0.489324 0.490700
0.480294 0.494294 0.495669
0.486138 0.499263 0.500639
0.491982 0.504232 0.505608
0.497826 0.509201 0.510577
0.503670 0.514171 0.515547
0.466673 0.485047 0.485548
0.472517 0.490016 0.490517
0.478361 0.494985 0.495487
0.484205 0.499955 0.500456
0.490049 0.504924 0.505425
0.495893 0.509893 0.510394
0.501737 0.514863 0.515364
0.507581 0.519832 0.520333
0.513425 0.524801 0.525302
0.476429 0.495677 0.495304
0.482273 0.500647 0.500273
0.488117 0.505616 0.505242
0.493961 0.510585 0.510212
0.499805 0.515554 0.515181
0.505649 0.520524 0.520150
0.511493 0.525493 0.525119
0.517337 0.530462 0.530089
0.523181 0.535432 0.535058
0.486185 0.506308 0.505060
0.492029 0.511277 0.510029
0.497873 0.516246 0.514998
0.503717 0.521216 0.519967
0.509561 0.526185 0.524937
0.515405 0.531154 0.529906
0.521249 0.536123 0.534875
0.527093 0.541093 0.539844
0.532937 0.546062 0.544814
0.495941 0.516938 0.514815
0.501785 0.521908 0.519785
0.507629 0.526877 0.524754
0.513472 0.531846 0.529723
0.519316 0.536815 0.534692
0.525160 0.541785 0.539662
0.531004 0.546754 0.544631
0.536848 0.551723 0.549600
0.542692 0.556692 0.554569
0.419789 0.433789 0.439539
0.425633 0.438759 0.444508
0.431477 0.443728 0.449477
0.437321 0.448697 0.454447
0.443165 0.453666 0.459416
0.449009 0.458636 0.464385
0.454853 0.463605 0.469354
0.460697 0.468574 0.474324
0.466541 0.473543 0.479293
0.429545 0.444420 0.449294
0.435389 0.449389 0.454264
0.441233 0.454358 0.459233
0.447077 0.459328 0.464202
0.452921 0.464297 0.469172
0.458765 0.469266 0.474141
0.464609 0.474235 0.479110
0.470453 0.479205 0.484079
0.476297 0.484174 0.489049
0.439301 0.455050 0.459050
0.445145 0.460019 0.464019
0.450989 0.464989 0.468989
0.456833 0.469958 0.473958
0.462677 0.474927 0.478927
0.468521 0.479897 0.483897
0.474365 0.484866 0.488866
0.480209 0.489835 0.493835
0.486053 0.494804 0.498804
0.449056 0.465681 0.468806
0.454900 0.470650 0.473775
0.460744 0.475619 0.478744
0.466588 0.480588 0.483714
0.472432 0.485558 0.488683
0.478276 0.490527 0.493652
0.484120 0.495496 0.498622
0.489964 0.500466 0.503591
0.495808 0.505435 0.508560
0.458812 0.476311 0.478562
0.464656 0.481280 0.483531
0.470500 0.486250 0.488500
0.476344 0.491219 0.493469
0.482188 0.496188 0.498439
0.488032 0.501157 0.503408
0.493876 0.506127 0.508377
0.499720 0.511096 0.513347
0.505564 0.516065 0.518316
0.468568 0.486942 0.488317
0.474412 0.491911 0.493287
0.480256 0.496880 0.498256
0.486100 0.501849 0.503225
0.491944 0.506819 0.508194
0.497788 0.511788 0.513164
0.503632 0.516757 0.518133
0.509476 0.521726 0.523102
0.515320 0.526696 0.528072
0.478324 0.497572 0.498073
0.484168 0.502541 0.503042
0.490012 0.507511 0.508012
0.495856 0.512480 0.512981
0.501700 0.517449 0.517950
0.507544 0.522418 0.522920
0.513388 0.527388 0.527889
0.519232 0.532357 0.532858
0.525076 0.537326 0.537827
0.488079 0.508202 0.507829
0.493923 0.513172 0.512798
0.499767 0.518141 0.517767
0.505611 0.523110 0.522737
0.511455 0.528080 0.527706
0.517299 0.533049 0.532675
0.523143 0.538018 0.537645
0.528987 0.542987 0.542614
0.534831 0.547957 0.547583
0.497835 0.518833 0.517585
0.503679 0.523802 0.522554
0.509523 0.528771 0.527523
0.515367 0.533741 0.532492
0.521211 0.538710 0.537462
0.527055 0.543679 0.542431
0.532899 0.548649 0.547400
0.538743 0.553618 0.552370
0.544587 0.558587 0.557339
0.421684 0.435684 0.442308
0.427528 0.440653 0.447277
0.433372 0.445622 0.452247
0.439216 0.450592 0.457216
0.445060 0.455561 0.462185
0.450904 0.460530 0.467154
0.456748 0.465500 0.472124
0.462592 0.470469 0.477093
0.468436 0.475438 0.482062
0.431440 0.446314 0.452064
0.437284 0.451284 0.457033
0.443128 0.456253 0.462002
0.448972 0.461222 0.466972
0.454816 0.466191 0.471941
0.460660 0.471161 0.476910
0.466504 0.476130 0.481879
0.472348 0.481099 0.486849
0.478192 0.486069 0.491818
0.441195 0.456945 0.461820
0.447039 0.461914 0.466789
0.452883 0.466883 0.471758
0.458727 0.471853 0.476727
0.464571 0.476822 0.481697
0.470415 0.481791 0.486666
0.476259 0.486760 0.491635
0.482103 0.491730 0.496604
0.487947 0.496699 0.501574
0.450951 0.467575 0.471575
0.456795 0.472545 0.476545
0.462639 0.477514 0.481514
0.468483 0.482483 0.486483
0.474327 0.487452 0.491452
0.480171 0.492422 0.496422
0.486015 0.497391 0.501391
0.491859 0.502360 0.506360
0.497703 0.507329 0.511329
0.460707 0.478206 0.481331
0.466551 0.483175 0.486300
0.472395 0.488144 0.491270
0.478239 0.493114 0.496239
0.484083 0.498083 0.501208
0.489927 0.503052 0.506177
0.495771 0.508021 0.511147
0.501615 0.512991 0.516116
0.507459 0.517960 0.521085
0.470463 0.488836 0.491087
0.476307 0.493805 0.496056
0.482151 0.498775 0.501025
0.487995 0.503744 0.505995
0.493839 0.508713 0.510964
0.499683 0.513683 0.515933
0.505527 0.518652 0.520902
0.511371 0.523621 0.525872
0.517215 0.528590 0.530841
0.480218 0.499467 0.500842
0.486062 0.504436 0.505812
0.491906 0.509405 0.510781
0.497750 0.514374 0.515750
0.503594 0.519344 0.520720
0.509438 0.524313 0.525689
0.515282 0.529282 0.530658
0.521126 0.534252 0.535627
0.526970 0.539221 0.540597
0.489974 0.510097 0.510598
0.495818 0.515066 0.515567
0.501662 0.520036 0.520537
0.507506 0.525005 0.525506
0.513350 0.529974 0.530475
0.519194 0.534943 0.535445
0.525038 0.539913 0.540414
0.530882 0.544882 0.545383
0.536726 0.549851 0.550352
0.499730 0.520728 0.520354
0.505574 0.525697 0.525323
0.511418 0.530666 0.530293
0.517262 0.535635 0.535262
0.523106 0.540605 0.540231
0.528950 0.545574 0.545200
0.534794 0.550543 0.550170
0.540638 0.555512 0.555139
0.546482 0.560482 0.560108
0.423579 0.437579 0.445077
0.429423 0.442548 0.450047
0.435267 0.447517 0.455016
0.441111 0.452486 0.459985
0.446955 0.457456 0.464955
0.452799 0.462425 0.469924
0.458643 0.467394 0.474893
0.464487 0.472363 0.479862
0.470331 0.477333 0.484832
0.433334 0.448209 0.454833
0.439178 0.453178 0.459802
0.445022 0.458148 0.464772
0.450866 0.463117 0.469741
0.456710 0.468086 0.474710
0.462554 0.473055 0.479680
0.468398 0.478025 0.484649
0.474242 0.482994 0.489618
0.480086 0.487963 0.494587
0.443090 0.458839 0.464589
0.448934 0.463809 0.469558
0.454778 0.468778 0.474527
0.460622 0.473747 0.479497
0.466466 0.478717 0.484466
0.472310 0.483686 0.489435
0.478154 0.488655 0.494405
0.483998 0.493624 0.499374
0.489842 0.498594 0.504343
0.452846 0.469470 0.474345
0.458690 0.474439 0.479314
0.464534 0.479408 0.484283
0.470378 0.484378 0.489252
0.476222 0.489347 0.494222
0.482066 0.494316 0.499191
0.487910 0.499286 0.504160
0.493754 0.504255 0.509130
0.499598 0.509224 0.514099
0.462601 0.480100 0.484100
0.468445 0.485070 0.489070
0.474289 0.490039 0.494039
0.480133 0.495008 0.499008
0.485977 0.499977 0.503977
0.491821 0.504947 0.508947
0.497665 0.509916 0.513916
0.503509 0.514885 0.518885
0.509353 0.519855 0.523855
0.472357 0.490731 0.493856
0.478201 0.495700 0.498825
0.484045 0.500669 0.503795
0.489889 0.505639 0.508764
0.495733 0.510608 0.513733
0.501577 0.515577 0.518702
0.507421 0.520546 0.523672
0.513265 0.525516 0.528641
0.519109 0.530485 0.533610
0.482113 0.501361 0.503612
0.487957 0.506331 0.508581
0.493801 0.511300 0.513550
0.499645 0.516269 0.518520
0.505489 0.521238 0.523489
0.511333 0.526208 0.528458
0.517177 0.531177 0.533427
0.523021 0.536146 0.538397
0.528865 0.541115 0.543366
0.491869 0.511992 0.513368
0.497713 0.516961 0.518337
0.503557 0.521930 0.523306
0.509401 0.526900 0.528275
0.515245 0.531869 0.533245
0.521089 0.536838 0.538214
0.526933 0.541807 0.543183
0.532777 0.546777 0.548153
0.538621 0.551746 0.553122
0.501624 0.522622 0.523123
0.507468 0.527591 0.528093
0.513312 0.532561 0.533062
0.519156 0.537530 0.538031
0.525000 0.542499 0.543000
0.530844 0.547469 0.547970
0.536688 0.552438 0.552939
0.542532 0.557407 0.557908
0.548376 0.562376 0.562878
0.425473 0.439473 0.447847
0.431317 0.444442 0.452816
0.437161 0.449412 0.457785
0.443005 0.454381 0.462755
0.448849 0.459350 0.467724
0.454693 0.464320 0.472693
0.460537 0.469289 0.477662
0.466381 0.474258 0.482632
0.472225 0.479227 0.487601
0.435229 0.450104 0.457603
0.441073 0.455073 0.462572
0.446917 0.460042 0.467541
0.452761 0.465011 0.472510
0.458605 0.469981 0.477480
0.464449 0.474950 0.482449
0.470293 0.479919 0.487418
0.476137 0.484889 0.492387
0.481981 0.489858 0.497357
0.444985 0.460734 0.467358
0.450829 0.465703 0.472328
0.456673 0.470673 0.477297
0.462517 0.475642 0.482266
0.468361 0.480611 0.487235
0.474205 0.485580 0.492205
0.480049 0.490550 0.497174
0.485893 0.495519 0.502143
0.491737 0.500488 0.507112
0.454740 0.471365 0.477114
0.460584 0.476334 0.482083
0.466428 0.481303 0.487053
0.472272 0.486272 0.492022
0.478116 0.491242 0.496991
0.483960 0.496211 0.501960
0.489804 0.501180 0.506930
0.495648 0.506149 0.511899
0.501492 0.511119 0.516868
0.464496 0.481995 0.486870
0.470340 0.486964 0.491839
0.476184 0.491934 0.496808
0.482028 0.496903 0.501778
0.487872 0.501872 0.506747
0.493716 0.506841 0.511716
0.499560 0.511811 0.516685
0.505404 0.516780 0.521655
0.511248 0.521749 0.526624
0.474252 0.492625 0.496625
0.480096 0.497595 0.501595
0.485940 0.502564 0.506564
0.491784 0.507533 0.511533
0.497628 0.512503 0.516503
0.503472 0.517472 0.521472
0.509316 0.522441 0.526441
0.515160 0.527410 0.531410
0.521004 0.532380 0.536380
0.484008 0.503256 0.506381
0.489852 0.508225 0.511350
0.495696 0.513194 0.516320
0.501540 0.518164 0.521289
0.507384 0.523133 0.526258
0.513228 0.528102 0.531228
0.519072 0.533072 0.536197
0.524916 0.538041 0.541166
0.530760 0.543010 0.546135
0.493763 0.513886 0.516137
0.499607 0.518856 0.521106
0.505451 0.523825 0.526075
0.511295 0.528794 0.531045
0.517139 0.533763 0.536014
0.522983 0.538733 0.540983
0.528827 0.543702 0.545953
0.534671 0.548671 0.550922
0.540515 0.553641 0.555891
0.503519 0.524517 0.525893
0.509363 0.529486 0.530862
0.515207 0.534455 0.535831
0.521051 0.539425 0.540800
0.526895 0.544394 0.545770
0.532739 0.549363 0.550739
0.538583 0.554332 0.555708
0.544427 0.559302 0.560678
0.550271 0.564271 0.565647
0.427368 0.441368 0.450616
0.433212 0.446337 0.455585
0.439056 0.451306 0.460555
0.444900 0.456276 0.465524
0.450744 0.461245 0.470493
0.456588 0.466214 0.475463
0.462432 0.471183 0.480432
0.468276 0.476153 0.485401
0.474120 0.481122 0.490370
0.437124 0.451998 0.460372
0.442968 0.456968 0.465341
0.448812 0.461937 0.470310
0.454656 0.466906 0.475280
0.460500 0.471875 0.480249
0.466344 0.476845 0.485218
0.472188 0.481814 0.490188
0.478032 0.486783 0.495157
0.483876 0.491752 0.500126
0.446879 0.462629 0.470128
0.452723 0.467598 0.475097
0.458567 0.472567 0.480066
0.464411 0.477537 0.485035
0.470255 0.482506 0.490005
0.476099 0.487475 0.494974
0.481943 0.492444 0.499943
0.487787 0.497414 0.504913
0.493631 0.502383 0.509882
0.456635 0.473259 0.479883
0.462479 0.478228 0.484853
0.468323 0.483198 0.489822
0.474167 0.488167 0.494791
0.480011 0.493136 0.499760
0.485855 0.498106 0.504730
0.491699 0.503075 0.509699
0.497543 0.508044 0.514668
0.503387 0.513013 0.519638
0.466391 0.483890 0.489639
0.472235 0.488859 0.494608
0.478079 0.493828 0.499578
0.483923 0.498797 0.504547
0.489767 0.503767 0.509516
0.495611 0.508736 0.514485
0.501455 0.513705 0.519455
0.507299 0.518675 0.524424
0.513143 0.523644 0.529393
0.476147 0.494520 0.499395
0.481991 0.499489 0.504364
0.487835 0.504459 0.509333
0.493678 0.509428 0.514303
0.499522 0.514397 0.519272
0.505366 0.519366 0.524241
0.511210 0.524336 0.529210
0.517054 0.529305 0.534180
0.522898 0.534274 0.539149
0.485902 0.505151 0.509151
0.491746 0.510120 0.514120
0.497590 0.515089 0.519089
0.503434 0.520058 0.524058
0.509278 0.525028 0.529028
0.515122 0.529997 0.533997
0.520966 0.534966 0.538966
0.526810 0.539935 0.543935
0.532654 0.544905 0.548905
0.495658 0.515781 0.518906
0.501502 0.520750 0.523876
0.507346 0.525720 0.528845
0.513190 0.530689 0.533814
0.519034 0.535658 0.538783
0.524878 0.540627 0.543753
0.530722 0.545597 0.548722
0.536566 0.550566 0.553691
0.542410 0.555535 0.558660
0.505414 0.526411 0.528662
0.511258 0.531381 0.533631
0.517102 0.536350 0.538601
0.522946 0.541319 0.543570
0.528790 0.546289 0.548539
0.534634 0.551258 0.553508
0.540478 0.556227 0.558478
0.546322 0.561196 0.563447
0.552166 0.566166 0.568416
0.429262 0.443262 0.453386
0.435106 0.448232 0.458355
0.440950 0.453201 0.463324
0.446794 0.458170 0.468293
0.452638 0.463140 0.473263
0.458482 0.468109 0.478232
0.464326 0.473078 0.483201
0.470170 0.478047 0.488170
0.476014 0.483017 0.493140
0.439018 0.453893 0.463141
0.444862 0.458862 0.468111
0.450706 0.463831 0.473080
0.456550 0.468801 0.478049
0.462394 0.473770 0.483018
0.468238 0.478739 0.487988
0.474082 0.483709 0.492957
0.479926 0.488678 0.497926
0.485770 0.493647 0.502895
0.448774 0.464523 0.472897
0.454618 0.469493 0.477866
0.460462 0.474462 0.482836
0.466306 0.479431 0.487805
0.472150 0.484400 0.492774
0.477994 0.489370 0.497743
0.483838 0.494339 0.502713
0.489682 0.499308 0.507682
0.495526 0.504278 0.512651
0.458530 0.475154 0.482653
0.464374 0.480123 0.487622
0.470218 0.485092 0.492591
0.476062 0.490062 0.497561
0.481906 0.495031 0.502530
0.487750 0.500000 0.507499
0.493594 0.504969 0.512468
0.499438 0.509939 0.517438
0.505282 0.514908 0.522407
0.468285 0.485784 0.492408
0.474129 0.490754 0.497378
0.479973 0.495723 0.502347
0.485817 0.500692 0.507316
0.491661 0.505661 0.512286
0.497505 0.510631 0.517255
0.503349 0.515600 0.522224
0.509193 0.520569 0.527193
0.515037 0.525538 0.532163
0.478041 0.496415 0.502164
0.483885 0.501384 0.507133
0.489729 0.506353 0.512103
0.495573 0.511323 0.517072
0.501417 0.516292 0.522041
0.507261 0.521261 0.527011
0.513105 0.526230 0.531980
0.518949 0.531200 0.536949
0.524793 0.536169 0.541918
0.487797 0.507045 0.511920
0.493641 0.512014 0.516889
0.499485 0.516984 0.521858
0.505329 0.521953 0.526828
0.511173 0.526922 0.531797
0.517017 0.531892 0.536766
0.522861 0.536861 0.541736
0.528705 0.541830 0.546705
0.534549 0.546799 0.551674
0.497553 0.517676 0.521676
0.503397 0.522645 0.526645
0.509241 0.527614 0.531614
0.515085 0.532583 0.536583
0.520929 0.537553 0.541553
0.526773 0.542522 0.546522
0.532617 0.547491 0.551491
0.538461 0.552461 0.556461
0.544305 0.557430 0.561430
0.507308 0.528306 0.531431
0.513152 0.533275 0.536401
0.518996 0.538245 0.541370
0.524840 0.543214 0.546339
0.530684 0.548183 0.551308
0.536528 0.553152 0.556278
0.542372 0.558122 0.561247
0.548216 0.563091 0.566216
0.554060 0.568060 0.571186
0.431157 0.445157 0.456155
0.437001 0.450126 0.461124
0.442845 0.455096 0.466093
0.448689 0.460065 0.471063
0.454533 0.465034 0.476032
0.460377 0.470003 0.481001
0.466221 0.474973 0.485971
0.472065 0.479942 0.490940
0.477909 0.484911 0.495909
0.440913 0.455788 0.465911
0.446757 0.460757 0.470880
0.452601 0.465726 0.475849
0.458445 0.470695 0.480818
0.464289 0.475665 0.485788
0.470133 0.480634 0.490757
0.475977 0.485603 0.495726
0.481821 0.490573 0.500696
0.487665 0.495542 0.505665
0.450669 0.466418 0.475666
0.456513 0.471387 0.480636
0.462357 0.476357 0.485605
0.468201 0.481326 0.490574
0.474045 0.486295 0.495543
0.479889 0.491264 0.500513
0.485733 0.496234 0.505482
0.491577 0.501203 0.510451
0.497421 0.506172 0.515421
0.460424 0.477048 0.485422
0.466268 0.482018 0.490391
0.472112 0.486987 0.495361
0.477956 0.491956 0.500330
0.483800 0.496926 0.505299
0.489644 0.501895 0.510268
0.495488 0.506864 0.515238
0.501332 0.511833 0.520207
0.507176 0.516803 0.525176
0.470180 0.487679 0.495178
0.476024 0.492648 0.500147
0.481868 0.497617 0.505116
0.487712 0.502587 0.510086
0.493556 0.507556 0.515055
0.499400 0.512525 0.520024
0.505244 0.517495 0.524993
0.511088 0.522464 0.529963
0.516932 0.527433 0.534932
0.479936 0.498309 0.504934
0.485780 0.503279 0.509903
0.491624 0.508248 0.514872
0.497468 0.513217 0.519841
0.503312 0.518186 0.524811
0.509156 0.523156 0.529780
0.515000 0.528125 0.534749
0.520844 0.533094 0.539718
0.526688 0.538064 0.544688
0.489692 0.508940 0.514689
0.495536 0.513909 0.519659
0.501380 0.518878 0.524628
0.507224 0.523848 0.529597
0.513068 0.528817 0.534566
0.518911 0.533786 0.539536
0.524755 0.538755 0.544505
0.530599 0.543725 0.549474
0.536443 0.548694 0.554443
0.499447 0.519570 0.524445
0.505291 0.524540 0.529414
0.511135 0.529509 0.534384
0.516979 0.534478 0.539353
0.522823 0.539447 0.544322
0.528667 0.544417 0.549291
0.534511 0.549386 0.554261
0.540355 0.554355 0.559230
0.546199 0.559324 0.564199
0.509203 0.530201 0.534201
0.515047 0.535170 0.539170
0.520891 0.540139 0.544139
0.526735 0.545109 0.549109
0.532579 0.550078 0.554078
0.538423 0.555047 0.559047
0.544267 0.560016 0.564016
0.550111 0.564986 0.568986
0.555955 0.569955 0.573955
