shared/src/main/assets/luts/film_color_separation.cube
TITLE "DALUR Color Separation"
LUT_3D_SIZE 9
DOMAIN_MIN 0.0 0.0 0.0
DOMAIN_MAX 1.0 1.0 1.0
0.440000 0.442500 0.440000
0.447640 0.445640 0.443140
0.455279 0.448779 0.446279
0.462918 0.451918 0.449418
0.470558 0.455058 0.452558
0.478197 0.458197 0.455697
0.485837 0.461337 0.458837
0.493477 0.464477 0.461977
0.501116 0.467616 0.465116
0.446163 0.453163 0.446163
0.453803 0.456303 0.449303
0.461442 0.459442 0.452442
0.469082 0.462582 0.455582
0.476721 0.465721 0.458722
0.484361 0.468861 0.461861
0.492001 0.472000 0.465000
0.499640 0.475140 0.468140
0.507279 0.478280 0.471280
0.452327 0.463827 0.452327
0.459966 0.466966 0.455466
0.467606 0.470106 0.458606
0.475245 0.473245 0.461745
0.482885 0.476385 0.464885
0.490524 0.479524 0.468025
0.498164 0.482664 0.471164
0.505803 0.485803 0.474303
0.513443 0.488943 0.477443
0.458490 0.474490 0.458490
0.466130 0.477630 0.461630
0.473769 0.480769 0.464769
0.481409 0.483909 0.467909
0.489048 0.487048 0.471048
0.496688 0.490188 0.474188
0.504327 0.493327 0.477327
0.511967 0.496467 0.480467
0.519606 0.499606 0.483606
0.464654 0.485154 0.464654
0.472293 0.488293 0.467793
0.479933 0.491433 0.470933
0.487572 0.494572 0.474073
0.495212 0.497712 0.477212
0.502852 0.500852 0.480351
0.510491 0.503991 0.483491
0.518131 0.507130 0.486631
0.525770 0.510270 0.489770
0.470817 0.495817 0.470817
0.478457 0.498957 0.473957
0.486096 0.502096 0.477096
0.493736 0.505236 0.480236
0.501375 0.508375 0.483376
0.509015 0.511515 0.486515
0.516655 0.514655 0.489654
0.524294 0.517794 0.492794
0.531933 0.520933 0.495933
0.476981 0.506481 0.476981
0.484620 0.509620 0.480120
0.492260 0.512760 0.483260
0.499899 0.515899 0.486399
0.507539 0.519039 0.489539
0.515178 0.522178 0.492679
0.522818 0.525318 0.495818
0.530458 0.528458 0.498958
0.538097 0.531597 0.502097
0.483144 0.517144 0.483144
0.490784 0.520284 0.486284
0.498423 0.523423 0.489424
0.506063 0.526563 0.492563
0.513702 0.529702 0.495702
0.521342 0.532842 0.498842
0.528981 0.535981 0.501982
0.536621 0.539121 0.505121
0.544261 0.542260 0.508261
0.489308 0.527808 0.489308
0.496947 0.530947 0.492447
0.504587 0.534087 0.495587
0.512227 0.537226 0.498727
0.519866 0.540366 0.501866
0.527506 0.543505 0.505005
0.535145 0.546645 0.508145
0.542785 0.549785 0.511285
0.550424 0.552924 0.514424
0.441197 0.443697 0.445697
0.448837 0.446837 0.448837
0.456476 0.449976 0.451976
0.464116 0.453116 0.455116
0.471755 0.456255 0.458255
0.479395 0.459395 0.461395
0.487034 0.462534 0.464534
0.494674 0.465674 0.467674
0.502313 0.468813 0.470813
0.447361 0.454361 0.451861
0.455000 0.457500 0.455000
0.462640 0.460640 0.458140
0.470279 0.463779 0.461279
0.477919 0.466919 0.464419
0.485558 0.470058 0.467558
0.493198 0.473198 0.470698
0.500837 0.476337 0.473837
0.508477 0.479477 0.476977
0.453524 0.465024 0.458024
0.461164 0.468163 0.461164
0.468803 0.471303 0.464303
0.476442 0.474442 0.467442
0.484082 0.477582 0.470582
0.491722 0.480722 0.473722
0.499361 0.483861 0.476861
0.507000 0.487001 0.480000
0.514640 0.490140 0.483140
0.459687 0.475687 0.464187
0.467327 0.478827 0.467327
0.474966 0.481967 0.470467
0.482606 0.485106 0.473606
0.490246 0.488245 0.476746
0.497885 0.491385 0.479885
0.505525 0.494524 0.483025
0.513164 0.497664 0.486164
0.520803 0.500803 0.489303
0.465851 0.486351 0.470351
0.473490 0.489490 0.473490
0.481130 0.492630 0.476630
0.488770 0.495770 0.479770
0.496409 0.498909 0.482909
0.504049 0.502049 0.486049
0.511688 0.505188 0.489188
0.519328 0.508327 0.492328
0.526967 0.511467 0.495467
0.472015 0.497014 0.476515
0.479654 0.500154 0.479654
0.487293 0.503293 0.482793
0.494933 0.506433 0.485933
0.502572 0.509572 0.489073
0.510212 0.512712 0.492212
0.517852 0.515851 0.495352
0.525491 0.518991 0.498491
0.533130 0.522130 0.501630
0.478178 0.507678 0.482678
0.485818 0.510817 0.485818
0.493457 0.513957 0.488957
0.501096 0.517096 0.492096
0.508736 0.520236 0.495236
0.516375 0.523375 0.498376
0.524015 0.526515 0.501515
0.531655 0.529655 0.504655
0.539294 0.532794 0.507794
0.484341 0.518341 0.488841
0.491981 0.521481 0.491981
0.499620 0.524620 0.495120
0.507260 0.527760 0.498260
0.514899 0.530899 0.501399
0.522539 0.534039 0.504539
0.530178 0.537179 0.507679
0.537818 0.540318 0.510818
0.545457 0.543457 0.513957
0.490505 0.529005 0.495005
0.498144 0.532144 0.498144
0.505784 0.535284 0.501284
0.513424 0.538423 0.504424
0.521063 0.541563 0.507563
0.528703 0.544702 0.510703
0.536342 0.547842 0.513842
0.543982 0.550982 0.516982
0.551621 0.554121 0.520121
0.442394 0.444894 0.451394
0.450034 0.448034 0.454534
0.457673 0.451173 0.457673
0.465312 0.454313 0.460812
0.472952 0.457452 0.463952
0.480592 0.460591 0.467091
0.488231 0.463731 0.470231
0.495871 0.466871 0.473371
0.503510 0.470010 0.476510
0.448558 0.455558 0.457558
0.456197 0.458697 0.460697
0.463836 0.461837 0.463836
0.471476 0.464976 0.466976
0.479116 0.468116 0.470116
0.486755 0.471255 0.473255
0.494395 0.474395 0.476394
0.502034 0.477534 0.479534
0.509674 0.480674 0.482674
0.454721 0.466221 0.463721
0.462360 0.469360 0.466860
0.470000 0.472500 0.470000
0.477639 0.475639 0.473139
0.485279 0.478779 0.476279
0.492919 0.481919 0.479419
0.500558 0.485058 0.482558
0.508197 0.488198 0.485698
0.515837 0.491337 0.488837
0.460884 0.476884 0.469884
0.468524 0.480024 0.473024
0.476163 0.483163 0.476163
0.483803 0.486303 0.479303
0.491443 0.489443 0.482442
0.499082 0.492582 0.485582
0.506722 0.495721 0.488721
0.514361 0.498861 0.491861
0.522000 0.502000 0.495000
0.467048 0.487548 0.476048
0.474687 0.490687 0.479187
0.482327 0.493827 0.482327
0.489966 0.496967 0.485467
0.497606 0.500106 0.488606
0.505246 0.503245 0.491746
0.512885 0.506385 0.494885
0.520525 0.509524 0.498024
0.528164 0.512664 0.501164
0.473211 0.498211 0.482211
0.480851 0.501351 0.485351
0.488490 0.504490 0.488490
0.496130 0.507630 0.491630
0.503769 0.510769 0.494769
0.511409 0.513909 0.497909
0.519049 0.517048 0.501049
0.526688 0.520188 0.504188
0.534327 0.523327 0.507327
0.479375 0.508875 0.488375
0.487014 0.512014 0.491514
0.494654 0.515154 0.494654
0.502293 0.518293 0.497793
0.509933 0.521433 0.500933
0.517572 0.524572 0.504073
0.525212 0.527712 0.507212
0.532852 0.530852 0.510352
0.540491 0.533991 0.513491
0.485538 0.519538 0.494538
0.493178 0.522678 0.497678
0.500817 0.525817 0.500817
0.508457 0.528957 0.503957
0.516096 0.532096 0.507096
0.523736 0.535236 0.510236
0.531376 0.538376 0.513375
0.539015 0.541515 0.516515
0.546654 0.544654 0.519654
0.491702 0.530202 0.500702
0.499341 0.533341 0.503841
0.506981 0.536481 0.506981
0.514620 0.539620 0.510120
0.522260 0.542760 0.513260
0.529899 0.545899 0.516400
0.537539 0.549039 0.519539
0.545179 0.552179 0.522679
0.552818 0.555318 0.525818
0.443591 0.446091 0.457091
0.451231 0.449231 0.460231
0.458870 0.452370 0.463370
0.466509 0.455509 0.466509
0.474149 0.458649 0.469649
0.481789 0.461788 0.472789
0.489428 0.464928 0.475928
0.497068 0.468068 0.479068
0.504707 0.471207 0.482207
0.449755 0.456755 0.463255
0.457394 0.459894 0.466394
0.465033 0.463034 0.469533
0.472673 0.466173 0.472673
0.480312 0.469313 0.475812
0.487952 0.472452 0.478952
0.495592 0.475592 0.482092
0.503231 0.478731 0.485231
0.510871 0.481871 0.488371
0.455918 0.467418 0.469418
0.463557 0.470557 0.472557
0.471197 0.473697 0.475697
0.478836 0.476836 0.478836
0.486476 0.479976 0.481976
0.494116 0.483115 0.485116
0.501755 0.486255 0.488255
0.509394 0.489395 0.491395
0.517034 0.492534 0.494534
0.462081 0.478081 0.475581
0.469721 0.481221 0.478721
0.477360 0.484360 0.481860
0.485000 0.487500 0.485000
0.492640 0.490640 0.488140
0.500279 0.493779 0.491279
0.507918 0.496918 0.494418
0.515558 0.500058 0.497558
0.523197 0.503197 0.500697
0.468245 0.488745 0.481745
0.475884 0.491885 0.484884
0.483524 0.495024 0.488024
0.491163 0.498163 0.491163
0.498803 0.501303 0.494303
0.506443 0.504442 0.497442
0.514082 0.507582 0.500582
0.521722 0.510721 0.503722
0.529361 0.513861 0.506861
0.474408 0.499408 0.487908
0.482048 0.502548 0.491048
0.489687 0.505687 0.494188
0.497327 0.508827 0.497327
0.504966 0.511966 0.500466
0.512606 0.515106 0.503606
0.520246 0.518245 0.506745
0.527885 0.521385 0.509885
0.535524 0.524524 0.513024
0.480572 0.510072 0.494072
0.488211 0.513211 0.497211
0.495851 0.516351 0.500351
0.503490 0.519490 0.503490
0.511130 0.522630 0.506630
0.518769 0.525770 0.509769
0.526409 0.528909 0.512909
0.534049 0.532048 0.516049
0.541688 0.535188 0.519188
0.486735 0.520735 0.500235
0.494375 0.523875 0.503375
0.502014 0.527014 0.506514
0.509654 0.530154 0.509654
0.517293 0.533293 0.512794
0.524933 0.536433 0.515933
0.532573 0.539573 0.519073
0.540212 0.542712 0.522212
0.547851 0.545851 0.525351
0.492899 0.531399 0.506399
0.500538 0.534538 0.509538
0.508178 0.537678 0.512678
0.515817 0.540817 0.515817
0.523457 0.543957 0.518957
0.531096 0.547096 0.522096
0.538736 0.550236 0.525236
0.546376 0.553376 0.528375
0.554015 0.556515 0.531515
0.444788 0.447288 0.462788
0.452428 0.450428 0.465928
0.460067 0.453567 0.469067
0.467706 0.456706 0.472206
0.475346 0.459846 0.475346
0.482986 0.462985 0.478486
0.490625 0.466125 0.481625
0.498264 0.469265 0.484765
0.505904 0.472404 0.487904
0.450952 0.457952 0.468952
0.458591 0.461091 0.472091
0.466230 0.464230 0.475231
0.473870 0.467370 0.478370
0.481509 0.470509 0.481509
0.489149 0.473649 0.484649
0.496789 0.476789 0.487789
0.504428 0.479928 0.490928
0.512068 0.483068 0.494068
0.457115 0.468615 0.475115
0.464754 0.471754 0.478254
0.472394 0.474894 0.481394
0.480034 0.478033 0.484533
0.487673 0.481173 0.487673
0.495312 0.484312 0.490812
0.502952 0.487452 0.493952
0.510591 0.490591 0.497091
0.518231 0.493731 0.500231
0.463278 0.479278 0.481278
0.470918 0.482418 0.484418
0.478557 0.485557 0.487557
0.486197 0.488697 0.490697
0.493837 0.491837 0.493837
0.501476 0.494976 0.496976
0.509115 0.498115 0.500115
0.516755 0.501255 0.503255
0.524394 0.504394 0.506394
0.469442 0.489942 0.487442
0.477081 0.493081 0.490581
0.484721 0.496221 0.493721
0.492360 0.499360 0.496860
0.500000 0.502500 0.500000
0.507640 0.505640 0.503140
0.515279 0.508779 0.506279
0.522919 0.511918 0.509418
0.530558 0.515058 0.512558
0.475605 0.500605 0.493605
0.483245 0.503745 0.496745
0.490884 0.506884 0.499884
0.498524 0.510024 0.503024
0.506163 0.513163 0.506163
0.513803 0.516303 0.509303
0.521443 0.519442 0.512443
0.529082 0.522582 0.515582
0.536722 0.525721 0.518722
0.481769 0.511269 0.499769
0.489409 0.514408 0.502908
0.497048 0.517548 0.506048
0.504688 0.520687 0.509188
0.512327 0.523827 0.512327
0.519967 0.526967 0.515467
0.527606 0.530106 0.518606
0.535246 0.533245 0.521745
0.542885 0.536385 0.524885
0.487932 0.521932 0.505933
0.495572 0.525072 0.509072
0.503212 0.528211 0.512212
0.510851 0.531351 0.515351
0.518491 0.534490 0.518491
0.526130 0.537630 0.521630
0.533770 0.540769 0.524769
0.541409 0.543909 0.527909
0.549049 0.547048 0.531049
0.494096 0.532596 0.512096
0.501736 0.535736 0.515236
0.509375 0.538875 0.518375
0.517015 0.542015 0.521515
0.524654 0.545154 0.524654
0.532294 0.548293 0.527794
0.539933 0.551433 0.530933
0.547573 0.554573 0.534073
0.555212 0.557712 0.537212
0.445985 0.448485 0.468485
0.453625 0.451625 0.471625
0.461264 0.454764 0.474764
0.468903 0.457903 0.477903
0.476543 0.461043 0.481043
0.484182 0.464182 0.484182
0.491822 0.467322 0.487322
0.499462 0.470462 0.490461
0.507101 0.473601 0.493601
0.452149 0.459149 0.474649
0.459788 0.462288 0.477788
0.467427 0.465427 0.480928
0.475067 0.468567 0.484067
0.482706 0.471706 0.487206
0.490346 0.474846 0.490346
0.497986 0.477986 0.493486
0.505625 0.481125 0.496625
0.513265 0.484265 0.499765
0.458312 0.469812 0.480812
0.465951 0.472951 0.483951
0.473591 0.476091 0.487091
0.481230 0.479230 0.490230
0.488870 0.482370 0.493370
0.496509 0.485509 0.496509
0.504149 0.488649 0.499649
0.511788 0.491788 0.502788
0.519428 0.494928 0.505928
0.464475 0.480475 0.486975
0.472115 0.483615 0.490115
0.479754 0.486754 0.493254
0.487394 0.489894 0.496394
0.495034 0.493033 0.499533
0.502673 0.496173 0.502673
0.510312 0.499312 0.505812
0.517952 0.502452 0.508952
0.525591 0.505591 0.512092
0.470639 0.491139 0.493139
0.478278 0.494278 0.496278
0.485918 0.497418 0.499418
0.493557 0.500557 0.502557
0.501197 0.503697 0.505697
0.508837 0.506837 0.508837
0.516476 0.509976 0.511976
0.524115 0.513115 0.515115
0.531755 0.516255 0.518255
0.476802 0.501802 0.499302
0.484442 0.504942 0.502442
0.492082 0.508081 0.505582
0.499721 0.511221 0.508721
0.507360 0.514360 0.511861
0.515000 0.517500 0.515000
0.522640 0.520639 0.518139
0.530279 0.523779 0.521279
0.537918 0.526918 0.524419
0.482966 0.512466 0.505466
0.490606 0.515605 0.508606
0.498245 0.518745 0.511745
0.505885 0.521884 0.514885
0.513524 0.525024 0.518024
0.521164 0.528164 0.521164
0.528803 0.531303 0.524303
0.536443 0.534442 0.527443
0.544082 0.537582 0.530582
0.489129 0.523129 0.511629
0.496769 0.526269 0.514769
0.504409 0.529408 0.517908
0.512048 0.532548 0.521048
0.519688 0.535687 0.524188
0.527327 0.538827 0.527327
0.534967 0.541966 0.530466
0.542606 0.545106 0.533606
0.550246 0.548245 0.536745
0.495293 0.533793 0.517793
0.502933 0.536933 0.520933
0.510572 0.540072 0.524072
0.518212 0.543211 0.527212
0.525851 0.546351 0.530351
0.533491 0.549490 0.533491
0.541130 0.552630 0.536630
0.548770 0.555770 0.539770
0.556409 0.558909 0.542909
0.447182 0.449682 0.474182
0.454822 0.452822 0.477322
0.462461 0.455961 0.480461
0.470100 0.459100 0.483600
0.477740 0.462240 0.486740
0.485380 0.465380 0.489880
0.493019 0.468519 0.493019
0.500659 0.471659 0.496159
0.508298 0.474798 0.499298
0.453346 0.460346 0.480346
0.460985 0.463485 0.483485
0.468624 0.466625 0.486625
0.476264 0.469764 0.489764
0.483903 0.472904 0.492903
0.491543 0.476043 0.496043
0.499183 0.479183 0.499183
0.506822 0.482322 0.502322
0.514462 0.485462 0.505462
0.459509 0.471009 0.486509
0.467148 0.474148 0.489648
0.474788 0.477288 0.492788
0.482428 0.480428 0.495928
0.490067 0.483567 0.499067
0.497707 0.486707 0.502207
0.505346 0.489846 0.505346
0.512985 0.492986 0.508486
0.520625 0.496125 0.511625
0.465672 0.481672 0.492672
0.473312 0.484812 0.495812
0.480951 0.487951 0.498951
0.488591 0.491091 0.502091
0.496231 0.494231 0.505231
0.503870 0.497370 0.508370
0.511509 0.500509 0.511509
0.519149 0.503649 0.514649
0.526788 0.506788 0.517788
0.471836 0.492336 0.498836
0.479475 0.495476 0.501976
0.487115 0.498615 0.505115
0.494754 0.501754 0.508255
0.502394 0.504894 0.511394
0.510034 0.508034 0.514534
0.517673 0.511173 0.517673
0.525312 0.514312 0.520813
0.532952 0.517452 0.523952
0.477999 0.502999 0.505000
0.485639 0.506139 0.508139
0.493279 0.509278 0.511278
0.500918 0.512418 0.514418
0.508557 0.515558 0.517558
0.516197 0.518697 0.520697
0.523837 0.521836 0.523837
0.531476 0.524976 0.526976
0.539115 0.528115 0.530115
0.484163 0.513663 0.511163
0.491803 0.516802 0.514302
0.499442 0.519942 0.517442
0.507081 0.523081 0.520582
0.514721 0.526221 0.523721
0.522361 0.529361 0.526861
0.530000 0.532500 0.530000
0.537640 0.535639 0.533139
0.545279 0.538779 0.536279
0.490326 0.524326 0.517327
0.497966 0.527466 0.520466
0.505606 0.530605 0.523606
0.513245 0.533745 0.526745
0.520885 0.536884 0.529885
0.528524 0.540024 0.533024
0.536164 0.543163 0.536164
0.543803 0.546303 0.539303
0.551443 0.549442 0.542443
0.496490 0.534990 0.523490
0.504130 0.538129 0.526629
0.511769 0.541269 0.529769
0.519409 0.544408 0.532909
0.527048 0.547548 0.536048
0.534688 0.550687 0.539188
0.542327 0.553827 0.542327
0.549967 0.556966 0.545466
0.557606 0.560106 0.548606
0.448379 0.450879 0.479879
0.456019 0.454019 0.483019
0.463658 0.457158 0.486158
0.471297 0.460297 0.489297
0.478937 0.463437 0.492437
0.486577 0.466577 0.495577
0.494216 0.469716 0.498716
0.501856 0.472856 0.501856
0.509495 0.475995 0.504995
0.454543 0.461543 0.486043
0.462182 0.464682 0.489182
0.469822 0.467822 0.492322
0.477461 0.470961 0.495461
0.485100 0.474100 0.498601
0.492740 0.477240 0.501740
0.500379 0.480380 0.504880
0.508019 0.483519 0.508019
0.515659 0.486659 0.511159
0.460706 0.472206 0.492206
0.468345 0.475345 0.495345
0.475985 0.478485 0.498485
0.483625 0.481625 0.501625
0.491264 0.484764 0.504764
0.498903 0.487903 0.507904
0.506543 0.491043 0.511043
0.514182 0.494182 0.514182
0.521822 0.497322 0.517322
0.466869 0.482869 0.498369
0.474509 0.486009 0.501509
0.482148 0.489148 0.504649
0.489788 0.492288 0.507788
0.497428 0.495428 0.510927
0.505067 0.498567 0.514067
0.512706 0.501706 0.517207
0.520346 0.504846 0.520346
0.527985 0.507985 0.523486
0.473033 0.493533 0.504533
0.480673 0.496672 0.507672
0.488312 0.499812 0.510812
0.495951 0.502951 0.513952
0.503591 0.506091 0.517091
0.511231 0.509230 0.520231
0.518870 0.512370 0.523370
0.526509 0.515509 0.526509
0.534149 0.518649 0.529649
0.479196 0.504196 0.510696
0.486836 0.507336 0.513836
0.494476 0.510475 0.516976
0.502115 0.513615 0.520115
0.509754 0.516755 0.523255
0.517394 0.519894 0.526394
0.525033 0.523033 0.529533
0.532673 0.526173 0.532673
0.540312 0.529312 0.535813
0.485360 0.514860 0.516860
0.492999 0.517999 0.519999
0.500639 0.521139 0.523139
0.508278 0.524278 0.526278
0.515918 0.527418 0.529418
0.523558 0.530558 0.532558
0.531197 0.533697 0.535697
0.538836 0.536836 0.538836
0.546476 0.539976 0.541976
0.491524 0.525523 0.523023
0.499163 0.528663 0.526163
0.506803 0.531802 0.529303
0.514442 0.534942 0.532442
0.522082 0.538081 0.535582
0.529721 0.541221 0.538721
0.537361 0.544360 0.541860
0.545000 0.547500 0.545000
0.552640 0.550639 0.548140
0.497687 0.536187 0.529187
0.505327 0.539326 0.532327
0.512966 0.542466 0.535466
0.520606 0.545605 0.538606
0.528245 0.548745 0.541745
0.535885 0.551885 0.544885
0.543524 0.555024 0.548024
0.551164 0.558163 0.551164
0.558803 0.561303 0.554303
0.449576 0.452076 0.485576
0.457216 0.455216 0.488716
0.464855 0.458355 0.491855
0.472494 0.461494 0.494995
0.480134 0.464634 0.498134
0.487774 0.467774 0.501274
0.495413 0.470913 0.504413
0.503053 0.474053 0.507553
0.510692 0.477192 0.510692
0.455740 0.462740 0.491740
0.463379 0.465879 0.494879
0.471019 0.469019 0.498019
0.478658 0.472158 0.501158
0.486297 0.475297 0.504298
0.493937 0.478437 0.507437
0.501576 0.481577 0.510576
0.509216 0.484716 0.513716
0.516856 0.487856 0.516856
0.461903 0.473403 0.497903
0.469542 0.476542 0.501042
0.477182 0.479682 0.504182
0.484821 0.482821 0.507321
0.492461 0.485961 0.510461
0.500101 0.489100 0.513601
0.507740 0.492240 0.516740
0.515380 0.495380 0.519880
0.523019 0.498519 0.523019
0.468066 0.484066 0.504066
0.475706 0.487206 0.507206
0.483345 0.490345 0.510346
0.490985 0.493485 0.513485
0.498625 0.496625 0.516625
0.506264 0.499764 0.519764
0.513903 0.502903 0.522903
0.521543 0.506043 0.526043
0.529183 0.509182 0.529183
0.474230 0.494730 0.510230
0.481869 0.497869 0.513370
0.489509 0.501009 0.516509
0.497148 0.504148 0.519648
0.504788 0.507288 0.522788
0.512428 0.510427 0.525927
0.520067 0.513567 0.529067
0.527706 0.516706 0.532207
0.535346 0.519846 0.535346
0.480393 0.505393 0.516393
0.488033 0.508533 0.519533
0.495672 0.511672 0.522672
0.503312 0.514812 0.525812
0.510952 0.517952 0.528952
0.518591 0.521091 0.532091
0.526231 0.524231 0.535231
0.533870 0.527370 0.538370
0.541509 0.530509 0.541509
0.486557 0.516057 0.522557
0.494196 0.519196 0.525697
0.501836 0.522336 0.528836
0.509475 0.525475 0.531976
0.517115 0.528615 0.535115
0.524755 0.531755 0.538255
0.532394 0.534894 0.541394
0.540034 0.538034 0.544534
0.547673 0.541173 0.547673
0.492721 0.526720 0.528721
0.500360 0.529860 0.531860
0.507999 0.532999 0.535000
0.515639 0.536139 0.538139
0.523278 0.539278 0.541278
0.530918 0.542418 0.544418
0.538558 0.545557 0.547558
0.546197 0.548697 0.550697
0.553837 0.551836 0.553837
0.498884 0.537384 0.534884
0.506524 0.540523 0.538023
0.514163 0.543663 0.541163
0.521803 0.546802 0.544303
0.529442 0.549942 0.547442
0.537081 0.553082 0.550582
0.544721 0.556221 0.553721
0.552361 0.559360 0.556860
0.560000 0.562500 0.560000
