shared/src/main/assets/luts/film_dirty_rain.cube
TITLE "DALUR Dirty Rain"
LUT_3D_SIZE 9
DOMAIN_MIN 0.0 0.0 0.0
DOMAIN_MAX 1.0 1.0 1.0
0.394000 0.403000 0.406000
0.395957 0.411578 0.414578
0.397915 0.420155 0.423155
0.399872 0.428733 0.431733
0.401830 0.437311 0.440311
0.403787 0.445888 0.448888
0.405744 0.454466 0.457466
0.407702 0.463044 0.466044
0.409659 0.471621 0.474621
0.410840 0.413219 0.422840
0.412797 0.421797 0.431417
0.414755 0.430375 0.439995
0.416712 0.438952 0.448573
0.418669 0.447530 0.457150
0.420627 0.456108 0.465728
0.422584 0.464685 0.474306
0.424542 0.473263 0.482883
0.426499 0.481841 0.491461
0.427680 0.423439 0.439680
0.429637 0.432017 0.448257
0.431594 0.440594 0.456835
0.433552 0.449172 0.465413
0.435509 0.457750 0.473990
0.437467 0.466327 0.482568
0.439424 0.474905 0.491146
0.441381 0.483483 0.499723
0.443339 0.492060 0.508301
0.444519 0.433658 0.456519
0.446477 0.442236 0.465097
0.448434 0.450814 0.473675
0.450391 0.459391 0.482252
0.452349 0.467969 0.490830
0.454306 0.476547 0.499408
0.456264 0.485124 0.507985
0.458221 0.493702 0.516563
0.460178 0.502280 0.525141
0.461359 0.443878 0.473359
0.463316 0.452456 0.481937
0.465274 0.461033 0.490514
0.467231 0.469611 0.499092
0.469189 0.478189 0.507670
0.471146 0.486766 0.516247
0.473103 0.495344 0.524825
0.475061 0.503922 0.533403
0.477018 0.512499 0.541980
0.478199 0.454097 0.490199
0.480156 0.462675 0.498776
0.482114 0.471253 0.507354
0.484071 0.479830 0.515932
0.486028 0.488408 0.524509
0.487986 0.496986 0.533087
0.489943 0.505563 0.541665
0.491901 0.514141 0.550242
0.493858 0.522719 0.558820
0.495039 0.464317 0.507039
0.496996 0.472895 0.515616
0.498953 0.481472 0.524194
0.500911 0.490050 0.532772
0.502868 0.498628 0.541349
0.504826 0.507205 0.549927
0.506783 0.515783 0.558505
0.508740 0.524361 0.567082
0.510698 0.532938 0.575660
0.511878 0.474536 0.523878
0.513836 0.483114 0.532456
0.515793 0.491692 0.541034
0.517751 0.500269 0.549611
0.519708 0.508847 0.558189
0.521665 0.517425 0.566767
0.523623 0.526002 0.575344
0.525580 0.534580 0.583922
0.527538 0.543158 0.592500
0.528718 0.484756 0.540718
0.530676 0.493334 0.549296
0.532633 0.501911 0.557873
0.534590 0.510489 0.566451
0.536548 0.519067 0.575029
0.538505 0.527644 0.583606
0.540462 0.536222 0.592184
0.542420 0.544800 0.600762
0.544377 0.553377 0.609339
0.397270 0.406270 0.402650
0.399228 0.414848 0.411228
0.401185 0.423426 0.419805
0.403143 0.432003 0.428383
0.405100 0.440581 0.436961
0.407057 0.449159 0.445538
0.409015 0.457736 0.454116
0.410972 0.466314 0.462694
0.412930 0.474892 0.471271
0.414110 0.416490 0.419490
0.416068 0.425068 0.428068
0.418025 0.433645 0.436645
0.419982 0.442223 0.445223
0.421940 0.450801 0.453801
0.423897 0.459378 0.462378
0.425855 0.467956 0.470956
0.427812 0.476534 0.479534
0.429769 0.485111 0.488111
0.430950 0.426709 0.436330
0.432907 0.435287 0.444907
0.434865 0.443865 0.453485
0.436822 0.452442 0.462063
0.438780 0.461020 0.470640
0.440737 0.469598 0.479218
0.442694 0.478175 0.487796
0.444652 0.486753 0.496373
0.446609 0.495331 0.504951
0.447790 0.436929 0.453169
0.449747 0.445507 0.461747
0.451705 0.454084 0.470325
0.453662 0.462662 0.478902
0.455619 0.471240 0.487480
0.457577 0.479817 0.496058
0.459534 0.488395 0.504635
0.461491 0.496973 0.513213
0.463449 0.505550 0.521791
0.464629 0.447148 0.470009
0.466587 0.455726 0.478587
0.468544 0.464304 0.487165
0.470502 0.472881 0.495742
0.472459 0.481459 0.504320
0.474416 0.490037 0.512898
0.476374 0.498614 0.521475
0.478331 0.507192 0.530053
0.480289 0.515770 0.538631
0.481469 0.457368 0.486849
0.483427 0.465946 0.495427
0.485384 0.474523 0.504004
0.487341 0.483101 0.512582
0.489299 0.491679 0.521160
0.491256 0.500256 0.529737
0.493214 0.508834 0.538315
0.495171 0.517412 0.546893
0.497128 0.525989 0.555470
0.498309 0.467587 0.503689
0.500266 0.476165 0.512266
0.502224 0.484743 0.520844
0.504181 0.493320 0.529422
0.506139 0.501898 0.537999
0.508096 0.510476 0.546577
0.510053 0.519053 0.555155
0.512011 0.527631 0.563732
0.513968 0.536209 0.572310
0.515149 0.477807 0.520529
0.517106 0.486385 0.529106
0.519064 0.494962 0.537684
0.521021 0.503540 0.546262
0.522978 0.512118 0.554839
0.524936 0.520695 0.563417
0.526893 0.529273 0.571995
0.528851 0.537851 0.580572
0.530808 0.546428 0.589150
0.531989 0.488026 0.537368
0.533946 0.496604 0.545946
0.535903 0.505182 0.554524
0.537861 0.513759 0.563101
0.539818 0.522337 0.571679
0.541776 0.530915 0.580257
0.543733 0.539492 0.588834
0.545690 0.548070 0.597412
0.547648 0.556648 0.605990
0.400541 0.409541 0.399300
0.402498 0.418118 0.407878
0.404456 0.426696 0.416456
0.406413 0.435274 0.425033
0.408370 0.443851 0.433611
0.410328 0.452429 0.442189
0.412285 0.461007 0.450766
0.414243 0.469584 0.459344
0.416200 0.478162 0.467922
0.417381 0.419760 0.416140
0.419338 0.428338 0.424718
0.421295 0.436916 0.433295
0.423253 0.445493 0.441873
0.425210 0.454071 0.450451
0.427168 0.462649 0.459028
0.429125 0.471226 0.467606
0.431082 0.479804 0.476184
0.433040 0.488382 0.484761
0.434220 0.429980 0.432980
0.436178 0.438557 0.441557
0.438135 0.447135 0.450135
0.440093 0.455713 0.458713
0.442050 0.464290 0.467290
0.444007 0.472868 0.475868
0.445965 0.481446 0.484446
0.447922 0.490023 0.493023
0.449880 0.498601 0.501601
0.451060 0.440199 0.449820
0.453018 0.448777 0.458397
0.454975 0.457355 0.466975
0.456932 0.465932 0.475553
0.458890 0.474510 0.484130
0.460847 0.483088 0.492708
0.462804 0.491665 0.501286
0.464762 0.500243 0.509863
0.466719 0.508821 0.518441
0.467900 0.450419 0.466659
0.469857 0.458996 0.475237
0.471815 0.467574 0.483815
0.473772 0.476152 0.492392
0.475729 0.484729 0.500970
0.477687 0.493307 0.509548
0.479644 0.501885 0.518125
0.481602 0.510462 0.526703
0.483559 0.519040 0.535281
0.484740 0.460638 0.483499
0.486697 0.469216 0.492077
0.488654 0.477794 0.500654
0.490612 0.486371 0.509232
0.492569 0.494949 0.517810
0.494527 0.503527 0.526387
0.496484 0.512104 0.534965
0.498441 0.520682 0.543543
0.500399 0.529260 0.552120
0.501579 0.470858 0.500339
0.503537 0.479435 0.508917
0.505494 0.488013 0.517494
0.507452 0.496591 0.526072
0.509409 0.505168 0.534650
0.511366 0.513746 0.543227
0.513324 0.522324 0.551805
0.515281 0.530901 0.560383
0.517239 0.539479 0.568960
0.518419 0.481077 0.517179
0.520377 0.489655 0.525756
0.522334 0.498233 0.534334
0.524291 0.506810 0.542912
0.526249 0.515388 0.551489
0.528206 0.523966 0.560067
0.530164 0.532543 0.568645
0.532121 0.541121 0.577222
0.534078 0.549699 0.585800
0.535259 0.491297 0.534018
0.537216 0.499874 0.542596
0.539174 0.508452 0.551174
0.541131 0.517030 0.559751
0.543089 0.525607 0.568329
0.545046 0.534185 0.576907
0.547003 0.542763 0.585484
0.548961 0.551340 0.594062
0.550918 0.559918 0.602640
0.403811 0.412811 0.395950
0.405769 0.421389 0.404528
0.407726 0.429967 0.413106
0.409683 0.438544 0.421683
0.411641 0.447122 0.430261
0.413598 0.455700 0.438839
0.415556 0.464277 0.447416
0.417513 0.472855 0.455994
0.419470 0.481433 0.464572
0.420651 0.423031 0.412790
0.422608 0.431608 0.421368
0.424566 0.440186 0.429946
0.426523 0.448764 0.438523
0.428481 0.457341 0.447101
0.430438 0.465919 0.455679
0.432395 0.474497 0.464256
0.434353 0.483074 0.472834
0.436310 0.491652 0.481412
0.437491 0.433250 0.429630
0.439448 0.441828 0.438208
0.441406 0.450406 0.446785
0.443363 0.458983 0.455363
0.445320 0.467561 0.463941
0.447278 0.476139 0.472518
0.449235 0.484716 0.481096
0.451193 0.493294 0.489674
0.453150 0.501872 0.498251
0.454331 0.443470 0.446470
0.456288 0.452047 0.455047
0.458245 0.460625 0.463625
0.460203 0.469203 0.472203
0.462160 0.477780 0.480780
0.464118 0.486358 0.489358
0.466075 0.494936 0.497936
0.468032 0.503513 0.506513
0.469990 0.512091 0.515091
0.471170 0.453689 0.463309
0.473128 0.462267 0.471887
0.475085 0.470845 0.480465
0.477042 0.479422 0.489042
0.479000 0.488000 0.497620
0.480957 0.496578 0.506198
0.482915 0.505155 0.514775
0.484872 0.513733 0.523353
0.486829 0.522311 0.531931
0.488010 0.463909 0.480149
0.489967 0.472486 0.488727
0.491925 0.481064 0.497305
0.493882 0.489642 0.505882
0.495840 0.498219 0.514460
0.497797 0.506797 0.523038
0.499754 0.515375 0.531615
0.501712 0.523952 0.540193
0.503669 0.532530 0.548771
0.504850 0.474128 0.496989
0.506807 0.482706 0.505567
0.508765 0.491284 0.514144
0.510722 0.499861 0.522722
0.512679 0.508439 0.531300
0.514637 0.517017 0.539877
0.516594 0.525594 0.548455
0.518552 0.534172 0.557033
0.520509 0.542750 0.565610
0.521690 0.484348 0.513829
0.523647 0.492925 0.522406
0.525604 0.501503 0.530984
0.527562 0.510081 0.539562
0.529519 0.518658 0.548139
0.531477 0.527236 0.556717
0.533434 0.535814 0.565295
0.535391 0.544391 0.573872
0.537349 0.552969 0.582450
0.538529 0.494567 0.530669
0.540487 0.503145 0.539246
0.542444 0.511723 0.547824
0.544402 0.520300 0.556402
0.546359 0.528878 0.564979
0.548316 0.537456 0.573557
0.550274 0.546033 0.582135
0.552231 0.554611 0.590712
0.554189 0.563189 0.599290
0.407082 0.416082 0.392601
0.409039 0.424659 0.401178
0.410996 0.433237 0.409756
0.412954 0.441815 0.418334
0.414911 0.450392 0.426911
0.416869 0.458970 0.435489
0.418826 0.467548 0.444067
0.420783 0.476125 0.452644
0.422741 0.484703 0.461222
0.423921 0.426301 0.409440
0.425879 0.434879 0.418018
0.427836 0.443456 0.426596
0.429794 0.452034 0.435173
0.431751 0.460612 0.443751
0.433708 0.469189 0.452329
0.435666 0.477767 0.460906
0.437623 0.486345 0.469484
0.439581 0.494922 0.478062
0.440761 0.436521 0.426280
0.442719 0.445098 0.434858
0.444676 0.453676 0.443435
0.446633 0.462254 0.452013
0.448591 0.470831 0.460591
0.450548 0.479409 0.469168
0.452506 0.487987 0.477746
0.454463 0.496564 0.486324
0.456420 0.505142 0.494901
0.457601 0.446740 0.443120
0.459558 0.455318 0.451698
0.461516 0.463895 0.460275
0.463473 0.472473 0.468853
0.465431 0.481051 0.477431
0.467388 0.489628 0.486008
0.469345 0.498206 0.494586
0.471303 0.506784 0.503164
0.473260 0.515361 0.511741
0.474441 0.456960 0.459960
0.476398 0.465537 0.468537
0.478356 0.474115 0.477115
0.480313 0.482693 0.485693
0.482270 0.491270 0.494270
0.484228 0.499848 0.502848
0.486185 0.508426 0.511426
0.488142 0.517003 0.520003
0.490100 0.525581 0.528581
0.491280 0.467179 0.476799
0.493238 0.475757 0.485377
0.495195 0.484334 0.493955
0.497153 0.492912 0.502532
0.499110 0.501490 0.511110
0.501067 0.510067 0.519688
0.503025 0.518645 0.528265
0.504982 0.527223 0.536843
0.506940 0.535800 0.545421
0.508120 0.477399 0.493639
0.510078 0.485976 0.502217
0.512035 0.494554 0.510794
0.513992 0.503132 0.519372
0.515950 0.511709 0.527950
0.517907 0.520287 0.536527
0.519865 0.528865 0.545105
0.521822 0.537442 0.553683
0.523779 0.546020 0.562260
0.524960 0.487618 0.510479
0.526917 0.496196 0.519057
0.528875 0.504773 0.527634
0.530832 0.513351 0.536212
0.532790 0.521929 0.544790
0.534747 0.530506 0.553367
0.536704 0.539084 0.561945
0.538662 0.547662 0.570523
0.540619 0.556239 0.579100
0.541800 0.497838 0.527319
0.543757 0.506415 0.535896
0.545715 0.514993 0.544474
0.547672 0.523571 0.553052
0.549629 0.532148 0.561629
0.551587 0.540726 0.570207
0.553544 0.549304 0.578785
0.555502 0.557881 0.587362
0.557459 0.566459 0.595940
0.410352 0.419352 0.389251
0.412309 0.427930 0.397828
0.414267 0.436507 0.406406
0.416224 0.445085 0.414984
0.418182 0.453663 0.423561
0.420139 0.462240 0.432139
0.422096 0.470818 0.440717
0.424054 0.479396 0.449294
0.426011 0.487973 0.457872
0.427192 0.429572 0.406090
0.429149 0.438149 0.414668
0.431107 0.446727 0.423246
0.433064 0.455305 0.431823
0.435021 0.463882 0.440401
0.436979 0.472460 0.448979
0.438936 0.481038 0.457556
0.440894 0.489615 0.466134
0.442851 0.498193 0.474712
0.444032 0.439791 0.422930
0.445989 0.448369 0.431508
0.447946 0.456946 0.440086
0.449904 0.465524 0.448663
0.451861 0.474102 0.457241
0.453819 0.482679 0.465819
0.455776 0.491257 0.474396
0.457733 0.499835 0.482974
0.459691 0.508412 0.491552
0.460871 0.450011 0.439770
0.462829 0.458588 0.448348
0.464786 0.467166 0.456925
0.466744 0.475744 0.465503
0.468701 0.484321 0.474081
0.470658 0.492899 0.482658
0.472616 0.501477 0.491236
0.474573 0.510054 0.499814
0.476531 0.518632 0.508391
0.477711 0.460230 0.456610
0.479669 0.468808 0.465187
0.481626 0.477385 0.473765
0.483583 0.485963 0.482343
0.485541 0.494541 0.490920
0.487498 0.503118 0.499498
0.489456 0.511696 0.508076
0.491413 0.520274 0.516653
0.493370 0.528851 0.525231
0.494551 0.470450 0.473450
0.496508 0.479027 0.482027
0.498466 0.487605 0.490605
0.500423 0.496183 0.499183
0.502380 0.504760 0.507760
0.504338 0.513338 0.516338
0.506295 0.521916 0.524916
0.508253 0.530493 0.533493
0.510210 0.539071 0.542071
0.511391 0.480669 0.490289
0.513348 0.489247 0.498867
0.515305 0.497824 0.507445
0.517263 0.506402 0.516022
0.519220 0.514980 0.524600
0.521178 0.523557 0.533178
0.523135 0.532135 0.541755
0.525092 0.540713 0.550333
0.527050 0.549290 0.558911
0.528230 0.490889 0.507129
0.530188 0.499466 0.515707
0.532145 0.508044 0.524284
0.534103 0.516622 0.532862
0.536060 0.525199 0.541440
0.538017 0.533777 0.550017
0.539975 0.542355 0.558595
0.541932 0.550932 0.567173
0.543890 0.559510 0.575750
0.545070 0.501108 0.523969
0.547028 0.509686 0.532547
0.548985 0.518263 0.541124
0.550942 0.526841 0.549702
0.552900 0.535419 0.558280
0.554857 0.543996 0.566857
0.556815 0.552574 0.575435
0.558772 0.561152 0.584013
0.560729 0.569729 0.592590
0.413622 0.422622 0.385901
0.415580 0.431200 0.394479
0.417537 0.439778 0.403056
0.419495 0.448355 0.411634
0.421452 0.456933 0.420212
0.423409 0.465511 0.428789
0.425367 0.474088 0.437367
0.427324 0.482666 0.445945
0.429282 0.491244 0.454522
0.430462 0.432842 0.402741
0.432420 0.441420 0.411318
0.434377 0.449997 0.419896
0.436334 0.458575 0.428474
0.438292 0.467153 0.437051
0.440249 0.475730 0.445629
0.442207 0.484308 0.454207
0.444164 0.492886 0.462784
0.446121 0.501463 0.471362
0.447302 0.443061 0.419580
0.449259 0.451639 0.428158
0.451217 0.460217 0.436736
0.453174 0.468794 0.445313
0.455132 0.477372 0.453891
0.457089 0.485950 0.462469
0.459046 0.494527 0.471046
0.461004 0.503105 0.479624
0.462961 0.511683 0.488202
0.464142 0.453281 0.436420
0.466099 0.461859 0.444998
0.468057 0.470436 0.453575
0.470014 0.479014 0.462153
0.471971 0.487592 0.470731
0.473929 0.496169 0.479308
0.475886 0.504747 0.487886
0.477844 0.513325 0.496464
0.479801 0.521902 0.505041
0.480982 0.463500 0.453260
0.482939 0.472078 0.461838
0.484896 0.480656 0.470415
0.486854 0.489233 0.478993
0.488811 0.497811 0.487571
0.490769 0.506389 0.496148
0.492726 0.514966 0.504726
0.494683 0.523544 0.513304
0.496641 0.532122 0.521881
0.497821 0.473720 0.470100
0.499779 0.482298 0.478677
0.501736 0.490875 0.487255
0.503694 0.499453 0.495833
0.505651 0.508031 0.504410
0.507608 0.516608 0.512988
0.509566 0.525186 0.521566
0.511523 0.533764 0.530143
0.513480 0.542341 0.538721
0.514661 0.483939 0.486939
0.516618 0.492517 0.495517
0.518576 0.501095 0.504095
0.520533 0.509672 0.512672
0.522491 0.518250 0.521250
0.524448 0.526828 0.529828
0.526405 0.535405 0.538405
0.528363 0.543983 0.546983
0.530320 0.552561 0.555561
0.531501 0.494159 0.503779
0.533458 0.502737 0.512357
0.535416 0.511314 0.520935
0.537373 0.519892 0.529512
0.539330 0.528470 0.538090
0.541288 0.537047 0.546668
0.543245 0.545625 0.555245
0.545203 0.554203 0.563823
0.547160 0.562780 0.572401
0.548341 0.504378 0.520619
0.550298 0.512956 0.529197
0.552255 0.521534 0.537774
0.554213 0.530111 0.546352
0.556170 0.538689 0.554930
0.558128 0.547267 0.563507
0.560085 0.555844 0.572085
0.562042 0.564422 0.580663
0.564000 0.573000 0.589240
0.416893 0.425893 0.382551
0.418850 0.434471 0.391129
0.420808 0.443048 0.399706
0.422765 0.451626 0.408284
0.424722 0.460204 0.416862
0.426680 0.468781 0.425439
0.428637 0.477359 0.434017
0.430595 0.485937 0.442595
0.432552 0.494514 0.451172
0.433733 0.436112 0.399391
0.435690 0.444690 0.407968
0.437647 0.453268 0.416546
0.439605 0.461845 0.425124
0.441562 0.470423 0.433701
0.443520 0.479001 0.442279
0.445477 0.487578 0.450857
0.447434 0.496156 0.459434
0.449392 0.504734 0.468012
0.450572 0.446332 0.416231
0.452530 0.454910 0.424808
0.454487 0.463487 0.433386
0.456445 0.472065 0.441964
0.458402 0.480643 0.450541
0.460359 0.489220 0.459119
0.462317 0.497798 0.467697
0.464274 0.506376 0.476274
0.466232 0.514953 0.484852
0.467412 0.456551 0.433070
0.469370 0.465129 0.441648
0.471327 0.473707 0.450226
0.473284 0.482284 0.458803
0.475242 0.490862 0.467381
0.477199 0.499440 0.475959
0.479157 0.508017 0.484536
0.481114 0.516595 0.493114
0.483071 0.525173 0.501692
0.484252 0.466771 0.449910
0.486209 0.475349 0.458488
0.488167 0.483926 0.467065
0.490124 0.492504 0.475643
0.492082 0.501082 0.484221
0.494039 0.509659 0.492798
0.495996 0.518237 0.501376
0.497954 0.526815 0.509954
0.499911 0.535392 0.518531
0.501092 0.476990 0.466750
0.503049 0.485568 0.475327
0.505007 0.494146 0.483905
0.506964 0.502723 0.492483
0.508921 0.511301 0.501060
0.510879 0.519879 0.509638
0.512836 0.528456 0.518216
0.514793 0.537034 0.526793
0.516751 0.545612 0.535371
0.517932 0.487210 0.483590
0.519889 0.495788 0.492167
0.521846 0.504365 0.500745
0.523804 0.512943 0.509323
0.525761 0.521521 0.517900
0.527718 0.530098 0.526478
0.529676 0.538676 0.535056
0.531633 0.547254 0.543633
0.533591 0.555831 0.552211
0.534771 0.497429 0.500429
0.536729 0.506007 0.509007
0.538686 0.514585 0.517585
0.540643 0.523162 0.526162
0.542601 0.531740 0.534740
0.544558 0.540318 0.543318
0.546516 0.548895 0.551895
0.548473 0.557473 0.560473
0.550430 0.566051 0.569051
0.551611 0.507649 0.517269
0.553568 0.516227 0.525847
0.555526 0.524804 0.534424
0.557483 0.533382 0.543002
0.559441 0.541960 0.551580
0.561398 0.550537 0.560157
0.563355 0.559115 0.568735
0.565313 0.567693 0.577313
0.567270 0.576270 0.585890
0.420163 0.429163 0.379201
0.422121 0.437741 0.387779
0.424078 0.446319 0.396356
0.426035 0.454896 0.404934
0.427993 0.463474 0.413512
0.429950 0.472052 0.422089
0.431908 0.480629 0.430667
0.433865 0.489207 0.439245
0.435822 0.497785 0.447822
0.437003 0.439383 0.396041
0.438960 0.447960 0.404619
0.440918 0.456538 0.413196
0.442875 0.465116 0.421774
0.444833 0.473693 0.430352
0.446790 0.482271 0.438929
0.448747 0.490849 0.447507
0.450705 0.499426 0.456085
0.452662 0.508004 0.464662
0.453843 0.449602 0.412881
0.455800 0.458180 0.421458
0.457758 0.466758 0.430036
0.459715 0.475335 0.438614
0.461672 0.483913 0.447191
0.463630 0.492491 0.455769
0.465587 0.501068 0.464347
0.467545 0.509646 0.472924
0.469502 0.518224 0.481502
0.470683 0.459822 0.429720
0.472640 0.468399 0.438298
0.474597 0.476977 0.446876
0.476555 0.485555 0.455453
0.478512 0.494132 0.464031
0.480470 0.502710 0.472609
0.482427 0.511288 0.481186
0.484384 0.519865 0.489764
0.486342 0.528443 0.498342
0.487522 0.470041 0.446560
0.489480 0.478619 0.455138
0.491437 0.487197 0.463716
0.493395 0.495774 0.472293
0.495352 0.504352 0.480871
0.497309 0.512930 0.489449
0.499267 0.521507 0.498026
0.501224 0.530085 0.506604
0.503182 0.538663 0.515182
0.504362 0.480261 0.463400
0.506320 0.488838 0.471978
0.508277 0.497416 0.480555
0.510234 0.505994 0.489133
0.512192 0.514571 0.497711
0.514149 0.523149 0.506288
0.516107 0.531727 0.514866
0.518064 0.540304 0.523444
0.520021 0.548882 0.532021
0.521202 0.490480 0.480240
0.523159 0.499058 0.488817
0.525117 0.507636 0.497395
0.527074 0.516213 0.505973
0.529031 0.524791 0.514550
0.530989 0.533369 0.523128
0.532946 0.541946 0.531706
0.534904 0.550524 0.540283
0.536861 0.559102 0.548861
0.538042 0.500700 0.497080
0.539999 0.509277 0.505657
0.541956 0.517855 0.514235
0.543914 0.526433 0.522813
0.545871 0.535010 0.531390
0.547829 0.543588 0.539968
0.549786 0.552166 0.548546
0.551743 0.560743 0.557123
0.553701 0.569321 0.565701
0.554881 0.510919 0.513919
0.556839 0.519497 0.522497
0.558796 0.528075 0.531075
0.560754 0.536652 0.539652
0.562711 0.545230 0.548230
0.564668 0.553808 0.556808
0.566626 0.562385 0.565385
0.568583 0.570963 0.573963
0.570541 0.579541 0.582541
