shared/src/main/assets/luts/film_color_separation.cube
TITLE "DALUR Color Separation"
LUT_3D_SIZE 5
DOMAIN_MIN 0.0 0.0 0.0
DOMAIN_MAX 1.0 1.0 1.0
0.440000 0.442500 0.440000
0.455279 0.448779 0.446279
0.470558 0.455058 0.452558
0.485837 0.461337 0.458837
0.501116 0.467616 0.465116
0.452327 0.463827 0.452327
0.467606 0.470106 0.458606
0.482885 0.476385 0.464885
0.498164 0.482664 0.471164
0.513443 0.488943 0.477443
0.464654 0.485154 0.464654
0.479933 0.491433 0.470933
0.495212 0.497712 0.477212
0.510491 0.503991 0.483491
0.525770 0.510270 0.489770
0.476981 0.506481 0.476981
0.492260 0.512760 0.483260
0.507539 0.519039 0.489539
0.522818 0.525318 0.495818
0.538097 0.531597 0.502097
0.489308 0.527808 0.489308
0.504587 0.534087 0.495587
0.519866 0.540366 0.501866
0.535145 0.546645 0.508145
0.550424 0.552924 0.514424
0.442394 0.444894 0.451394
0.457673 0.451173 0.457673
0.472952 0.457452 0.463952
0.488231 0.463731 0.470231
0.503510 0.470010 0.476510
0.454721 0.466221 0.463721
0.470000 0.472500 0.470000
0.485279 0.478779 0.476279
0.500558 0.485058 0.482558
0.515837 0.491337 0.488837
0.467048 0.487548 0.476048
0.482327 0.493827 0.482327
0.497606 0.500106 0.488606
0.512885 0.506385 0.494885
0.528164 0.512664 0.501164
0.479375 0.508875 0.488375
0.494654 0.515154 0.494654
0.509933 0.521433 0.500933
0.525212 0.527712 0.507212
0.540491 0.533991 0.513491
0.491702 0.530202 0.500702
0.506981 0.536481 0.506981
0.522260 0.542760 0.513260
0.537539 0.549039 0.519539
0.552818 0.555318 0.525818
0.444788 0.447288 0.462788
0.460067 0.453567 0.469067
0.475346 0.459846 0.475346
0.490625 0.466125 0.481625
0.505904 0.472404 0.487904
0.457115 0.468615 0.475115
0.472394 0.474894 0.481394
0.487673 0.481173 0.487673
0.502952 0.487452 0.493952
0.518231 0.493731 0.500231
0.469442 0.489942 0.487442
0.484721 0.496221 0.493721
0.500000 0.502500 0.500000
0.515279 0.508779 0.506279
0.530558 0.515058 0.512558
0.481769 0.511269 0.499769
0.497048 0.517548 0.506048
0.512327 0.523827 0.512327
0.527606 0.530106 0.518606
0.542885 0.536385 0.524885
0.494096 0.532596 0.512096
0.509375 0.538875 0.518375
0.524654 0.545154 0.524654
0.539933 0.551433 0.530933
0.555212 0.557712 0.537212
0.447182 0.449682 0.474182
0.462461 0.455961 0.480461
0.477740 0.462240 0.486740
0.493019 0.468519 0.493019
0.508298 0.474798 0.499298
0.459509 0.471009 0.486509
0.474788 0.477288 0.492788
0.490067 0.483567 0.499067
0.505346 0.489846 0.505346
0.520625 0.496125 0.511625
0.471836 0.492336 0.498836
0.487115 0.498615 0.505115
0.502394 0.504894 0.511394
0.517673 0.511173 0.517673
0.532952 0.517452 0.523952
0.484163 0.513663 0.511163
0.499442 0.519942 0.517442
0.514721 0.526221 0.523721
0.530000 0.532500 0.530000
0.545279 0.538779 0.536279
0.496490 0.534990 0.523490
0.511769 0.541269 0.529769
0.527048 0.547548 0.536048
0.542327 0.553827 0.542327
0.557606 0.560106 0.548606
0.449576 0.452076 0.485576
0.464855 0.458355 0.491855
0.480134 0.464634 0.498134
0.495413 0.470913 0.504413
0.510692 0.477192 0.510692
0.461903 0.473403 0.497903
0.477182 0.479682 0.504182
0.492461 0.485961 0.510461
0.507740 0.492240 0.516740
0.523019 0.498519 0.523019
0.474230 0.494730 0.510230
0.489509 0.501009 0.516509
0.504788 0.507288 0.522788
0.520067 0.513567 0.529067
0.535346 0.519846 0.535346
0.486557 0.516057 0.522557
0.501836 0.522336 0.528836
0.517115 0.528615 0.535115
0.532394 0.534894 0.541394
0.547673 0.541173 0.547673
0.498884 0.537384 0.534884
0.514163 0.543663 0.541163
0.529442 0.549942 0.547442
0.544721 0.556221 0.553721
0.560000 0.562500 0.560000
