shared/src/main/assets/luts/film_pastel_mendl.cube
TITLE "DALUR Pastel Mendl"
LUT_3D_SIZE 9
DOMAIN_MIN 0.0 0.0 0.0
DOMAIN_MAX 1.0 1.0 1.0
0.524800 0.515000 0.515200
0.522985 0.513457 0.513657
0.521170 0.511913 0.512113
0.519355 0.510370 0.510570
0.517540 0.508826 0.509026
0.515724 0.507283 0.507483
0.513909 0.505739 0.505939
0.512094 0.504196 0.504396
0.510279 0.502653 0.502853
0.521770 0.511698 0.512170
0.519955 0.510155 0.510626
0.518140 0.508611 0.509083
0.516325 0.507068 0.507540
0.514509 0.505524 0.505996
0.512694 0.503981 0.504453
0.510879 0.502438 0.502909
0.509064 0.500894 0.501366
0.507249 0.499351 0.499822
0.518740 0.508396 0.509140
0.516925 0.506853 0.507596
0.515110 0.505310 0.506053
0.513294 0.503766 0.504510
0.511479 0.502223 0.502966
0.509664 0.500679 0.501423
0.507849 0.499136 0.499879
0.506034 0.497592 0.498336
0.504219 0.496049 0.496792
0.515710 0.505095 0.506110
0.513895 0.503551 0.504566
0.512079 0.502008 0.503023
0.510264 0.500464 0.501479
0.508449 0.498921 0.499936
0.506634 0.497378 0.498393
0.504819 0.495834 0.496849
0.503004 0.494291 0.495306
0.501189 0.492747 0.493762
0.512680 0.501793 0.503080
0.510865 0.500249 0.501536
0.509049 0.498706 0.499993
0.507234 0.497163 0.498449
0.505419 0.495619 0.496906
0.503604 0.494076 0.495362
0.501789 0.492532 0.493819
0.499974 0.490989 0.492276
0.498159 0.489445 0.490732
0.509650 0.498491 0.500050
0.507834 0.496948 0.498506
0.506019 0.495404 0.496963
0.504204 0.493861 0.495419
0.502389 0.492317 0.493876
0.500574 0.490774 0.492332
0.498759 0.489231 0.490789
0.496944 0.487687 0.489246
0.495129 0.486144 0.487702
0.506619 0.495189 0.497019
0.504804 0.493646 0.495476
0.502989 0.492102 0.493933
0.501174 0.490559 0.492389
0.499359 0.489016 0.490846
0.497544 0.487472 0.489302
0.495729 0.485929 0.487759
0.493914 0.484385 0.486215
0.492099 0.482842 0.484672
0.503589 0.491888 0.493989
0.501774 0.490344 0.492446
0.499959 0.488801 0.490903
0.498144 0.487257 0.489359
0.496329 0.485714 0.487816
0.494514 0.484170 0.486272
0.492699 0.482627 0.484729
0.490884 0.481084 0.483185
0.489068 0.479540 0.481642
0.500559 0.488586 0.490959
0.498744 0.487042 0.489416
0.496929 0.485499 0.487872
0.495114 0.483956 0.486329
0.493299 0.482412 0.484786
0.491484 0.480869 0.483242
0.489669 0.479325 0.481699
0.487853 0.477782 0.480155
0.486038 0.476238 0.478612
0.524212 0.514412 0.514340
0.522396 0.512868 0.512796
0.520581 0.511325 0.511253
0.518766 0.509781 0.509710
0.516951 0.508238 0.508166
0.515136 0.506694 0.506623
0.513321 0.505151 0.505079
0.511506 0.503607 0.503536
0.509691 0.502064 0.501992
0.521181 0.511110 0.511310
0.519366 0.509566 0.509766
0.517551 0.508023 0.508223
0.515736 0.506479 0.506679
0.513921 0.504936 0.505136
0.512106 0.503393 0.503593
0.510291 0.501849 0.502049
0.508476 0.500306 0.500506
0.506660 0.498762 0.498962
0.518151 0.507808 0.508280
0.516336 0.506265 0.506736
0.514521 0.504721 0.505193
0.512706 0.503178 0.503649
0.510891 0.501634 0.502106
0.509076 0.500091 0.500562
0.507261 0.498547 0.499019
0.505446 0.497004 0.497476
0.503630 0.495461 0.495932
0.515121 0.504506 0.505250
0.513306 0.502963 0.503706
0.511491 0.501419 0.502163
0.509676 0.499876 0.500619
0.507861 0.498332 0.499076
0.506046 0.496789 0.497532
0.504231 0.495246 0.495989
0.502415 0.493702 0.494446
0.500600 0.492159 0.492902
0.512091 0.501204 0.502219
0.510276 0.499661 0.500676
0.508461 0.498118 0.499133
0.506646 0.496574 0.497589
0.504831 0.495031 0.496046
0.503016 0.493487 0.494502
0.501200 0.491944 0.492959
0.499385 0.490400 0.491415
0.497570 0.488857 0.489872
0.509061 0.497903 0.499189
0.507246 0.496359 0.497646
0.505431 0.494816 0.496103
0.503616 0.493272 0.494559
0.501801 0.491729 0.493016
0.499985 0.490185 0.491472
0.498170 0.488642 0.489929
0.496355 0.487099 0.488385
0.494540 0.485555 0.486842
0.506031 0.494601 0.496159
0.504216 0.493057 0.494616
0.502401 0.491514 0.493072
0.500586 0.489971 0.491529
0.498771 0.488427 0.489986
0.496955 0.486884 0.488442
0.495140 0.485340 0.486899
0.493325 0.483797 0.485355
0.491510 0.482253 0.483812
0.503001 0.491299 0.493129
0.501186 0.489756 0.491586
0.499371 0.488212 0.490042
0.497556 0.486669 0.488499
0.495740 0.485125 0.486955
0.493925 0.483582 0.485412
0.492110 0.482039 0.483869
0.490295 0.480495 0.482325
0.488480 0.478952 0.480782
0.499971 0.487997 0.490099
0.498156 0.486454 0.488556
0.496341 0.484910 0.487012
0.494525 0.483367 0.485469
0.492710 0.481824 0.483925
0.490895 0.480280 0.482382
0.489080 0.478737 0.480839
0.487265 0.477193 0.479295
0.485450 0.475650 0.477752
0.523623 0.513823 0.513480
0.521808 0.512280 0.511936
0.519993 0.510736 0.510393
0.518178 0.509193 0.508849
0.516363 0.507649 0.507306
0.514547 0.506106 0.505763
0.512732 0.504562 0.504219
0.510917 0.503019 0.502676
0.509102 0.501476 0.501132
0.520593 0.510521 0.510450
0.518778 0.508978 0.508906
0.516963 0.507434 0.507363
0.515148 0.505891 0.505819
0.513333 0.504348 0.504276
0.511517 0.502804 0.502732
0.509702 0.501261 0.501189
0.507887 0.499717 0.499646
0.506072 0.498174 0.498102
0.517563 0.507220 0.507420
0.515748 0.505676 0.505876
0.513933 0.504133 0.504333
0.512118 0.502589 0.502789
0.510302 0.501046 0.501246
0.508487 0.499502 0.499702
0.506672 0.497959 0.498159
0.504857 0.496415 0.496615
0.503042 0.494872 0.495072
0.514533 0.503918 0.504389
0.512718 0.502374 0.502846
0.510903 0.500831 0.501303
0.509087 0.499287 0.499759
0.507272 0.497744 0.498216
0.505457 0.496201 0.496672
0.503642 0.494657 0.495129
0.501827 0.493114 0.493585
0.500012 0.491570 0.492042
0.511503 0.500616 0.501359
0.509688 0.499073 0.499816
0.507872 0.497529 0.498272
0.506057 0.495986 0.496729
0.504242 0.494442 0.495186
0.502427 0.492899 0.493642
0.500612 0.491355 0.492099
0.498797 0.489812 0.490555
0.496982 0.488268 0.489012
0.508473 0.497314 0.498329
0.506658 0.495771 0.496786
0.504842 0.494227 0.495242
0.503027 0.492684 0.493699
0.501212 0.491140 0.492156
0.499397 0.489597 0.490612
0.497582 0.488054 0.489069
0.495767 0.486510 0.487525
0.493952 0.484967 0.485982
0.505443 0.494012 0.495299
0.503627 0.492469 0.493756
0.501812 0.490926 0.492212
0.499997 0.489382 0.490669
0.498182 0.487839 0.489125
0.496367 0.486295 0.487582
0.494552 0.484752 0.486039
0.492737 0.483208 0.484495
0.490922 0.481665 0.482952
0.502412 0.490711 0.492269
0.500597 0.489167 0.490726
0.498782 0.487624 0.489182
0.496967 0.486080 0.487639
0.495152 0.484537 0.486095
0.493337 0.482993 0.484552
0.491522 0.481450 0.483008
0.489707 0.479907 0.481465
0.487891 0.478363 0.479922
0.499382 0.487409 0.489239
0.497567 0.485865 0.487696
0.495752 0.484322 0.486152
0.493937 0.482779 0.484609
0.492122 0.481235 0.483065
0.490307 0.479692 0.481522
0.488492 0.478148 0.479978
0.486677 0.476605 0.478435
0.484861 0.475061 0.476892
0.523035 0.513235 0.512620
0.521219 0.511691 0.511076
0.519404 0.510148 0.509533
0.517589 0.508604 0.507989
0.515774 0.507061 0.506446
0.513959 0.505517 0.504902
0.512144 0.503974 0.503359
0.510329 0.502431 0.501816
0.508514 0.500887 0.500272
0.520005 0.509933 0.509589
0.518189 0.508389 0.508046
0.516374 0.506846 0.506503
0.514559 0.505303 0.504959
0.512744 0.503759 0.503416
0.510929 0.502216 0.501872
0.509114 0.500672 0.500329
0.507299 0.499129 0.498785
0.505484 0.497585 0.497242
0.516974 0.506631 0.506559
0.515159 0.505088 0.505016
0.513344 0.503544 0.503473
0.511529 0.502001 0.501929
0.509714 0.500457 0.500386
0.507899 0.498914 0.498842
0.506084 0.497370 0.497299
0.504269 0.495827 0.495755
0.502453 0.494284 0.494212
0.513944 0.503329 0.503529
0.512129 0.501786 0.501986
0.510314 0.500242 0.500442
0.508499 0.498699 0.498899
0.506684 0.497156 0.497356
0.504869 0.495612 0.495812
0.503054 0.494069 0.494269
0.501239 0.492525 0.492725
0.499423 0.490982 0.491182
0.510914 0.500028 0.500499
0.509099 0.498484 0.498956
0.507284 0.496941 0.497412
0.505469 0.495397 0.495869
0.503654 0.493854 0.494325
0.501839 0.492310 0.492782
0.500024 0.490767 0.491239
0.498208 0.489223 0.489695
0.496393 0.487680 0.488152
0.507884 0.496726 0.497469
0.506069 0.495182 0.495926
0.504254 0.493639 0.494382
0.502439 0.492095 0.492839
0.500624 0.490552 0.491295
0.498809 0.489009 0.489752
0.496993 0.487465 0.488208
0.495178 0.485922 0.486665
0.493363 0.484378 0.485122
0.504854 0.493424 0.494439
0.503039 0.491881 0.492896
0.501224 0.490337 0.491352
0.499409 0.488794 0.489809
0.497594 0.487250 0.488265
0.495778 0.485707 0.486722
0.493963 0.484163 0.485178
0.492148 0.482620 0.483635
0.490333 0.481076 0.482092
0.501824 0.490122 0.491409
0.500009 0.488579 0.489865
0.498194 0.487035 0.488322
0.496379 0.485492 0.486779
0.494564 0.483948 0.485235
0.492748 0.482405 0.483692
0.490933 0.480862 0.482148
0.489118 0.479318 0.480605
0.487303 0.477775 0.479061
0.498794 0.486820 0.488379
0.496979 0.485277 0.486835
0.495164 0.483734 0.485292
0.493349 0.482190 0.483749
0.491533 0.480647 0.482205
0.489718 0.479103 0.480662
0.487903 0.477560 0.479118
0.486088 0.476016 0.477575
0.484273 0.474473 0.476031
0.522446 0.512646 0.511759
0.520631 0.511103 0.510216
0.518816 0.509559 0.508673
0.517001 0.508016 0.507129
0.515186 0.506472 0.505586
0.513371 0.504929 0.504042
0.511555 0.503386 0.502499
0.509740 0.501842 0.500955
0.507925 0.500299 0.499412
0.519416 0.509344 0.508729
0.517601 0.507801 0.507186
0.515786 0.506257 0.505642
0.513971 0.504714 0.504099
0.512156 0.503171 0.502556
0.510340 0.501627 0.501012
0.508525 0.500084 0.499469
0.506710 0.498540 0.497925
0.504895 0.496997 0.496382
0.516386 0.506043 0.505699
0.514571 0.504499 0.504156
0.512756 0.502956 0.502612
0.510941 0.501412 0.501069
0.509125 0.499869 0.499525
0.507310 0.498325 0.497982
0.505495 0.496782 0.496439
0.503680 0.495239 0.494895
0.501865 0.493695 0.493352
0.513356 0.502741 0.502669
0.511541 0.501197 0.501126
0.509726 0.499654 0.499582
0.507911 0.498111 0.498039
0.506095 0.496567 0.496495
0.504280 0.495024 0.494952
0.502465 0.493480 0.493409
0.500650 0.491937 0.491865
0.498835 0.490393 0.490322
0.510326 0.499439 0.499639
0.508511 0.497896 0.498096
0.506696 0.496352 0.496552
0.504880 0.494809 0.495009
0.503065 0.493265 0.493465
0.501250 0.491722 0.491922
0.499435 0.490178 0.490378
0.497620 0.488635 0.488835
0.495805 0.487092 0.487292
0.507296 0.496137 0.496609
0.505481 0.494594 0.495066
0.503665 0.493050 0.493522
0.501850 0.491507 0.491979
0.500035 0.489964 0.490435
0.498220 0.488420 0.488892
0.496405 0.486877 0.487348
0.494590 0.485333 0.485805
0.492775 0.483790 0.484261
0.504266 0.492835 0.493579
0.502450 0.491292 0.492035
0.500635 0.489749 0.490492
0.498820 0.488205 0.488949
0.497005 0.486662 0.487405
0.495190 0.485118 0.485862
0.493375 0.483575 0.484318
0.491560 0.482031 0.482775
0.489745 0.480488 0.481231
0.501236 0.489534 0.490549
0.499420 0.487990 0.489005
0.497605 0.486447 0.487462
0.495790 0.484903 0.485918
0.493975 0.483360 0.484375
0.492160 0.481817 0.482832
0.490345 0.480273 0.481288
0.488530 0.478730 0.479745
0.486715 0.477186 0.478201
0.498205 0.486232 0.487519
0.496390 0.484689 0.485975
0.494575 0.483145 0.484432
0.492760 0.481602 0.482888
0.490945 0.480058 0.481345
0.489130 0.478515 0.479802
0.487315 0.476971 0.478258
0.485500 0.475428 0.476715
0.483684 0.473884 0.475171
0.521858 0.512058 0.510899
0.520043 0.510514 0.509356
0.518227 0.508971 0.507812
0.516412 0.507427 0.506269
0.514597 0.505884 0.504726
0.512782 0.504340 0.503182
0.510967 0.502797 0.501639
0.509152 0.501254 0.500095
0.507337 0.499710 0.498552
0.518828 0.508756 0.507869
0.517012 0.507212 0.506326
0.515197 0.505669 0.504782
0.513382 0.504126 0.503239
0.511567 0.502582 0.501695
0.509752 0.501039 0.500152
0.507937 0.499495 0.498609
0.506122 0.497952 0.497065
0.504307 0.496408 0.495522
0.515797 0.505454 0.504839
0.513982 0.503911 0.503296
0.512167 0.502367 0.501752
0.510352 0.500824 0.500209
0.508537 0.499280 0.498665
0.506722 0.497737 0.497122
0.504907 0.496194 0.495578
0.503092 0.494650 0.494035
0.501277 0.493107 0.492492
0.512767 0.502152 0.501809
0.510952 0.500609 0.500266
0.509137 0.499065 0.498722
0.507322 0.497522 0.497179
0.505507 0.495979 0.495635
0.503692 0.494435 0.494092
0.501877 0.492892 0.492548
0.500062 0.491348 0.491005
0.498246 0.489805 0.489461
0.509737 0.498851 0.498779
0.507922 0.497307 0.497235
0.506107 0.495764 0.495692
0.504292 0.494220 0.494149
0.502477 0.492677 0.492605
0.500662 0.491133 0.491062
0.498847 0.489590 0.489518
0.497031 0.488047 0.487975
0.495216 0.486503 0.486431
0.506707 0.495549 0.495749
0.504892 0.494005 0.494205
0.503077 0.492462 0.492662
0.501262 0.490918 0.491118
0.499447 0.489375 0.489575
0.497632 0.487832 0.488032
0.495817 0.486288 0.486488
0.494001 0.484745 0.484945
0.492186 0.483201 0.483401
0.503677 0.492247 0.492719
0.501862 0.490704 0.491175
0.500047 0.489160 0.489632
0.498232 0.487617 0.488088
0.496417 0.486073 0.486545
0.494602 0.484530 0.485002
0.492786 0.482986 0.483458
0.490971 0.481443 0.481915
0.489156 0.479900 0.480371
0.500647 0.488945 0.489689
0.498832 0.487402 0.488145
0.497017 0.485858 0.486602
0.495202 0.484315 0.485058
0.493387 0.482772 0.483515
0.491571 0.481228 0.481971
0.489756 0.479685 0.480428
0.487941 0.478141 0.478885
0.486126 0.476598 0.477341
0.497617 0.485643 0.486659
0.495802 0.484100 0.485115
0.493987 0.482557 0.483572
0.492172 0.481013 0.482028
0.490356 0.479470 0.480485
0.488541 0.477926 0.478941
0.486726 0.476383 0.477398
0.484911 0.474839 0.475854
0.483096 0.473296 0.474311
0.521269 0.511469 0.510039
0.519454 0.509926 0.508496
0.517639 0.508382 0.506952
0.515824 0.506839 0.505409
0.514009 0.505295 0.503865
0.512194 0.503752 0.502322
0.510378 0.502209 0.500778
0.508563 0.500665 0.499235
0.506748 0.499122 0.497692
0.518239 0.508167 0.507009
0.516424 0.506624 0.505466
0.514609 0.505081 0.503922
0.512794 0.503537 0.502379
0.510979 0.501994 0.500835
0.509164 0.500450 0.499292
0.507348 0.498907 0.497748
0.505533 0.497363 0.496205
0.503718 0.495820 0.494662
0.515209 0.504866 0.503979
0.513394 0.503322 0.502435
0.511579 0.501779 0.500892
0.509764 0.500235 0.499349
0.507949 0.498692 0.497805
0.506133 0.497148 0.496262
0.504318 0.495605 0.494718
0.502503 0.494062 0.493175
0.500688 0.492518 0.491631
0.512179 0.501564 0.500949
0.510364 0.500020 0.499405
0.508549 0.498477 0.497862
0.506734 0.496934 0.496319
0.504918 0.495390 0.494775
0.503103 0.493847 0.493232
0.501288 0.492303 0.491688
0.499473 0.490760 0.490145
0.497658 0.489216 0.488601
0.509149 0.498262 0.497919
0.507334 0.496719 0.496375
0.505519 0.495175 0.494832
0.503703 0.493632 0.493288
0.501888 0.492088 0.491745
0.500073 0.490545 0.490202
0.498258 0.489001 0.488658
0.496443 0.487458 0.487115
0.494628 0.485915 0.485571
0.506119 0.494960 0.494889
0.504304 0.493417 0.493345
0.502489 0.491873 0.491802
0.500673 0.490330 0.490258
0.498858 0.488787 0.488715
0.497043 0.487243 0.487171
0.495228 0.485700 0.485628
0.493413 0.484156 0.484085
0.491598 0.482613 0.482541
0.503089 0.491659 0.491859
0.501274 0.490115 0.490315
0.499458 0.488572 0.488772
0.497643 0.487028 0.487228
0.495828 0.485485 0.485685
0.494013 0.483941 0.484141
0.492198 0.482398 0.482598
0.490383 0.480855 0.481055
0.488568 0.479311 0.479511
0.500059 0.488357 0.488828
0.498243 0.486813 0.487285
0.496428 0.485270 0.485742
0.494613 0.483726 0.484198
0.492798 0.482183 0.482655
0.490983 0.480640 0.481111
0.489168 0.479096 0.479568
0.487353 0.477553 0.478024
0.485538 0.476009 0.476481
0.497028 0.485055 0.485798
0.495213 0.483512 0.484255
0.493398 0.481968 0.482712
0.491583 0.480425 0.481168
0.489768 0.478881 0.479625
0.487953 0.477338 0.478081
0.486138 0.475794 0.476538
0.484323 0.474251 0.474994
0.482508 0.472708 0.473451
0.520681 0.510881 0.509179
0.518866 0.509337 0.507636
0.517050 0.507794 0.506092
0.515235 0.506250 0.504549
0.513420 0.504707 0.503005
0.511605 0.503164 0.501462
0.509790 0.501620 0.499918
0.507975 0.500077 0.498375
0.506160 0.498533 0.496831
0.517651 0.507579 0.506149
0.515836 0.506036 0.504605
0.514020 0.504492 0.503062
0.512205 0.502949 0.501519
0.510390 0.501405 0.499975
0.508575 0.499862 0.498432
0.506760 0.498318 0.496888
0.504945 0.496775 0.495345
0.503130 0.495231 0.493801
0.514621 0.504277 0.503119
0.512805 0.502734 0.501575
0.510990 0.501190 0.500032
0.509175 0.499647 0.498488
0.507360 0.498103 0.496945
0.505545 0.496560 0.495402
0.503730 0.495017 0.493858
0.501915 0.493473 0.492315
0.500100 0.491930 0.490771
0.511590 0.500975 0.500089
0.509775 0.499432 0.498545
0.507960 0.497889 0.497002
0.506145 0.496345 0.495458
0.504330 0.494802 0.493915
0.502515 0.493258 0.492372
0.500700 0.491715 0.490828
0.498885 0.490171 0.489285
0.497070 0.488628 0.487741
0.508560 0.497674 0.497059
0.506745 0.496130 0.495515
0.504930 0.494587 0.493972
0.503115 0.493043 0.492428
0.501300 0.491500 0.490885
0.499485 0.489956 0.489341
0.497670 0.488413 0.487798
0.495855 0.486870 0.486255
0.494039 0.485326 0.484711
0.505530 0.494372 0.494029
0.503715 0.492828 0.492485
0.501900 0.491285 0.490942
0.500085 0.489742 0.489398
0.498270 0.488198 0.487855
0.496455 0.486655 0.486311
0.494640 0.485111 0.484768
0.492824 0.483568 0.483224
0.491009 0.482024 0.481681
0.502500 0.491070 0.490998
0.500685 0.489527 0.489455
0.498870 0.487983 0.487912
0.497055 0.486440 0.486368
0.495240 0.484896 0.484825
0.493425 0.483353 0.483281
0.491609 0.481809 0.481738
0.489794 0.480266 0.480194
0.487979 0.478723 0.478651
0.499470 0.487768 0.487968
0.497655 0.486225 0.486425
0.495840 0.484681 0.484881
0.494025 0.483138 0.483338
0.492210 0.481595 0.481795
0.490395 0.480051 0.480251
0.488579 0.478508 0.478708
0.486764 0.476964 0.477164
0.484949 0.475421 0.475621
0.496440 0.484467 0.484938
0.494625 0.482923 0.483395
0.492810 0.481380 0.481851
0.490995 0.479836 0.480308
0.489180 0.478293 0.478764
0.487364 0.476749 0.477221
0.485549 0.475206 0.475678
0.483734 0.473663 0.474134
0.481919 0.472119 0.472591
0.520092 0.510292 0.508319
0.518277 0.508749 0.506775
0.516462 0.507205 0.505232
0.514647 0.505662 0.503688
0.512832 0.504119 0.502145
0.511017 0.502575 0.500602
0.509202 0.501032 0.499058
0.507386 0.499488 0.497515
0.505571 0.497945 0.495971
0.517062 0.506990 0.505289
0.515247 0.505447 0.503745
0.513432 0.503904 0.502202
0.511617 0.502360 0.500658
0.509802 0.500817 0.499115
0.507987 0.499273 0.497572
0.506171 0.497730 0.496028
0.504356 0.496186 0.494485
0.502541 0.494643 0.492941
0.514032 0.503689 0.502259
0.512217 0.502145 0.500715
0.510402 0.500602 0.499172
0.508587 0.499058 0.497628
0.506772 0.497515 0.496085
0.504956 0.495972 0.494541
0.503141 0.494428 0.492998
0.501326 0.492885 0.491455
0.499511 0.491341 0.489911
0.511002 0.500387 0.499229
0.509187 0.498844 0.497685
0.507372 0.497300 0.496142
0.505557 0.495757 0.494598
0.503742 0.494213 0.493055
0.501926 0.492670 0.491511
0.500111 0.491126 0.489968
0.498296 0.489583 0.488424
0.496481 0.488039 0.486881
0.507972 0.497085 0.496198
0.506157 0.495542 0.494655
0.504342 0.493998 0.493112
0.502527 0.492455 0.491568
0.500711 0.490911 0.490025
0.498896 0.489368 0.488481
0.497081 0.487825 0.486938
0.495266 0.486281 0.485394
0.493451 0.484738 0.483851
0.504942 0.493783 0.493168
0.503127 0.492240 0.491625
0.501312 0.490697 0.490081
0.499496 0.489153 0.488538
0.497681 0.487610 0.486995
0.495866 0.486066 0.485451
0.494051 0.484523 0.483908
0.492236 0.482979 0.482364
0.490421 0.481436 0.480821
0.501912 0.490482 0.490138
0.500097 0.488938 0.488595
0.498281 0.487395 0.487051
0.496466 0.485851 0.485508
0.494651 0.484308 0.483965
0.492836 0.482764 0.482421
0.491021 0.481221 0.480878
0.489206 0.479678 0.479334
0.487391 0.478134 0.477791
0.498882 0.487180 0.487108
0.497067 0.485636 0.485565
0.495251 0.484093 0.484021
0.493436 0.482550 0.482478
0.491621 0.481006 0.480934
0.489806 0.479463 0.479391
0.487991 0.477919 0.477848
0.486176 0.476376 0.476304
0.484361 0.474832 0.474761
0.495852 0.483878 0.484078
0.494036 0.482335 0.482535
0.492221 0.480791 0.480991
0.490406 0.479248 0.479448
0.488591 0.477704 0.477904
0.486776 0.476161 0.476361
0.484961 0.474617 0.474817
0.483146 0.473074 0.473274
0.481331 0.471531 0.471731
