shared/src/main/assets/luts/film_neon_night.cube
TITLE "DALUR Neon Night"
LUT_3D_SIZE 9
DOMAIN_MIN 0.0 0.0 0.0
DOMAIN_MAX 1.0 1.0 1.0
0.412800 0.414000 0.427200
0.422304 0.417906 0.431106
0.431808 0.421811 0.435011
0.441312 0.425717 0.438917
0.450815 0.429623 0.442823
0.460319 0.433528 0.446728
0.469823 0.437434 0.450634
0.479327 0.441340 0.454540
0.488831 0.445245 0.458445
0.420468 0.427266 0.434868
0.429972 0.431172 0.438773
0.439475 0.435077 0.442679
0.448979 0.438983 0.446585
0.458483 0.442889 0.450490
0.467987 0.446794 0.454396
0.477491 0.450700 0.458302
0.486995 0.454606 0.462207
0.496499 0.458511 0.466113
0.428135 0.440532 0.442535
0.437639 0.444437 0.446441
0.447143 0.448343 0.450347
0.456647 0.452249 0.454252
0.466151 0.456154 0.458158
0.475655 0.460060 0.462064
0.485159 0.463966 0.465969
0.494662 0.467871 0.469875
0.504166 0.471777 0.473781
0.435803 0.453798 0.450203
0.445307 0.457703 0.454109
0.454811 0.461609 0.458014
0.464315 0.465515 0.461920
0.473818 0.469420 0.465826
0.483322 0.473326 0.469731
0.492826 0.477232 0.473637
0.502330 0.481137 0.477543
0.511834 0.485043 0.481448
0.443471 0.467063 0.457871
0.452975 0.470969 0.461776
0.462478 0.474875 0.465682
0.471982 0.478780 0.469588
0.481486 0.482686 0.473493
0.490990 0.486592 0.477399
0.500494 0.490498 0.481305
0.509998 0.494403 0.485210
0.519502 0.498309 0.489116
0.451138 0.480329 0.465538
0.460642 0.484235 0.469444
0.470146 0.488141 0.473350
0.479650 0.492046 0.477255
0.489154 0.495952 0.481161
0.498658 0.499858 0.485067
0.508162 0.503763 0.488972
0.517665 0.507669 0.492878
0.527169 0.511575 0.496784
0.458806 0.493595 0.473206
0.468310 0.497501 0.477112
0.477814 0.501407 0.481017
0.487318 0.505312 0.484923
0.496821 0.509218 0.488829
0.506325 0.513124 0.492734
0.515829 0.517029 0.496640
0.525333 0.520935 0.500546
0.534837 0.524841 0.504451
0.466474 0.506861 0.480874
0.475978 0.510767 0.484779
0.485481 0.514672 0.488685
0.494985 0.518578 0.492591
0.504489 0.522484 0.496496
0.513993 0.526389 0.500402
0.523497 0.530295 0.504308
0.533001 0.534201 0.508213
0.542505 0.538106 0.512119
0.474141 0.520127 0.488541
0.483645 0.524033 0.492447
0.493149 0.527938 0.496353
0.502653 0.531844 0.500258
0.512157 0.535750 0.504164
0.521661 0.539655 0.508070
0.531165 0.543561 0.511975
0.540668 0.547467 0.515881
0.550172 0.551372 0.519787
0.414289 0.415489 0.434287
0.423793 0.419395 0.438193
0.433297 0.423300 0.442099
0.442801 0.427206 0.446004
0.452305 0.431112 0.449910
0.461808 0.435018 0.453816
0.471312 0.438923 0.457721
0.480816 0.442829 0.461627
0.490320 0.446735 0.465533
0.421957 0.428755 0.441955
0.431461 0.432661 0.445861
0.440965 0.436566 0.449766
0.450468 0.440472 0.453672
0.459972 0.444378 0.457578
0.469476 0.448283 0.461483
0.478980 0.452189 0.465389
0.488484 0.456095 0.469295
0.497988 0.460000 0.473200
0.429624 0.442021 0.449623
0.439128 0.445927 0.453528
0.448632 0.449832 0.457434
0.458136 0.453738 0.461340
0.467640 0.457644 0.465245
0.477144 0.461549 0.469151
0.486648 0.465455 0.473057
0.496152 0.469361 0.476962
0.505655 0.473266 0.480868
0.437292 0.455287 0.457290
0.446796 0.459192 0.461196
0.456300 0.463098 0.465102
0.465804 0.467004 0.469007
0.475308 0.470909 0.472913
0.484811 0.474815 0.476819
0.494315 0.478721 0.480724
0.503819 0.482626 0.484630
0.513323 0.486532 0.488536
0.444960 0.468553 0.464958
0.454464 0.472458 0.468864
0.463968 0.476364 0.472769
0.473471 0.480270 0.476675
0.482975 0.484175 0.480581
0.492479 0.488081 0.484486
0.501983 0.491987 0.488392
0.511487 0.495892 0.492298
0.520991 0.499798 0.496203
0.452627 0.481818 0.472626
0.462131 0.485724 0.476531
0.471635 0.489630 0.480437
0.481139 0.493535 0.484343
0.490643 0.497441 0.488248
0.500147 0.501347 0.492154
0.509651 0.505252 0.496060
0.519155 0.509158 0.499965
0.528658 0.513064 0.503871
0.460295 0.495084 0.480293
0.469799 0.498990 0.484199
0.479303 0.502896 0.488105
0.488807 0.506801 0.492010
0.498311 0.510707 0.495916
0.507814 0.514613 0.499822
0.517318 0.518518 0.503727
0.526822 0.522424 0.507633
0.536326 0.526330 0.511539
0.467963 0.508350 0.487961
0.477467 0.512256 0.491867
0.486971 0.516162 0.495772
0.496474 0.520067 0.499678
0.505978 0.523973 0.503584
0.515482 0.527879 0.507489
0.524986 0.531784 0.511395
0.534490 0.535690 0.515301
0.543994 0.539596 0.519206
0.475630 0.521616 0.495629
0.485134 0.525522 0.499534
0.494638 0.529427 0.503440
0.504142 0.533333 0.507346
0.513646 0.537239 0.511251
0.523150 0.541144 0.515157
0.532654 0.545050 0.519063
0.542158 0.548956 0.522968
0.551661 0.552861 0.526874
0.415778 0.416978 0.441375
0.425282 0.420884 0.445280
0.434786 0.424790 0.449186
0.444290 0.428695 0.453092
0.453794 0.432601 0.456997
0.463298 0.436507 0.460903
0.472801 0.440412 0.464809
0.482305 0.444318 0.468714
0.491809 0.448224 0.472620
0.423446 0.430244 0.449042
0.432950 0.434150 0.452948
0.442454 0.438055 0.456854
0.451958 0.441961 0.460759
0.461461 0.445867 0.464665
0.470965 0.449772 0.468571
0.480469 0.453678 0.472476
0.489973 0.457584 0.476382
0.499477 0.461490 0.480288
0.431114 0.443510 0.456710
0.440617 0.447416 0.460616
0.450121 0.451321 0.464521
0.459625 0.455227 0.468427
0.469129 0.459133 0.472333
0.478633 0.463038 0.476238
0.488137 0.466944 0.480144
0.497641 0.470850 0.484050
0.507145 0.474755 0.487955
0.438781 0.456776 0.464378
0.448285 0.460682 0.468283
0.457789 0.464587 0.472189
0.467293 0.468493 0.476095
0.476797 0.472399 0.480000
0.486301 0.476304 0.483906
0.495804 0.480210 0.487812
0.505308 0.484116 0.491717
0.514812 0.488021 0.495623
0.446449 0.470042 0.472045
0.455953 0.473947 0.475951
0.465457 0.477853 0.479857
0.474961 0.481759 0.483762
0.484464 0.485664 0.487668
0.493968 0.489570 0.491574
0.503472 0.493476 0.495479
0.512976 0.497381 0.499385
0.522480 0.501287 0.503291
0.454117 0.483308 0.479713
0.463620 0.487213 0.483619
0.473124 0.491119 0.487524
0.482628 0.495025 0.491430
0.492132 0.498930 0.495336
0.501636 0.502836 0.499241
0.511140 0.506742 0.503147
0.520644 0.510647 0.507053
0.530148 0.514553 0.510958
0.461784 0.496573 0.487381
0.471288 0.500479 0.491286
0.480792 0.504385 0.495192
0.490296 0.508290 0.499098
0.499800 0.512196 0.503003
0.509304 0.516102 0.506909
0.518807 0.520007 0.510815
0.528311 0.523913 0.514720
0.537815 0.527819 0.518626
0.469452 0.509839 0.495048
0.478956 0.513745 0.498954
0.488460 0.517651 0.502860
0.497964 0.521556 0.506765
0.507467 0.525462 0.510671
0.516971 0.529368 0.514577
0.526475 0.533273 0.518482
0.535979 0.537179 0.522388
0.545483 0.541085 0.526294
0.477120 0.523105 0.502716
0.486623 0.527011 0.506622
0.496127 0.530916 0.510527
0.505631 0.534822 0.514433
0.515135 0.538728 0.518339
0.524639 0.542634 0.522244
0.534143 0.546539 0.526150
0.543647 0.550445 0.530056
0.553151 0.554351 0.533961
0.417267 0.418467 0.448462
0.426771 0.422373 0.452368
0.436275 0.426279 0.456273
0.445779 0.430184 0.460179
0.455283 0.434090 0.464085
0.464787 0.437996 0.467990
0.474291 0.441901 0.471896
0.483794 0.445807 0.475802
0.493298 0.449713 0.479707
0.424935 0.431733 0.456130
0.434439 0.435639 0.460035
0.443943 0.439545 0.463941
0.453447 0.443450 0.467847
0.462951 0.447356 0.471752
0.472454 0.451262 0.475658
0.481958 0.455167 0.479564
0.491462 0.459073 0.483469
0.500966 0.462979 0.487375
0.432603 0.444999 0.463797
0.442107 0.448905 0.467703
0.451610 0.452810 0.471609
0.461114 0.456716 0.475514
0.470618 0.460622 0.479420
0.480122 0.464527 0.483326
0.489626 0.468433 0.487231
0.499130 0.472339 0.491137
0.508634 0.476244 0.495043
0.440270 0.458265 0.471465
0.449774 0.462171 0.475371
0.459278 0.466076 0.479276
0.468782 0.469982 0.483182
0.478286 0.473888 0.487088
0.487790 0.477793 0.490993
0.497294 0.481699 0.494899
0.506797 0.485605 0.498805
0.516301 0.489510 0.502710
0.447938 0.471531 0.479133
0.457442 0.475436 0.483038
0.466946 0.479342 0.486944
0.476450 0.483248 0.490850
0.485954 0.487154 0.494755
0.495457 0.491059 0.498661
0.504961 0.494965 0.502567
0.514465 0.498871 0.506472
0.523969 0.502776 0.510378
0.455606 0.484797 0.486800
0.465110 0.488702 0.490706
0.474613 0.492608 0.494612
0.484117 0.496514 0.498517
0.493621 0.500419 0.502423
0.503125 0.504325 0.506329
0.512629 0.508231 0.510234
0.522133 0.512136 0.514140
0.531637 0.516042 0.518046
0.463273 0.498063 0.494468
0.472777 0.501968 0.498374
0.482281 0.505874 0.502279
0.491785 0.509780 0.506185
0.501289 0.513685 0.510091
0.510793 0.517591 0.513996
0.520297 0.521497 0.517902
0.529800 0.525402 0.521808
0.539304 0.529308 0.525713
0.470941 0.511328 0.502136
0.480445 0.515234 0.506041
0.489949 0.519140 0.509947
0.499453 0.523045 0.513853
0.508957 0.526951 0.517758
0.518460 0.530857 0.521664
0.527964 0.534762 0.525570
0.537468 0.538668 0.529475
0.546972 0.542574 0.533381
0.478609 0.524594 0.509803
0.488113 0.528500 0.513709
0.497616 0.532406 0.517615
0.507120 0.536311 0.521520
0.516624 0.540217 0.525426
0.526128 0.544123 0.529332
0.535632 0.548028 0.533237
0.545136 0.551934 0.537143
0.554640 0.555840 0.541049
0.418756 0.419956 0.455549
0.428260 0.423862 0.459455
0.437764 0.427768 0.463361
0.447268 0.431674 0.467266
0.456772 0.435579 0.471172
0.466276 0.439485 0.475078
0.475780 0.443391 0.478983
0.485284 0.447296 0.482889
0.494787 0.451202 0.486795
0.426424 0.433222 0.463217
0.435928 0.437128 0.467123
0.445432 0.441034 0.471028
0.454936 0.444939 0.474934
0.464440 0.448845 0.478840
0.473944 0.452751 0.482745
0.483447 0.456656 0.486651
0.492951 0.460562 0.490557
0.502455 0.464468 0.494462
0.434092 0.446488 0.470885
0.443596 0.450394 0.474790
0.453100 0.454300 0.478696
0.462603 0.458205 0.482602
0.472107 0.462111 0.486507
0.481611 0.466017 0.490413
0.491115 0.469922 0.494319
0.500619 0.473828 0.498224
0.510123 0.477734 0.502130
0.441759 0.459754 0.478552
0.451263 0.463660 0.482458
0.460767 0.467565 0.486364
0.470271 0.471471 0.490269
0.479775 0.475377 0.494175
0.489279 0.479282 0.498081
0.498783 0.483188 0.501986
0.508287 0.487094 0.505892
0.517790 0.490999 0.509798
0.449427 0.473020 0.486220
0.458931 0.476926 0.490126
0.468435 0.480831 0.494031
0.477939 0.484737 0.497937
0.487443 0.488643 0.501843
0.496947 0.492548 0.505748
0.506450 0.496454 0.509654
0.515954 0.500360 0.513560
0.525458 0.504265 0.517465
0.457095 0.486286 0.493888
0.466599 0.490191 0.497793
0.476103 0.494097 0.501699
0.485606 0.498003 0.505605
0.495110 0.501909 0.509510
0.504614 0.505814 0.513416
0.514118 0.509720 0.517322
0.523622 0.513626 0.521227
0.533126 0.517531 0.525133
0.464762 0.499552 0.501555
0.474266 0.503457 0.505461
0.483770 0.507363 0.509367
0.493274 0.511269 0.513272
0.502778 0.515174 0.517178
0.512282 0.519080 0.521084
0.521786 0.522986 0.524989
0.531290 0.526891 0.528895
0.540793 0.530797 0.532801
0.472430 0.512818 0.509223
0.481934 0.516723 0.513129
0.491438 0.520629 0.517034
0.500942 0.524535 0.520940
0.510446 0.528440 0.524846
0.519950 0.532346 0.528751
0.529453 0.536252 0.532657
0.538957 0.540157 0.536563
0.548461 0.544063 0.540468
0.480098 0.526083 0.516891
0.489602 0.529989 0.520796
0.499106 0.533895 0.524702
0.508609 0.537800 0.528608
0.518113 0.541706 0.532513
0.527617 0.545612 0.536419
0.537121 0.549517 0.540325
0.546625 0.553423 0.544230
0.556129 0.557329 0.548136
0.420246 0.421446 0.462637
0.429749 0.425351 0.466542
0.439253 0.429257 0.470448
0.448757 0.433163 0.474354
0.458261 0.437068 0.478259
0.467765 0.440974 0.482165
0.477269 0.444880 0.486071
0.486773 0.448785 0.489976
0.496277 0.452691 0.493882
0.427913 0.434711 0.470304
0.437417 0.438617 0.474210
0.446921 0.442523 0.478116
0.456425 0.446428 0.482021
0.465929 0.450334 0.485927
0.475433 0.454240 0.489833
0.484937 0.458146 0.493738
0.494440 0.462051 0.497644
0.503944 0.465957 0.501550
0.435581 0.447977 0.477972
0.445085 0.451883 0.481878
0.454589 0.455789 0.485783
0.464093 0.459694 0.489689
0.473596 0.463600 0.493595
0.483100 0.467506 0.497500
0.492604 0.471411 0.501406
0.502108 0.475317 0.505312
0.511612 0.479223 0.509217
0.443249 0.461243 0.485640
0.452752 0.465149 0.489545
0.462256 0.469055 0.493451
0.471760 0.472960 0.497357
0.481264 0.476866 0.501262
0.490768 0.480772 0.505168
0.500272 0.484677 0.509074
0.509776 0.488583 0.512979
0.519280 0.492489 0.516885
0.450916 0.474509 0.493307
0.460420 0.478415 0.497213
0.469924 0.482320 0.501119
0.479428 0.486226 0.505024
0.488932 0.490132 0.508930
0.498436 0.494037 0.512836
0.507940 0.497943 0.516741
0.517443 0.501849 0.520647
0.526947 0.505754 0.524553
0.458584 0.487775 0.500975
0.468088 0.491681 0.504881
0.477592 0.495586 0.508786
0.487096 0.499492 0.512692
0.496599 0.503398 0.516598
0.506103 0.507303 0.520503
0.515607 0.511209 0.524409
0.525111 0.515115 0.528315
0.534615 0.519020 0.532220
0.466252 0.501041 0.508643
0.475755 0.504946 0.512548
0.485259 0.508852 0.516454
0.494763 0.512758 0.520360
0.504267 0.516663 0.524265
0.513771 0.520569 0.528171
0.523275 0.524475 0.532077
0.532779 0.528381 0.535982
0.542283 0.532286 0.539888
0.473919 0.514307 0.516310
0.483423 0.518212 0.520216
0.492927 0.522118 0.524122
0.502431 0.526024 0.528027
0.511935 0.529929 0.531933
0.521439 0.533835 0.535839
0.530943 0.537741 0.539744
0.540446 0.541646 0.543650
0.549950 0.545552 0.547556
0.481587 0.527573 0.523978
0.491091 0.531478 0.527884
0.500595 0.535384 0.531789
0.510099 0.539290 0.535695
0.519602 0.543195 0.539601
0.529106 0.547101 0.543506
0.538610 0.551007 0.547412
0.548114 0.554912 0.551318
0.557618 0.558818 0.555223
0.421735 0.422935 0.469724
0.431239 0.426840 0.473630
0.440742 0.430746 0.477535
0.450246 0.434652 0.481441
0.459750 0.438557 0.485347
0.469254 0.442463 0.489252
0.478758 0.446369 0.493158
0.488262 0.450274 0.497064
0.497766 0.454180 0.500969
0.429402 0.436201 0.477392
0.438906 0.440106 0.481297
0.448410 0.444012 0.485203
0.457914 0.447918 0.489109
0.467418 0.451823 0.493014
0.476922 0.455729 0.496920
0.486426 0.459635 0.500826
0.495930 0.463540 0.504731
0.505433 0.467446 0.508637
0.437070 0.449466 0.485059
0.446574 0.453372 0.488965
0.456078 0.457278 0.492871
0.465582 0.461183 0.496776
0.475086 0.465089 0.500682
0.484589 0.468995 0.504588
0.494093 0.472901 0.508493
0.503597 0.476806 0.512399
0.513101 0.480712 0.516305
0.444738 0.462732 0.492727
0.454242 0.466638 0.496633
0.463745 0.470544 0.500538
0.473249 0.474449 0.504444
0.482753 0.478355 0.508350
0.492257 0.482261 0.512255
0.501761 0.486166 0.516161
0.511265 0.490072 0.520067
0.520769 0.493978 0.523972
0.452405 0.475998 0.500395
0.461909 0.479904 0.504300
0.471413 0.483810 0.508206
0.480917 0.487715 0.512112
0.490421 0.491621 0.516017
0.499925 0.495527 0.519923
0.509429 0.499432 0.523829
0.518933 0.503338 0.527734
0.528436 0.507244 0.531640
0.460073 0.489264 0.508062
0.469577 0.493170 0.511968
0.479081 0.497075 0.515874
0.488585 0.500981 0.519779
0.498089 0.504887 0.523685
0.507592 0.508792 0.527591
0.517096 0.512698 0.531496
0.526600 0.516604 0.535402
0.536104 0.520509 0.539308
0.467741 0.502530 0.515730
0.477245 0.506436 0.519636
0.486748 0.510341 0.523541
0.496252 0.514247 0.527447
0.505756 0.518153 0.531353
0.515260 0.522058 0.535258
0.524764 0.525964 0.539164
0.534268 0.529870 0.543070
0.543772 0.533775 0.546975
0.475408 0.515796 0.523398
0.484912 0.519701 0.527303
0.494416 0.523607 0.531209
0.503920 0.527513 0.535115
0.513424 0.531418 0.539020
0.522928 0.535324 0.542926
0.532432 0.539230 0.546832
0.541935 0.543135 0.550737
0.551439 0.547041 0.554643
0.483076 0.529062 0.531065
0.492580 0.532967 0.534971
0.502084 0.536873 0.538877
0.511588 0.540779 0.542782
0.521092 0.544684 0.546688
0.530595 0.548590 0.550594
0.540099 0.552496 0.554499
0.549603 0.556401 0.558405
0.559107 0.560307 0.562311
0.423224 0.424424 0.476811
0.432728 0.428330 0.480717
0.442232 0.432235 0.484623
0.451735 0.436141 0.488528
0.461239 0.440047 0.492434
0.470743 0.443952 0.496340
0.480247 0.447858 0.500245
0.489751 0.451764 0.504151
0.499255 0.455669 0.508057
0.430892 0.437690 0.484479
0.440395 0.441595 0.488385
0.449899 0.445501 0.492290
0.459403 0.449407 0.496196
0.468907 0.453312 0.500102
0.478411 0.457218 0.504007
0.487915 0.461124 0.507913
0.497419 0.465029 0.511819
0.506923 0.468935 0.515724
0.438559 0.450956 0.492147
0.448063 0.454861 0.496052
0.457567 0.458767 0.499958
0.467071 0.462673 0.503864
0.476575 0.466578 0.507769
0.486079 0.470484 0.511675
0.495582 0.474390 0.515581
0.505086 0.478295 0.519486
0.514590 0.482201 0.523392
0.446227 0.464221 0.499814
0.455731 0.468127 0.503720
0.465235 0.472033 0.507626
0.474738 0.475938 0.511531
0.484242 0.479844 0.515437
0.493746 0.483750 0.519343
0.503250 0.487655 0.523248
0.512754 0.491561 0.527154
0.522258 0.495467 0.531060
0.453895 0.477487 0.507482
0.463398 0.481393 0.511388
0.472902 0.485299 0.515293
0.482406 0.489204 0.519199
0.491910 0.493110 0.523105
0.501414 0.497016 0.527010
0.510918 0.500921 0.530916
0.520422 0.504827 0.534822
0.529925 0.508733 0.538727
0.461562 0.490753 0.515150
0.471066 0.494659 0.519055
0.480570 0.498565 0.522961
0.490074 0.502470 0.526867
0.499578 0.506376 0.530772
0.509082 0.510282 0.534678
0.518585 0.514187 0.538584
0.528089 0.518093 0.542489
0.537593 0.521999 0.546395
0.469230 0.504019 0.522817
0.478734 0.507925 0.526723
0.488238 0.511830 0.530629
0.497741 0.515736 0.534534
0.507245 0.519642 0.538440
0.516749 0.523547 0.542346
0.526253 0.527453 0.546251
0.535757 0.531359 0.550157
0.545261 0.535264 0.554063
0.476898 0.517285 0.530485
0.486401 0.521191 0.534391
0.495905 0.525096 0.538296
0.505409 0.529002 0.542202
0.514913 0.532908 0.546108
0.524417 0.536813 0.550013
0.533921 0.540719 0.553919
0.543425 0.544625 0.557825
0.552928 0.548530 0.561730
0.484565 0.530551 0.538153
0.494069 0.534456 0.542058
0.503573 0.538362 0.545964
0.513077 0.542268 0.549870
0.522581 0.546173 0.553775
0.532085 0.550079 0.557681
0.541588 0.553985 0.561587
0.551092 0.557890 0.565492
0.560596 0.561796 0.569398
0.424713 0.425913 0.483899
0.434217 0.429819 0.487804
0.443721 0.433724 0.491710
0.453225 0.437630 0.495616
0.462728 0.441536 0.499521
0.472232 0.445441 0.503427
0.481736 0.449347 0.507333
0.491240 0.453253 0.511238
0.500744 0.457158 0.515144
0.432381 0.439179 0.491566
0.441885 0.443085 0.495472
0.451388 0.446990 0.499378
0.460892 0.450896 0.503283
0.470396 0.454802 0.507189
0.479900 0.458707 0.511095
0.489404 0.462613 0.515000
0.498908 0.466519 0.518906
0.508412 0.470424 0.522812
0.440048 0.452445 0.499234
0.449552 0.456350 0.503140
0.459056 0.460256 0.507045
0.468560 0.464162 0.510951
0.478064 0.468067 0.514857
0.487568 0.471973 0.518762
0.497072 0.475879 0.522668
0.506575 0.479784 0.526574
0.516079 0.483690 0.530479
0.447716 0.465711 0.506902
0.457220 0.469616 0.510807
0.466724 0.473522 0.514713
0.476228 0.477428 0.518619
0.485731 0.481333 0.522524
0.495235 0.485239 0.526430
0.504739 0.489145 0.530336
0.514243 0.493050 0.534241
0.523747 0.496956 0.538147
0.455384 0.478976 0.514569
0.464887 0.482882 0.518475
0.474391 0.486788 0.522381
0.483895 0.490693 0.526286
0.493399 0.494599 0.530192
0.502903 0.498505 0.534098
0.512407 0.502410 0.538003
0.521911 0.506316 0.541909
0.531415 0.510222 0.545815
0.463051 0.492242 0.522237
0.472555 0.496148 0.526143
0.482059 0.500054 0.530048
0.491563 0.503959 0.533954
0.501067 0.507865 0.537860
0.510571 0.511771 0.541765
0.520075 0.515676 0.545671
0.529578 0.519582 0.549577
0.539082 0.523488 0.553482
0.470719 0.505508 0.529905
0.480223 0.509414 0.533810
0.489727 0.513319 0.537716
0.499231 0.517225 0.541622
0.508734 0.521131 0.545527
0.518238 0.525037 0.549433
0.527742 0.528942 0.553339
0.537246 0.532848 0.557244
0.546750 0.536754 0.561150
0.478387 0.518774 0.537572
0.487890 0.522680 0.541478
0.497394 0.526585 0.545384
0.506898 0.530491 0.549289
0.516402 0.534397 0.553195
0.525906 0.538302 0.557101
0.535410 0.542208 0.561006
0.544914 0.546114 0.564912
0.554418 0.550019 0.568818
0.486054 0.532040 0.545240
0.495558 0.535946 0.549146
0.505062 0.539851 0.553051
0.514566 0.543757 0.556957
0.524070 0.547663 0.560863
0.533574 0.551568 0.564768
0.543078 0.555474 0.568674
0.552581 0.559380 0.572580
0.562085 0.563285 0.576485
