shared/src/main/assets/luts/film_toxic_gotham.cube
TITLE "DALUR Toxic Gotham"
LUT_3D_SIZE 17
DOMAIN_MIN 0.0 0.0 0.0
DOMAIN_MAX 1.0 1.0 1.0
0.407000 0.416000 0.413000
0.411392 0.418762 0.415762
0.415784 0.421524 0.418524
0.420175 0.424285 0.421285
0.424567 0.427047 0.424047
0.428959 0.429809 0.426809
0.433351 0.432571 0.429571
0.437743 0.435333 0.432333
0.442134 0.438094 0.435094
0.446526 0.440856 0.437856
0.450918 0.443618 0.440618
0.455310 0.446380 0.443380
0.459702 0.449142 0.446142
0.464094 0.451903 0.448903
0.468485 0.454665 0.451665
0.472877 0.457427 0.454427
0.477269 0.460189 0.457189
0.412422 0.423052 0.418422
0.416814 0.425814 0.421184
0.421206 0.428576 0.423946
0.425597 0.431337 0.426707
0.429989 0.434099 0.429469
0.434381 0.436861 0.432231
0.438773 0.439623 0.434993
0.443165 0.442385 0.437755
0.447556 0.445146 0.440516
0.451948 0.447908 0.443278
0.456340 0.450670 0.446040
0.460732 0.453432 0.448802
0.465124 0.456194 0.451563
0.469516 0.458955 0.454325
0.473907 0.461717 0.457087
0.478299 0.464479 0.459849
0.482691 0.467241 0.462611
0.417844 0.430104 0.423844
0.422236 0.432866 0.426606
0.426628 0.435628 0.429368
0.431019 0.438389 0.432129
0.435411 0.441151 0.434891
0.439803 0.443913 0.437653
0.444195 0.446675 0.440415
0.448587 0.449437 0.443177
0.452978 0.452198 0.445938
0.457370 0.454960 0.448700
0.461762 0.457722 0.451462
0.466154 0.460484 0.454224
0.470546 0.463246 0.456985
0.474938 0.466007 0.459747
0.479329 0.468769 0.462509
0.483721 0.471531 0.465271
0.488113 0.474293 0.468033
0.423266 0.437156 0.429266
0.427658 0.439918 0.432028
0.432050 0.442680 0.434790
0.436441 0.445441 0.437551
0.440833 0.448203 0.440313
0.445225 0.450965 0.443075
0.449617 0.453727 0.445837
0.454009 0.456489 0.448598
0.458400 0.459250 0.451360
0.462792 0.462012 0.454122
0.467184 0.464774 0.456884
0.471576 0.467536 0.459646
0.475968 0.470298 0.462407
0.480359 0.473059 0.465169
0.484751 0.475821 0.467931
0.489143 0.478583 0.470693
0.493535 0.481345 0.473455
0.428688 0.444208 0.434688
0.433080 0.446970 0.437450
0.437472 0.449732 0.440212
0.441863 0.452493 0.442973
0.446255 0.455255 0.445735
0.450647 0.458017 0.448497
0.455039 0.460779 0.451259
0.459431 0.463541 0.454020
0.463822 0.466302 0.456782
0.468214 0.469064 0.459544
0.472606 0.471826 0.462306
0.476998 0.474588 0.465068
0.481390 0.477350 0.467829
0.485781 0.480111 0.470591
0.490173 0.482873 0.473353
0.494565 0.485635 0.476115
0.498957 0.488397 0.478877
0.434110 0.451260 0.440110
0.438502 0.454022 0.442872
0.442894 0.456784 0.445633
0.447285 0.459545 0.448395
0.451677 0.462307 0.451157
0.456069 0.465069 0.453919
0.460461 0.467831 0.456681
0.464853 0.470593 0.459442
0.469244 0.473354 0.462204
0.473636 0.476116 0.464966
0.478028 0.478878 0.467728
0.482420 0.481640 0.470490
0.486812 0.484402 0.473251
0.491203 0.487163 0.476013
0.495595 0.489925 0.478775
0.499987 0.492687 0.481537
0.504379 0.495449 0.484299
0.439532 0.458312 0.445532
0.443924 0.461074 0.448294
0.448316 0.463836 0.451055
0.452707 0.466597 0.453817
0.457099 0.469359 0.456579
0.461491 0.472121 0.459341
0.465883 0.474883 0.462103
0.470275 0.477645 0.464864
0.474666 0.480406 0.467626
0.479058 0.483168 0.470388
0.483450 0.485930 0.473150
0.487842 0.488692 0.475912
0.492234 0.491454 0.478673
0.496625 0.494215 0.481435
0.501017 0.496977 0.484197
0.505409 0.499739 0.486959
0.509801 0.502501 0.489721
0.444954 0.465364 0.450954
0.449346 0.468126 0.453716
0.453737 0.470888 0.456477
0.458129 0.473649 0.459239
0.462521 0.476411 0.462001
0.466913 0.479173 0.464763
0.471305 0.481935 0.467525
0.475697 0.484697 0.470286
0.480088 0.487458 0.473048
0.484480 0.490220 0.475810
0.488872 0.492982 0.478572
0.493264 0.495744 0.481334
0.497656 0.498506 0.484095
0.502047 0.501267 0.486857
0.506439 0.504029 0.489619
0.510831 0.506791 0.492381
0.515223 0.509553 0.495143
0.450376 0.472416 0.456376
0.454768 0.475178 0.459138
0.459159 0.477940 0.461899
0.463551 0.480701 0.464661
0.467943 0.483463 0.467423
0.472335 0.486225 0.470185
0.476727 0.488987 0.472947
0.481119 0.491749 0.475708
0.485510 0.494510 0.478470
0.489902 0.497272 0.481232
0.494294 0.500034 0.483994
0.498686 0.502796 0.486756
0.503078 0.505558 0.489517
0.507469 0.508319 0.492279
0.511861 0.511081 0.495041
0.516253 0.513843 0.497803
0.520645 0.516605 0.500565
0.455798 0.479468 0.461798
0.460190 0.482230 0.464560
0.464581 0.484992 0.467321
0.468973 0.487753 0.470083
0.473365 0.490515 0.472845
0.477757 0.493277 0.475607
0.482149 0.496039 0.478369
0.486541 0.498801 0.481130
0.490932 0.501562 0.483892
0.495324 0.504324 0.486654
0.499716 0.507086 0.489416
0.504108 0.509848 0.492178
0.508500 0.512610 0.494939
0.512891 0.515371 0.497701
0.517283 0.518133 0.500463
0.521675 0.520895 0.503225
0.526067 0.523657 0.505987
0.461220 0.486520 0.467220
0.465612 0.489282 0.469982
0.470003 0.492044 0.472743
0.474395 0.494805 0.475505
0.478787 0.497567 0.478267
0.483179 0.500329 0.481029
0.487571 0.503091 0.483791
0.491962 0.505853 0.486552
0.496354 0.508614 0.489314
0.500746 0.511376 0.492076
0.505138 0.514138 0.494838
0.509530 0.516900 0.497600
0.513922 0.519662 0.500361
0.518313 0.522423 0.503123
0.522705 0.525185 0.505885
0.527097 0.527947 0.508647
0.531489 0.530709 0.511409
0.466642 0.493572 0.472642
0.471034 0.496334 0.475404
0.475425 0.499096 0.478165
0.479817 0.501857 0.480927
0.484209 0.504619 0.483689
0.488601 0.507381 0.486451
0.492993 0.510143 0.489213
0.497384 0.512905 0.491974
0.501776 0.515666 0.494736
0.506168 0.518428 0.497498
0.510560 0.521190 0.500260
0.514952 0.523952 0.503022
0.519344 0.526714 0.505783
0.523735 0.529475 0.508545
0.528127 0.532237 0.511307
0.532519 0.534999 0.514069
0.536911 0.537761 0.516830
0.472064 0.500624 0.478064
0.476456 0.503386 0.480826
0.480847 0.506148 0.483587
0.485239 0.508909 0.486349
0.489631 0.511671 0.489111
0.494023 0.514433 0.491873
0.498415 0.517195 0.494635
0.502806 0.519957 0.497396
0.507198 0.522718 0.500158
0.511590 0.525480 0.502920
0.515982 0.528242 0.505682
0.520374 0.531004 0.508444
0.524766 0.533766 0.511205
0.529157 0.536527 0.513967
0.533549 0.539289 0.516729
0.537941 0.542051 0.519491
0.542333 0.544813 0.522252
0.477486 0.507676 0.483486
0.481878 0.510438 0.486248
0.486269 0.513200 0.489009
0.490661 0.515961 0.491771
0.495053 0.518723 0.494533
0.499445 0.521485 0.497295
0.503837 0.524247 0.500057
0.508228 0.527009 0.502818
0.512620 0.529770 0.505580
0.517012 0.532532 0.508342
0.521404 0.535294 0.511104
0.525796 0.538056 0.513865
0.530187 0.540818 0.516627
0.534579 0.543579 0.519389
0.538971 0.546341 0.522151
0.543363 0.549103 0.524913
0.547755 0.551865 0.527674
0.482908 0.514728 0.488908
0.487300 0.517490 0.491670
0.491691 0.520252 0.494431
0.496083 0.523013 0.497193
0.500475 0.525775 0.499955
0.504867 0.528537 0.502717
0.509259 0.531299 0.505479
0.513650 0.534061 0.508240
0.518042 0.536822 0.511002
0.522434 0.539584 0.513764
0.526826 0.542346 0.516526
0.531218 0.545108 0.519287
0.535609 0.547870 0.522049
0.540001 0.550631 0.524811
0.544393 0.553393 0.527573
0.548785 0.556155 0.530335
0.553177 0.558917 0.533096
0.488330 0.521780 0.494330
0.492722 0.524542 0.497092
0.497113 0.527304 0.499853
0.501505 0.530065 0.502615
0.505897 0.532827 0.505377
0.510289 0.535589 0.508139
0.514681 0.538351 0.510900
0.519072 0.541113 0.513662
0.523464 0.543874 0.516424
0.527856 0.546636 0.519186
0.532248 0.549398 0.521948
0.536640 0.552160 0.524709
0.541031 0.554922 0.527471
0.545423 0.557683 0.530233
0.549815 0.560445 0.532995
0.554207 0.563207 0.535757
0.558599 0.565969 0.538518
0.493752 0.528832 0.499752
0.498144 0.531594 0.502514
0.502535 0.534356 0.505275
0.506927 0.537117 0.508037
0.511319 0.539879 0.510799
0.515711 0.542641 0.513561
0.520103 0.545403 0.516322
0.524494 0.548165 0.519084
0.528886 0.550926 0.521846
0.533278 0.553688 0.524608
0.537670 0.556450 0.527370
0.542062 0.559212 0.530131
0.546453 0.561974 0.532893
0.550845 0.564735 0.535655
0.555237 0.567497 0.538417
0.559629 0.570259 0.541179
0.564021 0.573021 0.543940
0.408053 0.417053 0.415683
0.412445 0.419815 0.418445
0.416837 0.422577 0.421207
0.421228 0.425338 0.423968
0.425620 0.428100 0.426730
0.430012 0.430862 0.429492
0.434404 0.433624 0.432254
0.438796 0.436386 0.435016
0.443187 0.439147 0.437777
0.447579 0.441909 0.440539
0.451971 0.444671 0.443301
0.456363 0.447433 0.446063
0.460755 0.450195 0.448825
0.465147 0.452956 0.451586
0.469538 0.455718 0.454348
0.473930 0.458480 0.457110
0.478322 0.461242 0.459872
0.413475 0.424105 0.421105
0.417867 0.426867 0.423867
0.422259 0.429629 0.426629
0.426650 0.432390 0.429390
0.431042 0.435152 0.432152
0.435434 0.437914 0.434914
0.439826 0.440676 0.437676
0.444218 0.443438 0.440438
0.448609 0.446199 0.443199
0.453001 0.448961 0.445961
0.457393 0.451723 0.448723
0.461785 0.454485 0.451485
0.466177 0.457247 0.454247
0.470569 0.460008 0.457008
0.474960 0.462770 0.459770
0.479352 0.465532 0.462532
0.483744 0.468294 0.465294
0.418897 0.431157 0.426527
0.423289 0.433919 0.429289
0.427681 0.436681 0.432051
0.432072 0.439442 0.434812
0.436464 0.442204 0.437574
0.440856 0.444966 0.440336
0.445248 0.447728 0.443098
0.449640 0.450490 0.445860
0.454031 0.453251 0.448621
0.458423 0.456013 0.451383
0.462815 0.458775 0.454145
0.467207 0.461537 0.456907
0.471599 0.464299 0.459668
0.475990 0.467060 0.462430
0.480382 0.469822 0.465192
0.484774 0.472584 0.467954
0.489166 0.475346 0.470716
0.424319 0.438209 0.431949
0.428711 0.440971 0.434711
0.433103 0.443733 0.437473
0.437494 0.446494 0.440234
0.441886 0.449256 0.442996
0.446278 0.452018 0.445758
0.450670 0.454780 0.448520
0.455062 0.457542 0.451282
0.459453 0.460303 0.454043
0.463845 0.463065 0.456805
0.468237 0.465827 0.459567
0.472629 0.468589 0.462329
0.477021 0.471351 0.465090
0.481412 0.474112 0.467852
0.485804 0.476874 0.470614
0.490196 0.479636 0.473376
0.494588 0.482398 0.476138
0.429741 0.445261 0.437371
0.434133 0.448023 0.440133
0.438525 0.450785 0.442895
0.442916 0.453546 0.445656
0.447308 0.456308 0.448418
0.451700 0.459070 0.451180
0.456092 0.461832 0.453942
0.460484 0.464594 0.456703
0.464875 0.467355 0.459465
0.469267 0.470117 0.462227
0.473659 0.472879 0.464989
0.478051 0.475641 0.467751
0.482443 0.478403 0.470512
0.486834 0.481164 0.473274
0.491226 0.483926 0.476036
0.495618 0.486688 0.478798
0.500010 0.489450 0.481560
0.435163 0.452313 0.442793
0.439555 0.455075 0.445555
0.443947 0.457837 0.448317
0.448338 0.460598 0.451078
0.452730 0.463360 0.453840
0.457122 0.466122 0.456602
0.461514 0.468884 0.459364
0.465906 0.471646 0.462125
0.470297 0.474407 0.464887
0.474689 0.477169 0.467649
0.479081 0.479931 0.470411
0.483473 0.482693 0.473173
0.487865 0.485455 0.475934
0.492256 0.488216 0.478696
0.496648 0.490978 0.481458
0.501040 0.493740 0.484220
0.505432 0.496502 0.486982
0.440585 0.459365 0.448215
0.444977 0.462127 0.450977
0.449369 0.464889 0.453738
0.453760 0.467650 0.456500
0.458152 0.470412 0.459262
0.462544 0.473174 0.462024
0.466936 0.475936 0.464786
0.471328 0.478698 0.467547
0.475719 0.481459 0.470309
0.480111 0.484221 0.473071
0.484503 0.486983 0.475833
0.488895 0.489745 0.478595
0.493287 0.492507 0.481356
0.497678 0.495268 0.484118
0.502070 0.498030 0.486880
0.506462 0.500792 0.489642
0.510854 0.503554 0.492404
0.446007 0.466417 0.453637
0.450399 0.469179 0.456399
0.454790 0.471941 0.459160
0.459182 0.474702 0.461922
0.463574 0.477464 0.464684
0.467966 0.480226 0.467446
0.472358 0.482988 0.470208
0.476750 0.485750 0.472969
0.481141 0.488511 0.475731
0.485533 0.491273 0.478493
0.489925 0.494035 0.481255
0.494317 0.496797 0.484017
0.498709 0.499559 0.486778
0.503100 0.502320 0.489540
0.507492 0.505082 0.492302
0.511884 0.507844 0.495064
0.516276 0.510606 0.497826
0.451429 0.473469 0.459059
0.455821 0.476231 0.461821
0.460212 0.478993 0.464582
0.464604 0.481754 0.467344
0.468996 0.484516 0.470106
0.473388 0.487278 0.472868
0.477780 0.490040 0.475630
0.482172 0.492802 0.478391
0.486563 0.495563 0.481153
0.490955 0.498325 0.483915
0.495347 0.501087 0.486677
0.499739 0.503849 0.489439
0.504131 0.506611 0.492200
0.508522 0.509372 0.494962
0.512914 0.512134 0.497724
0.517306 0.514896 0.500486
0.521698 0.517658 0.503248
0.456851 0.480521 0.464481
0.461243 0.483283 0.467243
0.465634 0.486045 0.470004
0.470026 0.488806 0.472766
0.474418 0.491568 0.475528
0.478810 0.494330 0.478290
0.483202 0.497092 0.481052
0.487594 0.499854 0.483813
0.491985 0.502615 0.486575
0.496377 0.505377 0.489337
0.500769 0.508139 0.492099
0.505161 0.510901 0.494861
0.509553 0.513663 0.497622
0.513944 0.516424 0.500384
0.518336 0.519186 0.503146
0.522728 0.521948 0.505908
0.527120 0.524710 0.508670
0.462273 0.487573 0.469903
0.466665 0.490335 0.472665
0.471056 0.493097 0.475426
0.475448 0.495858 0.478188
0.479840 0.498620 0.480950
0.484232 0.501382 0.483712
0.488624 0.504144 0.486474
0.493015 0.506906 0.489235
0.497407 0.509667 0.491997
0.501799 0.512429 0.494759
0.506191 0.515191 0.497521
0.510583 0.517953 0.500283
0.514975 0.520715 0.503044
0.519366 0.523476 0.505806
0.523758 0.526238 0.508568
0.528150 0.529000 0.511330
0.532542 0.531762 0.514092
0.467695 0.494625 0.475325
0.472087 0.497387 0.478087
0.476478 0.500149 0.480848
0.480870 0.502910 0.483610
0.485262 0.505672 0.486372
0.489654 0.508434 0.489134
0.494046 0.511196 0.491896
0.498437 0.513958 0.494657
0.502829 0.516719 0.497419
0.507221 0.519481 0.500181
0.511613 0.522243 0.502943
0.516005 0.525005 0.505705
0.520397 0.527767 0.508466
0.524788 0.530528 0.511228
0.529180 0.533290 0.513990
0.533572 0.536052 0.516752
0.537964 0.538814 0.519513
0.473117 0.501677 0.480747
0.477509 0.504439 0.483509
0.481900 0.507201 0.486270
0.486292 0.509962 0.489032
0.490684 0.512724 0.491794
0.495076 0.515486 0.494556
0.499468 0.518248 0.497318
0.503859 0.521010 0.500079
0.508251 0.523771 0.502841
0.512643 0.526533 0.505603
0.517035 0.529295 0.508365
0.521427 0.532057 0.511127
0.525818 0.534818 0.513888
0.530210 0.537580 0.516650
0.534602 0.540342 0.519412
0.538994 0.543104 0.522174
0.543386 0.545866 0.524935
0.478539 0.508729 0.486169
0.482931 0.511491 0.488931
0.487322 0.514253 0.491692
0.491714 0.517014 0.494454
0.496106 0.519776 0.497216
0.500498 0.522538 0.499978
0.504890 0.525300 0.502740
0.509281 0.528062 0.505501
0.513673 0.530823 0.508263
0.518065 0.533585 0.511025
0.522457 0.536347 0.513787
0.526849 0.539109 0.516548
0.531240 0.541870 0.519310
0.535632 0.544632 0.522072
0.540024 0.547394 0.524834
0.544416 0.550156 0.527596
0.548808 0.552918 0.530357
0.483961 0.515781 0.491591
0.488353 0.518543 0.494353
0.492744 0.521305 0.497114
0.497136 0.524066 0.499876
0.501528 0.526828 0.502638
0.505920 0.529590 0.505400
0.510312 0.532352 0.508162
0.514703 0.535114 0.510923
0.519095 0.537875 0.513685
0.523487 0.540637 0.516447
0.527879 0.543399 0.519209
0.532271 0.546161 0.521970
0.536662 0.548922 0.524732
0.541054 0.551684 0.527494
0.545446 0.554446 0.530256
0.549838 0.557208 0.533018
0.554230 0.559970 0.535779
0.489383 0.522833 0.497013
0.493775 0.525595 0.499775
0.498166 0.528357 0.502536
0.502558 0.531118 0.505298
0.506950 0.533880 0.508060
0.511342 0.536642 0.510822
0.515734 0.539404 0.513583
0.520125 0.542166 0.516345
0.524517 0.544927 0.519107
0.528909 0.547689 0.521869
0.533301 0.550451 0.524631
0.537693 0.553213 0.527392
0.542084 0.555974 0.530154
0.546476 0.558736 0.532916
0.550868 0.561498 0.535678
0.555260 0.564260 0.538440
0.559652 0.567022 0.541201
0.494805 0.529885 0.502435
0.499197 0.532647 0.505197
0.503588 0.535409 0.507958
0.507980 0.538170 0.510720
0.512372 0.540932 0.513482
0.516764 0.543694 0.516244
0.521156 0.546456 0.519005
0.525547 0.549218 0.521767
0.529939 0.551979 0.524529
0.534331 0.554741 0.527291
0.538723 0.557503 0.530053
0.543115 0.560265 0.532814
0.547506 0.563026 0.535576
0.551898 0.565788 0.538338
0.556290 0.568550 0.541100
0.560682 0.571312 0.543862
0.565074 0.574074 0.546623
0.409106 0.418106 0.418366
0.413498 0.420868 0.421128
0.417890 0.423630 0.423890
0.422281 0.426391 0.426651
0.426673 0.429153 0.429413
0.431065 0.431915 0.432175
0.435457 0.434677 0.434937
0.439849 0.437439 0.437699
0.444240 0.440200 0.440460
0.448632 0.442962 0.443222
0.453024 0.445724 0.445984
0.457416 0.448486 0.448746
0.461808 0.451247 0.451508
0.466200 0.454009 0.454269
0.470591 0.456771 0.457031
0.474983 0.459533 0.459793
0.479375 0.462295 0.462555
0.414528 0.425158 0.423788
0.418920 0.427920 0.426550
0.423312 0.430682 0.429312
0.427703 0.433443 0.432073
0.432095 0.436205 0.434835
0.436487 0.438967 0.437597
0.440879 0.441729 0.440359
0.445271 0.444491 0.443121
0.449662 0.447252 0.445882
0.454054 0.450014 0.448644
0.458446 0.452776 0.451406
0.462838 0.455538 0.454168
0.467230 0.458299 0.456930
0.471622 0.461061 0.459691
0.476013 0.463823 0.462453
0.480405 0.466585 0.465215
0.484797 0.469347 0.467977
0.419950 0.432210 0.429210
0.424342 0.434972 0.431972
0.428734 0.437734 0.434734
0.433125 0.440495 0.437495
0.437517 0.443257 0.440257
0.441909 0.446019 0.443019
0.446301 0.448781 0.445781
0.450693 0.451543 0.448543
0.455084 0.454304 0.451304
0.459476 0.457066 0.454066
0.463868 0.459828 0.456828
0.468260 0.462590 0.459590
0.472652 0.465351 0.462351
0.477043 0.468113 0.465113
0.481435 0.470875 0.467875
0.485827 0.473637 0.470637
0.490219 0.476399 0.473399
0.425372 0.439262 0.434632
0.429764 0.442024 0.437394
0.434156 0.444786 0.440156
0.438547 0.447547 0.442917
0.442939 0.450309 0.445679
0.447331 0.453071 0.448441
0.451723 0.455833 0.451203
0.456115 0.458595 0.453965
0.460506 0.461356 0.456726
0.464898 0.464118 0.459488
0.469290 0.466880 0.462250
0.473682 0.469642 0.465012
0.478074 0.472403 0.467773
0.482465 0.475165 0.470535
0.486857 0.477927 0.473297
0.491249 0.480689 0.476059
0.495641 0.483451 0.478821
0.430794 0.446314 0.440054
0.435186 0.449076 0.442816
0.439578 0.451838 0.445578
0.443969 0.454599 0.448339
0.448361 0.457361 0.451101
0.452753 0.460123 0.453863
0.457145 0.462885 0.456625
0.461537 0.465647 0.459386
0.465928 0.468408 0.462148
0.470320 0.471170 0.464910
0.474712 0.473932 0.467672
0.479104 0.476694 0.470434
0.483496 0.479455 0.473195
0.487887 0.482217 0.475957
0.492279 0.484979 0.478719
0.496671 0.487741 0.481481
0.501063 0.490503 0.484243
0.436216 0.453366 0.445476
0.440608 0.456128 0.448238
0.445000 0.458890 0.451000
0.449391 0.461651 0.453761
0.453783 0.464413 0.456523
0.458175 0.467175 0.459285
0.462567 0.469937 0.462047
0.466959 0.472699 0.464808
0.471350 0.475460 0.467570
0.475742 0.478222 0.470332
0.480134 0.480984 0.473094
0.484526 0.483746 0.475856
0.488918 0.486507 0.478617
0.493309 0.489269 0.481379
0.497701 0.492031 0.484141
0.502093 0.494793 0.486903
0.506485 0.497555 0.489665
0.441638 0.460418 0.450898
0.446030 0.463180 0.453660
0.450421 0.465942 0.456421
0.454813 0.468703 0.459183
0.459205 0.471465 0.461945
0.463597 0.474227 0.464707
0.467989 0.476989 0.467469
0.472381 0.479751 0.470230
0.476772 0.482512 0.472992
0.481164 0.485274 0.475754
0.485556 0.488036 0.478516
0.489948 0.490798 0.481278
0.494340 0.493559 0.484039
0.498731 0.496321 0.486801
0.503123 0.499083 0.489563
0.507515 0.501845 0.492325
0.511907 0.504607 0.495087
0.447060 0.467470 0.456320
0.451452 0.470232 0.459082
0.455843 0.472994 0.461843
0.460235 0.475755 0.464605
0.464627 0.478517 0.467367
0.469019 0.481279 0.470129
0.473411 0.484041 0.472891
0.477803 0.486803 0.475652
0.482194 0.489564 0.478414
0.486586 0.492326 0.481176
0.490978 0.495088 0.483938
0.495370 0.497850 0.486700
0.499762 0.500611 0.489461
0.504153 0.503373 0.492223
0.508545 0.506135 0.494985
0.512937 0.508897 0.497747
0.517329 0.511659 0.500509
0.452482 0.474522 0.461742
0.456874 0.477284 0.464504
0.461265 0.480046 0.467265
0.465657 0.482807 0.470027
0.470049 0.485569 0.472789
0.474441 0.488331 0.475551
0.478833 0.491093 0.478313
0.483225 0.493855 0.481074
0.487616 0.496616 0.483836
0.492008 0.499378 0.486598
0.496400 0.502140 0.489360
0.500792 0.504902 0.492122
0.505184 0.507663 0.494883
0.509575 0.510425 0.497645
0.513967 0.513187 0.500407
0.518359 0.515949 0.503169
0.522751 0.518711 0.505931
0.457904 0.481574 0.467164
0.462296 0.484336 0.469926
0.466687 0.487098 0.472687
0.471079 0.489859 0.475449
0.475471 0.492621 0.478211
0.479863 0.495383 0.480973
0.484255 0.498145 0.483735
0.488646 0.500907 0.486496
0.493038 0.503668 0.489258
0.497430 0.506430 0.492020
0.501822 0.509192 0.494782
0.506214 0.511954 0.497544
0.510606 0.514715 0.500305
0.514997 0.517477 0.503067
0.519389 0.520239 0.505829
0.523781 0.523001 0.508591
0.528173 0.525763 0.511353
0.463326 0.488626 0.472586
0.467718 0.491388 0.475348
0.472109 0.494150 0.478109
0.476501 0.496911 0.480871
0.480893 0.499673 0.483633
0.485285 0.502435 0.486395
0.489677 0.505197 0.489157
0.494068 0.507959 0.491918
0.498460 0.510720 0.494680
0.502852 0.513482 0.497442
0.507244 0.516244 0.500204
0.511636 0.519006 0.502966
0.516028 0.521767 0.505727
0.520419 0.524529 0.508489
0.524811 0.527291 0.511251
0.529203 0.530053 0.514013
0.533595 0.532815 0.516775
0.468748 0.495678 0.478008
0.473140 0.498440 0.480770
0.477531 0.501202 0.483531
0.481923 0.503963 0.486293
0.486315 0.506725 0.489055
0.490707 0.509487 0.491817
0.495099 0.512249 0.494579
0.499490 0.515011 0.497340
0.503882 0.517772 0.500102
0.508274 0.520534 0.502864
0.512666 0.523296 0.505626
0.517058 0.526058 0.508388
0.521450 0.528819 0.511149
0.525841 0.531581 0.513911
0.530233 0.534343 0.516673
0.534625 0.537105 0.519435
0.539017 0.539867 0.522197
0.474170 0.502730 0.483430
0.478562 0.505492 0.486192
0.482953 0.508254 0.488953
0.487345 0.511015 0.491715
0.491737 0.513777 0.494477
0.496129 0.516539 0.497239
0.500521 0.519301 0.500001
0.504912 0.522063 0.502762
0.509304 0.524824 0.505524
0.513696 0.527586 0.508286
0.518088 0.530348 0.511048
0.522480 0.533110 0.513810
0.526871 0.535871 0.516571
0.531263 0.538633 0.519333
0.535655 0.541395 0.522095
0.540047 0.544157 0.524857
0.544439 0.546919 0.527618
0.479592 0.509782 0.488852
0.483984 0.512544 0.491614
0.488375 0.515306 0.494375
0.492767 0.518067 0.497137
0.497159 0.520829 0.499899
0.501551 0.523591 0.502661
0.505943 0.526353 0.505423
0.510334 0.529115 0.508184
0.514726 0.531876 0.510946
0.519118 0.534638 0.513708
0.523510 0.537400 0.516470
0.527902 0.540162 0.519232
0.532293 0.542923 0.521993
0.536685 0.545685 0.524755
0.541077 0.548447 0.527517
0.545469 0.551209 0.530279
0.549861 0.553971 0.533040
0.485014 0.516834 0.494274
0.489406 0.519596 0.497036
0.493797 0.522358 0.499797
0.498189 0.525119 0.502559
0.502581 0.527881 0.505321
0.506973 0.530643 0.508083
0.511365 0.533405 0.510845
0.515756 0.536167 0.513606
0.520148 0.538928 0.516368
0.524540 0.541690 0.519130
0.528932 0.544452 0.521892
0.533324 0.547214 0.524653
0.537715 0.549975 0.527415
0.542107 0.552737 0.530177
0.546499 0.555499 0.532939
0.550891 0.558261 0.535701
0.555283 0.561023 0.538462
0.490436 0.523886 0.499696
0.494828 0.526648 0.502458
0.499219 0.529410 0.505219
0.503611 0.532171 0.507981
0.508003 0.534933 0.510743
0.512395 0.537695 0.513505
0.516787 0.540457 0.516267
0.521178 0.543219 0.519028
0.525570 0.545980 0.521790
0.529962 0.548742 0.524552
0.534354 0.551504 0.527314
0.538746 0.554266 0.530075
0.543137 0.557027 0.532837
0.547529 0.559789 0.535599
0.551921 0.562551 0.538361
0.556313 0.565313 0.541123
0.560705 0.568075 0.543884
0.495858 0.530938 0.505118
0.500250 0.533700 0.507880
0.504641 0.536462 0.510641
0.509033 0.539223 0.513403
0.513425 0.541985 0.516165
0.517817 0.544747 0.518927
0.522209 0.547509 0.521688
0.526600 0.550271 0.524450
0.530992 0.553032 0.527212
0.535384 0.555794 0.529974
0.539776 0.558556 0.532736
0.544168 0.561318 0.535497
0.548559 0.564079 0.538259
0.552951 0.566841 0.541021
0.557343 0.569603 0.543783
0.561735 0.572365 0.546545
0.566127 0.575127 0.549306
0.410159 0.419159 0.421049
0.414551 0.421921 0.423811
0.418943 0.424683 0.426573
0.423334 0.427444 0.429334
0.427726 0.430206 0.432096
0.432118 0.432968 0.434858
0.436510 0.435730 0.437620
0.440902 0.438492 0.440382
0.445293 0.441253 0.443143
0.449685 0.444015 0.445905
0.454077 0.446777 0.448667
0.458469 0.449539 0.451429
0.462861 0.452300 0.454191
0.467253 0.455062 0.456952
0.471644 0.457824 0.459714
0.476036 0.460586 0.462476
0.480428 0.463348 0.465238
0.415581 0.426211 0.426471
