shared/src/main/assets/luts/film_warm_desire.cube
TITLE "DALUR Warm Desire"
LUT_3D_SIZE 17
DOMAIN_MIN 0.0 0.0 0.0
DOMAIN_MAX 1.0 1.0 1.0
0.466800 0.447500 0.433200
0.469326 0.449088 0.434788
0.471852 0.450677 0.436377
0.474378 0.452265 0.437965
0.476904 0.453854 0.439554
0.479430 0.455442 0.441142
0.481956 0.457031 0.442731
0.484482 0.458619 0.444319
0.487007 0.460207 0.445908
0.489533 0.461796 0.447496
0.492059 0.463384 0.449084
0.494585 0.464973 0.450673
0.497111 0.466561 0.452261
0.499637 0.468150 0.453850
0.502163 0.469738 0.455438
0.504689 0.471327 0.457027
0.507215 0.472915 0.458615
0.469918 0.451556 0.436318
0.472444 0.453144 0.437907
0.474970 0.454733 0.439495
0.477496 0.456321 0.441084
0.480022 0.457910 0.442672
0.482548 0.459498 0.444261
0.485074 0.461087 0.445849
0.487600 0.462675 0.447438
0.490126 0.464263 0.449026
0.492652 0.465852 0.450614
0.495178 0.467440 0.452203
0.497704 0.469029 0.453791
0.500230 0.470617 0.455380
0.502756 0.472206 0.456968
0.505282 0.473794 0.458557
0.507807 0.475382 0.460145
0.510333 0.476971 0.461733
0.473037 0.455612 0.439437
0.475563 0.457200 0.441025
0.478089 0.458789 0.442614
0.480615 0.460377 0.444202
0.483141 0.461966 0.445791
0.485667 0.463554 0.447379
0.488192 0.465143 0.448968
0.490718 0.466731 0.450556
0.493244 0.468319 0.452144
0.495770 0.469908 0.453733
0.498296 0.471496 0.455321
0.500822 0.473085 0.456910
0.503348 0.474673 0.458498
0.505874 0.476262 0.460087
0.508400 0.477850 0.461675
0.510926 0.479438 0.463263
0.513452 0.481027 0.464852
0.476155 0.459668 0.442555
0.478681 0.461256 0.444144
0.481207 0.462845 0.445732
0.483733 0.464433 0.447321
0.486259 0.466022 0.448909
0.488785 0.467610 0.450497
0.491311 0.469198 0.452086
0.493837 0.470787 0.453674
0.496363 0.472375 0.455263
0.498889 0.473964 0.456851
0.501415 0.475552 0.458440
0.503941 0.477141 0.460028
0.506467 0.478729 0.461617
0.508993 0.480318 0.463205
0.511518 0.481906 0.464793
0.514044 0.483494 0.466382
0.516570 0.485083 0.467970
0.479274 0.463724 0.445674
0.481800 0.465312 0.447262
0.484326 0.466901 0.448851
0.486852 0.468489 0.450439
0.489377 0.470077 0.452027
0.491903 0.471666 0.453616
0.494429 0.473254 0.455204
0.496955 0.474843 0.456793
0.499481 0.476431 0.458381
0.502007 0.478020 0.459970
0.504533 0.479608 0.461558
0.507059 0.481197 0.463147
0.509585 0.482785 0.464735
0.512111 0.484373 0.466323
0.514637 0.485962 0.467912
0.517163 0.487550 0.469500
0.519689 0.489139 0.471089
0.482392 0.467780 0.448792
0.484918 0.469368 0.450381
0.487444 0.470957 0.451969
0.489970 0.472545 0.453558
0.492496 0.474133 0.455146
0.495022 0.475722 0.456734
0.497548 0.477310 0.458323
0.500074 0.478899 0.459911
0.502600 0.480487 0.461500
0.505126 0.482076 0.463088
0.507652 0.483664 0.464677
0.510178 0.485252 0.466265
0.512703 0.486841 0.467853
0.515229 0.488429 0.469442
0.517755 0.490018 0.471030
0.520281 0.491606 0.472619
0.522807 0.493195 0.474207
0.485511 0.471836 0.451911
0.488037 0.473424 0.453499
0.490563 0.475013 0.455088
0.493088 0.476601 0.456676
0.495614 0.478189 0.458264
0.498140 0.479778 0.459853
0.500666 0.481366 0.461441
0.503192 0.482955 0.463030
0.505718 0.484543 0.464618
0.508244 0.486132 0.466207
0.510770 0.487720 0.467795
0.513296 0.489308 0.469383
0.515822 0.490897 0.470972
0.518348 0.492485 0.472560
0.520874 0.494074 0.474149
0.523400 0.495662 0.475737
0.525926 0.497251 0.477326
0.488629 0.475892 0.455029
0.491155 0.477480 0.456618
0.493681 0.479068 0.458206
0.496207 0.480657 0.459794
0.498733 0.482245 0.461383
0.501259 0.483834 0.462971
0.503785 0.485422 0.464560
0.506311 0.487011 0.466148
0.508837 0.488599 0.467737
0.511363 0.490187 0.469325
0.513888 0.491776 0.470913
0.516414 0.493364 0.472502
0.518940 0.494953 0.474090
0.521466 0.496541 0.475679
0.523992 0.498130 0.477267
0.526518 0.499718 0.478856
0.529044 0.501307 0.480444
0.491748 0.479947 0.458148
0.494273 0.481536 0.459736
0.496799 0.483124 0.461324
0.499325 0.484713 0.462913
0.501851 0.486301 0.464501
0.504377 0.487890 0.466090
0.506903 0.489478 0.467678
0.509429 0.491067 0.469267
0.511955 0.492655 0.470855
0.514481 0.494243 0.472443
0.517007 0.495832 0.474032
0.519533 0.497420 0.475620
0.522059 0.499009 0.477209
0.524585 0.500597 0.478797
0.527111 0.502186 0.480386
0.529637 0.503774 0.481974
0.532162 0.505363 0.483562
0.494866 0.484003 0.461266
0.497392 0.485592 0.462854
0.499918 0.487180 0.464443
0.502444 0.488769 0.466031
0.504970 0.490357 0.467620
0.507496 0.491946 0.469208
0.510022 0.493534 0.470797
0.512548 0.495122 0.472385
0.515073 0.496711 0.473973
0.517599 0.498299 0.475562
0.520125 0.499888 0.477150
0.522651 0.501476 0.478739
0.525177 0.503065 0.480327
0.527703 0.504653 0.481916
0.530229 0.506242 0.483504
0.532755 0.507830 0.485092
0.535281 0.509418 0.486681
0.497984 0.488059 0.464384
0.500510 0.489648 0.465973
0.503036 0.491236 0.467561
0.505562 0.492825 0.469150
0.508088 0.494413 0.470738
0.510614 0.496002 0.472327
0.513140 0.497590 0.473915
0.515666 0.499178 0.475503
0.518192 0.500767 0.477092
0.520718 0.502355 0.478680
0.523244 0.503944 0.480269
0.525770 0.505532 0.481857
0.528296 0.507121 0.483446
0.530822 0.508709 0.485034
0.533347 0.510297 0.486622
0.535873 0.511886 0.488211
0.538399 0.513474 0.489799
0.501103 0.492115 0.467503
0.503629 0.493704 0.469091
0.506155 0.495292 0.470680
0.508681 0.496881 0.472268
0.511207 0.498469 0.473857
0.513733 0.500058 0.475445
0.516258 0.501646 0.477033
0.518784 0.503234 0.478622
0.521310 0.504823 0.480210
0.523836 0.506411 0.481799
0.526362 0.508000 0.483387
0.528888 0.509588 0.484976
0.531414 0.511177 0.486564
0.533940 0.512765 0.488153
0.536466 0.514353 0.489741
0.538992 0.515942 0.491329
0.541518 0.517530 0.492918
0.504221 0.496171 0.470621
0.506747 0.497760 0.472210
0.509273 0.499348 0.473798
0.511799 0.500937 0.475387
0.514325 0.502525 0.476975
0.516851 0.504113 0.478563
0.519377 0.505702 0.480152
0.521903 0.507290 0.481740
0.524429 0.508879 0.483329
0.526955 0.510467 0.484917
0.529481 0.512056 0.486506
0.532007 0.513644 0.488094
0.534532 0.515232 0.489682
0.537058 0.516821 0.491271
0.539584 0.518409 0.492859
0.542110 0.519998 0.494448
0.544636 0.521586 0.496036
0.507340 0.500227 0.473740
0.509866 0.501816 0.475328
0.512392 0.503404 0.476917
0.514918 0.504993 0.478505
0.517443 0.506581 0.480093
0.519969 0.508169 0.481682
0.522495 0.509758 0.483270
0.525021 0.511346 0.484859
0.527547 0.512935 0.486447
0.530073 0.514523 0.488036
0.532599 0.516112 0.489624
0.535125 0.517700 0.491212
0.537651 0.519288 0.492801
0.540177 0.520877 0.494389
0.542703 0.522465 0.495978
0.545229 0.524054 0.497566
0.547755 0.525642 0.499155
0.510458 0.504283 0.476858
0.512984 0.505872 0.478447
0.515510 0.507460 0.480035
0.518036 0.509048 0.481623
0.520562 0.510637 0.483212
0.523088 0.512225 0.484800
0.525614 0.513814 0.486389
0.528140 0.515402 0.487977
0.530666 0.516991 0.489566
0.533192 0.518579 0.491154
0.535717 0.520168 0.492742
0.538243 0.521756 0.494331
0.540769 0.523344 0.495919
0.543295 0.524933 0.497508
0.545821 0.526521 0.499096
0.548347 0.528110 0.500685
0.550873 0.529698 0.502273
0.513577 0.508339 0.479977
0.516102 0.509927 0.481565
0.518628 0.511516 0.483153
0.521154 0.513104 0.484742
0.523680 0.514693 0.486330
0.526206 0.516281 0.487919
0.528732 0.517870 0.489507
0.531258 0.519458 0.491096
0.533784 0.521047 0.492684
0.536310 0.522635 0.494272
0.538836 0.524223 0.495861
0.541362 0.525812 0.497449
0.543888 0.527400 0.499038
0.546414 0.528989 0.500626
0.548940 0.530577 0.502215
0.551466 0.532166 0.503803
0.553992 0.533754 0.505392
0.516695 0.512395 0.483095
0.519221 0.513983 0.484683
0.521747 0.515572 0.486272
0.524273 0.517160 0.487860
0.526799 0.518749 0.489449
0.529325 0.520337 0.491037
0.531851 0.521926 0.492626
0.534377 0.523514 0.494214
0.536903 0.525103 0.495803
0.539428 0.526691 0.497391
0.541954 0.528279 0.498979
0.544480 0.529868 0.500568
0.547006 0.531456 0.502156
0.549532 0.533045 0.503745
0.552058 0.534633 0.505333
0.554584 0.536222 0.506922
0.557110 0.537810 0.508510
0.467406 0.448106 0.434743
0.469932 0.449694 0.436332
0.472458 0.451283 0.437920
0.474983 0.452871 0.439508
0.477509 0.454459 0.441097
0.480035 0.456048 0.442685
0.482561 0.457636 0.444274
0.485087 0.459225 0.445862
0.487613 0.460813 0.447451
0.490139 0.462402 0.449039
0.492665 0.463990 0.450628
0.495191 0.465578 0.452216
0.497717 0.467167 0.453804
0.500243 0.468755 0.455393
0.502769 0.470344 0.456981
0.505295 0.471932 0.458570
0.507821 0.473521 0.460158
0.470524 0.452162 0.437862
0.473050 0.453750 0.439450
0.475576 0.455338 0.441038
0.478102 0.456927 0.442627
0.480628 0.458515 0.444215
0.483154 0.460104 0.445804
0.485680 0.461692 0.447392
0.488206 0.463281 0.448981
0.490732 0.464869 0.450569
0.493257 0.466458 0.452158
0.495783 0.468046 0.453746
0.498309 0.469634 0.455334
0.500835 0.471223 0.456923
0.503361 0.472811 0.458511
0.505887 0.474400 0.460100
0.508413 0.475988 0.461688
0.510939 0.477577 0.463277
0.473643 0.456217 0.440980
0.476168 0.457806 0.442568
0.478694 0.459394 0.444157
0.481220 0.460983 0.445745
0.483746 0.462571 0.447334
0.486272 0.464160 0.448922
0.488798 0.465748 0.450511
0.491324 0.467337 0.452099
0.493850 0.468925 0.453688
0.496376 0.470513 0.455276
0.498902 0.472102 0.456864
0.501428 0.473690 0.458453
0.503954 0.475279 0.460041
0.506480 0.476867 0.461630
0.509006 0.478456 0.463218
0.511532 0.480044 0.464807
0.514058 0.481633 0.466395
0.476761 0.460273 0.444098
0.479287 0.461862 0.445687
0.481813 0.463450 0.447275
0.484339 0.465039 0.448864
0.486865 0.466627 0.450452
0.489391 0.468216 0.452041
0.491917 0.469804 0.453629
0.494443 0.471392 0.455217
0.496968 0.472981 0.456806
0.499494 0.474569 0.458394
0.502020 0.476158 0.459983
0.504546 0.477746 0.461571
0.507072 0.479335 0.463160
0.509598 0.480923 0.464748
0.512124 0.482512 0.466337
0.514650 0.484100 0.467925
0.517176 0.485688 0.469513
0.479879 0.464329 0.447217
0.482405 0.465918 0.448805
0.484931 0.467506 0.450394
0.487457 0.469095 0.451982
0.489983 0.470683 0.453571
0.492509 0.472272 0.455159
0.495035 0.473860 0.456748
0.497561 0.475448 0.458336
0.500087 0.477037 0.459924
0.502613 0.478625 0.461513
0.505139 0.480214 0.463101
0.507665 0.481802 0.464690
0.510191 0.483391 0.466278
0.512717 0.484979 0.467867
0.515243 0.486567 0.469455
0.517768 0.488156 0.471043
0.520294 0.489744 0.472632
0.482998 0.468385 0.450335
0.485524 0.469974 0.451924
0.488050 0.471562 0.453512
0.490576 0.473151 0.455101
0.493102 0.474739 0.456689
0.495627 0.476328 0.458278
0.498153 0.477916 0.459866
0.500679 0.479504 0.461454
0.503205 0.481093 0.463043
0.505731 0.482681 0.464631
0.508257 0.484270 0.466220
0.510783 0.485858 0.467808
0.513309 0.487447 0.469397
0.515835 0.489035 0.470985
0.518361 0.490623 0.472573
0.520887 0.492212 0.474162
0.523413 0.493800 0.475750
0.486116 0.472441 0.453454
0.488642 0.474030 0.455042
0.491168 0.475618 0.456631
0.493694 0.477207 0.458219
0.496220 0.478795 0.459807
0.498746 0.480383 0.461396
0.501272 0.481972 0.462984
0.503798 0.483560 0.464573
0.506324 0.485149 0.466161
0.508850 0.486737 0.467750
0.511376 0.488326 0.469338
0.513902 0.489914 0.470927
0.516428 0.491502 0.472515
0.518953 0.493091 0.474103
0.521479 0.494679 0.475692
0.524005 0.496268 0.477280
0.526531 0.497856 0.478869
0.489235 0.476497 0.456572
0.491761 0.478086 0.458161
0.494287 0.479674 0.459749
0.496812 0.481262 0.461338
0.499338 0.482851 0.462926
0.501864 0.484439 0.464514
0.504390 0.486028 0.466103
0.506916 0.487616 0.467691
0.509442 0.489205 0.469280
0.511968 0.490793 0.470868
0.514494 0.492382 0.472457
0.517020 0.493970 0.474045
0.519546 0.495558 0.475633
0.522072 0.497147 0.477222
0.524598 0.498735 0.478810
0.527124 0.500324 0.480399
0.529650 0.501912 0.481987
0.492353 0.480553 0.459691
0.494879 0.482142 0.461279
0.497405 0.483730 0.462868
0.499931 0.485318 0.464456
0.502457 0.486907 0.466044
0.504983 0.488495 0.467633
0.507509 0.490084 0.469221
0.510035 0.491672 0.470810
0.512561 0.493261 0.472398
0.515087 0.494849 0.473987
0.517613 0.496437 0.475575
0.520138 0.498026 0.477163
0.522664 0.499614 0.478752
0.525190 0.501203 0.480340
0.527716 0.502791 0.481929
0.530242 0.504380 0.483517
0.532768 0.505968 0.485106
0.495472 0.484609 0.462809
0.497997 0.486197 0.464398
0.500523 0.487786 0.465986
0.503049 0.489374 0.467574
0.505575 0.490963 0.469163
0.508101 0.492551 0.470751
0.510627 0.494140 0.472340
0.513153 0.495728 0.473928
0.515679 0.497317 0.475517
0.518205 0.498905 0.477105
0.520731 0.500493 0.478693
0.523257 0.502082 0.480282
0.525783 0.503670 0.481870
0.528309 0.505259 0.483459
0.530835 0.506847 0.485047
0.533361 0.508436 0.486636
0.535887 0.510024 0.488224
0.498590 0.488665 0.465927
0.501116 0.490253 0.467516
0.503642 0.491842 0.469104
0.506168 0.493430 0.470693
0.508694 0.495019 0.472281
0.511220 0.496607 0.473870
0.513746 0.498196 0.475458
0.516272 0.499784 0.477047
0.518798 0.501372 0.478635
0.521323 0.502961 0.480223
0.523849 0.504549 0.481812
0.526375 0.506138 0.483400
0.528901 0.507726 0.484989
0.531427 0.509315 0.486577
0.533953 0.510903 0.488166
0.536479 0.512492 0.489754
0.539005 0.514080 0.491342
0.501708 0.492721 0.469046
0.504234 0.494309 0.470634
0.506760 0.495898 0.472223
0.509286 0.497486 0.473811
0.511812 0.499075 0.475400
0.514338 0.500663 0.476988
0.516864 0.502252 0.478577
0.519390 0.503840 0.480165
0.521916 0.505428 0.481753
0.524442 0.507017 0.483342
0.526968 0.508605 0.484930
0.529494 0.510194 0.486519
0.532020 0.511782 0.488107
0.534546 0.513371 0.489696
0.537072 0.514959 0.491284
0.539598 0.516548 0.492872
0.542123 0.518136 0.494461
0.504827 0.496777 0.472164
0.507353 0.498365 0.473753
0.509879 0.499954 0.475341
0.512405 0.501542 0.476930
0.514931 0.503131 0.478518
0.517457 0.504719 0.480107
0.519983 0.506308 0.481695
0.522508 0.507896 0.483283
0.525034 0.509484 0.484872
0.527560 0.511073 0.486460
0.530086 0.512661 0.488049
0.532612 0.514250 0.489637
0.535138 0.515838 0.491226
0.537664 0.517427 0.492814
0.540190 0.519015 0.494402
0.542716 0.520603 0.495991
0.545242 0.522192 0.497579
0.507945 0.500833 0.475283
0.510471 0.502421 0.476871
0.512997 0.504010 0.478460
0.515523 0.505598 0.480048
0.518049 0.507187 0.481637
0.520575 0.508775 0.483225
0.523101 0.510363 0.484813
0.525627 0.511952 0.486402
0.528153 0.513540 0.487990
0.530679 0.515129 0.489579
0.533205 0.516717 0.491167
0.535731 0.518306 0.492756
0.538257 0.519894 0.494344
0.540782 0.521482 0.495932
0.543308 0.523071 0.497521
0.545834 0.524659 0.499109
0.548360 0.526248 0.500698
0.511064 0.504889 0.478401
0.513590 0.506477 0.479990
0.516116 0.508066 0.481578
0.518642 0.509654 0.483167
0.521168 0.511243 0.484755
0.523693 0.512831 0.486343
0.526219 0.514419 0.487932
0.528745 0.516008 0.489520
0.531271 0.517596 0.491109
0.533797 0.519185 0.492697
0.536323 0.520773 0.494286
0.538849 0.522362 0.495874
0.541375 0.523950 0.497462
0.543901 0.525538 0.499051
0.546427 0.527127 0.500639
0.548953 0.528715 0.502228
0.551479 0.530304 0.503816
0.514182 0.508945 0.481520
0.516708 0.510533 0.483108
0.519234 0.512122 0.484697
0.521760 0.513710 0.486285
0.524286 0.515298 0.487873
0.526812 0.516887 0.489462
0.529338 0.518475 0.491050
0.531864 0.520064 0.492639
0.534390 0.521652 0.494227
0.536916 0.523241 0.495816
0.539442 0.524829 0.497404
0.541968 0.526417 0.498993
0.544493 0.528006 0.500581
0.547019 0.529594 0.502169
0.549545 0.531183 0.503758
0.552071 0.532771 0.505346
0.554597 0.534360 0.506935
0.517301 0.513001 0.484638
0.519827 0.514589 0.486227
0.522352 0.516178 0.487815
0.524878 0.517766 0.489403
0.527404 0.519354 0.490992
0.529930 0.520943 0.492580
0.532456 0.522531 0.494169
0.534982 0.524120 0.495757
0.537508 0.525708 0.497346
0.540034 0.527297 0.498934
0.542560 0.528885 0.500522
0.545086 0.530473 0.502111
0.547612 0.532062 0.503699
0.550138 0.533650 0.505288
0.552664 0.535239 0.506876
0.555190 0.536827 0.508465
0.557716 0.538416 0.510053
0.468011 0.448711 0.436286
0.470537 0.450300 0.437875
0.473063 0.451888 0.439463
0.475589 0.453477 0.441052
0.478115 0.455065 0.442640
0.480641 0.456653 0.444228
0.483167 0.458242 0.445817
0.485693 0.459830 0.447405
0.488219 0.461419 0.448994
0.490745 0.463007 0.450582
0.493271 0.464596 0.452171
0.495797 0.466184 0.453759
0.498323 0.467772 0.455348
0.500848 0.469361 0.456936
0.503374 0.470949 0.458524
0.505900 0.472538 0.460113
0.508426 0.474126 0.461701
0.471130 0.452767 0.439405
0.473656 0.454356 0.440993
0.476182 0.455944 0.442582
0.478708 0.457533 0.444170
0.481233 0.459121 0.445758
0.483759 0.460709 0.447347
0.486285 0.462298 0.448935
0.488811 0.463886 0.450524
0.491337 0.465475 0.452112
0.493863 0.467063 0.453701
0.496389 0.468652 0.455289
0.498915 0.470240 0.456878
0.501441 0.471828 0.458466
0.503967 0.473417 0.460054
0.506493 0.475005 0.461643
0.509019 0.476594 0.463231
0.511545 0.478182 0.464820
0.474248 0.456823 0.442523
0.476774 0.458412 0.444112
0.479300 0.460000 0.445700
0.481826 0.461588 0.447288
0.484352 0.463177 0.448877
0.486878 0.464765 0.450465
0.489404 0.466354 0.452054
0.491930 0.467942 0.453642
0.494456 0.469531 0.455231
0.496982 0.471119 0.456819
0.499507 0.472708 0.458408
0.502033 0.474296 0.459996
0.504559 0.475884 0.461584
0.507085 0.477473 0.463173
0.509611 0.479061 0.464761
0.512137 0.480650 0.466350
0.514663 0.482238 0.467938
0.477367 0.460879 0.445642
0.479892 0.462467 0.447230
0.482418 0.464056 0.448818
0.484944 0.465644 0.450407
0.487470 0.467233 0.451995
0.489996 0.468821 0.453584
0.492522 0.470410 0.455172
0.495048 0.471998 0.456761
0.497574 0.473587 0.458349
0.500100 0.475175 0.459938
0.502626 0.476763 0.461526
0.505152 0.478352 0.463114
0.507678 0.479940 0.464703
0.510204 0.481529 0.466291
0.512730 0.483117 0.467880
0.515256 0.484706 0.469468
0.517782 0.486294 0.471057
0.480485 0.464935 0.448760
0.483011 0.466523 0.450348
0.485537 0.468112 0.451937
0.488063 0.469700 0.453525
0.490589 0.471289 0.455114
0.493115 0.472877 0.456702
0.495641 0.474466 0.458291
0.498167 0.476054 0.459879
0.500692 0.477642 0.461467
0.503218 0.479231 0.463056
0.505744 0.480819 0.464644
0.508270 0.482408 0.466233
0.510796 0.483996 0.467821
0.513322 0.485585 0.469410
0.515848 0.487173 0.470998
0.518374 0.488762 0.472587
0.520900 0.490350 0.474175
0.483603 0.468991 0.451878
0.486129 0.470579 0.453467
0.488655 0.472168 0.455055
0.491181 0.473756 0.456644
0.493707 0.475345 0.458232
0.496233 0.476933 0.459821
0.498759 0.478522 0.461409
0.501285 0.480110 0.462998
0.503811 0.481698 0.464586
0.506337 0.483287 0.466174
0.508863 0.484875 0.467763
0.511389 0.486464 0.469351
0.513915 0.488052 0.470940
0.516441 0.489641 0.472528
0.518967 0.491229 0.474117
0.521493 0.492818 0.475705
0.524018 0.494406 0.477293
0.486722 0.473047 0.454997
0.489248 0.474635 0.456585
0.491774 0.476224 0.458174
0.494300 0.477812 0.459762
0.496826 0.479401 0.461351
0.499352 0.480989 0.462939
0.501877 0.482577 0.464528
0.504403 0.484166 0.466116
0.506929 0.485754 0.467704
0.509455 0.487343 0.469293
0.511981 0.488931 0.470881
0.514507 0.490520 0.472470
0.517033 0.492108 0.474058
0.519559 0.493697 0.475647
0.522085 0.495285 0.477235
0.524611 0.496873 0.478823
0.527137 0.498462 0.480412
0.489840 0.477103 0.458115
0.492366 0.478691 0.459704
0.494892 0.480280 0.461292
0.497418 0.481868 0.462881
0.499944 0.483457 0.464469
0.502470 0.485045 0.466058
0.504996 0.486633 0.467646
0.507522 0.488222 0.469234
0.510048 0.489810 0.470823
0.512574 0.491399 0.472411
0.515100 0.492987 0.474000
0.517626 0.494576 0.475588
0.520152 0.496164 0.477177
0.522678 0.497752 0.478765
0.525203 0.499341 0.480353
0.527729 0.500929 0.481942
0.530255 0.502518 0.483530
0.492959 0.481159 0.461234
0.495485 0.482747 0.462822
0.498011 0.484336 0.464411
0.500537 0.485924 0.465999
0.503062 0.487512 0.467587
0.505588 0.489101 0.469176
0.508114 0.490689 0.470764
0.510640 0.492278 0.472353
0.513166 0.493866 0.473941
0.515692 0.495455 0.475530
0.518218 0.497043 0.477118
0.520744 0.498632 0.478707
0.523270 0.500220 0.480295
0.525796 0.501808 0.481883
0.528322 0.503397 0.483472
0.530848 0.504985 0.485060
0.533374 0.506574 0.486649
0.496077 0.485215 0.464352
0.498603 0.486803 0.465941
0.501129 0.488392 0.467529
0.503655 0.489980 0.469118
0.506181 0.491568 0.470706
0.508707 0.493157 0.472294
0.511233 0.494745 0.473883
0.513759 0.496334 0.475471
0.516285 0.497922 0.477060
0.518811 0.499511 0.478648
0.521337 0.501099 0.480237
0.523863 0.502688 0.481825
0.526388 0.504276 0.483413
0.528914 0.505864 0.485002
0.531440 0.507453 0.486590
0.533966 0.509041 0.488179
0.536492 0.510630 0.489767
0.499196 0.489271 0.467471
0.501722 0.490859 0.469059
0.504248 0.492447 0.470648
0.506773 0.494036 0.472236
0.509299 0.495624 0.473824
0.511825 0.497213 0.475413
0.514351 0.498801 0.477001
0.516877 0.500390 0.478590
0.519403 0.501978 0.480178
0.521929 0.503567 0.481767
0.524455 0.505155 0.483355
0.526981 0.506743 0.484943
0.529507 0.508332 0.486532
0.532033 0.509920 0.488120
0.534559 0.511509 0.489709
0.537085 0.513097 0.491297
0.539611 0.514686 0.492886
0.502314 0.493327 0.470589
0.504840 0.494915 0.472178
0.507366 0.496503 0.473766
0.509892 0.498092 0.475354
0.512418 0.499680 0.476943
0.514944 0.501269 0.478531
0.517470 0.502857 0.480120
0.519996 0.504446 0.481708
0.522522 0.506034 0.483297
0.525048 0.507623 0.484885
0.527573 0.509211 0.486473
0.530099 0.510799 0.488062
0.532625 0.512388 0.489650
0.535151 0.513976 0.491239
0.537677 0.515565 0.492827
0.540203 0.517153 0.494416
0.542729 0.518742 0.496004
0.505433 0.497383 0.473708
0.507958 0.498971 0.475296
0.510484 0.500559 0.476884
0.513010 0.502148 0.478473
0.515536 0.503736 0.480061
0.518062 0.505325 0.481650
0.520588 0.506913 0.483238
0.523114 0.508502 0.484827
0.525640 0.510090 0.486415
0.528166 0.511678 0.488003
0.530692 0.513267 0.489592
0.533218 0.514855 0.491180
0.535744 0.516444 0.492769
0.538270 0.518032 0.494357
0.540796 0.519621 0.495946
0.543322 0.521209 0.497534
0.545848 0.522798 0.499122
0.508551 0.501438 0.476826
0.511077 0.503027 0.478414
0.513603 0.504615 0.480003
0.516129 0.506204 0.481591
0.518655 0.507792 0.483180
0.521181 0.509381 0.484768
0.523707 0.510969 0.486357
0.526232 0.512557 0.487945
0.528758 0.514146 0.489533
0.531284 0.515734 0.491122
0.533810 0.517323 0.492710
0.536336 0.518911 0.494299
0.538862 0.520500 0.495887
0.541388 0.522088 0.497476
0.543914 0.523677 0.499064
0.546440 0.525265 0.500652
0.548966 0.526853 0.502241
0.511669 0.505494 0.479944
0.514195 0.507083 0.481533
0.516721 0.508671 0.483121
0.519247 0.510260 0.484710
0.521773 0.511848 0.486298
0.524299 0.513437 0.487887
0.526825 0.515025 0.489475
0.529351 0.516613 0.491063
0.531877 0.518202 0.492652
0.534403 0.519790 0.494240
0.536929 0.521379 0.495829
0.539455 0.522967 0.497417
0.541981 0.524556 0.499006
0.544507 0.526144 0.500594
0.547032 0.527732 0.502182
0.549558 0.529321 0.503771
0.552084 0.530909 0.505359
0.514788 0.509550 0.483063
0.517314 0.511139 0.484651
0.519840 0.512727 0.486240
0.522366 0.514316 0.487828
0.524892 0.515904 0.489417
0.527417 0.517493 0.491005
0.529943 0.519081 0.492593
0.532469 0.520669 0.494182
0.534995 0.522258 0.495770
0.537521 0.523846 0.497359
0.540047 0.525435 0.498947
0.542573 0.527023 0.500536
0.545099 0.528612 0.502124
0.547625 0.530200 0.503712
0.550151 0.531788 0.505301
0.552677 0.533377 0.506889
0.555203 0.534965 0.508478
0.517906 0.513606 0.486181
0.520432 0.515195 0.487770
0.522958 0.516783 0.489358
0.525484 0.518372 0.490947
0.528010 0.519960 0.492535
0.530536 0.521548 0.494123
0.533062 0.523137 0.495712
0.535588 0.524725 0.497300
0.538114 0.526314 0.498889
0.540640 0.527902 0.500477
0.543166 0.529491 0.502066
0.545692 0.531079 0.503654
0.548218 0.532668 0.505243
0.550743 0.534256 0.506831
0.553269 0.535844 0.508419
0.555795 0.537433 0.510008
0.558321 0.539021 0.511596
0.468617 0.449317 0.437829
0.471143 0.450905 0.439418
0.473669 0.452494 0.441006
0.476195 0.454082 0.442595
0.478721 0.455671 0.444183
0.481247 0.457259 0.445772
0.483772 0.458848 0.447360
0.486298 0.460436 0.448948
0.488824 0.462024 0.450537
0.491350 0.463613 0.452125
0.493876 0.465201 0.453714
0.496402 0.466790 0.455302
0.498928 0.468378 0.456891
0.501454 0.469967 0.458479
0.503980 0.471555 0.460067
0.506506 0.473143 0.461656
0.509032 0.474732 0.463244
0.471735 0.453373 0.440948
