shared/src/main/assets/luts/film_amber_shadow.cube
TITLE "DALUR Amber Shadow"
LUT_3D_SIZE 9
DOMAIN_MIN 0.0 0.0 0.0
DOMAIN_MAX 1.0 1.0 1.0
0.435000 0.419000 0.405000
0.439213 0.425053 0.411053
0.443425 0.431106 0.417106
0.447638 0.437159 0.423159
0.451850 0.443212 0.429212
0.456063 0.449265 0.435265
0.460276 0.455318 0.441318
0.464488 0.461371 0.447371
0.468701 0.467424 0.453424
0.446883 0.429043 0.416883
0.451096 0.435096 0.422936
0.455309 0.441149 0.428989
0.459521 0.447202 0.435042
0.463734 0.453255 0.441095
0.467946 0.459308 0.447148
0.472159 0.465361 0.453201
0.476372 0.471414 0.459254
0.480584 0.477467 0.465307
0.458767 0.439086 0.428767
0.462979 0.445139 0.434820
0.467192 0.451192 0.440873
0.471404 0.457245 0.446926
0.475617 0.463298 0.452979
0.479830 0.469351 0.459032
0.484042 0.475404 0.465085
0.488255 0.481457 0.471138
0.492468 0.487510 0.477191
0.470650 0.449129 0.440650
0.474863 0.455182 0.446703
0.479075 0.461235 0.452756
0.483288 0.467288 0.458809
0.487500 0.473341 0.464862
0.491713 0.479394 0.470915
0.495926 0.485447 0.476968
0.500138 0.491500 0.483021
0.504351 0.497553 0.489074
0.482533 0.459172 0.452533
0.486746 0.465225 0.458586
0.490958 0.471278 0.464639
0.495171 0.477331 0.470692
0.499384 0.483384 0.476745
0.503596 0.489437 0.482798
0.507809 0.495490 0.488851
0.512022 0.501543 0.494904
0.516234 0.507596 0.500957
0.494417 0.469215 0.464417
0.498629 0.475268 0.470470
0.502842 0.481321 0.476523
0.507054 0.487374 0.482575
0.511267 0.493427 0.488628
0.515480 0.499480 0.494681
0.519692 0.505533 0.500734
0.523905 0.511586 0.506787
0.528117 0.517639 0.512840
0.506300 0.479258 0.476300
0.510512 0.485311 0.482353
0.514725 0.491364 0.488406
0.518938 0.497417 0.494459
0.523150 0.503470 0.500512
0.527363 0.509523 0.506565
0.531576 0.515576 0.512618
0.535788 0.521629 0.518671
0.540001 0.527682 0.524724
0.518183 0.489300 0.488183
0.522396 0.495353 0.494236
0.526608 0.501406 0.500289
0.530821 0.507459 0.506342
0.535034 0.513512 0.512395
0.539246 0.519565 0.518448
0.543459 0.525618 0.524501
0.547671 0.531671 0.530554
0.551884 0.537724 0.536607
0.530066 0.499343 0.500066
0.534279 0.505396 0.506119
0.538492 0.511449 0.512172
0.542704 0.517502 0.518225
0.546917 0.523555 0.524278
0.551130 0.529608 0.530331
0.555342 0.535661 0.536384
0.559555 0.541714 0.542437
0.563767 0.547767 0.548490
0.437308 0.421308 0.405467
0.441520 0.427361 0.411520
0.445733 0.433414 0.417573
0.449946 0.439467 0.423626
0.454158 0.445520 0.429679
0.458371 0.451573 0.435732
0.462584 0.457626 0.441785
0.466796 0.463679 0.447838
0.471009 0.469732 0.453891
0.449191 0.431351 0.417351
0.453404 0.437404 0.423404
0.457616 0.443457 0.429457
0.461829 0.449510 0.435510
0.466042 0.455563 0.441563
0.470254 0.461616 0.447616
0.474467 0.467669 0.453669
0.478679 0.473722 0.459722
0.482892 0.479775 0.465775
0.461074 0.441394 0.429234
0.465287 0.447447 0.435287
0.469500 0.453500 0.441340
0.473712 0.459553 0.447393
0.477925 0.465606 0.453446
0.482138 0.471659 0.459499
0.486350 0.477712 0.465552
0.490563 0.483765 0.471605
0.494775 0.489818 0.477658
0.472958 0.451437 0.441117
0.477170 0.457490 0.447170
0.481383 0.463543 0.453223
0.485596 0.469596 0.459276
0.489808 0.475649 0.465329
0.494021 0.481702 0.471382
0.498233 0.487755 0.477435
0.502446 0.493808 0.483488
0.506659 0.499861 0.489541
0.484841 0.461480 0.453001
0.489054 0.467533 0.459054
0.493266 0.473586 0.465107
0.497479 0.479639 0.471160
0.501692 0.485692 0.477213
0.505904 0.491745 0.483266
0.510117 0.497798 0.489319
0.514329 0.503851 0.495372
0.518542 0.509903 0.501425
0.496724 0.471522 0.464884
0.500937 0.477575 0.470937
0.505150 0.483628 0.476990
0.509362 0.489681 0.483043
0.513575 0.495734 0.489096
0.517787 0.501787 0.495149
0.522000 0.507840 0.501202
0.526213 0.513893 0.507255
0.530425 0.519946 0.513308
0.508608 0.481565 0.476767
0.512820 0.487618 0.482820
0.517033 0.493671 0.488873
0.521246 0.499724 0.494926
0.525458 0.505777 0.500979
0.529671 0.511830 0.507032
0.533883 0.517883 0.513085
0.538096 0.523936 0.519138
0.542309 0.529989 0.525191
0.520491 0.491608 0.488651
0.524704 0.497661 0.494704
0.528916 0.503714 0.500757
0.533129 0.509767 0.506810
0.537341 0.515820 0.512863
0.541554 0.521873 0.518916
0.545767 0.527926 0.524969
0.549979 0.533979 0.531022
0.554192 0.540032 0.537075
0.532374 0.501651 0.500534
0.536587 0.507704 0.506587
0.540799 0.513757 0.512640
0.545012 0.519810 0.518693
0.549225 0.525863 0.524746
0.553437 0.531916 0.530799
0.557650 0.537969 0.536852
0.561863 0.544022 0.542905
0.566075 0.550075 0.548958
0.439616 0.423616 0.405935
0.443828 0.429669 0.411988
0.448041 0.435722 0.418041
0.452254 0.441775 0.424094
0.456466 0.447828 0.430147
0.460679 0.453881 0.436200
0.464891 0.459934 0.442253
0.469104 0.465987 0.448306
0.473317 0.472040 0.454359
0.451499 0.433659 0.417818
0.455712 0.439712 0.423871
0.459924 0.445765 0.429924
0.464137 0.451818 0.435977
0.468349 0.457871 0.442030
0.472562 0.463924 0.448083
0.476775 0.469977 0.454136
0.480987 0.476030 0.460189
0.485200 0.482083 0.466242
0.463382 0.443702 0.429702
0.467595 0.449755 0.435755
0.471808 0.455808 0.441808
0.476020 0.461861 0.447861
0.480233 0.467913 0.453913
0.484445 0.473966 0.459966
0.488658 0.480019 0.466019
0.492871 0.486072 0.472072
0.497083 0.492125 0.478125
0.475266 0.453744 0.441585
0.479478 0.459797 0.447638
0.483691 0.465850 0.453691
0.487903 0.471903 0.459744
0.492116 0.477956 0.465797
0.496329 0.484009 0.471850
0.500541 0.490062 0.477903
0.504754 0.496115 0.483956
0.508967 0.502168 0.490009
0.487149 0.463787 0.453468
0.491361 0.469840 0.459521
0.495574 0.475893 0.465574
0.499787 0.481946 0.471627
0.503999 0.487999 0.477680
0.508212 0.494052 0.483733
0.512425 0.500105 0.489786
0.516637 0.506158 0.495839
0.520850 0.512211 0.501892
0.499032 0.473830 0.465351
0.503245 0.479883 0.471404
0.507457 0.485936 0.477457
0.511670 0.491989 0.483510
0.515883 0.498042 0.489563
0.520095 0.504095 0.495616
0.524308 0.510148 0.501669
0.528521 0.516201 0.507722
0.532733 0.522254 0.513775
0.510915 0.483873 0.477235
0.515128 0.489926 0.483288
0.519341 0.495979 0.489341
0.523553 0.502032 0.495394
0.527766 0.508085 0.501447
0.531979 0.514138 0.507500
0.536191 0.520191 0.513553
0.540404 0.526244 0.519606
0.544616 0.532297 0.525659
0.522799 0.493916 0.489118
0.527011 0.499969 0.495171
0.531224 0.506022 0.501224
0.535437 0.512075 0.507277
0.539649 0.518128 0.513330
0.543862 0.524181 0.519383
0.548074 0.530234 0.525436
0.552287 0.536287 0.531489
0.556500 0.542340 0.537542
0.534682 0.503959 0.501001
0.538895 0.510012 0.507054
0.543107 0.516065 0.513107
0.547320 0.522118 0.519160
0.551533 0.528171 0.525213
0.555745 0.534224 0.531266
0.559958 0.540277 0.537319
0.564170 0.546330 0.543372
0.568383 0.552383 0.549425
0.441923 0.425923 0.406402
0.446136 0.431976 0.412455
0.450349 0.438029 0.418508
0.454561 0.444082 0.424561
0.458774 0.450135 0.430614
0.462987 0.456188 0.436667
0.467199 0.462241 0.442720
0.471412 0.468294 0.448773
0.475624 0.474347 0.454826
0.453807 0.435966 0.418286
0.458019 0.442019 0.424339
0.462232 0.448072 0.430392
0.466445 0.454125 0.436445
0.470657 0.460178 0.442498
0.474870 0.466231 0.448551
0.479083 0.472284 0.454604
0.483295 0.478337 0.460657
0.487508 0.484390 0.466710
0.465690 0.446009 0.430169
0.469903 0.452062 0.436222
0.474115 0.458115 0.442275
0.478328 0.464168 0.448328
0.482541 0.470221 0.454381
0.486753 0.476274 0.460434
0.490966 0.482327 0.466487
0.495178 0.488380 0.472540
0.499391 0.494433 0.478593
0.477573 0.456052 0.442052
0.481786 0.462105 0.448105
0.485999 0.468158 0.454158
0.490211 0.474211 0.460211
0.494424 0.480264 0.466264
0.498636 0.486317 0.472317
0.502849 0.492370 0.478370
0.507062 0.498423 0.484423
0.511274 0.504476 0.490476
0.489457 0.466095 0.453936
0.493669 0.472148 0.459989
0.497882 0.478201 0.466042
0.502095 0.484254 0.472095
0.506307 0.490307 0.478148
0.510520 0.496360 0.484201
0.514732 0.502413 0.490254
0.518945 0.508466 0.496307
0.523158 0.514519 0.502360
0.501340 0.476138 0.465819
0.505553 0.482191 0.471872
0.509765 0.488244 0.477925
0.513978 0.494297 0.483978
0.518190 0.500350 0.490031
0.522403 0.506403 0.496084
0.526616 0.512456 0.502137
0.530828 0.518509 0.508190
0.535041 0.524562 0.514243
0.513223 0.486181 0.477702
0.517436 0.492234 0.483755
0.521649 0.498287 0.489808
0.525861 0.504340 0.495861
0.530074 0.510393 0.501914
0.534286 0.516446 0.507967
0.538499 0.522499 0.514020
0.542712 0.528552 0.520073
0.546924 0.534605 0.526126
0.525107 0.496224 0.489585
0.529319 0.502277 0.495638
0.533532 0.508330 0.501691
0.537744 0.514383 0.507744
0.541957 0.520436 0.513797
0.546170 0.526489 0.519850
0.550382 0.532542 0.525903
0.554595 0.538595 0.531956
0.558808 0.544648 0.538009
0.536990 0.506267 0.501469
0.541203 0.512320 0.507522
0.545415 0.518373 0.513575
0.549628 0.524426 0.519628
0.553840 0.530479 0.525681
0.558053 0.536532 0.531734
0.562266 0.542585 0.537787
0.566478 0.548638 0.543840
0.570691 0.554691 0.549893
0.444231 0.428231 0.406870
0.448444 0.434284 0.412923
0.452657 0.440337 0.418976
0.456869 0.446390 0.425029
0.461082 0.452443 0.431082
0.465294 0.458496 0.437135
0.469507 0.464549 0.443188
0.473720 0.470602 0.449241
0.477932 0.476655 0.455294
0.456115 0.438274 0.418753
0.460327 0.444327 0.424806
0.464540 0.450380 0.430859
0.468752 0.456433 0.436912
0.472965 0.462486 0.442965
0.477178 0.468539 0.449018
0.481390 0.474592 0.455071
0.485603 0.480645 0.461124
0.489816 0.486698 0.467177
0.467998 0.448317 0.430636
0.472211 0.454370 0.436689
0.476423 0.460423 0.442742
0.480636 0.466476 0.448795
0.484848 0.472529 0.454848
0.489061 0.478582 0.460901
0.493274 0.484635 0.466954
0.497486 0.490688 0.473007
0.501699 0.496741 0.479060
0.479881 0.458360 0.442520
0.484094 0.464413 0.448573
0.488306 0.470466 0.454626
0.492519 0.476519 0.460679
0.496732 0.482572 0.466732
0.500944 0.488625 0.472785
0.505157 0.494678 0.478838
0.509370 0.500731 0.484891
0.513582 0.506784 0.490944
0.491765 0.468403 0.454403
0.495977 0.474456 0.460456
0.500190 0.480509 0.466509
0.504402 0.486562 0.472562
0.508615 0.492615 0.478615
0.512828 0.498668 0.484668
0.517040 0.504721 0.490721
0.521253 0.510774 0.496774
0.525465 0.516827 0.502827
0.503648 0.478446 0.466286
0.507860 0.484499 0.472339
0.512073 0.490552 0.478392
0.516286 0.496605 0.484445
0.520498 0.502658 0.490498
0.524711 0.508711 0.496551
0.528924 0.514764 0.502604
0.533136 0.520817 0.508657
0.537349 0.526870 0.514710
0.515531 0.488489 0.478170
0.519744 0.494542 0.484223
0.523956 0.500595 0.490276
0.528169 0.506648 0.496329
0.532382 0.512701 0.502382
0.536594 0.518754 0.508435
0.540807 0.524807 0.514488
0.545019 0.530860 0.520541
0.549232 0.536913 0.526594
0.527414 0.498532 0.490053
0.531627 0.504585 0.496106
0.535840 0.510638 0.502159
0.540052 0.516691 0.508212
0.544265 0.522744 0.514265
0.548478 0.528797 0.520318
0.552690 0.534850 0.526371
0.556903 0.540903 0.532424
0.561115 0.546956 0.538477
0.539298 0.508575 0.501936
0.543510 0.514628 0.507989
0.547723 0.520681 0.514042
0.551936 0.526734 0.520095
0.556148 0.532787 0.526148
0.560361 0.538840 0.532201
0.564573 0.544893 0.538254
0.568786 0.550946 0.544307
0.572999 0.556999 0.550360
0.446539 0.430539 0.407337
0.450752 0.436592 0.413390
0.454964 0.442645 0.419443
0.459177 0.448698 0.425496
0.463390 0.454751 0.431549
0.467602 0.460804 0.437602
0.471815 0.466857 0.443655
0.476027 0.472910 0.449708
0.480240 0.478963 0.455761
0.458422 0.440582 0.419221
0.462635 0.446635 0.425274
0.466848 0.452688 0.431327
0.471060 0.458741 0.437380
0.475273 0.464794 0.443433
0.479486 0.470847 0.449486
0.483698 0.476900 0.455539
0.487911 0.482953 0.461592
0.492123 0.489006 0.467645
0.470306 0.450625 0.431104
0.474518 0.456678 0.437157
0.478731 0.462731 0.443210
0.482944 0.468784 0.449263
0.487156 0.474837 0.455316
0.491369 0.480890 0.461369
0.495581 0.486943 0.467422
0.499794 0.492996 0.473475
0.504007 0.499049 0.479528
0.482189 0.460668 0.442987
0.486402 0.466721 0.449040
0.490614 0.472774 0.455093
0.494827 0.478827 0.461146
0.499040 0.484880 0.467199
0.503252 0.490933 0.473252
0.507465 0.496986 0.479305
0.511677 0.503039 0.485358
0.515890 0.509092 0.491411
0.494072 0.470711 0.454870
0.498285 0.476764 0.460923
0.502498 0.482817 0.466976
0.506710 0.488870 0.473029
0.510923 0.494923 0.479082
0.515135 0.500976 0.485135
0.519348 0.507029 0.491188
0.523561 0.513082 0.497241
0.527773 0.519135 0.503294
0.505956 0.480754 0.466754
0.510168 0.486807 0.472807
0.514381 0.492860 0.478860
0.518594 0.498913 0.484913
0.522806 0.504966 0.490966
0.527019 0.511019 0.497019
0.531231 0.517072 0.503072
0.535444 0.523125 0.509125
0.539657 0.529178 0.515178
0.517839 0.490797 0.478637
0.522052 0.496850 0.484690
0.526264 0.502903 0.490743
0.530477 0.508956 0.496796
0.534689 0.515009 0.502849
0.538902 0.521062 0.508902
0.543115 0.527115 0.514955
0.547327 0.533168 0.521008
0.551540 0.539221 0.527061
0.529722 0.500840 0.490520
0.533935 0.506893 0.496573
0.538148 0.512946 0.502626
0.542360 0.518999 0.508679
0.546573 0.525052 0.514732
0.550785 0.531105 0.520785
0.554998 0.537158 0.526838
0.559211 0.543211 0.532891
0.563423 0.549264 0.538944
0.541606 0.510883 0.502404
0.545818 0.516936 0.508457
0.550031 0.522989 0.514510
0.554243 0.529042 0.520563
0.558456 0.535095 0.526616
0.562669 0.541148 0.532669
0.566881 0.547201 0.538722
0.571094 0.553254 0.544775
0.575307 0.559307 0.550828
0.448847 0.432847 0.407805
0.453060 0.438900 0.413858
0.457272 0.444953 0.419911
0.461485 0.451006 0.425964
0.465697 0.457059 0.432017
0.469910 0.463112 0.438070
0.474123 0.469165 0.444123
0.478335 0.475218 0.450176
0.482548 0.481271 0.456229
0.460730 0.442890 0.419688
0.464943 0.448943 0.425741
0.469156 0.454996 0.431794
0.473368 0.461049 0.437847
0.477581 0.467102 0.443900
0.481793 0.473155 0.449953
0.486006 0.479208 0.456006
0.490219 0.485261 0.462059
0.494431 0.491314 0.468112
0.472614 0.452933 0.431571
0.476826 0.458986 0.437624
0.481039 0.465039 0.443677
0.485251 0.471092 0.449730
0.489464 0.477145 0.455783
0.493677 0.483198 0.461836
0.497889 0.489251 0.467889
0.502102 0.495304 0.473942
0.506315 0.501357 0.479995
0.484497 0.462976 0.443455
0.488710 0.469029 0.449508
0.492922 0.475082 0.455561
0.497135 0.481135 0.461614
0.501347 0.487188 0.467667
0.505560 0.493241 0.473720
0.509773 0.499294 0.479773
0.513985 0.505347 0.485826
0.518198 0.511400 0.491879
0.496380 0.473019 0.455338
0.500593 0.479072 0.461391
0.504805 0.485125 0.467444
0.509018 0.491178 0.473497
0.513231 0.497231 0.479550
0.517443 0.503284 0.485603
0.521656 0.509337 0.491656
0.525869 0.515390 0.497709
0.530081 0.521443 0.503762
0.508264 0.483062 0.467221
0.512476 0.489115 0.473274
0.516689 0.495168 0.479327
0.520901 0.501221 0.485380
0.525114 0.507274 0.491433
0.529327 0.513327 0.497486
0.533539 0.519380 0.503539
0.537752 0.525433 0.509592
0.541964 0.531486 0.515645
0.520147 0.493105 0.479105
0.524359 0.499158 0.485158
0.528572 0.505211 0.491211
0.532785 0.511264 0.497264
0.536997 0.517317 0.503317
0.541210 0.523370 0.509370
0.545423 0.529423 0.515423
0.549635 0.535476 0.521476
0.553848 0.541529 0.527529
0.532030 0.503147 0.490988
0.536243 0.509200 0.497041
0.540455 0.515253 0.503094
0.544668 0.521306 0.509147
0.548881 0.527359 0.515200
0.553093 0.533412 0.521253
0.557306 0.539465 0.527306
0.561518 0.545518 0.533359
0.565731 0.551571 0.539412
0.543913 0.513190 0.502871
0.548126 0.519243 0.508924
0.552339 0.525296 0.514977
0.556551 0.531349 0.521030
0.560764 0.537402 0.527083
0.564977 0.543455 0.533136
0.569189 0.549508 0.539189
0.573402 0.555561 0.545242
0.577614 0.561614 0.551295
0.451155 0.435155 0.408272
0.455367 0.441208 0.414325
0.459580 0.447261 0.420378
0.463793 0.453314 0.426431
0.468005 0.459367 0.432484
0.472218 0.465420 0.438537
0.476431 0.471473 0.444590
0.480643 0.477526 0.450643
0.484856 0.483579 0.456696
0.463038 0.445198 0.420155
0.467251 0.451251 0.426208
0.471463 0.457304 0.432261
0.475676 0.463357 0.438314
0.479889 0.469410 0.444367
0.484101 0.475463 0.450420
0.488314 0.481516 0.456473
0.492526 0.487569 0.462526
0.496739 0.493622 0.468579
0.474921 0.455241 0.432039
0.479134 0.461294 0.438092
0.483347 0.467347 0.444145
0.487559 0.473400 0.450198
0.491772 0.479453 0.456251
0.495985 0.485506 0.462304
0.500197 0.491559 0.468357
0.504410 0.497612 0.474410
0.508622 0.503665 0.480463
0.486805 0.465284 0.443922
0.491017 0.471337 0.449975
0.495230 0.477390 0.456028
0.499443 0.483443 0.462081
0.503655 0.489496 0.468134
0.507868 0.495549 0.474187
0.512080 0.501602 0.480240
0.516293 0.507655 0.486293
0.520506 0.513708 0.492346
0.498688 0.475327 0.455805
0.502901 0.481380 0.461858
0.507113 0.487433 0.467911
0.511326 0.493486 0.473964
0.515539 0.499539 0.480017
0.519751 0.505591 0.486070
0.523964 0.511644 0.492123
0.528176 0.517697 0.498176
0.532389 0.523750 0.504229
0.510571 0.485369 0.467689
0.514784 0.491422 0.473742
0.518997 0.497475 0.479795
0.523209 0.503528 0.485848
0.527422 0.509581 0.491901
0.531634 0.515634 0.497954
0.535847 0.521687 0.504007
0.540060 0.527740 0.510060
0.544272 0.533793 0.516113
0.522455 0.495412 0.479572
0.526667 0.501465 0.485625
0.530880 0.507518 0.491678
0.535092 0.513571 0.497731
0.539305 0.519624 0.503784
0.543518 0.525677 0.509837
0.547730 0.531730 0.515890
0.551943 0.537783 0.521943
0.556156 0.543836 0.527996
0.534338 0.505455 0.491455
0.538551 0.511508 0.497508
0.542763 0.517561 0.503561
0.546976 0.523614 0.509614
0.551188 0.529667 0.515667
0.555401 0.535720 0.521720
0.559614 0.541773 0.527773
0.563826 0.547826 0.533826
0.568039 0.553879 0.539879
0.546221 0.515498 0.503339
0.550434 0.521551 0.509392
0.554646 0.527604 0.515445
0.558859 0.533657 0.521498
0.563072 0.539710 0.527551
0.567284 0.545763 0.533604
0.571497 0.551816 0.539657
0.575710 0.557869 0.545710
0.579922 0.563922 0.551763
0.453463 0.437463 0.408740
0.457675 0.443516 0.414793
0.461888 0.449569 0.420846
0.466101 0.455622 0.426899
0.470313 0.461675 0.432952
0.474526 0.467728 0.439005
0.478738 0.473781 0.445058
0.482951 0.479834 0.451111
0.487164 0.485887 0.457164
0.465346 0.447506 0.420623
0.469559 0.453559 0.426676
0.473771 0.459612 0.432729
0.477984 0.465665 0.438782
0.482196 0.471718 0.444835
0.486409 0.477771 0.450888
0.490622 0.483824 0.456941
0.494834 0.489877 0.462994
0.499047 0.495930 0.469047
0.477229 0.457549 0.432506
0.481442 0.463601 0.438559
0.485654 0.469654 0.444612
0.489867 0.475707 0.450665
0.494080 0.481760 0.456718
0.498292 0.487813 0.462771
0.502505 0.493866 0.468824
0.506718 0.499919 0.474877
0.510930 0.505972 0.480930
0.489113 0.467591 0.444390
0.493325 0.473644 0.450443
0.497538 0.479697 0.456496
0.501750 0.485750 0.462549
0.505963 0.491803 0.468602
0.510176 0.497856 0.474655
0.514388 0.503909 0.480708
0.518601 0.509962 0.486761
0.522814 0.516015 0.492814
0.500996 0.477634 0.456273
0.505208 0.483687 0.462326
0.509421 0.489740 0.468379
0.513634 0.495793 0.474432
0.517846 0.501846 0.480485
0.522059 0.507899 0.486538
0.526272 0.513952 0.492591
0.530484 0.520005 0.498644
0.534697 0.526058 0.504697
0.512879 0.487677 0.468156
0.517092 0.493730 0.474209
0.521304 0.499783 0.480262
0.525517 0.505836 0.486315
0.529730 0.511889 0.492368
0.533942 0.517942 0.498421
0.538155 0.523995 0.504474
0.542367 0.530048 0.510527
0.546580 0.536101 0.516580
0.524762 0.497720 0.480039
0.528975 0.503773 0.486092
0.533188 0.509826 0.492145
0.537400 0.515879 0.498198
0.541613 0.521932 0.504251
0.545826 0.527985 0.510304
0.550038 0.534038 0.516357
0.554251 0.540091 0.522410
0.558463 0.546144 0.528463
0.536646 0.507763 0.491923
0.540858 0.513816 0.497976
0.545071 0.519869 0.504029
0.549284 0.525922 0.510082
0.553496 0.531975 0.516135
0.557709 0.538028 0.522188
0.561921 0.544081 0.528241
0.566134 0.550134 0.534294
0.570347 0.556187 0.540347
0.548529 0.517806 0.503806
0.552742 0.523859 0.509859
0.556954 0.529912 0.515912
0.561167 0.535965 0.521965
0.565380 0.542018 0.528018
0.569592 0.548071 0.534071
0.573805 0.554124 0.540124
0.578017 0.560177 0.546177
0.582230 0.566230 0.552230
