shared/src/main/assets/luts/film_desert_chrome.cube
TITLE "DALUR Desert Chrome"
LUT_3D_SIZE 17
DOMAIN_MIN 0.0 0.0 0.0
DOMAIN_MAX 1.0 1.0 1.0
0.438000 0.420000 0.402000
0.442547 0.422476 0.404476
0.447094 0.424953 0.406953
0.451641 0.427429 0.409429
0.456188 0.429905 0.411905
0.460734 0.432382 0.414382
0.465281 0.434858 0.416858
0.469828 0.437334 0.419334
0.474375 0.439811 0.421811
0.478922 0.442287 0.424287
0.483469 0.444764 0.426764
0.488016 0.447240 0.429240
0.492563 0.449716 0.431716
0.497109 0.452193 0.434193
0.501656 0.454669 0.436669
0.506203 0.457145 0.439145
0.510750 0.459622 0.441622
0.442862 0.426932 0.406862
0.447408 0.429408 0.409338
0.451955 0.431885 0.411814
0.456502 0.434361 0.414291
0.461049 0.436838 0.416767
0.465596 0.439314 0.419243
0.470143 0.441790 0.421720
0.474690 0.444267 0.424196
0.479237 0.446743 0.426672
0.483784 0.449219 0.429149
0.488330 0.451696 0.431625
0.492877 0.454172 0.434101
0.497424 0.456648 0.436578
0.501971 0.459125 0.439054
0.506518 0.461601 0.441531
0.511065 0.464077 0.444007
0.515612 0.466554 0.446483
0.447723 0.433864 0.411723
0.452270 0.436341 0.414200
0.456817 0.438817 0.416676
0.461364 0.441293 0.419152
0.465911 0.443770 0.421629
0.470458 0.446246 0.424105
0.475005 0.448722 0.426581
0.479551 0.451199 0.429058
0.484098 0.453675 0.431534
0.488645 0.456151 0.434010
0.493192 0.458628 0.436487
0.497739 0.461104 0.438963
0.502286 0.463581 0.441439
0.506833 0.466057 0.443916
0.511380 0.468533 0.446392
0.515926 0.471010 0.448869
0.520473 0.473486 0.451345
0.452585 0.440796 0.416585
0.457132 0.443273 0.419061
0.461679 0.445749 0.421538
0.466225 0.448225 0.424014
0.470772 0.450702 0.426490
0.475319 0.453178 0.428967
0.479866 0.455655 0.431443
0.484413 0.458131 0.433919
0.488960 0.460607 0.436396
0.493507 0.463084 0.438872
0.498054 0.465560 0.441348
0.502601 0.468036 0.443825
0.507147 0.470513 0.446301
0.511694 0.472989 0.448777
0.516241 0.475465 0.451254
0.520788 0.477942 0.453730
0.525335 0.480418 0.456206
0.457446 0.447729 0.421446
0.461993 0.450205 0.423923
0.466540 0.452681 0.426399
0.471087 0.455158 0.428875
0.475634 0.457634 0.431352
0.480181 0.460110 0.433828
0.484728 0.462587 0.436305
0.489275 0.465063 0.438781
0.493821 0.467539 0.441257
0.498368 0.470016 0.443734
0.502915 0.472492 0.446210
0.507462 0.474968 0.448686
0.512009 0.477445 0.451163
0.516556 0.479921 0.453639
0.521103 0.482397 0.456115
0.525650 0.484874 0.458592
0.530197 0.487350 0.461068
0.462308 0.454661 0.426308
0.466855 0.457137 0.428784
0.471402 0.459613 0.431261
0.475949 0.462090 0.433737
0.480496 0.464566 0.436213
0.485042 0.467042 0.438690
0.489589 0.469519 0.441166
0.494136 0.471995 0.443642
0.498683 0.474471 0.446119
0.503230 0.476948 0.448595
0.507777 0.479424 0.451072
0.512324 0.481901 0.453548
0.516871 0.484377 0.456024
0.521418 0.486853 0.458501
0.525964 0.489330 0.460977
0.530511 0.491806 0.463453
0.535058 0.494282 0.465930
0.467170 0.461593 0.431170
0.471717 0.464069 0.433646
0.476263 0.466546 0.436122
0.480810 0.469022 0.438599
0.485357 0.471498 0.441075
0.489904 0.473975 0.443551
0.494451 0.476451 0.446028
0.498998 0.478927 0.448504
0.503545 0.481404 0.450980
0.508092 0.483880 0.453457
0.512638 0.486356 0.455933
0.517185 0.488833 0.458410
0.521732 0.491309 0.460886
0.526279 0.493785 0.463362
0.530826 0.496262 0.465839
0.535373 0.498738 0.468315
0.539920 0.501214 0.470791
0.472031 0.468525 0.436031
0.476578 0.471001 0.438508
0.481125 0.473478 0.440984
0.485672 0.475954 0.443460
0.490219 0.478430 0.445937
0.494766 0.480907 0.448413
0.499313 0.483383 0.450889
0.503859 0.485859 0.453366
0.508406 0.488336 0.455842
0.512953 0.490812 0.458318
0.517500 0.493288 0.460795
0.522047 0.495765 0.463271
0.526594 0.498241 0.465747
0.531141 0.500718 0.468224
0.535688 0.503194 0.470700
0.540234 0.505670 0.473177
0.544781 0.508147 0.475653
0.476893 0.475457 0.440893
0.481440 0.477933 0.443369
0.485987 0.480410 0.445846
0.490533 0.482886 0.448322
0.495080 0.485362 0.450798
0.499627 0.487839 0.453275
0.504174 0.490315 0.455751
0.508721 0.492792 0.458227
0.513268 0.495268 0.460704
0.517815 0.497744 0.463180
0.522362 0.500221 0.465656
0.526909 0.502697 0.468133
0.531455 0.505173 0.470609
0.536002 0.507650 0.473085
0.540549 0.510126 0.475562
0.545096 0.512602 0.478038
0.549643 0.515079 0.480514
0.481754 0.482389 0.445754
0.486301 0.484866 0.448231
0.490848 0.487342 0.450707
0.495395 0.489818 0.453183
0.499942 0.492295 0.455660
0.504489 0.494771 0.458136
0.509036 0.497247 0.460613
0.513583 0.499724 0.463089
0.518130 0.502200 0.465565
0.522676 0.504676 0.468042
0.527223 0.507153 0.470518
0.531770 0.509629 0.472994
0.536317 0.512105 0.475471
0.540864 0.514582 0.477947
0.545411 0.517058 0.480423
0.549958 0.519535 0.482900
0.554505 0.522011 0.485376
0.486616 0.489321 0.450616
0.491163 0.491798 0.453092
0.495710 0.494274 0.455569
0.500257 0.496750 0.458045
0.504804 0.499227 0.460521
0.509350 0.501703 0.462998
0.513897 0.504179 0.465474
0.518444 0.506656 0.467951
0.522991 0.509132 0.470427
0.527538 0.511609 0.472903
0.532085 0.514085 0.475380
0.536632 0.516561 0.477856
0.541179 0.519038 0.480332
0.545726 0.521514 0.482809
0.550272 0.523990 0.485285
0.554819 0.526467 0.487761
0.559366 0.528943 0.490238
0.491478 0.496253 0.455478
0.496025 0.498730 0.457954
0.500571 0.501206 0.460430
0.505118 0.503683 0.462907
0.509665 0.506159 0.465383
0.514212 0.508635 0.467859
0.518759 0.511112 0.470336
0.523306 0.513588 0.472812
0.527853 0.516064 0.475288
0.532400 0.518541 0.477765
0.536946 0.521017 0.480241
0.541493 0.523493 0.482718
0.546040 0.525970 0.485194
0.550587 0.528446 0.487670
0.555134 0.530922 0.490147
0.559681 0.533399 0.492623
0.564228 0.535875 0.495099
0.496339 0.503186 0.460339
0.500886 0.505662 0.462816
0.505433 0.508138 0.465292
0.509980 0.510615 0.467768
0.514527 0.513091 0.470245
0.519074 0.515567 0.472721
0.523621 0.518044 0.475197
0.528167 0.520520 0.477674
0.532714 0.522996 0.480150
0.537261 0.525473 0.482626
0.541808 0.527949 0.485103
0.546355 0.530425 0.487579
0.550902 0.532902 0.490055
0.555449 0.535378 0.492532
0.559996 0.537855 0.495008
0.564543 0.540331 0.497485
0.569089 0.542807 0.499961
0.501201 0.510118 0.465201
0.505748 0.512594 0.467677
0.510295 0.515070 0.470154
0.514842 0.517547 0.472630
0.519388 0.520023 0.475106
0.523935 0.522500 0.477583
0.528482 0.524976 0.480059
0.533029 0.527452 0.482535
0.537576 0.529929 0.485012
0.542123 0.532405 0.487488
0.546670 0.534881 0.489964
0.551217 0.537358 0.492441
0.555763 0.539834 0.494917
0.560310 0.542310 0.497393
0.564857 0.544787 0.499870
0.569404 0.547263 0.502346
0.573951 0.549739 0.504823
0.506062 0.517050 0.470062
0.510609 0.519526 0.472539
0.515156 0.522003 0.475015
0.519703 0.524479 0.477492
0.524250 0.526955 0.479968
0.528797 0.529432 0.482444
0.533344 0.531908 0.484921
0.537891 0.534384 0.487397
0.542438 0.536861 0.489873
0.546984 0.539337 0.492350
0.551531 0.541813 0.494826
0.556078 0.544290 0.497302
0.560625 0.546766 0.499779
0.565172 0.549242 0.502255
0.569719 0.551719 0.504731
0.574266 0.554195 0.507208
0.578813 0.556672 0.509684
0.510924 0.523982 0.474924
0.515471 0.526458 0.477400
0.520018 0.528935 0.479877
0.524565 0.531411 0.482353
0.529112 0.533887 0.484829
0.533658 0.536364 0.487306
0.538205 0.538840 0.489782
0.542752 0.541316 0.492259
0.547299 0.543793 0.494735
0.551846 0.546269 0.497211
0.556393 0.548746 0.499688
0.560940 0.551222 0.502164
0.565487 0.553698 0.504640
0.570034 0.556175 0.507117
0.574580 0.558651 0.509593
0.579127 0.561127 0.512069
0.583674 0.563604 0.514546
0.515786 0.530914 0.479786
0.520333 0.533390 0.482262
0.524879 0.535867 0.484738
0.529426 0.538343 0.487215
0.533973 0.540820 0.489691
0.538520 0.543296 0.492167
0.543067 0.545772 0.494644
0.547614 0.548249 0.497120
0.552161 0.550725 0.499596
0.556708 0.553201 0.502073
0.561255 0.555678 0.504549
0.565801 0.558154 0.507026
0.570348 0.560630 0.509502
0.574895 0.563107 0.511978
0.579442 0.565583 0.514455
0.583989 0.568059 0.516931
0.588536 0.570536 0.519407
0.438944 0.420944 0.405015
0.443491 0.423421 0.407491
0.448038 0.425897 0.409967
0.452585 0.428373 0.412444
0.457132 0.430850 0.414920
0.461679 0.433326 0.417396
0.466225 0.435802 0.419873
0.470772 0.438279 0.422349
0.475319 0.440755 0.424826
0.479866 0.443231 0.427302
0.484413 0.445708 0.429778
0.488960 0.448184 0.432255
0.493507 0.450660 0.434731
0.498054 0.453137 0.437207
0.502601 0.455613 0.439684
0.507147 0.458089 0.442160
0.511694 0.460566 0.444636
0.443806 0.427876 0.409876
0.448353 0.430353 0.412353
0.452900 0.432829 0.414829
0.457446 0.435305 0.417305
0.461993 0.437782 0.419782
0.466540 0.440258 0.422258
0.471087 0.442734 0.424734
0.475634 0.445211 0.427211
0.480181 0.447687 0.429687
0.484728 0.450163 0.432163
0.489275 0.452640 0.434640
0.493821 0.455116 0.437116
0.498368 0.457593 0.439593
0.502915 0.460069 0.442069
0.507462 0.462545 0.444545
0.512009 0.465022 0.447022
0.516556 0.467498 0.449498
0.448667 0.434808 0.414738
0.453214 0.437285 0.417214
0.457761 0.439761 0.419691
0.462308 0.442237 0.422167
0.466855 0.444714 0.424643
0.471402 0.447190 0.427120
0.475949 0.449667 0.429596
0.480496 0.452143 0.432072
0.485042 0.454619 0.434549
0.489589 0.457096 0.437025
0.494136 0.459572 0.439501
0.498683 0.462048 0.441978
0.503230 0.464525 0.444454
0.507777 0.467001 0.446930
0.512324 0.469477 0.449407
0.516871 0.471954 0.451883
0.521418 0.474430 0.454360
0.453529 0.441741 0.419600
0.458076 0.444217 0.422076
0.462623 0.446693 0.424552
0.467170 0.449170 0.427029
0.471717 0.451646 0.429505
0.476263 0.454122 0.431981
0.480810 0.456599 0.434458
0.485357 0.459075 0.436934
0.489904 0.461551 0.439410
0.494451 0.464028 0.441887
0.498998 0.466504 0.444363
0.503545 0.468980 0.446839
0.508092 0.471457 0.449316
0.512638 0.473933 0.451792
0.517185 0.476410 0.454268
0.521732 0.478886 0.456745
0.526279 0.481362 0.459221
0.458391 0.448673 0.424461
0.462937 0.451149 0.426937
0.467484 0.453625 0.429414
0.472031 0.456102 0.431890
0.476578 0.458578 0.434367
0.481125 0.461054 0.436843
0.485672 0.463531 0.439319
0.490219 0.466007 0.441796
0.494766 0.468484 0.444272
0.499313 0.470960 0.446748
0.503859 0.473436 0.449225
0.508406 0.475913 0.451701
0.512953 0.478389 0.454177
0.517500 0.480865 0.456654
0.522047 0.483342 0.459130
0.526594 0.485818 0.461606
0.531141 0.488294 0.464083
0.463252 0.455605 0.429323
0.467799 0.458081 0.431799
0.472346 0.460558 0.434275
0.476893 0.463034 0.436752
0.481440 0.465510 0.439228
0.485987 0.467987 0.441704
0.490533 0.470463 0.444181
0.495080 0.472939 0.446657
0.499627 0.475416 0.449134
0.504174 0.477892 0.451610
0.508721 0.480368 0.454086
0.513268 0.482845 0.456563
0.517815 0.485321 0.459039
0.522362 0.487797 0.461515
0.526909 0.490274 0.463992
0.531455 0.492750 0.466468
0.536002 0.495226 0.468944
0.468114 0.462537 0.434184
0.472661 0.465013 0.436661
0.477208 0.467490 0.439137
0.481754 0.469966 0.441613
0.486301 0.472442 0.444090
0.490848 0.474919 0.446566
0.495395 0.477395 0.449042
0.499942 0.479871 0.451519
0.504489 0.482348 0.453995
0.509036 0.484824 0.456471
0.513583 0.487301 0.458948
0.518130 0.489777 0.461424
0.522676 0.492253 0.463901
0.527223 0.494730 0.466377
0.531770 0.497206 0.468853
0.536317 0.499682 0.471330
0.540864 0.502159 0.473806
0.472975 0.469469 0.439046
0.477522 0.471945 0.441522
0.482069 0.474422 0.443999
0.486616 0.476898 0.446475
0.491163 0.479375 0.448951
0.495710 0.481851 0.451428
0.500257 0.484327 0.453904
0.504804 0.486804 0.456380
0.509350 0.489280 0.458857
0.513897 0.491756 0.461333
0.518444 0.494233 0.463809
0.522991 0.496709 0.466286
0.527538 0.499185 0.468762
0.532085 0.501662 0.471239
0.536632 0.504138 0.473715
0.541179 0.506614 0.476191
0.545726 0.509091 0.478668
0.477837 0.476401 0.443908
0.482384 0.478878 0.446384
0.486931 0.481354 0.448860
0.491478 0.483830 0.451337
0.496025 0.486307 0.453813
0.500571 0.488783 0.456289
0.505118 0.491259 0.458766
0.509665 0.493736 0.461242
0.514212 0.496212 0.463718
0.518759 0.498688 0.466195
0.523306 0.501165 0.468671
0.527853 0.503641 0.471147
0.532400 0.506117 0.473624
0.536946 0.508594 0.476100
0.541493 0.511070 0.478576
0.546040 0.513547 0.481053
0.550587 0.516023 0.483529
0.482699 0.483333 0.448769
0.487245 0.485810 0.451245
0.491792 0.488286 0.453722
0.496339 0.490762 0.456198
0.500886 0.493239 0.458675
0.505433 0.495715 0.461151
0.509980 0.498191 0.463627
0.514527 0.500668 0.466104
0.519074 0.503144 0.468580
0.523621 0.505621 0.471056
0.528167 0.508097 0.473533
0.532714 0.510573 0.476009
0.537261 0.513050 0.478485
0.541808 0.515526 0.480962
0.546355 0.518002 0.483438
0.550902 0.520479 0.485914
0.555449 0.522955 0.488391
0.487560 0.490266 0.453631
0.492107 0.492742 0.456107
0.496654 0.495218 0.458583
0.501201 0.497695 0.461060
0.505748 0.500171 0.463536
0.510295 0.502647 0.466013
0.514842 0.505124 0.468489
0.519388 0.507600 0.470965
0.523935 0.510076 0.473442
0.528482 0.512553 0.475918
0.533029 0.515029 0.478394
0.537576 0.517505 0.480871
0.542123 0.519982 0.483347
0.546670 0.522458 0.485823
0.551217 0.524934 0.488300
0.555763 0.527411 0.490776
0.560310 0.529887 0.493252
0.492422 0.497198 0.458492
0.496969 0.499674 0.460969
0.501516 0.502150 0.463445
0.506062 0.504627 0.465921
0.510609 0.507103 0.468398
0.515156 0.509579 0.470874
0.519703 0.512056 0.473350
0.524250 0.514532 0.475827
0.528797 0.517008 0.478303
0.533344 0.519485 0.480780
0.537891 0.521961 0.483256
0.542438 0.524438 0.485732
0.546984 0.526914 0.488209
0.551531 0.529390 0.490685
0.556078 0.531867 0.493161
0.560625 0.534343 0.495638
0.565172 0.536819 0.498114
0.497283 0.504130 0.463354
0.501830 0.506606 0.465830
0.506377 0.509082 0.468307
0.510924 0.511559 0.470783
0.515471 0.514035 0.473259
0.520018 0.516512 0.475736
0.524565 0.518988 0.478212
0.529112 0.521464 0.480688
0.533658 0.523941 0.483165
0.538205 0.526417 0.485641
0.542752 0.528893 0.488117
0.547299 0.531370 0.490594
0.551846 0.533846 0.493070
0.556393 0.536322 0.495547
0.560940 0.538799 0.498023
0.565487 0.541275 0.500499
0.570034 0.543751 0.502976
0.502145 0.511062 0.468216
0.506692 0.513538 0.470692
0.511239 0.516015 0.473168
0.515786 0.518491 0.475645
0.520333 0.520967 0.478121
0.524879 0.523444 0.480597
0.529426 0.525920 0.483074
0.533973 0.528396 0.485550
0.538520 0.530873 0.488026
0.543067 0.533349 0.490503
0.547614 0.535825 0.492979
0.552161 0.538302 0.495455
0.556708 0.540778 0.497932
0.561255 0.543255 0.500408
0.565801 0.545731 0.502884
0.570348 0.548207 0.505361
0.574895 0.550684 0.507837
0.507007 0.517994 0.473077
0.511554 0.520470 0.475554
0.516100 0.522947 0.478030
0.520647 0.525423 0.480506
0.525194 0.527899 0.482983
0.529741 0.530376 0.485459
0.534288 0.532852 0.487935
0.538835 0.535329 0.490412
0.543382 0.537805 0.492888
0.547929 0.540281 0.495364
0.552475 0.542758 0.497841
0.557022 0.545234 0.500317
0.561569 0.547710 0.502793
0.566116 0.550187 0.505270
0.570663 0.552663 0.507746
0.575210 0.555139 0.510222
0.579757 0.557616 0.512699
0.511868 0.524926 0.477939
0.516415 0.527403 0.480415
0.520962 0.529879 0.482891
0.525509 0.532355 0.485368
0.530056 0.534832 0.487844
0.534603 0.537308 0.490321
0.539150 0.539784 0.492797
0.543696 0.542261 0.495273
0.548243 0.544737 0.497750
0.552790 0.547213 0.500226
0.557337 0.549690 0.502702
0.561884 0.552166 0.505179
0.566431 0.554642 0.507655
0.570978 0.557119 0.510131
0.575525 0.559595 0.512608
0.580071 0.562071 0.515084
0.584618 0.564548 0.517560
0.516730 0.531858 0.482800
0.521277 0.534335 0.485277
0.525824 0.536811 0.487753
0.530370 0.539287 0.490229
0.534917 0.541764 0.492706
0.539464 0.544240 0.495182
0.544011 0.546716 0.497658
0.548558 0.549193 0.500135
0.553105 0.551669 0.502611
0.557652 0.554145 0.505088
0.562199 0.556622 0.507564
0.566746 0.559098 0.510040
0.571292 0.561575 0.512517
0.575839 0.564051 0.514993
0.580386 0.566527 0.517469
0.584933 0.569004 0.519946
0.589480 0.571480 0.522422
0.439888 0.421888 0.408029
0.444435 0.424365 0.410506
0.448982 0.426841 0.412982
0.453529 0.429317 0.415458
0.458076 0.431794 0.417935
0.462623 0.434270 0.420411
0.467170 0.436746 0.422888
0.471717 0.439223 0.425364
0.476263 0.441699 0.427840
0.480810 0.444176 0.430317
0.485357 0.446652 0.432793
0.489904 0.449128 0.435269
0.494451 0.451605 0.437746
0.498998 0.454081 0.440222
0.503545 0.456557 0.442698
0.508092 0.459034 0.445175
0.512638 0.461510 0.447651
0.444750 0.428820 0.412891
0.449297 0.431297 0.415367
0.453844 0.433773 0.417844
0.458391 0.436250 0.420320
0.462937 0.438726 0.422796
0.467484 0.441202 0.425273
0.472031 0.443679 0.427749
0.476578 0.446155 0.430225
0.481125 0.448631 0.432702
0.485672 0.451108 0.435178
0.490219 0.453584 0.437655
0.494766 0.456060 0.440131
0.499313 0.458537 0.442607
0.503859 0.461013 0.445084
0.508406 0.463489 0.447560
0.512953 0.465966 0.450036
0.517500 0.468442 0.452513
0.449612 0.435753 0.417753
0.454158 0.438229 0.420229
0.458705 0.440705 0.422705
0.463252 0.443182 0.425182
0.467799 0.445658 0.427658
0.472346 0.448134 0.430134
0.476893 0.450611 0.432611
0.481440 0.453087 0.435087
0.485987 0.455563 0.437563
0.490533 0.458040 0.440040
0.495080 0.460516 0.442516
0.499627 0.462992 0.444992
0.504174 0.465469 0.447469
0.508721 0.467945 0.449945
0.513268 0.470422 0.452422
0.517815 0.472898 0.454898
0.522362 0.475374 0.457374
0.454473 0.442685 0.422614
0.459020 0.445161 0.425091
0.463567 0.447637 0.427567
0.468114 0.450114 0.430043
0.472661 0.452590 0.432520
0.477208 0.455066 0.434996
0.481754 0.457543 0.437472
0.486301 0.460019 0.439949
0.490848 0.462496 0.442425
0.495395 0.464972 0.444901
0.499942 0.467448 0.447378
0.504489 0.469925 0.449854
0.509036 0.472401 0.452330
0.513583 0.474877 0.454807
0.518130 0.477354 0.457283
0.522676 0.479830 0.459760
0.527223 0.482306 0.462236
0.459335 0.449617 0.427476
0.463882 0.452093 0.429952
0.468429 0.454570 0.432429
0.472975 0.457046 0.434905
0.477522 0.459522 0.437381
0.482069 0.461999 0.439858
0.486616 0.464475 0.442334
0.491163 0.466951 0.444810
0.495710 0.469428 0.447287
0.500257 0.471904 0.449763
0.504804 0.474380 0.452239
0.509350 0.476857 0.454716
0.513897 0.479333 0.457192
0.518444 0.481809 0.459668
0.522991 0.484286 0.462145
0.527538 0.486762 0.464621
0.532085 0.489239 0.467097
0.464196 0.456549 0.432337
0.468743 0.459025 0.434814
0.473290 0.461502 0.437290
0.477837 0.463978 0.439766
0.482384 0.466454 0.442243
0.486931 0.468931 0.444719
0.491478 0.471407 0.447196
0.496025 0.473883 0.449672
0.500571 0.476360 0.452148
0.505118 0.478836 0.454625
0.509665 0.481313 0.457101
0.514212 0.483789 0.459577
0.518759 0.486265 0.462054
0.523306 0.488742 0.464530
0.527853 0.491218 0.467006
0.532400 0.493694 0.469483
0.536946 0.496171 0.471959
0.469058 0.463481 0.437199
0.473605 0.465957 0.439675
0.478152 0.468434 0.442152
0.482699 0.470910 0.444628
0.487245 0.473387 0.447104
0.491792 0.475863 0.449581
0.496339 0.478339 0.452057
0.500886 0.480816 0.454533
0.505433 0.483292 0.457010
0.509980 0.485768 0.459486
0.514527 0.488245 0.461963
0.519074 0.490721 0.464439
0.523621 0.493197 0.466915
0.528167 0.495674 0.469392
0.532714 0.498150 0.471868
0.537261 0.500626 0.474344
0.541808 0.503103 0.476821
0.473920 0.470413 0.442061
0.478466 0.472890 0.444537
0.483013 0.475366 0.447013
0.487560 0.477842 0.449490
0.492107 0.480319 0.451966
0.496654 0.482795 0.454442
0.501201 0.485271 0.456919
0.505748 0.487748 0.459395
0.510295 0.490224 0.461871
0.514842 0.492700 0.464348
0.519388 0.495177 0.466824
0.523935 0.497653 0.469301
0.528482 0.500130 0.471777
0.533029 0.502606 0.474253
0.537576 0.505082 0.476730
0.542123 0.507559 0.479206
0.546670 0.510035 0.481682
0.478781 0.477345 0.446922
0.483328 0.479822 0.449399
0.487875 0.482298 0.451875
0.492422 0.484774 0.454351
0.496969 0.487251 0.456828
0.501516 0.489727 0.459304
0.506062 0.492204 0.461780
0.510609 0.494680 0.464257
0.515156 0.497156 0.466733
0.519703 0.499633 0.469209
0.524250 0.502109 0.471686
0.528797 0.504585 0.474162
0.533344 0.507062 0.476638
0.537891 0.509538 0.479115
0.542438 0.512014 0.481591
0.546984 0.514491 0.484068
0.551531 0.516967 0.486544
0.483643 0.484278 0.451784
0.488190 0.486754 0.454260
0.492737 0.489230 0.456737
0.497283 0.491707 0.459213
0.501830 0.494183 0.461689
0.506377 0.496659 0.464166
0.510924 0.499136 0.466642
0.515471 0.501612 0.469118
0.520018 0.504088 0.471595
0.524565 0.506565 0.474071
0.529112 0.509041 0.476547
0.533658 0.511517 0.479024
0.538205 0.513994 0.481500
0.542752 0.516470 0.483976
0.547299 0.518946 0.486453
0.551846 0.521423 0.488929
0.556393 0.523899 0.491405
0.488504 0.491210 0.456645
0.493051 0.493686 0.459122
0.497598 0.496162 0.461598
0.502145 0.498639 0.464074
0.506692 0.501115 0.466551
0.511239 0.503591 0.469027
0.515786 0.506068 0.471504
0.520333 0.508544 0.473980
0.524879 0.511020 0.476456
0.529426 0.513497 0.478933
0.533973 0.515973 0.481409
0.538520 0.518450 0.483885
0.543067 0.520926 0.486362
0.547614 0.523402 0.488838
0.552161 0.525879 0.491314
0.556708 0.528355 0.493791
0.561255 0.530831 0.496267
0.493366 0.498142 0.461507
0.497913 0.500618 0.463983
0.502460 0.503095 0.466460
0.507007 0.505571 0.468936
0.511554 0.508047 0.471412
0.516100 0.510524 0.473889
0.520647 0.513000 0.476365
0.525194 0.515476 0.478842
0.529741 0.517953 0.481318
0.534288 0.520429 0.483794
0.538835 0.522905 0.486271
0.543382 0.525382 0.488747
0.547929 0.527858 0.491223
0.552475 0.530334 0.493700
0.557022 0.532811 0.496176
0.561569 0.535287 0.498652
0.566116 0.537763 0.501129
0.498228 0.505074 0.466369
0.502774 0.507550 0.468845
0.507321 0.510027 0.471321
0.511868 0.512503 0.473798
0.516415 0.514979 0.476274
0.520962 0.517456 0.478750
0.525509 0.519932 0.481227
0.530056 0.522408 0.483703
0.534603 0.524885 0.486179
0.539150 0.527361 0.488656
0.543696 0.529837 0.491132
0.548243 0.532314 0.493609
0.552790 0.534790 0.496085
0.557337 0.537267 0.498561
0.561884 0.539743 0.501038
0.566431 0.542219 0.503514
0.570978 0.544696 0.505990
0.503089 0.512006 0.471230
0.507636 0.514482 0.473707
0.512183 0.516959 0.476183
0.516730 0.519435 0.478659
0.521277 0.521911 0.481136
0.525824 0.524388 0.483612
0.530370 0.526864 0.486088
0.534917 0.529341 0.488565
0.539464 0.531817 0.491041
0.544011 0.534293 0.493517
0.548558 0.536770 0.495994
0.553105 0.539246 0.498470
0.557652 0.541722 0.500946
0.562199 0.544199 0.503423
0.566746 0.546675 0.505899
0.571292 0.549151 0.508376
0.575839 0.551628 0.510852
0.507951 0.518938 0.476092
0.512498 0.521415 0.478568
0.517045 0.523891 0.481045
0.521591 0.526367 0.483521
0.526138 0.528844 0.485997
0.530685 0.531320 0.488474
0.535232 0.533796 0.490950
0.539779 0.536273 0.493426
0.544326 0.538749 0.495903
0.548873 0.541225 0.498379
0.553420 0.543702 0.500855
0.557966 0.546178 0.503332
0.562513 0.548654 0.505808
0.567060 0.551131 0.508284
0.571607 0.553607 0.510761
0.576154 0.556084 0.513237
0.580701 0.558560 0.515713
0.512812 0.525870 0.480953
0.517359 0.528347 0.483430
0.521906 0.530823 0.485906
0.526453 0.533299 0.488383
0.531000 0.535776 0.490859
0.535547 0.538252 0.493335
0.540094 0.540728 0.495812
0.544641 0.543205 0.498288
0.549187 0.545681 0.500764
0.553734 0.548158 0.503241
0.558281 0.550634 0.505717
0.562828 0.553110 0.508193
0.567375 0.555587 0.510670
0.571922 0.558063 0.513146
0.576469 0.560539 0.515622
0.581016 0.563016 0.518099
0.585563 0.565492 0.520575
0.517674 0.532802 0.485815
0.522221 0.535279 0.488291
0.526768 0.537755 0.490768
0.531315 0.540232 0.493244
0.535862 0.542708 0.495720
0.540408 0.545184 0.498197
0.544955 0.547661 0.500673
0.549502 0.550137 0.503150
0.554049 0.552613 0.505626
0.558596 0.555090 0.508102
0.563143 0.557566 0.510579
0.567690 0.560042 0.513055
0.572237 0.562519 0.515531
0.576783 0.564995 0.518008
0.581330 0.567471 0.520484
0.585877 0.569948 0.522960
0.590424 0.572424 0.525437
0.440832 0.422832 0.411044
0.445379 0.425309 0.413520
0.449926 0.427785 0.415997
0.454473 0.430262 0.418473
0.459020 0.432738 0.420949
0.463567 0.435214 0.423426
0.468114 0.437691 0.425902
0.472661 0.440167 0.428379
0.477208 0.442643 0.430855
0.481754 0.445120 0.433331
0.486301 0.447596 0.435808
0.490848 0.450072 0.438284
0.495395 0.452549 0.440760
0.499942 0.455025 0.443237
0.504489 0.457501 0.445713
0.509036 0.459978 0.448189
0.513583 0.462454 0.450666
0.445694 0.429765 0.415906
