shared/src/main/assets/luts/mv_acid_green.cube
TITLE "DALUR Acid Green"
LUT_3D_SIZE 17
DOMAIN_MIN 0.0 0.0 0.0
DOMAIN_MAX 1.0 1.0 1.0
0.428800 0.435000 0.431200
0.433870 0.436570 0.432770
0.438939 0.438139 0.434339
0.444009 0.439709 0.435909
0.449079 0.441279 0.437479
0.454149 0.442849 0.439049
0.459218 0.444418 0.440618
0.464288 0.445988 0.442188
0.469358 0.447558 0.443758
0.474428 0.449128 0.445328
0.479497 0.450697 0.446897
0.484567 0.452267 0.448467
0.489637 0.453837 0.450037
0.494707 0.455407 0.451607
0.499776 0.456977 0.453176
0.504846 0.458546 0.454746
0.509916 0.460116 0.456316
0.431882 0.441582 0.434282
0.436951 0.443151 0.435851
0.442021 0.444721 0.437421
0.447091 0.446291 0.438991
0.452161 0.447861 0.440561
0.457231 0.449431 0.442130
0.462300 0.451000 0.443700
0.467370 0.452570 0.445270
0.472440 0.454140 0.446840
0.477510 0.455709 0.448409
0.482579 0.457279 0.449979
0.487649 0.458849 0.451549
0.492719 0.460419 0.453119
0.497789 0.461988 0.454688
0.502858 0.463558 0.456258
0.507928 0.465128 0.457828
0.512998 0.466698 0.459398
0.434964 0.448163 0.437363
0.440033 0.449733 0.438933
0.445103 0.451303 0.440503
0.450173 0.452873 0.442073
0.455242 0.454442 0.443642
0.460312 0.456012 0.445212
0.465382 0.457582 0.446782
0.470452 0.459152 0.448352
0.475522 0.460722 0.449921
0.480591 0.462291 0.451491
0.485661 0.463861 0.453061
0.490731 0.465431 0.454631
0.495801 0.467000 0.456200
0.500870 0.468570 0.457770
0.505940 0.470140 0.459340
0.511010 0.471710 0.460910
0.516080 0.473280 0.462479
0.438045 0.454745 0.440445
0.443115 0.456315 0.442015
0.448185 0.457885 0.443585
0.453255 0.459454 0.445154
0.458324 0.461024 0.446724
0.463394 0.462594 0.448294
0.468464 0.464164 0.449864
0.473533 0.465733 0.451433
0.478603 0.467303 0.453003
0.483673 0.468873 0.454573
0.488743 0.470443 0.456143
0.493812 0.472013 0.457712
0.498882 0.473582 0.459282
0.503952 0.475152 0.460852
0.509022 0.476722 0.462422
0.514092 0.478291 0.463991
0.519161 0.479861 0.465561
0.441127 0.461327 0.443527
0.446197 0.462897 0.445097
0.451267 0.464466 0.446666
0.456336 0.466036 0.448236
0.461406 0.467606 0.449806
0.466476 0.469176 0.451376
0.471546 0.470745 0.452945
0.476615 0.472315 0.454515
0.481685 0.473885 0.456085
0.486755 0.475455 0.457655
0.491824 0.477024 0.459224
0.496894 0.478594 0.460794
0.501964 0.480164 0.462364
0.507034 0.481734 0.463934
0.512103 0.483303 0.465503
0.517173 0.484873 0.467073
0.522243 0.486443 0.468643
0.444209 0.467909 0.446609
0.449278 0.469478 0.448178
0.454348 0.471048 0.449748
0.459418 0.472618 0.451318
0.464488 0.474188 0.452888
0.469558 0.475757 0.454458
0.474627 0.477327 0.456027
0.479697 0.478897 0.457597
0.484767 0.480467 0.459167
0.489837 0.482037 0.460736
0.494906 0.483606 0.462306
0.499976 0.485176 0.463876
0.505046 0.486746 0.465446
0.510116 0.488316 0.467015
0.515185 0.489885 0.468585
0.520255 0.491455 0.470155
0.525325 0.493025 0.471725
0.447290 0.474490 0.449690
0.452360 0.476060 0.451260
0.457430 0.477630 0.452830
0.462500 0.479200 0.454400
0.467570 0.480770 0.455969
0.472639 0.482339 0.457539
0.477709 0.483909 0.459109
0.482779 0.485479 0.460679
0.487848 0.487048 0.462248
0.492918 0.488618 0.463818
0.497988 0.490188 0.465388
0.503058 0.491758 0.466958
0.508128 0.493327 0.468527
0.513197 0.494897 0.470097
0.518267 0.496467 0.471667
0.523337 0.498037 0.473237
0.528407 0.499606 0.474806
0.450372 0.481072 0.452772
0.455442 0.482642 0.454342
0.460512 0.484212 0.455912
0.465581 0.485781 0.457481
0.470651 0.487351 0.459051
0.475721 0.488921 0.460621
0.480791 0.490491 0.462191
0.485861 0.492061 0.463760
0.490930 0.493630 0.465330
0.496000 0.495200 0.466900
0.501070 0.496770 0.468470
0.506139 0.498339 0.470039
0.511209 0.499909 0.471609
0.516279 0.501479 0.473179
0.521349 0.503049 0.474749
0.526419 0.504618 0.476318
0.531488 0.506188 0.477888
0.453454 0.487654 0.455854
0.458524 0.489224 0.457424
0.463593 0.490793 0.458993
0.468663 0.492363 0.460563
0.473733 0.493933 0.462133
0.478803 0.495503 0.463703
0.483872 0.497072 0.465272
0.488942 0.498642 0.466842
0.494012 0.500212 0.468412
0.499082 0.501782 0.469982
0.504151 0.503351 0.471551
0.509221 0.504921 0.473121
0.514291 0.506491 0.474691
0.519361 0.508061 0.476261
0.524431 0.509630 0.477830
0.529500 0.511200 0.479400
0.534570 0.512770 0.480970
0.456536 0.494236 0.458936
0.461606 0.495806 0.460505
0.466675 0.497375 0.462075
0.471745 0.498945 0.463645
0.476815 0.500515 0.465215
0.481885 0.502085 0.466784
0.486954 0.503654 0.468354
0.492024 0.505224 0.469924
0.497094 0.506794 0.471494
0.502164 0.508364 0.473063
0.507233 0.509933 0.474633
0.512303 0.511503 0.476203
0.517373 0.513073 0.477773
0.522442 0.514643 0.479342
0.527512 0.516212 0.480912
0.532582 0.517782 0.482482
0.537652 0.519352 0.484052
0.459618 0.500817 0.462017
0.464687 0.502387 0.463587
0.469757 0.503957 0.465157
0.474827 0.505527 0.466727
0.479896 0.507096 0.468296
0.484966 0.508666 0.469866
0.490036 0.510236 0.471436
0.495106 0.511806 0.473006
0.500175 0.513375 0.474575
0.505245 0.514945 0.476145
0.510315 0.516515 0.477715
0.515385 0.518085 0.479285
0.520454 0.519654 0.480854
0.525524 0.521224 0.482424
0.530594 0.522794 0.483994
0.535664 0.524364 0.485564
0.540733 0.525933 0.487133
0.462699 0.507399 0.465099
0.467769 0.508969 0.466669
0.472839 0.510539 0.468239
0.477908 0.512108 0.469808
0.482978 0.513678 0.471378
0.488048 0.515248 0.472948
0.493118 0.516818 0.474518
0.498187 0.518387 0.476087
0.503257 0.519957 0.477657
0.508327 0.521527 0.479227
0.513397 0.523097 0.480797
0.518466 0.524666 0.482366
0.523536 0.526236 0.483936
0.528606 0.527806 0.485506
0.533676 0.529376 0.487076
0.538745 0.530945 0.488645
0.543815 0.532515 0.490215
0.465781 0.513981 0.468181
0.470851 0.515551 0.469751
0.475921 0.517120 0.471320
0.480990 0.518690 0.472890
0.486060 0.520260 0.474460
0.491130 0.521830 0.476030
0.496200 0.523400 0.477599
0.501269 0.524969 0.479169
0.506339 0.526539 0.480739
0.511409 0.528109 0.482309
0.516479 0.529679 0.483878
0.521548 0.531248 0.485448
0.526618 0.532818 0.487018
0.531688 0.534388 0.488588
0.536757 0.535957 0.490157
0.541827 0.537527 0.491727
0.546897 0.539097 0.493297
0.468863 0.520563 0.471263
0.473932 0.522132 0.472832
0.479002 0.523702 0.474402
0.484072 0.525272 0.475972
0.489142 0.526842 0.477542
0.494211 0.528411 0.479111
0.499281 0.529981 0.480681
0.504351 0.531551 0.482251
0.509421 0.533121 0.483821
0.514491 0.534690 0.485390
0.519560 0.536260 0.486960
0.524630 0.537830 0.488530
0.529700 0.539400 0.490100
0.534770 0.540969 0.491669
0.539839 0.542539 0.493239
0.544909 0.544109 0.494809
0.549979 0.545679 0.496379
0.471944 0.527145 0.474344
0.477014 0.528714 0.475914
0.482084 0.530284 0.477484
0.487154 0.531854 0.479054
0.492223 0.533423 0.480623
0.497293 0.534993 0.482193
0.502363 0.536563 0.483763
0.507433 0.538133 0.485333
0.512502 0.539702 0.486902
0.517572 0.541272 0.488472
0.522642 0.542842 0.490042
0.527712 0.544412 0.491612
0.532782 0.545981 0.493181
0.537851 0.547551 0.494751
0.542921 0.549121 0.496321
0.547991 0.550691 0.497891
0.553061 0.552260 0.499460
0.475026 0.533726 0.477426
0.480096 0.535296 0.478996
0.485166 0.536866 0.480566
0.490235 0.538435 0.482135
0.495305 0.540005 0.483705
0.500375 0.541575 0.485275
0.505445 0.543145 0.486845
0.510514 0.544714 0.488414
0.515584 0.546284 0.489984
0.520654 0.547854 0.491554
0.525724 0.549424 0.493124
0.530794 0.550994 0.494693
0.535863 0.552563 0.496263
0.540933 0.554133 0.497833
0.546003 0.555703 0.499403
0.551072 0.557272 0.500972
0.556142 0.558842 0.502542
0.478108 0.540308 0.480508
0.483178 0.541878 0.482078
0.488248 0.543447 0.483647
0.493317 0.545017 0.485217
0.498387 0.546587 0.486787
0.503457 0.548157 0.488357
0.508526 0.549727 0.489926
0.513596 0.551296 0.491496
0.518666 0.552866 0.493066
0.523736 0.554436 0.494636
0.528805 0.556006 0.496205
0.533875 0.557575 0.497775
0.538945 0.559145 0.499345
0.544015 0.560715 0.500915
0.549084 0.562285 0.502485
0.554154 0.563854 0.504054
0.559224 0.565424 0.505624
0.429399 0.435598 0.435298
0.434468 0.437168 0.436868
0.439538 0.438738 0.438438
0.444608 0.440308 0.440008
0.449677 0.441877 0.441577
0.454747 0.443447 0.443147
0.459817 0.445017 0.444717
0.464887 0.446587 0.446287
0.469956 0.448157 0.447856
0.475026 0.449726 0.449426
0.480096 0.451296 0.450996
0.485166 0.452866 0.452566
0.490235 0.454435 0.454135
0.495305 0.456005 0.455705
0.500375 0.457575 0.457275
0.505445 0.459145 0.458845
0.510515 0.460714 0.460414
0.432480 0.442180 0.438380
0.437550 0.443750 0.439950
0.442620 0.445320 0.441520
0.447689 0.446889 0.443089
0.452759 0.448459 0.444659
0.457829 0.450029 0.446229
0.462899 0.451599 0.447799
0.467969 0.453168 0.449368
0.473038 0.454738 0.450938
0.478108 0.456308 0.452508
0.483178 0.457878 0.454078
0.488248 0.459447 0.455647
0.493317 0.461017 0.457217
0.498387 0.462587 0.458787
0.503457 0.464157 0.460357
0.508526 0.465726 0.461926
0.513596 0.467296 0.463496
0.435562 0.448762 0.441462
0.440632 0.450332 0.443032
0.445702 0.451902 0.444601
0.450771 0.453471 0.446171
0.455841 0.455041 0.447741
0.460911 0.456611 0.449311
0.465981 0.458180 0.450880
0.471050 0.459750 0.452450
0.476120 0.461320 0.454020
0.481190 0.462890 0.455590
0.486260 0.464459 0.457159
0.491329 0.466029 0.458729
0.496399 0.467599 0.460299
0.501469 0.469169 0.461869
0.506539 0.470739 0.463438
0.511608 0.472308 0.465008
0.516678 0.473878 0.466578
0.438644 0.455344 0.444544
0.443713 0.456913 0.446113
0.448783 0.458483 0.447683
0.453853 0.460053 0.449253
0.458923 0.461623 0.450823
0.463993 0.463193 0.452392
0.469062 0.464762 0.453962
0.474132 0.466332 0.455532
0.479202 0.467902 0.457102
0.484272 0.469471 0.458671
0.489341 0.471041 0.460241
0.494411 0.472611 0.461811
0.499481 0.474181 0.463381
0.504551 0.475751 0.464950
0.509620 0.477320 0.466520
0.514690 0.478890 0.468090
0.519760 0.480460 0.469660
0.441725 0.461925 0.447625
0.446795 0.463495 0.449195
0.451865 0.465065 0.450765
0.456935 0.466635 0.452335
0.462004 0.468204 0.453904
0.467074 0.469774 0.455474
0.472144 0.471344 0.457044
0.477214 0.472914 0.458614
0.482283 0.474483 0.460183
0.487353 0.476053 0.461753
0.492423 0.477623 0.463323
0.497493 0.479193 0.464893
0.502563 0.480762 0.466462
0.507632 0.482332 0.468032
0.512702 0.483902 0.469602
0.517772 0.485472 0.471172
0.522841 0.487041 0.472741
0.444807 0.468507 0.450707
0.449877 0.470077 0.452277
0.454947 0.471647 0.453847
0.460016 0.473216 0.455416
0.465086 0.474786 0.456986
0.470156 0.476356 0.458556
0.475226 0.477926 0.460126
0.480296 0.479496 0.461695
0.485365 0.481065 0.463265
0.490435 0.482635 0.464835
0.495505 0.484205 0.466405
0.500575 0.485774 0.467974
0.505644 0.487344 0.469544
0.510714 0.488914 0.471114
0.515784 0.490484 0.472684
0.520853 0.492053 0.474253
0.525923 0.493623 0.475823
0.447889 0.475089 0.453789
0.452959 0.476659 0.455359
0.458029 0.478228 0.456928
0.463098 0.479798 0.458498
0.468168 0.481368 0.460068
0.473238 0.482938 0.461638
0.478307 0.484507 0.463207
0.483377 0.486077 0.464777
0.488447 0.487647 0.466347
0.493517 0.489217 0.467917
0.498586 0.490786 0.469486
0.503656 0.492356 0.471056
0.508726 0.493926 0.472626
0.513796 0.495496 0.474196
0.518865 0.497065 0.475765
0.523935 0.498635 0.477335
0.529005 0.500205 0.478905
0.450971 0.481671 0.456871
0.456041 0.483241 0.458440
0.461110 0.484810 0.460010
0.466180 0.486380 0.461580
0.471250 0.487950 0.463150
0.476320 0.489519 0.464719
0.481389 0.491089 0.466289
0.486459 0.492659 0.467859
0.491529 0.494229 0.469429
0.496598 0.495798 0.470998
0.501668 0.497368 0.472568
0.506738 0.498938 0.474138
0.511808 0.500508 0.475708
0.516877 0.502077 0.477277
0.521947 0.503647 0.478847
0.527017 0.505217 0.480417
0.532087 0.506787 0.481987
0.454052 0.488252 0.459952
0.459122 0.489822 0.461522
0.464192 0.491392 0.463092
0.469262 0.492962 0.464662
0.474332 0.494532 0.466231
0.479401 0.496101 0.467801
0.484471 0.497671 0.469371
0.489541 0.499241 0.470941
0.494611 0.500810 0.472510
0.499680 0.502380 0.474080
0.504750 0.503950 0.475650
0.509820 0.505520 0.477220
0.514890 0.507090 0.478789
0.519959 0.508659 0.480359
0.525029 0.510229 0.481929
0.530099 0.511799 0.483499
0.535169 0.513369 0.485068
0.457134 0.494834 0.463034
0.462204 0.496404 0.464604
0.467274 0.497974 0.466174
0.472343 0.499543 0.467743
0.477413 0.501113 0.469313
0.482483 0.502683 0.470883
0.487553 0.504253 0.472453
0.492623 0.505823 0.474022
0.497692 0.507392 0.475592
0.502762 0.508962 0.477162
0.507832 0.510532 0.478732
0.512902 0.512101 0.480301
0.517971 0.513671 0.481871
0.523041 0.515241 0.483441
0.528111 0.516811 0.485011
0.533181 0.518381 0.486581
0.538250 0.519950 0.488150
0.460216 0.501416 0.466116
0.465286 0.502986 0.467686
0.470355 0.504555 0.469255
0.475425 0.506125 0.470825
0.480495 0.507695 0.472395
0.485565 0.509265 0.473965
0.490634 0.510834 0.475534
0.495704 0.512404 0.477104
0.500774 0.513974 0.478674
0.505844 0.515544 0.480244
0.510914 0.517114 0.481813
0.515983 0.518683 0.483383
0.521053 0.520253 0.484953
0.526123 0.521823 0.486523
0.531192 0.523392 0.488092
0.536262 0.524962 0.489662
0.541332 0.526532 0.491232
0.463298 0.507998 0.469198
0.468367 0.509567 0.470767
0.473437 0.511137 0.472337
0.478507 0.512707 0.473907
0.483577 0.514277 0.475477
0.488647 0.515846 0.477046
0.493716 0.517416 0.478616
0.498786 0.518986 0.480186
0.503856 0.520556 0.481756
0.508926 0.522126 0.483325
0.513995 0.523695 0.484895
0.519065 0.525265 0.486465
0.524135 0.526835 0.488035
0.529204 0.528405 0.489604
0.534274 0.529974 0.491174
0.539344 0.531544 0.492744
0.544414 0.533114 0.494314
0.466380 0.514579 0.472279
0.471449 0.516149 0.473849
0.476519 0.517719 0.475419
0.481589 0.519289 0.476989
0.486659 0.520859 0.478558
0.491728 0.522428 0.480128
0.496798 0.523998 0.481698
0.501868 0.525568 0.483268
0.506938 0.527138 0.484837
0.512007 0.528707 0.486407
0.517077 0.530277 0.487977
0.522147 0.531847 0.489547
0.527217 0.533417 0.491117
0.532286 0.534986 0.492686
0.537356 0.536556 0.494256
0.542426 0.538126 0.495826
0.547496 0.539695 0.497395
0.469461 0.521161 0.475361
0.474531 0.522731 0.476931
0.479601 0.524301 0.478501
0.484671 0.525870 0.480070
0.489740 0.527440 0.481640
0.494810 0.529010 0.483210
0.499880 0.530580 0.484780
0.504950 0.532149 0.486349
0.510019 0.533719 0.487919
0.515089 0.535289 0.489489
0.520159 0.536859 0.491059
0.525228 0.538428 0.492628
0.530298 0.539998 0.494198
0.535368 0.541568 0.495768
0.540438 0.543138 0.497338
0.545508 0.544708 0.498907
0.550577 0.546277 0.500477
0.472543 0.527743 0.478443
0.477613 0.529313 0.480013
0.482683 0.530883 0.481582
0.487752 0.532452 0.483152
0.492822 0.534022 0.484722
0.497892 0.535592 0.486292
0.502961 0.537161 0.487861
0.508031 0.538731 0.489431
0.513101 0.540301 0.491001
0.518171 0.541871 0.492571
0.523240 0.543440 0.494140
0.528310 0.545010 0.495710
0.533380 0.546580 0.497280
0.538450 0.548150 0.498850
0.543520 0.549720 0.500420
0.548589 0.551289 0.501989
0.553659 0.552859 0.503559
0.475625 0.534325 0.481525
0.480695 0.535895 0.483094
0.485764 0.537464 0.484664
0.490834 0.539034 0.486234
0.495904 0.540604 0.487804
0.500974 0.542174 0.489374
0.506043 0.543743 0.490943
0.511113 0.545313 0.492513
0.516183 0.546883 0.494083
0.521253 0.548453 0.495652
0.526322 0.550022 0.497222
0.531392 0.551592 0.498792
0.536462 0.553162 0.500362
0.541532 0.554732 0.501931
0.546601 0.556301 0.503501
0.551671 0.557871 0.505071
0.556741 0.559441 0.506641
0.478707 0.540907 0.484606
0.483776 0.542476 0.486176
0.488846 0.544046 0.487746
0.493916 0.545616 0.489316
0.498985 0.547185 0.490885
0.504055 0.548755 0.492455
0.509125 0.550325 0.494025
0.514195 0.551895 0.495595
0.519265 0.553465 0.497165
0.524334 0.555034 0.498734
0.529404 0.556604 0.500304
0.534474 0.558174 0.501874
0.539544 0.559744 0.503443
0.544613 0.561313 0.505013
0.549683 0.562883 0.506583
0.554753 0.564453 0.508153
0.559823 0.566023 0.509722
0.429997 0.436197 0.439397
0.435067 0.437767 0.440967
0.440137 0.439337 0.442536
0.445206 0.440906 0.444106
0.450276 0.442476 0.445676
0.455346 0.444046 0.447246
0.460415 0.445615 0.448815
0.465485 0.447185 0.450385
0.470555 0.448755 0.451955
0.475625 0.450325 0.453525
0.480695 0.451894 0.455094
0.485764 0.453464 0.456664
0.490834 0.455034 0.458234
0.495904 0.456604 0.459804
0.500973 0.458173 0.461373
0.506043 0.459743 0.462943
0.511113 0.461313 0.464513
0.433079 0.442779 0.442479
0.438148 0.444348 0.444048
0.443218 0.445918 0.445618
0.448288 0.447488 0.447188
0.453358 0.449058 0.448758
0.458428 0.450628 0.450327
0.463497 0.452197 0.451897
0.468567 0.453767 0.453467
0.473637 0.455337 0.455037
0.478707 0.456906 0.456606
0.483776 0.458476 0.458176
0.488846 0.460046 0.459746
0.493916 0.461616 0.461316
0.498985 0.463186 0.462886
0.504055 0.464755 0.464455
0.509125 0.466325 0.466025
0.514195 0.467895 0.467595
0.436161 0.449361 0.445561
0.441230 0.450930 0.447130
0.446300 0.452500 0.448700
0.451370 0.454070 0.450270
0.456439 0.455639 0.451839
0.461509 0.457209 0.453409
0.466579 0.458779 0.454979
0.471649 0.460349 0.456549
0.476719 0.461919 0.458118
0.481788 0.463488 0.459688
0.486858 0.465058 0.461258
0.491928 0.466628 0.462828
0.496998 0.468197 0.464397
0.502067 0.469767 0.465967
0.507137 0.471337 0.467537
0.512207 0.472907 0.469107
0.517277 0.474477 0.470676
0.439242 0.455942 0.448642
0.444312 0.457512 0.450212
0.449382 0.459082 0.451782
0.454452 0.460651 0.453351
0.459521 0.462221 0.454921
0.464591 0.463791 0.456491
0.469661 0.465361 0.458061
0.474731 0.466931 0.459630
0.479800 0.468500 0.461200
0.484870 0.470070 0.462770
0.489940 0.471640 0.464340
0.495009 0.473209 0.465909
0.500079 0.474779 0.467479
0.505149 0.476349 0.469049
0.510219 0.477919 0.470619
0.515289 0.479488 0.472189
0.520358 0.481058 0.473758
0.442324 0.462524 0.451724
0.447394 0.464094 0.453294
0.452463 0.465663 0.454863
0.457533 0.467233 0.456433
0.462603 0.468803 0.458003
0.467673 0.470373 0.459573
0.472743 0.471942 0.461142
0.477812 0.473512 0.462712
0.482882 0.475082 0.464282
0.487952 0.476652 0.465852
0.493021 0.478221 0.467421
0.498091 0.479791 0.468991
0.503161 0.481361 0.470561
0.508231 0.482931 0.472131
0.513301 0.484501 0.473700
0.518370 0.486070 0.475270
0.523440 0.487640 0.476840
0.445406 0.469106 0.454806
0.450476 0.470676 0.456375
0.455545 0.472245 0.457945
0.460615 0.473815 0.459515
0.465685 0.475385 0.461085
0.470755 0.476955 0.462655
0.475824 0.478524 0.464224
0.480894 0.480094 0.465794
0.485964 0.481664 0.467364
0.491034 0.483233 0.468934
0.496103 0.484803 0.470503
0.501173 0.486373 0.472073
0.506243 0.487943 0.473643
0.511313 0.489513 0.475213
0.516382 0.491082 0.476782
0.521452 0.492652 0.478352
0.526522 0.494222 0.479922
0.448487 0.475687 0.457887
0.453557 0.477257 0.459457
0.458627 0.478827 0.461027
0.463697 0.480397 0.462597
0.468767 0.481967 0.464166
0.473836 0.483536 0.465736
0.478906 0.485106 0.467306
0.483976 0.486676 0.468876
0.489046 0.488245 0.470445
0.494115 0.489815 0.472015
0.499185 0.491385 0.473585
0.504255 0.492955 0.475155
0.509325 0.494525 0.476724
0.514394 0.496094 0.478294
0.519464 0.497664 0.479864
0.524534 0.499234 0.481434
0.529604 0.500803 0.483003
0.451569 0.482269 0.460969
0.456639 0.483839 0.462539
0.461709 0.485409 0.464109
0.466778 0.486978 0.465678
0.471848 0.488548 0.467248
0.476918 0.490118 0.468818
0.481988 0.491688 0.470388
0.487058 0.493258 0.471958
0.492127 0.494827 0.473527
0.497197 0.496397 0.475097
0.502267 0.497967 0.476667
0.507336 0.499536 0.478236
0.512406 0.501106 0.479806
0.517476 0.502676 0.481376
0.522546 0.504246 0.482946
0.527616 0.505816 0.484515
0.532685 0.507385 0.486085
0.454651 0.488851 0.464051
0.459721 0.490421 0.465621
0.464790 0.491990 0.467190
0.469860 0.493560 0.468760
0.474930 0.495130 0.470330
0.480000 0.496700 0.471900
0.485070 0.498270 0.473469
0.490139 0.499839 0.475039
0.495209 0.501409 0.476609
0.500279 0.502979 0.478179
0.505348 0.504548 0.479748
0.510418 0.506118 0.481318
0.515488 0.507688 0.482888
0.520558 0.509258 0.484458
0.525628 0.510827 0.486028
0.530697 0.512397 0.487597
0.535767 0.513967 0.489167
0.457733 0.495433 0.467133
0.462803 0.497003 0.468703
0.467872 0.498572 0.470272
0.472942 0.500142 0.471842
0.478012 0.501712 0.473412
0.483081 0.503281 0.474981
0.488151 0.504851 0.476551
0.493221 0.506421 0.478121
0.498291 0.507991 0.479691
0.503361 0.509561 0.481260
0.508430 0.511130 0.482830
0.513500 0.512700 0.484400
0.518570 0.514270 0.485970
0.523640 0.515840 0.487539
0.528709 0.517409 0.489109
0.533779 0.518979 0.490679
0.538849 0.520549 0.492249
0.460815 0.502014 0.470214
0.465884 0.503584 0.471784
0.470954 0.505154 0.473354
0.476024 0.506724 0.474924
0.481093 0.508293 0.476493
0.486163 0.509863 0.478063
0.491233 0.511433 0.479633
0.496303 0.513003 0.481203
0.501372 0.514572 0.482772
0.506442 0.516142 0.484342
0.511512 0.517712 0.485912
0.516582 0.519282 0.487482
0.521652 0.520851 0.489051
0.526721 0.522421 0.490621
0.531791 0.523991 0.492191
0.536861 0.525561 0.493761
0.541931 0.527130 0.495331
0.463896 0.508596 0.473296
0.468966 0.510166 0.474866
0.474036 0.511736 0.476436
0.479105 0.513305 0.478005
0.484175 0.514875 0.479575
0.489245 0.516445 0.481145
0.494315 0.518015 0.482715
0.499385 0.519585 0.484284
0.504454 0.521154 0.485854
0.509524 0.522724 0.487424
0.514594 0.524294 0.488994
0.519663 0.525863 0.490563
0.524733 0.527433 0.492133
0.529803 0.529003 0.493703
0.534873 0.530573 0.495273
0.539942 0.532142 0.496842
0.545012 0.533712 0.498412
0.466978 0.515178 0.476378
0.472048 0.516748 0.477948
0.477118 0.518317 0.479517
0.482187 0.519887 0.481087
0.487257 0.521457 0.482657
0.492327 0.523027 0.484227
0.497397 0.524597 0.485797
0.502466 0.526166 0.487366
0.507536 0.527736 0.488936
0.512606 0.529306 0.490506
0.517675 0.530876 0.492075
0.522745 0.532445 0.493645
0.527815 0.534015 0.495215
0.532885 0.535585 0.496785
0.537955 0.537155 0.498355
0.543024 0.538724 0.499924
0.548094 0.540294 0.501494
0.470060 0.521760 0.479460
0.475129 0.523330 0.481029
0.480199 0.524899 0.482599
0.485269 0.526469 0.484169
0.490339 0.528039 0.485739
0.495409 0.529609 0.487308
0.500478 0.531178 0.488878
0.505548 0.532748 0.490448
0.510618 0.534318 0.492018
0.515687 0.535887 0.493587
0.520757 0.537457 0.495157
0.525827 0.539027 0.496727
0.530897 0.540597 0.498297
0.535967 0.542166 0.499866
0.541036 0.543736 0.501436
0.546106 0.545306 0.503006
0.551176 0.546876 0.504576
0.473142 0.528342 0.482542
0.478211 0.529911 0.484111
0.483281 0.531481 0.485681
0.488351 0.533051 0.487251
0.493420 0.534620 0.488820
0.498490 0.536190 0.490390
0.503560 0.537760 0.491960
0.508630 0.539330 0.493530
0.513700 0.540899 0.495100
0.518769 0.542469 0.496669
0.523839 0.544039 0.498239
0.528909 0.545609 0.499809
0.533979 0.547179 0.501378
0.539048 0.548748 0.502948
0.544118 0.550318 0.504518
0.549188 0.551888 0.506088
0.554258 0.553458 0.507657
0.476223 0.534923 0.485623
0.481293 0.536493 0.487193
0.486363 0.538063 0.488763
0.491432 0.539632 0.490332
0.496502 0.541202 0.491902
0.501572 0.542772 0.493472
0.506642 0.544342 0.495042
0.511711 0.545911 0.496611
0.516781 0.547481 0.498181
0.521851 0.549051 0.499751
0.526921 0.550621 0.501321
0.531991 0.552191 0.502890
0.537060 0.553760 0.504460
0.542130 0.555330 0.506030
0.547200 0.556900 0.507600
0.552270 0.558470 0.509169
0.557339 0.560039 0.510739
0.479305 0.541505 0.488705
0.484375 0.543075 0.490275
0.489445 0.544645 0.491845
0.494514 0.546214 0.493414
0.499584 0.547784 0.494984
0.504654 0.549354 0.496554
0.509723 0.550924 0.498123
0.514793 0.552493 0.499693
0.519863 0.554063 0.501263
0.524933 0.555633 0.502833
0.530003 0.557203 0.504402
0.535072 0.558772 0.505972
0.540142 0.560342 0.507542
0.545212 0.561912 0.509112
0.550281 0.563481 0.510682
0.555351 0.565051 0.512251
0.560421 0.566621 0.513821
0.430596 0.436796 0.443495
0.435665 0.438365 0.445065
0.440735 0.439935 0.446635
0.445805 0.441505 0.448205
0.450874 0.443074 0.449774
0.455944 0.444644 0.451344
0.461014 0.446214 0.452914
0.466084 0.447784 0.454484
0.471154 0.449354 0.456054
0.476223 0.450923 0.457623
0.481293 0.452493 0.459193
0.486363 0.454063 0.460763
0.491432 0.455632 0.462332
0.496502 0.457202 0.463902
0.501572 0.458772 0.465472
0.506642 0.460342 0.467042
0.511712 0.461912 0.468611
0.433677 0.443377 0.446577
