shared/src/main/assets/luts/mv_acid_green.cube
TITLE "DALUR Acid Green"
LUT_3D_SIZE 9
DOMAIN_MIN 0.0 0.0 0.0
DOMAIN_MAX 1.0 1.0 1.0
0.428800 0.435000 0.431200
0.438939 0.438139 0.434339
0.449079 0.441279 0.437479
0.459218 0.444418 0.440618
0.469358 0.447558 0.443758
0.479497 0.450697 0.446897
0.489637 0.453837 0.450037
0.499776 0.456977 0.453176
0.509916 0.460116 0.456316
0.434964 0.448163 0.437363
0.445103 0.451303 0.440503
0.455242 0.454442 0.443642
0.465382 0.457582 0.446782
0.475522 0.460722 0.449921
0.485661 0.463861 0.453061
0.495801 0.467000 0.456200
0.505940 0.470140 0.459340
0.516080 0.473280 0.462479
0.441127 0.461327 0.443527
0.451267 0.464466 0.446666
0.461406 0.467606 0.449806
0.471546 0.470745 0.452945
0.481685 0.473885 0.456085
0.491824 0.477024 0.459224
0.501964 0.480164 0.462364
0.512103 0.483303 0.465503
0.522243 0.486443 0.468643
0.447290 0.474490 0.449690
0.457430 0.477630 0.452830
0.467570 0.480770 0.455969
0.477709 0.483909 0.459109
0.487848 0.487048 0.462248
0.497988 0.490188 0.465388
0.508128 0.493327 0.468527
0.518267 0.496467 0.471667
0.528407 0.499606 0.474806
0.453454 0.487654 0.455854
0.463593 0.490793 0.458993
0.473733 0.493933 0.462133
0.483872 0.497072 0.465272
0.494012 0.500212 0.468412
0.504151 0.503351 0.471551
0.514291 0.506491 0.474691
0.524431 0.509630 0.477830
0.534570 0.512770 0.480970
0.459618 0.500817 0.462017
0.469757 0.503957 0.465157
0.479896 0.507096 0.468296
0.490036 0.510236 0.471436
0.500175 0.513375 0.474575
0.510315 0.516515 0.477715
0.520454 0.519654 0.480854
0.530594 0.522794 0.483994
0.540733 0.525933 0.487133
0.465781 0.513981 0.468181
0.475921 0.517120 0.471320
0.486060 0.520260 0.474460
0.496200 0.523400 0.477599
0.506339 0.526539 0.480739
0.516479 0.529679 0.483878
0.526618 0.532818 0.487018
0.536757 0.535957 0.490157
0.546897 0.539097 0.493297
0.471944 0.527145 0.474344
0.482084 0.530284 0.477484
0.492223 0.533423 0.480623
0.502363 0.536563 0.483763
0.512502 0.539702 0.486902
0.522642 0.542842 0.490042
0.532782 0.545981 0.493181
0.542921 0.549121 0.496321
0.553061 0.552260 0.499460
0.478108 0.540308 0.480508
0.488248 0.543447 0.483647
0.498387 0.546587 0.486787
0.508526 0.549727 0.489926
0.518666 0.552866 0.493066
0.528805 0.556006 0.496205
0.538945 0.559145 0.499345
0.549084 0.562285 0.502485
0.559224 0.565424 0.505624
0.429997 0.436197 0.439397
0.440137 0.439337 0.442536
0.450276 0.442476 0.445676
0.460415 0.445615 0.448815
0.470555 0.448755 0.451955
0.480695 0.451894 0.455094
0.490834 0.455034 0.458234
0.500973 0.458173 0.461373
0.511113 0.461313 0.464513
0.436161 0.449361 0.445561
0.446300 0.452500 0.448700
0.456439 0.455639 0.451839
0.466579 0.458779 0.454979
0.476719 0.461919 0.458118
0.486858 0.465058 0.461258
0.496998 0.468197 0.464397
0.507137 0.471337 0.467537
0.517277 0.474477 0.470676
0.442324 0.462524 0.451724
0.452463 0.465663 0.454863
0.462603 0.468803 0.458003
0.472743 0.471942 0.461142
0.482882 0.475082 0.464282
0.493021 0.478221 0.467421
0.503161 0.481361 0.470561
0.513301 0.484501 0.473700
0.523440 0.487640 0.476840
0.448487 0.475687 0.457887
0.458627 0.478827 0.461027
0.468767 0.481967 0.464166
0.478906 0.485106 0.467306
0.489046 0.488245 0.470445
0.499185 0.491385 0.473585
0.509325 0.494525 0.476724
0.519464 0.497664 0.479864
0.529604 0.500803 0.483003
0.454651 0.488851 0.464051
0.464790 0.491990 0.467190
0.474930 0.495130 0.470330
0.485070 0.498270 0.473469
0.495209 0.501409 0.476609
0.505348 0.504548 0.479748
0.515488 0.507688 0.482888
0.525628 0.510827 0.486028
0.535767 0.513967 0.489167
0.460815 0.502014 0.470214
0.470954 0.505154 0.473354
0.481093 0.508293 0.476493
0.491233 0.511433 0.479633
0.501372 0.514572 0.482772
0.511512 0.517712 0.485912
0.521652 0.520851 0.489051
0.531791 0.523991 0.492191
0.541931 0.527130 0.495331
0.466978 0.515178 0.476378
0.477118 0.518317 0.479517
0.487257 0.521457 0.482657
0.497397 0.524597 0.485797
0.507536 0.527736 0.488936
0.517675 0.530876 0.492075
0.527815 0.534015 0.495215
0.537955 0.537155 0.498355
0.548094 0.540294 0.501494
0.473142 0.528342 0.482542
0.483281 0.531481 0.485681
0.493420 0.534620 0.488820
0.503560 0.537760 0.491960
0.513700 0.540899 0.495100
0.523839 0.544039 0.498239
0.533979 0.547179 0.501378
0.544118 0.550318 0.504518
0.554258 0.553458 0.507657
0.479305 0.541505 0.488705
0.489445 0.544645 0.491845
0.499584 0.547784 0.494984
0.509723 0.550924 0.498123
0.519863 0.554063 0.501263
0.530003 0.557203 0.504402
0.540142 0.560342 0.507542
0.550281 0.563481 0.510682
0.560421 0.566621 0.513821
0.431194 0.437394 0.447594
0.441333 0.440533 0.450733
0.451473 0.443673 0.453873
0.461612 0.446813 0.457012
0.471752 0.449952 0.460152
0.481891 0.453091 0.463291
0.492031 0.456231 0.466431
0.502170 0.459370 0.469570
0.512310 0.462510 0.472710
0.437358 0.450557 0.453757
0.447497 0.453697 0.456897
0.457637 0.456836 0.460036
0.467776 0.459976 0.463176
0.477916 0.463116 0.466315
0.488055 0.466255 0.469455
0.498194 0.469394 0.472594
0.508334 0.472534 0.475734
0.518474 0.475674 0.478873
0.443521 0.463721 0.459921
0.453660 0.466860 0.463060
0.463800 0.470000 0.466200
0.473939 0.473139 0.469339
0.484079 0.476279 0.472479
0.494218 0.479418 0.475618
0.504358 0.482558 0.478758
0.514497 0.485697 0.481897
0.524637 0.488837 0.485037
0.449684 0.476884 0.466084
0.459824 0.480024 0.469224
0.469963 0.483163 0.472363
0.480103 0.486303 0.475503
0.490242 0.489442 0.478642
0.500382 0.492582 0.481782
0.510522 0.495721 0.484921
0.520661 0.498861 0.488061
0.530801 0.502000 0.491200
0.455848 0.490048 0.472248
0.465987 0.493188 0.475387
0.476127 0.496327 0.478527
0.486266 0.499466 0.481666
0.496406 0.502606 0.484806
0.506545 0.505746 0.487945
0.516685 0.508885 0.491085
0.526825 0.512024 0.494224
0.536964 0.515164 0.497364
0.462012 0.503211 0.478411
0.472151 0.506351 0.481551
0.482290 0.509490 0.484690
0.492430 0.512630 0.487830
0.502570 0.515769 0.490969
0.512709 0.518909 0.494109
0.522848 0.522048 0.497248
0.532988 0.525188 0.500388
0.543127 0.528327 0.503527
0.468175 0.516375 0.484575
0.478314 0.519514 0.487714
0.488454 0.522654 0.490854
0.498594 0.525794 0.493993
0.508733 0.528933 0.497133
0.518873 0.532073 0.500273
0.529012 0.535212 0.503412
0.539152 0.538351 0.506551
0.549291 0.541491 0.509691
0.474338 0.529539 0.490738
0.484478 0.532678 0.493878
0.494617 0.535817 0.497017
0.504757 0.538957 0.500157
0.514896 0.542096 0.503296
0.525036 0.545236 0.506436
0.535176 0.548376 0.509575
0.545315 0.551515 0.512715
0.555455 0.554655 0.515854
0.480502 0.542702 0.496902
0.490642 0.545841 0.500042
0.500781 0.548981 0.503181
0.510920 0.552121 0.506320
0.521060 0.555260 0.509460
0.531200 0.558400 0.512599
0.541339 0.561539 0.515739
0.551479 0.564679 0.518879
0.561618 0.567818 0.522018
0.432391 0.438591 0.455791
0.442530 0.441730 0.458930
0.452670 0.444870 0.462070
0.462809 0.448010 0.465209
0.472949 0.451149 0.468349
0.483088 0.454288 0.471488
0.493228 0.457428 0.474628
0.503367 0.460568 0.477767
0.513507 0.463707 0.480907
0.438555 0.451755 0.461954
0.448694 0.454894 0.465094
0.458833 0.458033 0.468233
0.468973 0.461173 0.471373
0.479112 0.464313 0.474512
0.489252 0.467452 0.477652
0.499391 0.470591 0.480791
0.509531 0.473731 0.483931
0.519671 0.476870 0.487070
0.444718 0.464918 0.468118
0.454858 0.468057 0.471257
0.464997 0.471197 0.474397
0.475136 0.474336 0.477536
0.485276 0.477476 0.480676
0.495416 0.480615 0.483815
0.505555 0.483755 0.486955
0.515694 0.486894 0.490094
0.525834 0.490034 0.493234
0.450881 0.478081 0.474281
0.461021 0.481221 0.477421
0.471160 0.484360 0.480560
0.481300 0.487500 0.483700
0.491439 0.490639 0.486839
0.501579 0.493779 0.489979
0.511718 0.496918 0.493118
0.521858 0.500058 0.496258
0.531998 0.503197 0.499397
0.457045 0.491245 0.480445
0.467185 0.494385 0.483584
0.477324 0.497524 0.486724
0.487463 0.500663 0.489863
0.497603 0.503803 0.493003
0.507742 0.506942 0.496142
0.517882 0.510082 0.499282
0.528022 0.513221 0.502421
0.538161 0.516361 0.505561
0.463208 0.504408 0.486608
0.473348 0.507548 0.489748
0.483487 0.510687 0.492887
0.493627 0.513827 0.496027
0.503767 0.516966 0.499166
0.513906 0.520106 0.502306
0.524045 0.523245 0.505445
0.534185 0.526385 0.508585
0.544324 0.529524 0.511724
0.469372 0.517572 0.492772
0.479512 0.520711 0.495912
0.489651 0.523851 0.499051
0.499791 0.526991 0.502190
0.509930 0.530130 0.505330
0.520070 0.533270 0.508470
0.530209 0.536409 0.511609
0.540349 0.539548 0.514748
0.550488 0.542688 0.517888
0.475535 0.530736 0.498935
0.485675 0.533875 0.502075
0.495814 0.537014 0.505214
0.505954 0.540154 0.508354
0.516093 0.543293 0.511493
0.526233 0.546433 0.514633
0.536373 0.549572 0.517772
0.546512 0.552712 0.520912
0.556652 0.555851 0.524052
0.481699 0.543899 0.505099
0.491839 0.547038 0.508238
0.501978 0.550178 0.511378
0.512118 0.553318 0.514517
0.522257 0.556457 0.517657
0.532396 0.559597 0.520796
0.542536 0.562736 0.523936
0.552675 0.565876 0.527076
0.562815 0.569015 0.530215
0.433588 0.439788 0.463988
0.443727 0.442927 0.467127
0.453867 0.446067 0.470267
0.464006 0.449206 0.473406
0.474146 0.452346 0.476546
0.484285 0.455485 0.479685
0.494425 0.458625 0.482825
0.504564 0.461764 0.485964
0.514704 0.464904 0.489104
0.439752 0.452952 0.470151
0.449891 0.456091 0.473291
0.460030 0.459230 0.476430
0.470170 0.462370 0.479570
0.480310 0.465510 0.482709
0.490449 0.468649 0.485849
0.500588 0.471788 0.488988
0.510728 0.474928 0.492128
0.520868 0.478068 0.495267
0.445915 0.466115 0.476315
0.456054 0.469254 0.479454
0.466194 0.472394 0.482594
0.476333 0.475533 0.485733
0.486473 0.478673 0.488873
0.496612 0.481812 0.492012
0.506752 0.484952 0.495152
0.516891 0.488091 0.498291
0.527031 0.491231 0.501431
0.452078 0.479278 0.482478
0.462218 0.482418 0.485618
0.472357 0.485557 0.488757
0.482497 0.488697 0.491897
0.492636 0.491836 0.495036
0.502776 0.494976 0.498176
0.512916 0.498116 0.501316
0.523055 0.501255 0.504455
0.533195 0.504394 0.507594
0.458242 0.492442 0.488642
0.468382 0.495582 0.491781
0.478521 0.498721 0.494921
0.488660 0.501860 0.498060
0.498800 0.505000 0.501200
0.508939 0.508139 0.504339
0.519079 0.511279 0.507479
0.529219 0.514419 0.510618
0.539358 0.517558 0.513758
0.464405 0.505605 0.494805
0.474545 0.508745 0.497945
0.484684 0.511884 0.501084
0.494824 0.515024 0.504224
0.504964 0.518163 0.507363
0.515103 0.521303 0.510503
0.525243 0.524442 0.513643
0.535382 0.527582 0.516782
0.545522 0.530721 0.519922
0.470569 0.518769 0.500969
0.480709 0.521908 0.504108
0.490848 0.525048 0.507248
0.500988 0.528188 0.510387
0.511127 0.531327 0.513527
0.521266 0.534467 0.516667
0.531406 0.537606 0.519806
0.541546 0.540746 0.522946
0.551685 0.543885 0.526085
0.476733 0.531933 0.507132
0.486872 0.535072 0.510272
0.497011 0.538211 0.513412
0.507151 0.541351 0.516551
0.517291 0.544490 0.519691
0.527430 0.547630 0.522830
0.537570 0.550770 0.525969
0.547709 0.553909 0.529109
0.557849 0.557049 0.532249
0.482896 0.545096 0.513296
0.493036 0.548236 0.516436
0.503175 0.551375 0.519575
0.513315 0.554515 0.522714
0.523454 0.557654 0.525854
0.533594 0.560794 0.528994
0.543733 0.563933 0.532133
0.553872 0.567072 0.535272
0.564012 0.570212 0.538412
0.434785 0.440985 0.472185
0.444925 0.444124 0.475324
0.455064 0.447264 0.478464
0.465203 0.450404 0.481603
0.475343 0.453543 0.484743
0.485482 0.456682 0.487882
0.495622 0.459822 0.491022
0.505761 0.462961 0.494161
0.515901 0.466101 0.497301
0.440949 0.454149 0.478348
0.451088 0.457288 0.481488
0.461228 0.460427 0.484627
0.471367 0.463567 0.487767
0.481507 0.466707 0.490906
0.491646 0.469846 0.494046
0.501785 0.472986 0.497185
0.511925 0.476125 0.500325
0.522065 0.479265 0.503464
0.447112 0.467312 0.484512
0.457251 0.470451 0.487651
0.467391 0.473591 0.490791
0.477530 0.476730 0.493930
0.487670 0.479870 0.497070
0.497809 0.483009 0.500209
0.507949 0.486149 0.503349
0.518088 0.489288 0.506488
0.528228 0.492428 0.509628
0.453275 0.480475 0.490675
0.463415 0.483615 0.493815
0.473554 0.486754 0.496954
0.483694 0.489894 0.500094
0.493833 0.493033 0.503233
0.503973 0.496173 0.506373
0.514113 0.499312 0.509512
0.524252 0.502452 0.512652
0.534392 0.505591 0.515791
0.459439 0.493639 0.496839
0.469579 0.496779 0.499978
0.479718 0.499918 0.503118
0.489858 0.503057 0.506257
0.499997 0.506197 0.509397
0.510136 0.509336 0.512536
0.520276 0.512476 0.515676
0.530416 0.515616 0.518815
0.540555 0.518755 0.521955
0.465603 0.506802 0.503002
0.475742 0.509942 0.506142
0.485881 0.513081 0.509281
0.496021 0.516221 0.512421
0.506161 0.519361 0.515560
0.516300 0.522500 0.518700
0.526439 0.525639 0.521839
0.536579 0.528779 0.524979
0.546718 0.531918 0.528118
0.471766 0.519966 0.509166
0.481905 0.523106 0.512305
0.492045 0.526245 0.515445
0.502185 0.529385 0.518585
0.512324 0.532524 0.521724
0.522463 0.535663 0.524863
0.532603 0.538803 0.528003
0.542743 0.541942 0.531142
0.552882 0.545082 0.534282
0.477930 0.533130 0.515329
0.488069 0.536269 0.518469
0.498208 0.539408 0.521608
0.508348 0.542548 0.524748
0.518487 0.545687 0.527887
0.528627 0.548827 0.531027
0.538767 0.551967 0.534166
0.548906 0.555106 0.537306
0.559046 0.558246 0.540446
0.484093 0.546293 0.521493
0.494233 0.549432 0.524632
0.504372 0.552572 0.527772
0.514512 0.555712 0.530911
0.524651 0.558851 0.534051
0.534791 0.561991 0.537191
0.544930 0.565130 0.540330
0.555069 0.568269 0.543469
0.565209 0.571409 0.546609
0.435982 0.442182 0.480382
0.446122 0.445321 0.483521
0.456261 0.448461 0.486661
0.466400 0.451600 0.489800
0.476540 0.454740 0.492940
0.486679 0.457879 0.496079
0.496819 0.461019 0.499219
0.506958 0.464158 0.502358
0.517098 0.467298 0.505498
0.442146 0.455346 0.486545
0.452285 0.458485 0.489685
0.462424 0.461624 0.492824
0.472564 0.464764 0.495964
0.482704 0.467904 0.499103
0.492843 0.471043 0.502243
0.502982 0.474182 0.505382
0.513122 0.477322 0.508522
0.523262 0.480461 0.511661
0.448309 0.468509 0.492709
0.458448 0.471648 0.495848
0.468588 0.474788 0.498988
0.478727 0.477927 0.502127
0.488867 0.481067 0.505267
0.499007 0.484206 0.508406
0.509146 0.487346 0.511546
0.519285 0.490485 0.514685
0.529425 0.493625 0.517825
0.454472 0.481672 0.498872
0.464612 0.484812 0.502012
0.474751 0.487951 0.505151
0.484891 0.491091 0.508291
0.495030 0.494230 0.511430
0.505170 0.497370 0.514570
0.515309 0.500509 0.517709
0.525449 0.503649 0.520849
0.535589 0.506788 0.523988
0.460636 0.494836 0.505036
0.470776 0.497975 0.508176
0.480915 0.501115 0.511315
0.491055 0.504254 0.514454
0.501194 0.507394 0.517594
0.511333 0.510533 0.520733
0.521473 0.513673 0.523873
0.531613 0.516813 0.527012
0.541752 0.519952 0.530152
0.466799 0.507999 0.511199
0.476939 0.511139 0.514339
0.487078 0.514278 0.517478
0.497218 0.517418 0.520618
0.507358 0.520558 0.523757
0.517497 0.523697 0.526897
0.527636 0.526836 0.530036
0.537776 0.529976 0.533176
0.547915 0.533115 0.536315
0.472963 0.521163 0.517363
0.483103 0.524303 0.520502
0.493242 0.527442 0.523642
0.503382 0.530582 0.526782
0.513521 0.533721 0.529921
0.523661 0.536861 0.533061
0.533800 0.540000 0.536200
0.543940 0.543139 0.539339
0.554079 0.546279 0.542479
0.479127 0.534327 0.523527
0.489266 0.537466 0.526666
0.499405 0.540605 0.529805
0.509545 0.543745 0.532945
0.519684 0.546884 0.536084
0.529824 0.550024 0.539224
0.539964 0.553163 0.542363
0.550103 0.556303 0.545503
0.560243 0.559442 0.548643
0.485290 0.547490 0.529690
0.495430 0.550629 0.532829
0.505569 0.553769 0.535969
0.515709 0.556909 0.539108
0.525848 0.560048 0.542248
0.535987 0.563188 0.545388
0.546127 0.566327 0.548527
0.556266 0.569467 0.551667
0.566406 0.572606 0.554806
0.437179 0.443379 0.488579
0.447319 0.446518 0.491718
0.457458 0.449658 0.494858
0.467597 0.452797 0.497997
0.477737 0.455937 0.501137
0.487876 0.459076 0.504276
0.498016 0.462216 0.507416
0.508155 0.465355 0.510555
0.518295 0.468495 0.513695
0.443343 0.456543 0.494742
0.453482 0.459682 0.497882
0.463621 0.462821 0.501022
0.473761 0.465961 0.504161
0.483901 0.469101 0.507301
0.494040 0.472240 0.510440
0.504180 0.475380 0.513579
0.514319 0.478519 0.516719
0.524459 0.481659 0.519859
0.449506 0.469706 0.500906
0.459645 0.472845 0.504045
0.469785 0.475985 0.507185
0.479924 0.479124 0.510324
0.490064 0.482264 0.513464
0.500204 0.485403 0.516603
0.510343 0.488543 0.519743
0.520482 0.491682 0.522882
0.530622 0.494822 0.526022
0.455670 0.482869 0.507069
0.465809 0.486009 0.510209
0.475948 0.489148 0.513348
0.486088 0.492288 0.516488
0.496227 0.495427 0.519627
0.506367 0.498567 0.522767
0.516506 0.501706 0.525906
0.526646 0.504846 0.529046
0.536786 0.507985 0.532185
0.461833 0.496033 0.513233
0.471973 0.499173 0.516373
0.482112 0.502312 0.519512
0.492251 0.505451 0.522651
0.502391 0.508591 0.525791
0.512530 0.511730 0.528930
0.522670 0.514870 0.532070
0.532809 0.518010 0.535209
0.542949 0.521149 0.538349
0.467996 0.509196 0.519396
0.478136 0.512336 0.522536
0.488275 0.515475 0.525675
0.498415 0.518615 0.528815
0.508555 0.521754 0.531954
0.518694 0.524894 0.535094
0.528833 0.528033 0.538233
0.538973 0.531173 0.541373
0.549113 0.534312 0.544512
0.474160 0.522360 0.525560
0.484300 0.525500 0.528699
0.494439 0.528639 0.531839
0.504579 0.531779 0.534978
0.514718 0.534918 0.538118
0.524857 0.538058 0.541257
0.534997 0.541197 0.544397
0.545137 0.544337 0.547536
0.555276 0.547476 0.550676
0.480324 0.535523 0.531723
0.490463 0.538663 0.534863
0.500602 0.541802 0.538002
0.510742 0.544942 0.541142
0.520881 0.548081 0.544281
0.531021 0.551221 0.547421
0.541160 0.554360 0.550560
0.551300 0.557500 0.553700
0.561439 0.560639 0.556839
0.486487 0.548687 0.537887
0.496626 0.551826 0.541026
0.506766 0.554966 0.544166
0.516906 0.558106 0.547306
0.527045 0.561245 0.550445
0.537184 0.564384 0.553584
0.547324 0.567524 0.556724
0.557464 0.570663 0.559863
0.567603 0.573803 0.563003
0.438376 0.444576 0.496776
0.448516 0.447715 0.499916
0.458655 0.450855 0.503055
0.468795 0.453994 0.506194
0.478934 0.457134 0.509334
0.489073 0.460274 0.512474
0.499213 0.463413 0.515613
0.509352 0.466552 0.518752
0.519492 0.469692 0.521892
0.444540 0.457740 0.502939
0.454679 0.460879 0.506079
0.464819 0.464019 0.509219
0.474958 0.467158 0.512358
0.485098 0.470298 0.515498
0.495237 0.473437 0.518637
0.505377 0.476577 0.521776
0.515516 0.479716 0.524916
0.525656 0.482856 0.528056
0.450703 0.470903 0.509103
0.460842 0.474042 0.512242
0.470982 0.477182 0.515382
0.481121 0.480321 0.518521
0.491261 0.483461 0.521661
0.501400 0.486600 0.524801
0.511540 0.489740 0.527940
0.521679 0.492879 0.531080
0.531819 0.496019 0.534219
0.456867 0.484066 0.515266
0.467006 0.487206 0.518406
0.477146 0.490345 0.521545
0.487285 0.493485 0.524685
0.497424 0.496624 0.527825
0.507564 0.499764 0.530964
0.517704 0.502903 0.534104
0.527843 0.506043 0.537243
0.537983 0.509182 0.540382
0.463030 0.497230 0.521430
0.473170 0.500369 0.524570
0.483309 0.503509 0.527709
0.493449 0.506649 0.530849
0.503588 0.509788 0.533988
0.513728 0.512927 0.537127
0.523867 0.516067 0.540267
0.534007 0.519207 0.543407
0.544146 0.522346 0.546546
0.469194 0.510393 0.527594
0.479333 0.513533 0.530733
0.489472 0.516672 0.533872
0.499612 0.519812 0.537012
0.509752 0.522952 0.540152
0.519891 0.526091 0.543291
0.530030 0.529230 0.546430
0.540170 0.532370 0.549570
0.550310 0.535509 0.552709
0.475357 0.523557 0.533757
0.485496 0.526697 0.536896
0.495636 0.529836 0.540036
0.505776 0.532976 0.543176
0.515915 0.536115 0.546315
0.526054 0.539254 0.549454
0.536194 0.542394 0.552594
0.546334 0.545534 0.555733
0.556473 0.548673 0.558873
0.481521 0.536721 0.539921
0.491660 0.539860 0.543060
0.501799 0.542999 0.546199
0.511939 0.546139 0.549339
0.522079 0.549279 0.552478
0.532218 0.552418 0.555618
0.542358 0.555558 0.558758
0.552497 0.558697 0.561897
0.562637 0.561837 0.565037
0.487684 0.549884 0.546084
0.497824 0.553024 0.549223
0.507963 0.556163 0.552363
0.518103 0.559303 0.555503
0.528242 0.562442 0.558642
0.538382 0.565582 0.561782
0.548521 0.568721 0.564921
0.558661 0.571860 0.568060
0.568800 0.575000 0.571200
