shared/src/main/assets/luts/mv_acid_green.cube
TITLE "DALUR Acid Green"
LUT_3D_SIZE 5
DOMAIN_MIN 0.0 0.0 0.0
DOMAIN_MAX 1.0 1.0 1.0
0.428800 0.435000 0.431200
0.449079 0.441279 0.437479
0.469358 0.447558 0.443758
0.489637 0.453837 0.450037
0.509916 0.460116 0.456316
0.441127 0.461327 0.443527
0.461406 0.467606 0.449806
0.481685 0.473885 0.456085
0.501964 0.480164 0.462364
0.522243 0.486443 0.468643
0.453454 0.487654 0.455854
0.473733 0.493933 0.462133
0.494012 0.500212 0.468412
0.514291 0.506491 0.474691
0.534570 0.512770 0.480970
0.465781 0.513981 0.468181
0.486060 0.520260 0.474460
0.506339 0.526539 0.480739
0.526618 0.532818 0.487018
0.546897 0.539097 0.493297
0.478108 0.540308 0.480508
0.498387 0.546587 0.486787
0.518666 0.552866 0.493066
0.538945 0.559145 0.499345
0.559224 0.565424 0.505624
0.431194 0.437394 0.447594
0.451473 0.443673 0.453873
0.471752 0.449952 0.460152
0.492031 0.456231 0.466431
0.512310 0.462510 0.472710
0.443521 0.463721 0.459921
0.463800 0.470000 0.466200
0.484079 0.476279 0.472479
0.504358 0.482558 0.478758
0.524637 0.488837 0.485037
0.455848 0.490048 0.472248
0.476127 0.496327 0.478527
0.496406 0.502606 0.484806
0.516685 0.508885 0.491085
0.536964 0.515164 0.497364
0.468175 0.516375 0.484575
0.488454 0.522654 0.490854
0.508733 0.528933 0.497133
0.529012 0.535212 0.503412
0.549291 0.541491 0.509691
0.480502 0.542702 0.496902
0.500781 0.548981 0.503181
0.521060 0.555260 0.509460
0.541339 0.561539 0.515739
0.561618 0.567818 0.522018
0.433588 0.439788 0.463988
0.453867 0.446067 0.470267
0.474146 0.452346 0.476546
0.494425 0.458625 0.482825
0.514704 0.464904 0.489104
0.445915 0.466115 0.476315
0.466194 0.472394 0.482594
0.486473 0.478673 0.488873
0.506752 0.484952 0.495152
0.527031 0.491231 0.501431
0.458242 0.492442 0.488642
0.478521 0.498721 0.494921
0.498800 0.505000 0.501200
0.519079 0.511279 0.507479
0.539358 0.517558 0.513758
0.470569 0.518769 0.500969
0.490848 0.525048 0.507248
0.511127 0.531327 0.513527
0.531406 0.537606 0.519806
0.551685 0.543885 0.526085
0.482896 0.545096 0.513296
0.503175 0.551375 0.519575
0.523454 0.557654 0.525854
0.543733 0.563933 0.532133
0.564012 0.570212 0.538412
0.435982 0.442182 0.480382
0.456261 0.448461 0.486661
0.476540 0.454740 0.492940
0.496819 0.461019 0.499219
0.517098 0.467298 0.505498
0.448309 0.468509 0.492709
0.468588 0.474788 0.498988
0.488867 0.481067 0.505267
0.509146 0.487346 0.511546
0.529425 0.493625 0.517825
0.460636 0.494836 0.505036
0.480915 0.501115 0.511315
0.501194 0.507394 0.517594
0.521473 0.513673 0.523873
0.541752 0.519952 0.530152
0.472963 0.521163 0.517363
0.493242 0.527442 0.523642
0.513521 0.533721 0.529921
0.533800 0.540000 0.536200
0.554079 0.546279 0.542479
0.485290 0.547490 0.529690
0.505569 0.553769 0.535969
0.525848 0.560048 0.542248
0.546127 0.566327 0.548527
0.566406 0.572606 0.554806
0.438376 0.444576 0.496776
0.458655 0.450855 0.503055
0.478934 0.457134 0.509334
0.499213 0.463413 0.515613
0.519492 0.469692 0.521892
0.450703 0.470903 0.509103
0.470982 0.477182 0.515382
0.491261 0.483461 0.521661
0.511540 0.489740 0.527940
0.531819 0.496019 0.534219
0.463030 0.497230 0.521430
0.483309 0.503509 0.527709
0.503588 0.509788 0.533988
0.523867 0.516067 0.540267
0.544146 0.522346 0.546546
0.475357 0.523557 0.533757
0.495636 0.529836 0.540036
0.515915 0.536115 0.546315
0.536194 0.542394 0.552594
0.556473 0.548673 0.558873
0.487684 0.549884 0.546084
0.507963 0.556163 0.552363
0.528242 0.562442 0.558642
0.548521 0.568721 0.564921
0.568800 0.575000 0.571200
