shared/src/main/assets/luts/mv_candy_space.cube
TITLE "DALUR Candy Space"
LUT_3D_SIZE 9
DOMAIN_MIN 0.0 0.0 0.0
DOMAIN_MAX 1.0 1.0 1.0
0.447000 0.445000 0.453000
0.454044 0.447515 0.455515
0.461089 0.450030 0.458030
0.468133 0.452545 0.460545
0.475177 0.455060 0.463060
0.482222 0.457575 0.465575
0.489266 0.460090 0.468090
0.496310 0.462605 0.470605
0.503355 0.465120 0.473120
0.451938 0.454467 0.457938
0.458982 0.456982 0.460453
0.466026 0.459497 0.462968
0.473071 0.462012 0.465483
0.480115 0.464527 0.467998
0.487159 0.467042 0.470513
0.494204 0.469557 0.473028
0.501248 0.472072 0.475543
0.508292 0.474587 0.478058
0.456875 0.463934 0.462875
0.463919 0.466449 0.465390
0.470964 0.468964 0.467905
0.478008 0.471479 0.470420
0.485052 0.473994 0.472935
0.492097 0.476509 0.475450
0.499141 0.479024 0.477965
0.506185 0.481539 0.480480
0.513230 0.484054 0.482996
0.461813 0.473401 0.467813
0.468857 0.475916 0.470328
0.475901 0.478431 0.472843
0.482946 0.480946 0.475358
0.489990 0.483461 0.477873
0.497034 0.485976 0.480388
0.504079 0.488491 0.482903
0.511123 0.491006 0.485418
0.518167 0.493521 0.487933
0.466750 0.482867 0.472750
0.473795 0.485382 0.475265
0.480839 0.487897 0.477780
0.487883 0.490413 0.480295
0.494928 0.492928 0.482810
0.501972 0.495443 0.485326
0.509016 0.497958 0.487841
0.516061 0.500473 0.490356
0.523105 0.502988 0.492871
0.471688 0.492334 0.477688
0.478732 0.494849 0.480203
0.485776 0.497364 0.482718
0.492821 0.499879 0.485233
0.499865 0.502394 0.487748
0.506909 0.504909 0.490263
0.513954 0.507425 0.492778
0.520998 0.509940 0.495293
0.528042 0.512455 0.497808
0.476625 0.501801 0.482625
0.483670 0.504316 0.485140
0.490714 0.506831 0.487655
0.497758 0.509346 0.490171
0.504803 0.511861 0.492686
0.511847 0.514376 0.495201
0.518891 0.516891 0.497716
0.525936 0.519406 0.500231
0.532980 0.521921 0.502746
0.481563 0.511268 0.487563
0.488607 0.513783 0.490078
0.495652 0.516298 0.492593
0.502696 0.518813 0.495108
0.509740 0.521328 0.497623
0.516785 0.523843 0.500138
0.523829 0.526358 0.502653
0.530873 0.528873 0.505168
0.537918 0.531388 0.507683
0.486501 0.520735 0.492501
0.493545 0.523250 0.495016
0.500589 0.525765 0.497531
0.507634 0.528280 0.500046
0.514678 0.530795 0.502561
0.521722 0.533310 0.505076
0.528767 0.535825 0.507591
0.535811 0.538340 0.510106
0.542855 0.540855 0.512621
0.447959 0.445959 0.458488
0.455003 0.448474 0.461003
0.462048 0.450989 0.463518
0.469092 0.453504 0.466033
0.476136 0.456019 0.468548
0.483181 0.458534 0.471063
0.490225 0.461049 0.473578
0.497269 0.463564 0.476094
0.504314 0.466079 0.478609
0.452896 0.455426 0.463426
0.459941 0.457941 0.465941
0.466985 0.460456 0.468456
0.474029 0.462971 0.470971
0.481074 0.465486 0.473486
0.488118 0.468001 0.476001
0.495162 0.470516 0.478516
0.502207 0.473031 0.481031
0.509251 0.475546 0.483546
0.457834 0.464893 0.468363
0.464878 0.467408 0.470878
0.471923 0.469923 0.473393
0.478967 0.472438 0.475908
0.486011 0.474953 0.478424
0.493056 0.477468 0.480939
0.500100 0.479983 0.483454
0.507144 0.482498 0.485969
0.514189 0.485013 0.488484
0.462772 0.474359 0.473301
0.469816 0.476875 0.475816
0.476860 0.479390 0.478331
0.483905 0.481905 0.480846
0.490949 0.484420 0.483361
0.497993 0.486935 0.485876
0.505038 0.489450 0.488391
0.512082 0.491965 0.490906
0.519126 0.494480 0.493421
0.467709 0.483826 0.478238
0.474754 0.486341 0.480754
0.481798 0.488856 0.483269
0.488842 0.491371 0.485784
0.495887 0.493887 0.488299
0.502931 0.496402 0.490814
0.509975 0.498917 0.493329
0.517019 0.501432 0.495844
0.524064 0.503947 0.498359
0.472647 0.493293 0.483176
0.479691 0.495808 0.485691
0.486735 0.498323 0.488206
0.493780 0.500838 0.490721
0.500824 0.503353 0.493236
0.507868 0.505868 0.495751
0.514913 0.508383 0.498266
0.521957 0.510898 0.500781
0.529001 0.513414 0.503296
0.477584 0.502760 0.488114
0.484629 0.505275 0.490629
0.491673 0.507790 0.493144
0.498717 0.510305 0.495659
0.505762 0.512820 0.498174
0.512806 0.515335 0.500689
0.519850 0.517850 0.503204
0.526895 0.520365 0.505719
0.533939 0.522880 0.508234
0.482522 0.512227 0.493051
0.489566 0.514742 0.495566
0.496611 0.517257 0.498081
0.503655 0.519772 0.500596
0.510699 0.522287 0.503111
0.517744 0.524802 0.505626
0.524788 0.527317 0.508141
0.531832 0.529832 0.510656
0.538877 0.532347 0.513172
0.487459 0.521694 0.497989
0.494504 0.524209 0.500504
0.501548 0.526724 0.503019
0.508592 0.529239 0.505534
0.515637 0.531754 0.508049
0.522681 0.534269 0.510564
0.529725 0.536784 0.513079
0.536770 0.539299 0.515594
0.543814 0.541814 0.518109
0.448918 0.446918 0.463976
0.455962 0.449433 0.466491
0.463006 0.451948 0.469006
0.470051 0.454463 0.471522
0.477095 0.456978 0.474037
0.484139 0.459493 0.476552
0.491184 0.462008 0.479067
0.498228 0.464523 0.481582
0.505272 0.467038 0.484097
0.453855 0.456385 0.468914
0.460900 0.458900 0.471429
0.467944 0.461415 0.473944
0.474988 0.463930 0.476459
0.482033 0.466445 0.478974
0.489077 0.468960 0.481489
0.496121 0.471475 0.484004
0.503166 0.473990 0.486519
0.510210 0.476505 0.489034
0.458793 0.465852 0.473852
0.465837 0.468367 0.476367
0.472882 0.470882 0.478882
0.479926 0.473397 0.481397
0.486970 0.475912 0.483912
0.494015 0.478427 0.486427
0.501059 0.480942 0.488942
0.508103 0.483457 0.491457
0.515148 0.485972 0.493972
0.463731 0.475318 0.478789
0.470775 0.477833 0.481304
0.477819 0.480348 0.483819
0.484864 0.482864 0.486334
0.491908 0.485379 0.488849
0.498952 0.487894 0.491364
0.505997 0.490409 0.493879
0.513041 0.492924 0.496394
0.520085 0.495439 0.498909
0.468668 0.484785 0.483727
0.475712 0.487300 0.486242
0.482757 0.489815 0.488757
0.489801 0.492330 0.491272
0.496845 0.494845 0.493787
0.503890 0.497360 0.496302
0.510934 0.499876 0.498817
0.517978 0.502391 0.501332
0.525023 0.504906 0.503847
0.473606 0.494252 0.488664
0.480650 0.496767 0.491179
0.487694 0.499282 0.493694
0.494739 0.501797 0.496209
0.501783 0.504312 0.498724
0.508827 0.506827 0.501239
0.515872 0.509342 0.503755
0.522916 0.511857 0.506270
0.529960 0.514372 0.508785
0.478543 0.503719 0.493602
0.485588 0.506234 0.496117
0.492632 0.508749 0.498632
0.499676 0.511264 0.501147
0.506721 0.513779 0.503662
0.513765 0.516294 0.506177
0.520809 0.518809 0.508692
0.527854 0.521324 0.511207
0.534898 0.523839 0.513722
0.483481 0.513186 0.498539
0.490525 0.515701 0.501054
0.497569 0.518216 0.503569
0.504614 0.520731 0.506085
0.511658 0.523246 0.508600
0.518702 0.525761 0.511115
0.525747 0.528276 0.513630
0.532791 0.530791 0.516145
0.539835 0.533306 0.518660
0.488418 0.522653 0.503477
0.495463 0.525168 0.505992
0.502507 0.527683 0.508507
0.509551 0.530198 0.511022
0.516596 0.532713 0.513537
0.523640 0.535228 0.516052
0.530684 0.537743 0.518567
0.537729 0.540258 0.521082
0.544773 0.542773 0.523597
0.449877 0.447877 0.469465
0.456921 0.450392 0.471980
0.463965 0.452907 0.474495
0.471010 0.455422 0.477010
0.478054 0.457937 0.479525
0.485098 0.460452 0.482040
0.492143 0.462967 0.484555
0.499187 0.465482 0.487070
0.506231 0.467997 0.489585
0.454814 0.457344 0.474402
0.461859 0.459859 0.476917
0.468903 0.462374 0.479432
0.475947 0.464889 0.481947
0.482992 0.467404 0.484462
0.490036 0.469919 0.486977
0.497080 0.472434 0.489492
0.504125 0.474949 0.492007
0.511169 0.477464 0.494523
0.459752 0.466810 0.479340
0.466796 0.469325 0.481855
0.473841 0.471841 0.484370
0.480885 0.474356 0.486885
0.487929 0.476871 0.489400
0.494974 0.479386 0.491915
0.502018 0.481901 0.494430
0.509062 0.484416 0.496945
0.516107 0.486931 0.499460
0.464689 0.476277 0.484277
0.471734 0.478792 0.486792
0.478778 0.481307 0.489307
0.485822 0.483822 0.491822
0.492867 0.486337 0.494337
0.499911 0.488853 0.496853
0.506955 0.491368 0.499368
0.514000 0.493883 0.501883
0.521044 0.496398 0.504398
0.469627 0.485744 0.489215
0.476671 0.488259 0.491730
0.483716 0.490774 0.494245
0.490760 0.493289 0.496760
0.497804 0.495804 0.499275
0.504849 0.498319 0.501790
0.511893 0.500834 0.504305
0.518937 0.503349 0.506820
0.525982 0.505865 0.509335
0.474565 0.495211 0.494152
0.481609 0.497726 0.496667
0.488653 0.500241 0.499183
0.495698 0.502756 0.501698
0.502742 0.505271 0.504213
0.509786 0.507786 0.506728
0.516831 0.510301 0.509243
0.523875 0.512816 0.511758
0.530919 0.515331 0.514273
0.479502 0.504678 0.499090
0.486546 0.507193 0.501605
0.493591 0.509708 0.504120
0.500635 0.512223 0.506635
0.507679 0.514738 0.509150
0.514724 0.517253 0.511665
0.521768 0.519768 0.514180
0.528812 0.522283 0.516695
0.535857 0.524798 0.519210
0.484440 0.514145 0.504028
0.491484 0.516660 0.506543
0.498528 0.519175 0.509058
0.505573 0.521690 0.511573
0.512617 0.524205 0.514088
0.519661 0.526720 0.516603
0.526706 0.529235 0.519118
0.533750 0.531750 0.521633
0.540794 0.534265 0.524148
0.489377 0.523612 0.508965
0.496422 0.526127 0.511480
0.503466 0.528642 0.513995
0.510510 0.531157 0.516510
0.517555 0.533672 0.519025
0.524599 0.536187 0.521540
0.531643 0.538702 0.524055
0.538688 0.541217 0.526570
0.545732 0.543732 0.529086
0.450836 0.448836 0.474953
0.457880 0.451351 0.477468
0.464924 0.453866 0.479983
0.471969 0.456381 0.482498
0.479013 0.458896 0.485013
0.486057 0.461411 0.487528
0.493102 0.463926 0.490043
0.500146 0.466441 0.492558
0.507190 0.468956 0.495073
0.455773 0.458303 0.479890
0.462818 0.460818 0.482405
0.469862 0.463333 0.484920
0.476906 0.465848 0.487435
0.483951 0.468363 0.489951
0.490995 0.470878 0.492466
0.498039 0.473393 0.494981
0.505084 0.475908 0.497496
0.512128 0.478423 0.500011
0.460711 0.467769 0.484828
0.467755 0.470284 0.487343
0.474799 0.472799 0.489858
0.481844 0.475314 0.492373
0.488888 0.477830 0.494888
0.495932 0.480345 0.497403
0.502977 0.482860 0.499918
0.510021 0.485375 0.502433
0.517065 0.487890 0.504948
0.465648 0.477236 0.489765
0.472693 0.479751 0.492281
0.479737 0.482266 0.494796
0.486781 0.484781 0.497311
0.493826 0.487296 0.499826
0.500870 0.489811 0.502341
0.507914 0.492326 0.504856
0.514959 0.494842 0.507371
0.522003 0.497357 0.509886
0.470586 0.486703 0.494703
0.477630 0.489218 0.497218
0.484675 0.491733 0.499733
0.491719 0.494248 0.502248
0.498763 0.496763 0.504763
0.505808 0.499278 0.507278
0.512852 0.501793 0.509793
0.519896 0.504308 0.512308
0.526941 0.506823 0.514823
0.475523 0.496170 0.499641
0.482568 0.498685 0.502156
0.489612 0.501200 0.504671
0.496656 0.503715 0.507186
0.503701 0.506230 0.509701
0.510745 0.508745 0.512216
0.517789 0.511260 0.514731
0.524834 0.513775 0.517246
0.531878 0.516290 0.519761
0.480461 0.505637 0.504578
0.487505 0.508152 0.507093
0.494550 0.510667 0.509608
0.501594 0.513182 0.512123
0.508638 0.515697 0.514638
0.515683 0.518212 0.517153
0.522727 0.520727 0.519668
0.529771 0.523242 0.522184
0.536816 0.525757 0.524699
0.485399 0.515104 0.509516
0.492443 0.517619 0.512031
0.499487 0.520134 0.514546
0.506532 0.522649 0.517061
0.513576 0.525164 0.519576
0.520620 0.527679 0.522091
0.527665 0.530194 0.524606
0.534709 0.532709 0.527121
0.541753 0.535224 0.529636
0.490336 0.524570 0.514453
0.497381 0.527086 0.516968
0.504425 0.529601 0.519483
0.511469 0.532116 0.521998
0.518514 0.534631 0.524514
0.525558 0.537146 0.527029
0.532602 0.539661 0.529544
0.539647 0.542176 0.532059
0.546691 0.544691 0.534574
0.451795 0.449795 0.480441
0.458839 0.452310 0.482956
0.465883 0.454825 0.485471
0.472928 0.457340 0.487986
0.479972 0.459855 0.490501
0.487016 0.462370 0.493016
0.494061 0.464885 0.495531
0.501105 0.467400 0.498046
0.508149 0.469915 0.500561
0.456732 0.459261 0.485379
0.463776 0.461776 0.487894
0.470821 0.464292 0.490409
0.477865 0.466807 0.492924
0.484909 0.469322 0.495439
0.491954 0.471837 0.497954
0.498998 0.474352 0.500469
0.506042 0.476867 0.502984
0.513087 0.479382 0.505499
0.461670 0.468728 0.490316
0.468714 0.471243 0.492831
0.475758 0.473758 0.495346
0.482803 0.476273 0.497861
0.489847 0.478788 0.500376
0.496891 0.481304 0.502891
0.503936 0.483819 0.505406
0.510980 0.486334 0.507921
0.518024 0.488849 0.510436
0.466607 0.478195 0.495254
0.473652 0.480710 0.497769
0.480696 0.483225 0.500284
0.487740 0.485740 0.502799
0.494785 0.488255 0.505314
0.501829 0.490770 0.507829
0.508873 0.493285 0.510344
0.515918 0.495800 0.512859
0.522962 0.498315 0.515374
0.471545 0.487662 0.500191
0.478589 0.490177 0.502706
0.485633 0.492692 0.505221
0.492678 0.495207 0.507736
0.499722 0.497722 0.510251
0.506766 0.500237 0.512766
0.513811 0.502752 0.515282
0.520855 0.505267 0.517797
0.527899 0.507782 0.520312
0.476482 0.497129 0.505129
0.483527 0.499644 0.507644
0.490571 0.502159 0.510159
0.497615 0.504674 0.512674
0.504660 0.507189 0.515189
0.511704 0.509704 0.517704
0.518748 0.512219 0.520219
0.525793 0.514734 0.522734
0.532837 0.517249 0.525249
0.481420 0.506596 0.510066
0.488464 0.509111 0.512581
0.495509 0.511626 0.515096
0.502553 0.514141 0.517612
0.509597 0.516656 0.520127
0.516642 0.519171 0.522642
0.523686 0.521686 0.525157
0.530730 0.524201 0.527672
0.537775 0.526716 0.530187
0.486358 0.516063 0.515004
0.493402 0.518578 0.517519
0.500446 0.521093 0.520034
0.507491 0.523608 0.522549
0.514535 0.526123 0.525064
0.521579 0.528638 0.527579
0.528624 0.531153 0.530094
0.535668 0.533668 0.532609
0.542712 0.536183 0.535124
0.491295 0.525529 0.519942
0.498339 0.528044 0.522457
0.505384 0.530559 0.524972
0.512428 0.533075 0.527487
0.519472 0.535590 0.530002
0.526517 0.538105 0.532517
0.533561 0.540620 0.535032
0.540605 0.543135 0.537547
0.547650 0.545650 0.540062
0.452753 0.450753 0.485929
0.459798 0.453269 0.488444
0.466842 0.455784 0.490959
0.473886 0.458299 0.493474
0.480931 0.460814 0.495989
0.487975 0.463329 0.498504
0.495019 0.465844 0.501019
0.502064 0.468359 0.503535
0.509108 0.470874 0.506050
0.457691 0.460220 0.490867
0.464735 0.462735 0.493382
0.471780 0.465250 0.495897
0.478824 0.467765 0.498412
0.485868 0.470281 0.500927
0.492913 0.472796 0.503442
0.499957 0.475311 0.505957
0.507001 0.477826 0.508472
0.514046 0.480341 0.510987
0.462629 0.469687 0.495804
0.469673 0.472202 0.498319
0.476717 0.474717 0.500834
0.483762 0.477232 0.503349
0.490806 0.479747 0.505865
0.497850 0.482262 0.508380
0.504895 0.484777 0.510895
0.511939 0.487293 0.513410
0.518983 0.489808 0.515925
0.467566 0.479154 0.500742
0.474611 0.481669 0.503257
0.481655 0.484184 0.505772
0.488699 0.486699 0.508287
0.495744 0.489214 0.510802
0.502788 0.491729 0.513317
0.509832 0.494244 0.515832
0.516877 0.496759 0.518347
0.523921 0.499274 0.520862
0.472504 0.488621 0.505679
0.479548 0.491136 0.508195
0.486592 0.493651 0.510710
0.493637 0.496166 0.513225
0.500681 0.498681 0.515740
0.507725 0.501196 0.518255
0.514770 0.503711 0.520770
0.521814 0.506226 0.523285
0.528858 0.508741 0.525800
0.477441 0.498088 0.510617
0.484486 0.500603 0.513132
0.491530 0.503118 0.515647
0.498574 0.505633 0.518162
0.505619 0.508148 0.520677
0.512663 0.510663 0.523192
0.519707 0.513178 0.525707
0.526752 0.515693 0.528222
0.533796 0.518208 0.530737
0.482379 0.507555 0.515555
0.489423 0.510070 0.518070
0.496468 0.512585 0.520585
0.503512 0.515100 0.523100
0.510556 0.517615 0.525615
0.517601 0.520130 0.528130
0.524645 0.522645 0.530645
0.531689 0.525160 0.533160
0.538734 0.527675 0.535675
0.487316 0.517021 0.520492
0.494361 0.519536 0.523007
0.501405 0.522052 0.525522
0.508449 0.524567 0.528037
0.515494 0.527082 0.530552
0.522538 0.529597 0.533067
0.529582 0.532112 0.535582
0.536627 0.534627 0.538097
0.543671 0.537142 0.540613
0.492254 0.526488 0.525430
0.499298 0.529003 0.527945
0.506343 0.531518 0.530460
0.513387 0.534033 0.532975
0.520431 0.536548 0.535490
0.527476 0.539064 0.538005
0.534520 0.541579 0.540520
0.541564 0.544094 0.543035
0.548609 0.546609 0.545550
0.453712 0.451712 0.491417
0.460757 0.454227 0.493932
0.467801 0.456742 0.496447
0.474845 0.459258 0.498963
0.481890 0.461773 0.501478
0.488934 0.464288 0.503993
0.495978 0.466803 0.506508
0.503023 0.469318 0.509023
0.510067 0.471833 0.511538
0.458650 0.461179 0.496355
0.465694 0.463694 0.498870
0.472739 0.466209 0.501385
0.479783 0.468724 0.503900
0.486827 0.471239 0.506415
0.493872 0.473754 0.508930
0.500916 0.476270 0.511445
0.507960 0.478785 0.513960
0.515005 0.481300 0.516475
0.463588 0.470646 0.501293
0.470632 0.473161 0.503808
0.477676 0.475676 0.506323
0.484721 0.478191 0.508838
0.491765 0.480706 0.511353
0.498809 0.483221 0.513868
0.505854 0.485736 0.516383
0.512898 0.488251 0.518898
0.519942 0.490766 0.521413
0.468525 0.480113 0.506230
0.475569 0.482628 0.508745
0.482614 0.485143 0.511260
0.489658 0.487658 0.513775
0.496702 0.490173 0.516290
0.503747 0.492688 0.518805
0.510791 0.495203 0.521320
0.517835 0.497718 0.523835
0.524880 0.500233 0.526350
0.473463 0.489580 0.511168
0.480507 0.492095 0.513683
0.487551 0.494610 0.516198
0.494596 0.497125 0.518713
0.501640 0.499640 0.521228
0.508684 0.502155 0.523743
0.515729 0.504670 0.526258
0.522773 0.507185 0.528773
0.529817 0.509700 0.531288
0.478400 0.499047 0.516105
0.485445 0.501562 0.518620
0.492489 0.504077 0.521135
0.499533 0.506592 0.523650
0.506578 0.509107 0.526165
0.513622 0.511622 0.528680
0.520666 0.514137 0.531196
0.527711 0.516652 0.533711
0.534755 0.519167 0.536226
0.483338 0.508514 0.521043
0.490382 0.511029 0.523558
0.497426 0.513544 0.526073
0.504471 0.516059 0.528588
0.511515 0.518574 0.531103
0.518559 0.521089 0.533618
0.525604 0.523604 0.536133
0.532648 0.526119 0.538648
0.539692 0.528634 0.541163
0.488275 0.517980 0.525980
0.495320 0.520495 0.528495
0.502364 0.523010 0.531010
0.509408 0.525525 0.533525
0.516453 0.528041 0.536041
0.523497 0.530556 0.538556
0.530541 0.533071 0.541071
0.537586 0.535586 0.543586
0.544630 0.538101 0.546101
0.493213 0.527447 0.530918
0.500257 0.529962 0.533433
0.507302 0.532477 0.535948
0.514346 0.534992 0.538463
0.521390 0.537507 0.540978
0.528435 0.540022 0.543493
0.535479 0.542537 0.546008
0.542523 0.545053 0.548523
0.549568 0.547568 0.551038
0.454671 0.452671 0.496906
0.461716 0.455186 0.499421
0.468760 0.457701 0.501936
0.475804 0.460216 0.504451
0.482849 0.462731 0.506966
0.489893 0.465247 0.509481
0.496937 0.467762 0.511996
0.503982 0.470277 0.514511
0.511026 0.472792 0.517026
0.459609 0.462138 0.501843
0.466653 0.464653 0.504358
0.473698 0.467168 0.506873
0.480742 0.469683 0.509388
0.487786 0.472198 0.511903
0.494831 0.474713 0.514418
0.501875 0.477228 0.516933
0.508919 0.479743 0.519448
0.515964 0.482259 0.521964
0.464546 0.471605 0.506781
0.471591 0.474120 0.509296
0.478635 0.476635 0.511811
0.485679 0.479150 0.514326
0.492724 0.481665 0.516841
0.499768 0.484180 0.519356
0.506812 0.486695 0.521871
0.513857 0.489210 0.524386
0.520901 0.491725 0.526901
0.469484 0.481072 0.511718
0.476528 0.483587 0.514233
0.483573 0.486102 0.516748
0.490617 0.488617 0.519263
0.497661 0.491132 0.521778
0.504706 0.493647 0.524294
0.511750 0.496162 0.526809
0.518794 0.498677 0.529324
0.525839 0.501192 0.531839
0.474422 0.490539 0.516656
0.481466 0.493054 0.519171
0.488510 0.495569 0.521686
0.495555 0.498084 0.524201
0.502599 0.500599 0.526716
0.509643 0.503114 0.529231
0.516688 0.505629 0.531746
0.523732 0.508144 0.534261
0.530776 0.510659 0.536776
0.479359 0.500006 0.521593
0.486403 0.502521 0.524108
0.493448 0.505036 0.526624
0.500492 0.507551 0.529139
0.507536 0.510066 0.531654
0.514581 0.512581 0.534169
0.521625 0.515096 0.536684
0.528669 0.517611 0.539199
0.535714 0.520126 0.541714
0.484297 0.509472 0.526531
0.491341 0.511987 0.529046
0.498385 0.514503 0.531561
0.505430 0.517018 0.534076
0.512474 0.519533 0.536591
0.519518 0.522048 0.539106
0.526563 0.524563 0.541621
0.533607 0.527078 0.544136
0.540651 0.529593 0.546651
0.489234 0.518939 0.531469
0.496279 0.521454 0.533984
0.503323 0.523969 0.536499
0.510367 0.526484 0.539014
0.517412 0.528999 0.541529
0.524456 0.531515 0.544044
0.531500 0.534030 0.546559
0.538545 0.536545 0.549074
0.545589 0.539060 0.551589
0.494172 0.528406 0.536406
0.501216 0.530921 0.538921
0.508261 0.533436 0.541436
0.515305 0.535951 0.543951
0.522349 0.538466 0.546466
0.529394 0.540981 0.548981
0.536438 0.543496 0.551496
0.543482 0.546011 0.554011
0.550526 0.548526 0.556526
