shared/src/main/assets/luts/mv_candy_space.cube
TITLE "DALUR Candy Space"
LUT_3D_SIZE 5
DOMAIN_MIN 0.0 0.0 0.0
DOMAIN_MAX 1.0 1.0 1.0
0.447000 0.445000 0.453000
0.461089 0.450030 0.458030
0.475177 0.455060 0.463060
0.489266 0.460090 0.468090
0.503355 0.465120 0.473120
0.456875 0.463934 0.462875
0.470964 0.468964 0.467905
0.485052 0.473994 0.472935
0.499141 0.479024 0.477965
0.513230 0.484054 0.482996
0.466750 0.482867 0.472750
0.480839 0.487897 0.477780
0.494928 0.492928 0.482810
0.509016 0.497958 0.487841
0.523105 0.502988 0.492871
0.476625 0.501801 0.482625
0.490714 0.506831 0.487655
0.504803 0.511861 0.492686
0.518891 0.516891 0.497716
0.532980 0.521921 0.502746
0.486501 0.520735 0.492501
0.500589 0.525765 0.497531
0.514678 0.530795 0.502561
0.528767 0.535825 0.507591
0.542855 0.540855 0.512621
0.448918 0.446918 0.463976
0.463006 0.451948 0.469006
0.477095 0.456978 0.474037
0.491184 0.462008 0.479067
0.505272 0.467038 0.484097
0.458793 0.465852 0.473852
0.472882 0.470882 0.478882
0.486970 0.475912 0.483912
0.501059 0.480942 0.488942
0.515148 0.485972 0.493972
0.468668 0.484785 0.483727
0.482757 0.489815 0.488757
0.496845 0.494845 0.493787
0.510934 0.499876 0.498817
0.525023 0.504906 0.503847
0.478543 0.503719 0.493602
0.492632 0.508749 0.498632
0.506721 0.513779 0.503662
0.520809 0.518809 0.508692
0.534898 0.523839 0.513722
0.488418 0.522653 0.503477
0.502507 0.527683 0.508507
0.516596 0.532713 0.513537
0.530684 0.537743 0.518567
0.544773 0.542773 0.523597
0.450836 0.448836 0.474953
0.464924 0.453866 0.479983
0.479013 0.458896 0.485013
0.493102 0.463926 0.490043
0.507190 0.468956 0.495073
0.460711 0.467769 0.484828
0.474799 0.472799 0.489858
0.488888 0.477830 0.494888
0.502977 0.482860 0.499918
0.517065 0.487890 0.504948
0.470586 0.486703 0.494703
0.484675 0.491733 0.499733
0.498763 0.496763 0.504763
0.512852 0.501793 0.509793
0.526941 0.506823 0.514823
0.480461 0.505637 0.504578
0.494550 0.510667 0.509608
0.508638 0.515697 0.514638
0.522727 0.520727 0.519668
0.536816 0.525757 0.524699
0.490336 0.524570 0.514453
0.504425 0.529601 0.519483
0.518514 0.534631 0.524514
0.532602 0.539661 0.529544
0.546691 0.544691 0.534574
0.452753 0.450753 0.485929
0.466842 0.455784 0.490959
0.480931 0.460814 0.495989
0.495019 0.465844 0.501019
0.509108 0.470874 0.506050
0.462629 0.469687 0.495804
0.476717 0.474717 0.500834
0.490806 0.479747 0.505865
0.504895 0.484777 0.510895
0.518983 0.489808 0.515925
0.472504 0.488621 0.505679
0.486592 0.493651 0.510710
0.500681 0.498681 0.515740
0.514770 0.503711 0.520770
0.528858 0.508741 0.525800
0.482379 0.507555 0.515555
0.496468 0.512585 0.520585
0.510556 0.517615 0.525615
0.524645 0.522645 0.530645
0.538734 0.527675 0.535675
0.492254 0.526488 0.525430
0.506343 0.531518 0.530460
0.520431 0.536548 0.535490
0.534520 0.541579 0.540520
0.548609 0.546609 0.545550
0.454671 0.452671 0.496906
0.468760 0.457701 0.501936
0.482849 0.462731 0.506966
0.496937 0.467762 0.511996
0.511026 0.472792 0.517026
0.464546 0.471605 0.506781
0.478635 0.476635 0.511811
0.492724 0.481665 0.516841
0.506812 0.486695 0.521871
0.520901 0.491725 0.526901
0.474422 0.490539 0.516656
0.488510 0.495569 0.521686
0.502599 0.500599 0.526716
0.516688 0.505629 0.531746
0.530776 0.510659 0.536776
0.484297 0.509472 0.526531
0.498385 0.514503 0.531561
0.512474 0.519533 0.536591
0.526563 0.524563 0.541621
0.540651 0.529593 0.546651
0.494172 0.528406 0.536406
0.508261 0.533436 0.541436
0.522349 0.538466 0.546466
0.536438 0.543496 0.551496
0.550526 0.548526 0.556526
