shared/src/main/assets/luts/mv_candy_space.cube
TITLE "DALUR Candy Space"
LUT_3D_SIZE 17
DOMAIN_MIN 0.0 0.0 0.0
DOMAIN_MAX 1.0 1.0 1.0
0.447000 0.445000 0.453000
0.450522 0.446258 0.454258
0.454044 0.447515 0.455515
0.457566 0.448773 0.456773
0.461089 0.450030 0.458030
0.464611 0.451288 0.459288
0.468133 0.452545 0.460545
0.471655 0.453803 0.461803
0.475177 0.455060 0.463060
0.478699 0.456318 0.464318
0.482222 0.457575 0.465575
0.485744 0.458833 0.466833
0.489266 0.460090 0.468090
0.492788 0.461348 0.469348
0.496310 0.462605 0.470605
0.499832 0.463863 0.471863
0.503355 0.465120 0.473120
0.449469 0.449733 0.455469
0.452991 0.450991 0.456726
0.456513 0.452248 0.457984
0.460035 0.453506 0.459241
0.463557 0.454764 0.460499
0.467080 0.456021 0.461756
0.470602 0.457279 0.463014
0.474124 0.458536 0.464271
0.477646 0.459794 0.465529
0.481168 0.461051 0.466786
0.484690 0.462309 0.468044
0.488213 0.463566 0.469302
0.491735 0.464824 0.470559
0.495257 0.466081 0.471817
0.498779 0.467339 0.473074
0.502301 0.468596 0.474332
0.505823 0.469854 0.475589
0.451938 0.454467 0.457938
0.455460 0.455724 0.459195
0.458982 0.456982 0.460453
0.462504 0.458239 0.461710
0.466026 0.459497 0.462968
0.469548 0.460754 0.464225
0.473071 0.462012 0.465483
0.476593 0.463270 0.466740
0.480115 0.464527 0.467998
0.483637 0.465785 0.469255
0.487159 0.467042 0.470513
0.490681 0.468300 0.471770
0.494204 0.469557 0.473028
0.497726 0.470815 0.474285
0.501248 0.472072 0.475543
0.504770 0.473330 0.476800
0.508292 0.474587 0.478058
0.454406 0.459200 0.460406
0.457929 0.460458 0.461664
0.461451 0.461715 0.462921
0.464973 0.462973 0.464179
0.468495 0.464230 0.465436
0.472017 0.465488 0.466694
0.475539 0.466745 0.467951
0.479062 0.468003 0.469209
0.482584 0.469260 0.470467
0.486106 0.470518 0.471724
0.489628 0.471776 0.472982
0.493150 0.473033 0.474239
0.496672 0.474291 0.475497
0.500194 0.475548 0.476754
0.503717 0.476806 0.478012
0.507239 0.478063 0.479269
0.510761 0.479321 0.480527
0.456875 0.463934 0.462875
0.460397 0.465191 0.464133
0.463919 0.466449 0.465390
0.467442 0.467706 0.466648
0.470964 0.468964 0.467905
0.474486 0.470221 0.469163
0.478008 0.471479 0.470420
0.481530 0.472736 0.471678
0.485052 0.473994 0.472935
0.488575 0.475251 0.474193
0.492097 0.476509 0.475450
0.495619 0.477766 0.476708
0.499141 0.479024 0.477965
0.502663 0.480282 0.479223
0.506185 0.481539 0.480480
0.509708 0.482797 0.481738
0.513230 0.484054 0.482996
0.459344 0.468667 0.465344
0.462866 0.469925 0.466601
0.466388 0.471182 0.467859
0.469910 0.472440 0.469116
0.473433 0.473697 0.470374
0.476955 0.474955 0.471632
0.480477 0.476212 0.472889
0.483999 0.477470 0.474147
0.487521 0.478727 0.475404
0.491043 0.479985 0.476662
0.494566 0.481242 0.477919
0.498088 0.482500 0.479177
0.501610 0.483757 0.480434
0.505132 0.485015 0.481692
0.508654 0.486272 0.482949
0.512176 0.487530 0.484207
0.515699 0.488788 0.485464
0.461813 0.473401 0.467813
0.465335 0.474658 0.469070
0.468857 0.475916 0.470328
0.472379 0.477173 0.471585
0.475901 0.478431 0.472843
0.479424 0.479688 0.474100
0.482946 0.480946 0.475358
0.486468 0.482203 0.476615
0.489990 0.483461 0.477873
0.493512 0.484718 0.479130
0.497034 0.485976 0.480388
0.500557 0.487233 0.481645
0.504079 0.488491 0.482903
0.507601 0.489748 0.484161
0.511123 0.491006 0.485418
0.514645 0.492263 0.486676
0.518167 0.493521 0.487933
0.464281 0.478134 0.470281
0.467804 0.479392 0.471539
0.471326 0.480649 0.472797
0.474848 0.481907 0.474054
0.478370 0.483164 0.475312
0.481892 0.484422 0.476569
0.485414 0.485679 0.477827
0.488937 0.486937 0.479084
0.492459 0.488194 0.480342
0.495981 0.489452 0.481599
0.499503 0.490709 0.482857
0.503025 0.491967 0.484114
0.506547 0.493224 0.485372
0.510070 0.494482 0.486629
0.513592 0.495739 0.487887
0.517114 0.496997 0.489144
0.520636 0.498254 0.490402
0.466750 0.482867 0.472750
0.470272 0.484125 0.474008
0.473795 0.485382 0.475265
0.477317 0.486640 0.476523
0.480839 0.487897 0.477780
0.484361 0.489155 0.479038
0.487883 0.490413 0.480295
0.491405 0.491670 0.481553
0.494928 0.492928 0.482810
0.498450 0.494185 0.484068
0.501972 0.495443 0.485326
0.505494 0.496700 0.486583
0.509016 0.497958 0.487841
0.512538 0.499215 0.489098
0.516061 0.500473 0.490356
0.519583 0.501730 0.491613
0.523105 0.502988 0.492871
0.469219 0.487601 0.475219
0.472741 0.488858 0.476477
0.476263 0.490116 0.477734
0.479786 0.491373 0.478992
0.483308 0.492631 0.480249
0.486830 0.493888 0.481507
0.490352 0.495146 0.482764
0.493874 0.496403 0.484022
0.497396 0.497661 0.485279
0.500919 0.498919 0.486537
0.504441 0.500176 0.487794
0.507963 0.501434 0.489052
0.511485 0.502691 0.490309
0.515007 0.503949 0.491567
0.518529 0.505206 0.492824
0.522052 0.506464 0.494082
0.525574 0.507721 0.495339
0.471688 0.492334 0.477688
0.475210 0.493592 0.478945
0.478732 0.494849 0.480203
0.482254 0.496107 0.481460
0.485776 0.497364 0.482718
0.489299 0.498622 0.483975
0.492821 0.499879 0.485233
0.496343 0.501137 0.486490
0.499865 0.502394 0.487748
0.503387 0.503652 0.489006
0.506909 0.504909 0.490263
0.510432 0.506167 0.491521
0.513954 0.507425 0.492778
0.517476 0.508682 0.494036
0.520998 0.509940 0.495293
0.524520 0.511197 0.496551
0.528042 0.512455 0.497808
0.474157 0.497068 0.480157
0.477679 0.498325 0.481414
0.481201 0.499583 0.482672
0.484723 0.500840 0.483929
0.488245 0.502098 0.485187
0.491767 0.503355 0.486444
0.495290 0.504613 0.487702
0.498812 0.505870 0.488959
0.502334 0.507128 0.490217
0.505856 0.508385 0.491474
0.509378 0.509643 0.492732
0.512900 0.510900 0.493989
0.516423 0.512158 0.495247
0.519945 0.513415 0.496504
0.523467 0.514673 0.497762
0.526989 0.515931 0.499019
0.530511 0.517188 0.500277
0.476625 0.501801 0.482625
0.480148 0.503059 0.483883
0.483670 0.504316 0.485140
0.487192 0.505574 0.486398
0.490714 0.506831 0.487655
0.494236 0.508089 0.488913
0.497758 0.509346 0.490171
0.501281 0.510604 0.491428
0.504803 0.511861 0.492686
0.508325 0.513119 0.493943
0.511847 0.514376 0.495201
0.515369 0.515634 0.496458
0.518891 0.516891 0.497716
0.522414 0.518149 0.498973
0.525936 0.519406 0.500231
0.529458 0.520664 0.501488
0.532980 0.521921 0.502746
0.479094 0.506535 0.485094
0.482616 0.507792 0.486352
0.486139 0.509050 0.487609
0.489661 0.510307 0.488867
0.493183 0.511565 0.490124
0.496705 0.512822 0.491382
0.500227 0.514080 0.492639
0.503749 0.515337 0.493897
0.507272 0.516595 0.495154
0.510794 0.517852 0.496412
0.514316 0.519110 0.497669
0.517838 0.520367 0.498927
0.521360 0.521625 0.500184
0.524882 0.522882 0.501442
0.528404 0.524140 0.502700
0.531927 0.525397 0.503957
0.535449 0.526655 0.505215
0.481563 0.511268 0.487563
0.485085 0.512525 0.488820
0.488607 0.513783 0.490078
0.492129 0.515041 0.491336
0.495652 0.516298 0.492593
0.499174 0.517556 0.493851
0.502696 0.518813 0.495108
0.506218 0.520071 0.496366
0.509740 0.521328 0.497623
0.513262 0.522586 0.498881
0.516785 0.523843 0.500138
0.520307 0.525101 0.501396
0.523829 0.526358 0.502653
0.527351 0.527616 0.503911
0.530873 0.528873 0.505168
0.534395 0.530131 0.506426
0.537918 0.531388 0.507683
0.484032 0.516001 0.490032
0.487554 0.517259 0.491289
0.491076 0.518516 0.492547
0.494598 0.519774 0.493804
0.498120 0.521031 0.495062
0.501643 0.522289 0.496319
0.505165 0.523547 0.497577
0.508687 0.524804 0.498834
0.512209 0.526062 0.500092
0.515731 0.527319 0.501349
0.519253 0.528577 0.502607
0.522776 0.529834 0.503865
0.526298 0.531092 0.505122
0.529820 0.532349 0.506380
0.533342 0.533607 0.507637
0.536864 0.534864 0.508895
0.540386 0.536122 0.510152
0.486501 0.520735 0.492501
0.490023 0.521992 0.493758
0.493545 0.523250 0.495016
0.497067 0.524507 0.496273
0.500589 0.525765 0.497531
0.504111 0.527022 0.498788
0.507634 0.528280 0.500046
0.511156 0.529537 0.501303
0.514678 0.530795 0.502561
0.518200 0.532053 0.503818
0.521722 0.533310 0.505076
0.525244 0.534568 0.506333
0.528767 0.535825 0.507591
0.532289 0.537083 0.508848
0.535811 0.538340 0.510106
0.539333 0.539598 0.511363
0.542855 0.540855 0.512621
0.447479 0.445479 0.455744
0.451002 0.446737 0.457002
0.454524 0.447995 0.458259
0.458046 0.449252 0.459517
0.461568 0.450510 0.460774
0.465090 0.451767 0.462032
0.468612 0.453025 0.463289
0.472135 0.454282 0.464547
0.475657 0.455540 0.465804
0.479179 0.456797 0.467062
0.482701 0.458055 0.468319
0.486223 0.459312 0.469577
0.489745 0.460570 0.470834
0.493268 0.461827 0.472092
0.496790 0.463085 0.473349
0.500312 0.464342 0.474607
0.503834 0.465600 0.475864
0.449948 0.450213 0.458213
0.453470 0.451470 0.459470
0.456993 0.452728 0.460728
0.460515 0.453985 0.461985
0.464037 0.455243 0.463243
0.467559 0.456500 0.464500
0.471081 0.457758 0.465758
0.474603 0.459016 0.467016
0.478126 0.460273 0.468273
0.481648 0.461531 0.469531
0.485170 0.462788 0.470788
0.488692 0.464046 0.472046
0.492214 0.465303 0.473303
0.495736 0.466561 0.474561
0.499259 0.467818 0.475818
0.502781 0.469076 0.477076
0.506303 0.470333 0.478333
0.452417 0.454946 0.460682
0.455939 0.456204 0.461939
0.459461 0.457461 0.463197
0.462984 0.458719 0.464454
0.466506 0.459976 0.465712
0.470028 0.461234 0.466969
0.473550 0.462491 0.468227
0.477072 0.463749 0.469484
0.480594 0.465006 0.470742
0.484117 0.466264 0.471999
0.487639 0.467522 0.473257
0.491161 0.468779 0.474514
0.494683 0.470037 0.475772
0.498205 0.471294 0.477029
0.501727 0.472552 0.478287
0.505250 0.473809 0.479545
0.508772 0.475067 0.480802
0.454886 0.459680 0.463150
0.458408 0.460937 0.464408
0.461930 0.462195 0.465665
0.465452 0.463452 0.466923
0.468974 0.464710 0.468181
0.472497 0.465967 0.469438
0.476019 0.467225 0.470696
0.479541 0.468482 0.471953
0.483063 0.469740 0.473211
0.486585 0.470997 0.474468
0.490107 0.472255 0.475726
0.493630 0.473512 0.476983
0.497152 0.474770 0.478241
0.500674 0.476028 0.479498
0.504196 0.477285 0.480756
0.507718 0.478543 0.482013
0.511240 0.479800 0.483271
0.457355 0.464413 0.465619
0.460877 0.465671 0.466877
0.464399 0.466928 0.468134
0.467921 0.468186 0.469392
0.471443 0.469443 0.470649
0.474965 0.470701 0.471907
0.478488 0.471958 0.473164
0.482010 0.473216 0.474422
0.485532 0.474473 0.475679
0.489054 0.475731 0.476937
0.492576 0.476988 0.478194
0.496098 0.478246 0.479452
0.499621 0.479503 0.480710
0.503143 0.480761 0.481967
0.506665 0.482018 0.483225
0.510187 0.483276 0.484482
0.513709 0.484534 0.485740
0.459823 0.469147 0.468088
0.463346 0.470404 0.469346
0.466868 0.471662 0.470603
0.470390 0.472919 0.471861
0.473912 0.474177 0.473118
0.477434 0.475434 0.474376
0.480956 0.476692 0.475633
0.484479 0.477949 0.476891
0.488001 0.479207 0.478148
0.491523 0.480464 0.479406
0.495045 0.481722 0.480663
0.498567 0.482979 0.481921
0.502089 0.484237 0.483178
0.505612 0.485494 0.484436
0.509134 0.486752 0.485693
0.512656 0.488009 0.486951
0.516178 0.489267 0.488208
0.462292 0.473880 0.470557
0.465814 0.475138 0.471814
0.469336 0.476395 0.473072
0.472859 0.477653 0.474329
0.476381 0.478910 0.475587
0.479903 0.480168 0.476844
0.483425 0.481425 0.478102
0.486947 0.482683 0.479359
0.490469 0.483940 0.480617
0.493992 0.485198 0.481875
0.497514 0.486455 0.483132
0.501036 0.487713 0.484390
0.504558 0.488970 0.485647
0.508080 0.490228 0.486905
0.511602 0.491485 0.488162
0.515125 0.492743 0.489420
0.518647 0.494000 0.490677
0.464761 0.478613 0.473026
0.468283 0.479871 0.474283
0.471805 0.481128 0.475541
0.475327 0.482386 0.476798
0.478850 0.483644 0.478056
0.482372 0.484901 0.479313
0.485894 0.486159 0.480571
0.489416 0.487416 0.481828
0.492938 0.488674 0.483086
0.496460 0.489931 0.484343
0.499983 0.491189 0.485601
0.503505 0.492446 0.486858
0.507027 0.493704 0.488116
0.510549 0.494961 0.489373
0.514071 0.496219 0.490631
0.517593 0.497476 0.491888
0.521116 0.498734 0.493146
0.467230 0.483347 0.475494
0.470752 0.484604 0.476752
0.474274 0.485862 0.478009
0.477796 0.487119 0.479267
0.481318 0.488377 0.480524
0.484841 0.489634 0.481782
0.488363 0.490892 0.483040
0.491885 0.492150 0.484297
0.495407 0.493407 0.485555
0.498929 0.494665 0.486812
0.502451 0.495922 0.488070
0.505974 0.497180 0.489327
0.509496 0.498437 0.490585
0.513018 0.499695 0.491842
0.516540 0.500952 0.493100
0.520062 0.502210 0.494357
0.523584 0.503467 0.495615
0.469699 0.488080 0.477963
0.473221 0.489338 0.479221
0.476743 0.490595 0.480478
0.480265 0.491853 0.481736
0.483787 0.493110 0.482993
0.487309 0.494368 0.484251
0.490831 0.495625 0.485508
0.494354 0.496883 0.486766
0.497876 0.498140 0.488023
0.501398 0.499398 0.489281
0.504920 0.500656 0.490538
0.508442 0.501913 0.491796
0.511964 0.503171 0.493053
0.515487 0.504428 0.494311
0.519009 0.505686 0.495568
0.522531 0.506943 0.496826
0.526053 0.508201 0.498084
0.472167 0.492814 0.480432
0.475689 0.494071 0.481689
0.479212 0.495329 0.482947
0.482734 0.496586 0.484205
0.486256 0.497844 0.485462
0.489778 0.499101 0.486720
0.493300 0.500359 0.487977
0.496822 0.501616 0.489235
0.500345 0.502874 0.490492
0.503867 0.504131 0.491750
0.507389 0.505389 0.493007
0.510911 0.506646 0.494265
0.514433 0.507904 0.495522
0.517955 0.509162 0.496780
0.521478 0.510419 0.498037
0.525000 0.511677 0.499295
0.528522 0.512934 0.500552
0.474636 0.497547 0.482901
0.478158 0.498805 0.484158
0.481680 0.500062 0.485416
0.485203 0.501320 0.486673
0.488725 0.502577 0.487931
0.492247 0.503835 0.489188
0.495769 0.505092 0.490446
0.499291 0.506350 0.491703
0.502813 0.507607 0.492961
0.506336 0.508865 0.494218
0.509858 0.510122 0.495476
0.513380 0.511380 0.496733
0.516902 0.512637 0.497991
0.520424 0.513895 0.499249
0.523946 0.515152 0.500506
0.527469 0.516410 0.501764
0.530991 0.517668 0.503021
0.477105 0.502281 0.485369
0.480627 0.503538 0.486627
0.484149 0.504796 0.487885
0.487671 0.506053 0.489142
0.491194 0.507311 0.490400
0.494716 0.508568 0.491657
0.498238 0.509826 0.492915
0.501760 0.511083 0.494172
0.505282 0.512341 0.495430
0.508804 0.513598 0.496687
0.512327 0.514856 0.497945
0.515849 0.516113 0.499202
0.519371 0.517371 0.500460
0.522893 0.518628 0.501717
0.526415 0.519886 0.502975
0.529937 0.521143 0.504232
0.533460 0.522401 0.505490
0.479574 0.507014 0.487838
0.483096 0.508272 0.489096
0.486618 0.509529 0.490353
0.490140 0.510787 0.491611
0.493662 0.512044 0.492868
0.497184 0.513302 0.494126
0.500707 0.514559 0.495383
0.504229 0.515817 0.496641
0.507751 0.517074 0.497898
0.511273 0.518332 0.499156
0.514795 0.519589 0.500414
0.518317 0.520847 0.501671
0.521840 0.522104 0.502929
0.525362 0.523362 0.504186
0.528884 0.524619 0.505444
0.532406 0.525877 0.506701
0.535928 0.527134 0.507959
0.482042 0.511747 0.490307
0.485565 0.513005 0.491565
0.489087 0.514262 0.492822
0.492609 0.515520 0.494080
0.496131 0.516778 0.495337
0.499653 0.518035 0.496595
0.503175 0.519293 0.497852
0.506698 0.520550 0.499110
0.510220 0.521808 0.500367
0.513742 0.523065 0.501625
0.517264 0.524323 0.502882
0.520786 0.525580 0.504140
0.524308 0.526838 0.505397
0.527831 0.528095 0.506655
0.531353 0.529353 0.507912
0.534875 0.530610 0.509170
0.538397 0.531868 0.510427
0.484511 0.516481 0.492776
0.488033 0.517738 0.494033
0.491556 0.518996 0.495291
0.495078 0.520253 0.496548
0.498600 0.521511 0.497806
0.502122 0.522768 0.499063
0.505644 0.524026 0.500321
0.509166 0.525284 0.501579
0.512689 0.526541 0.502836
0.516211 0.527799 0.504094
0.519733 0.529056 0.505351
0.523255 0.530314 0.506609
0.526777 0.531571 0.507866
0.530299 0.532829 0.509124
0.533822 0.534086 0.510381
0.537344 0.535344 0.511639
0.540866 0.536601 0.512896
0.486980 0.521214 0.495245
0.490502 0.522472 0.496502
0.494024 0.523729 0.497760
0.497546 0.524987 0.499017
0.501069 0.526244 0.500275
0.504591 0.527502 0.501532
0.508113 0.528759 0.502790
0.511635 0.530017 0.504047
0.515157 0.531274 0.505305
0.518679 0.532532 0.506562
0.522202 0.533789 0.507820
0.525724 0.535047 0.509077
0.529246 0.536305 0.510335
0.532768 0.537562 0.511592
0.536290 0.538820 0.512850
0.539812 0.540077 0.514107
0.543335 0.541335 0.515365
0.447959 0.445959 0.458488
0.451481 0.447216 0.459746
0.455003 0.448474 0.461003
0.458525 0.449731 0.462261
0.462048 0.450989 0.463518
0.465570 0.452247 0.464776
0.469092 0.453504 0.466033
0.472614 0.454762 0.467291
0.476136 0.456019 0.468548
0.479658 0.457277 0.469806
0.483181 0.458534 0.471063
0.486703 0.459792 0.472321
0.490225 0.461049 0.473578
0.493747 0.462307 0.474836
0.497269 0.463564 0.476094
0.500791 0.464822 0.477351
0.504314 0.466079 0.478609
0.450428 0.450692 0.460957
0.453950 0.451950 0.462215
0.457472 0.453207 0.463472
0.460994 0.454465 0.464730
0.464516 0.455722 0.465987
0.468039 0.456980 0.467245
0.471561 0.458237 0.468502
0.475083 0.459495 0.469760
0.478605 0.460753 0.471017
0.482127 0.462010 0.472275
0.485649 0.463268 0.473532
0.489172 0.464525 0.474790
0.492694 0.465783 0.476047
0.496216 0.467040 0.477305
0.499738 0.468298 0.478562
0.503260 0.469555 0.479820
0.506782 0.470813 0.481077
0.452896 0.455426 0.463426
0.456419 0.456683 0.464683
0.459941 0.457941 0.465941
0.463463 0.459198 0.467198
0.466985 0.460456 0.468456
0.470507 0.461713 0.469713
0.474029 0.462971 0.470971
0.477552 0.464228 0.472228
0.481074 0.465486 0.473486
0.484596 0.466743 0.474743
0.488118 0.468001 0.476001
0.491640 0.469259 0.477259
0.495162 0.470516 0.478516
0.498685 0.471774 0.479774
0.502207 0.473031 0.481031
0.505729 0.474289 0.482289
0.509251 0.475546 0.483546
0.455365 0.460159 0.465895
0.458887 0.461417 0.467152
0.462410 0.462674 0.468410
0.465932 0.463932 0.469667
0.469454 0.465189 0.470925
0.472976 0.466447 0.472182
0.476498 0.467704 0.473440
0.480020 0.468962 0.474697
0.483543 0.470219 0.475955
0.487065 0.471477 0.477212
0.490587 0.472734 0.478470
0.494109 0.473992 0.479727
0.497631 0.475249 0.480985
0.501153 0.476507 0.482242
0.504676 0.477765 0.483500
0.508198 0.479022 0.484757
0.511720 0.480280 0.486015
0.457834 0.464893 0.468363
0.461356 0.466150 0.469621
0.464878 0.467408 0.470878
0.468401 0.468665 0.472136
0.471923 0.469923 0.473393
0.475445 0.471180 0.474651
0.478967 0.472438 0.475908
0.482489 0.473695 0.477166
0.486011 0.474953 0.478424
0.489534 0.476210 0.479681
0.493056 0.477468 0.480939
0.496578 0.478725 0.482196
0.500100 0.479983 0.483454
0.503622 0.481240 0.484711
0.507144 0.482498 0.485969
0.510667 0.483755 0.487226
0.514189 0.485013 0.488484
0.460303 0.469626 0.470832
0.463825 0.470884 0.472090
0.467347 0.472141 0.473347
0.470869 0.473399 0.474605
0.474391 0.474656 0.475862
0.477914 0.475914 0.477120
0.481436 0.477171 0.478377
0.484958 0.478429 0.479635
0.488480 0.479686 0.480892
0.492002 0.480944 0.482150
0.495524 0.482201 0.483407
0.499047 0.483459 0.484665
0.502569 0.484716 0.485922
0.506091 0.485974 0.487180
0.509613 0.487231 0.488437
0.513135 0.488489 0.489695
0.516657 0.489746 0.490952
0.462772 0.474359 0.473301
0.466294 0.475617 0.474558
0.469816 0.476875 0.475816
0.473338 0.478132 0.477073
0.476860 0.479390 0.478331
0.480382 0.480647 0.479589
0.483905 0.481905 0.480846
0.487427 0.483162 0.482104
0.490949 0.484420 0.483361
0.494471 0.485677 0.484619
0.497993 0.486935 0.485876
0.501515 0.488192 0.487134
0.505038 0.489450 0.488391
0.508560 0.490707 0.489649
0.512082 0.491965 0.490906
0.515604 0.493222 0.492164
0.519126 0.494480 0.493421
0.465240 0.479093 0.475770
0.468763 0.480350 0.477027
0.472285 0.481608 0.478285
0.475807 0.482865 0.479542
0.479329 0.484123 0.480800
0.482851 0.485381 0.482057
0.486373 0.486638 0.483315
0.489896 0.487896 0.484572
0.493418 0.489153 0.485830
0.496940 0.490411 0.487087
0.500462 0.491668 0.488345
0.503984 0.492926 0.489602
0.507506 0.494183 0.490860
0.511029 0.495441 0.492117
0.514551 0.496698 0.493375
0.518073 0.497956 0.494633
0.521595 0.499213 0.495890
0.467709 0.483826 0.478238
0.471231 0.485084 0.479496
0.474754 0.486341 0.480754
0.478276 0.487599 0.482011
0.481798 0.488856 0.483269
0.485320 0.490114 0.484526
0.488842 0.491371 0.485784
0.492364 0.492629 0.487041
0.495887 0.493887 0.488299
0.499409 0.495144 0.489556
0.502931 0.496402 0.490814
0.506453 0.497659 0.492071
0.509975 0.498917 0.493329
0.513497 0.500174 0.494586
0.517019 0.501432 0.495844
0.520542 0.502689 0.497101
0.524064 0.503947 0.498359
0.470178 0.488560 0.480707
0.473700 0.489817 0.481965
0.477222 0.491075 0.483222
0.480744 0.492332 0.484480
0.484267 0.493590 0.485737
0.487789 0.494847 0.486995
0.491311 0.496105 0.488252
0.494833 0.497362 0.489510
0.498355 0.498620 0.490767
0.501877 0.499877 0.492025
0.505400 0.501135 0.493282
0.508922 0.502392 0.494540
0.512444 0.503650 0.495798
0.515966 0.504908 0.497055
0.519488 0.506165 0.498313
0.523010 0.507423 0.499570
0.526533 0.508680 0.500828
0.472647 0.493293 0.483176
0.476169 0.494551 0.484434
0.479691 0.495808 0.485691
0.483213 0.497066 0.486949
0.486735 0.498323 0.488206
0.490258 0.499581 0.489464
0.493780 0.500838 0.490721
0.497302 0.502096 0.491979
0.500824 0.503353 0.493236
0.504346 0.504611 0.494494
0.507868 0.505868 0.495751
0.511391 0.507126 0.497009
0.514913 0.508383 0.498266
0.518435 0.509641 0.499524
0.521957 0.510898 0.500781
0.525479 0.512156 0.502039
0.529001 0.513414 0.503296
0.475116 0.498027 0.485645
0.478638 0.499284 0.486902
0.482160 0.500542 0.488160
0.485682 0.501799 0.489417
0.489204 0.503057 0.490675
0.492726 0.504314 0.491932
0.496249 0.505572 0.493190
0.499771 0.506829 0.494447
0.503293 0.508087 0.495705
0.506815 0.509344 0.496963
0.510337 0.510602 0.498220
0.513859 0.511859 0.499478
0.517382 0.513117 0.500735
0.520904 0.514374 0.501993
0.524426 0.515632 0.503250
0.527948 0.516889 0.504508
0.531470 0.518147 0.505765
0.477584 0.502760 0.488114
0.481106 0.504018 0.489371
0.484629 0.505275 0.490629
0.488151 0.506533 0.491886
0.491673 0.507790 0.493144
0.495195 0.509048 0.494401
0.498717 0.510305 0.495659
0.502239 0.511563 0.496916
0.505762 0.512820 0.498174
0.509284 0.514078 0.499431
0.512806 0.515335 0.500689
0.516328 0.516593 0.501946
0.519850 0.517850 0.503204
0.523372 0.519108 0.504461
0.526895 0.520365 0.505719
0.530417 0.521623 0.506976
0.533939 0.522880 0.508234
0.480053 0.507493 0.490582
0.483575 0.508751 0.491840
0.487097 0.510008 0.493097
0.490620 0.511266 0.494355
0.494142 0.512524 0.495612
0.497664 0.513781 0.496870
0.501186 0.515039 0.498128
0.504708 0.516296 0.499385
0.508230 0.517554 0.500643
0.511753 0.518811 0.501900
0.515275 0.520069 0.503158
0.518797 0.521326 0.504415
0.522319 0.522584 0.505673
0.525841 0.523841 0.506930
0.529363 0.525099 0.508188
0.532886 0.526356 0.509445
0.536408 0.527614 0.510703
0.482522 0.512227 0.493051
0.486044 0.513484 0.494309
0.489566 0.514742 0.495566
0.493088 0.515999 0.496824
0.496611 0.517257 0.498081
0.500133 0.518514 0.499339
0.503655 0.519772 0.500596
0.507177 0.521030 0.501854
0.510699 0.522287 0.503111
0.514221 0.523545 0.504369
0.517744 0.524802 0.505626
0.521266 0.526060 0.506884
0.524788 0.527317 0.508141
0.528310 0.528575 0.509399
0.531832 0.529832 0.510656
0.535354 0.531090 0.511914
0.538877 0.532347 0.513172
0.484991 0.516960 0.495520
0.488513 0.518218 0.496777
0.492035 0.519475 0.498035
0.495557 0.520733 0.499293
0.499079 0.521990 0.500550
0.502601 0.523248 0.501808
0.506124 0.524505 0.503065
0.509646 0.525763 0.504323
0.513168 0.527020 0.505580
0.516690 0.528278 0.506838
0.520212 0.529536 0.508095
0.523734 0.530793 0.509353
0.527257 0.532051 0.510610
0.530779 0.533308 0.511868
0.534301 0.534566 0.513125
0.537823 0.535823 0.514383
0.541345 0.537081 0.515640
0.487459 0.521694 0.497989
0.490982 0.522951 0.499246
0.494504 0.524209 0.500504
0.498026 0.525466 0.501761
0.501548 0.526724 0.503019
0.505070 0.527981 0.504276
0.508592 0.529239 0.505534
0.512115 0.530496 0.506791
0.515637 0.531754 0.508049
0.519159 0.533011 0.509306
0.522681 0.534269 0.510564
0.526203 0.535526 0.511821
0.529725 0.536784 0.513079
0.533248 0.538042 0.514337
0.536770 0.539299 0.515594
0.540292 0.540557 0.516852
0.543814 0.541814 0.518109
0.448438 0.446438 0.461232
0.451961 0.447696 0.462490
0.455483 0.448953 0.463747
0.459005 0.450211 0.465005
0.462527 0.451468 0.466262
0.466049 0.452726 0.467520
0.469571 0.453984 0.468777
0.473094 0.455241 0.470035
0.476616 0.456499 0.471292
0.480138 0.457756 0.472550
0.483660 0.459014 0.473808
0.487182 0.460271 0.475065
0.490704 0.461529 0.476323
0.494227 0.462786 0.477580
0.497749 0.464044 0.478838
0.501271 0.465301 0.480095
0.504793 0.466559 0.481353
0.450907 0.451172 0.463701
