shared/src/main/assets/luts/mv_estate_noir.cube
TITLE "DALUR Estate Noir"
LUT_3D_SIZE 9
DOMAIN_MIN 0.0 0.0 0.0
DOMAIN_MAX 1.0 1.0 1.0
0.423000 0.418500 0.417000
0.429321 0.423875 0.422375
0.435641 0.429249 0.427749
0.441962 0.434624 0.433124
0.448282 0.439998 0.438498
0.454603 0.445373 0.443873
0.460924 0.450747 0.449247
0.467244 0.456122 0.454622
0.473565 0.461496 0.459996
0.433551 0.429997 0.427551
0.439872 0.435372 0.432926
0.446193 0.440747 0.438300
0.452513 0.446121 0.443675
0.458834 0.451496 0.449050
0.465154 0.456870 0.454424
0.471475 0.462245 0.459799
0.477796 0.467619 0.465173
0.484116 0.472994 0.470548
0.444103 0.441495 0.438103
0.450423 0.446869 0.443477
0.456744 0.452244 0.448852
0.463065 0.457619 0.454226
0.469385 0.462993 0.459601
0.475706 0.468368 0.464976
0.482026 0.473742 0.470350
0.488347 0.479117 0.475725
0.494668 0.484491 0.481099
0.454654 0.452992 0.448654
0.460975 0.458367 0.454029
0.467295 0.463741 0.459403
0.473616 0.469116 0.464778
0.479937 0.474491 0.470152
0.486257 0.479865 0.475527
0.492578 0.485240 0.480901
0.498898 0.490614 0.486276
0.505219 0.495989 0.491651
0.465206 0.464490 0.459206
0.471526 0.469864 0.464580
0.477847 0.475239 0.469955
0.484167 0.480613 0.475329
0.490488 0.485988 0.480704
0.496809 0.491363 0.486078
0.503129 0.496737 0.491453
0.509450 0.502112 0.496827
0.515770 0.507486 0.502202
0.475757 0.475987 0.469757
0.482078 0.481362 0.475131
0.488398 0.486736 0.480506
0.494719 0.492111 0.485881
0.501039 0.497485 0.491255
0.507360 0.502860 0.496630
0.513681 0.508235 0.502004
0.520001 0.513609 0.507379
0.526322 0.518984 0.512753
0.486308 0.487485 0.480308
0.492629 0.492859 0.485683
0.498950 0.498234 0.491057
0.505270 0.503608 0.496432
0.511591 0.508983 0.501806
0.517911 0.514357 0.507181
0.524232 0.519732 0.512556
0.530553 0.525107 0.517930
0.536873 0.530481 0.523305
0.496860 0.498982 0.490860
0.503180 0.504357 0.496234
0.509501 0.509731 0.501609
0.515821 0.515106 0.506983
0.522142 0.520480 0.512358
0.528463 0.525855 0.517732
0.534783 0.531229 0.523107
0.541104 0.536604 0.528482
0.547425 0.541978 0.533856
0.507411 0.510480 0.501411
0.513732 0.515854 0.506786
0.520052 0.521229 0.512160
0.526373 0.526603 0.517535
0.532693 0.531978 0.522909
0.539014 0.537352 0.528284
0.545335 0.542727 0.533658
0.551655 0.548101 0.539033
0.557976 0.553476 0.544407
0.425049 0.420549 0.419995
0.431370 0.425924 0.425370
0.437690 0.431298 0.430744
0.444011 0.436673 0.436119
0.450332 0.442047 0.441493
0.456652 0.447422 0.446868
0.462973 0.452796 0.452243
0.469293 0.458171 0.457617
0.475614 0.463546 0.462992
0.435601 0.432047 0.430547
0.441921 0.437421 0.435921
0.448242 0.442796 0.441296
0.454562 0.448170 0.446670
0.460883 0.453545 0.452045
0.467204 0.458919 0.457419
0.473524 0.464294 0.462794
0.479845 0.469668 0.468168
0.486165 0.475043 0.473543
0.446152 0.443544 0.441098
0.452473 0.448919 0.446473
0.458793 0.454293 0.451847
0.465114 0.459668 0.457222
0.471434 0.465042 0.462596
0.477755 0.470417 0.467971
0.484076 0.475791 0.473345
0.490396 0.481166 0.478720
0.496717 0.486540 0.484094
0.456703 0.455041 0.451649
0.463024 0.460416 0.457024
0.469345 0.465791 0.462398
0.475665 0.471165 0.467773
0.481986 0.476540 0.473148
0.488306 0.481914 0.478522
0.494627 0.487289 0.483897
0.500948 0.492663 0.489271
0.507268 0.498038 0.494646
0.467255 0.466539 0.462201
0.473575 0.471913 0.467575
0.479896 0.477288 0.472950
0.486217 0.482663 0.478324
0.492537 0.488037 0.483699
0.498858 0.493412 0.489074
0.505178 0.498786 0.494448
0.511499 0.504161 0.499823
0.517820 0.509535 0.505197
0.477806 0.478036 0.472752
0.484127 0.483411 0.478127
0.490447 0.488785 0.483501
0.496768 0.494160 0.488876
0.503089 0.499535 0.494250
0.509409 0.504909 0.499625
0.515730 0.510284 0.504999
0.522050 0.515658 0.510374
0.528371 0.521033 0.515749
0.488357 0.489534 0.483304
0.494678 0.494908 0.488678
0.500999 0.500283 0.494053
0.507319 0.505657 0.499427
0.513640 0.511032 0.504802
0.519961 0.516407 0.510176
0.526281 0.521781 0.515551
0.532602 0.527156 0.520925
0.538922 0.532530 0.526300
0.498909 0.501031 0.493855
0.505229 0.506406 0.499229
0.511550 0.511780 0.504604
0.517871 0.517155 0.509979
0.524191 0.522529 0.515353
0.530512 0.527904 0.520728
0.536832 0.533279 0.526102
0.543153 0.538653 0.531477
0.549474 0.544028 0.536851
0.509460 0.512529 0.504406
0.515781 0.517903 0.509781
0.522101 0.523278 0.515155
0.528422 0.528652 0.520530
0.534743 0.534027 0.525904
0.541063 0.539401 0.531279
0.547384 0.544776 0.536654
0.553704 0.550151 0.542028
0.560025 0.555525 0.547403
0.427098 0.422598 0.422990
0.433419 0.427973 0.428365
0.439740 0.433347 0.433740
0.446060 0.438722 0.439114
0.452381 0.444097 0.444489
0.458701 0.449471 0.449863
0.465022 0.454846 0.455238
0.471343 0.460220 0.460612
0.477663 0.465595 0.465987
0.437650 0.434096 0.433542
0.443970 0.439470 0.438916
0.450291 0.444845 0.444291
0.456612 0.450219 0.449665
0.462932 0.455594 0.455040
0.469253 0.460969 0.460415
0.475573 0.466343 0.465789
0.481894 0.471718 0.471164
0.488215 0.477092 0.476538
0.448201 0.445593 0.444093
0.454522 0.450968 0.449468
0.460842 0.456342 0.454842
0.467163 0.461717 0.460217
0.473484 0.467091 0.465591
0.479804 0.472466 0.470966
0.486125 0.477841 0.476341
0.492445 0.483215 0.481715
0.498766 0.488590 0.487090
0.458752 0.457091 0.454645
0.465073 0.462465 0.460019
0.471394 0.467840 0.465394
0.477714 0.473214 0.470768
0.484035 0.478589 0.476143
0.490356 0.483963 0.481517
0.496676 0.489338 0.486892
0.502997 0.494713 0.492266
0.509317 0.500087 0.497641
0.469304 0.468588 0.465196
0.475624 0.473963 0.470571
0.481945 0.479337 0.475945
0.488266 0.484712 0.481320
0.494586 0.490086 0.486694
0.500907 0.495461 0.492069
0.507228 0.500835 0.497443
0.513548 0.506210 0.502818
0.519869 0.511585 0.508192
0.479855 0.480086 0.475747
0.486176 0.485460 0.481122
0.492496 0.490835 0.486496
0.498817 0.496209 0.491871
0.505138 0.501584 0.497246
0.511458 0.506958 0.502620
0.517779 0.512333 0.507995
0.524100 0.517707 0.513369
0.530420 0.523082 0.518744
0.490407 0.491583 0.486299
0.496727 0.496958 0.491673
0.503048 0.502332 0.497048
0.509368 0.507707 0.502422
0.515689 0.513081 0.507797
0.522010 0.518456 0.513171
0.528330 0.523830 0.518546
0.534651 0.529205 0.523921
0.540971 0.534579 0.529295
0.500958 0.503080 0.496850
0.507279 0.508455 0.502225
0.513599 0.513829 0.507599
0.519920 0.519204 0.512974
0.526240 0.524579 0.518348
0.532561 0.529953 0.523723
0.538882 0.535328 0.529097
0.545202 0.540702 0.534472
0.551523 0.546077 0.539847
0.511509 0.514578 0.507401
0.517830 0.519952 0.512776
0.524151 0.525327 0.518151
0.530471 0.530701 0.523525
0.536792 0.536076 0.528900
0.543112 0.541451 0.534274
0.549433 0.546825 0.539649
0.555754 0.552200 0.545023
0.562074 0.557574 0.550398
0.429147 0.424647 0.425986
0.435468 0.430022 0.431360
0.441789 0.435397 0.436735
0.448109 0.440771 0.442109
0.454430 0.446146 0.447484
0.460751 0.451520 0.452858
0.467071 0.456895 0.458233
0.473392 0.462269 0.463608
0.479712 0.467644 0.468982
0.439699 0.436145 0.436537
0.446019 0.441519 0.441912
0.452340 0.446894 0.447286
0.458661 0.452269 0.452661
0.464981 0.457643 0.458035
0.471302 0.463018 0.463410
0.477623 0.468392 0.468784
0.483943 0.473767 0.474159
0.490264 0.479141 0.479533
0.450250 0.447642 0.447088
0.456571 0.453017 0.452463
0.462891 0.458391 0.457838
0.469212 0.463766 0.463212
0.475533 0.469141 0.468587
0.481853 0.474515 0.473961
0.488174 0.479890 0.479336
0.494495 0.485264 0.484710
0.500815 0.490639 0.490085
0.460802 0.459140 0.457640
0.467122 0.464514 0.463014
0.473443 0.469889 0.468389
0.479763 0.475263 0.473763
0.486084 0.480638 0.479138
0.492405 0.486013 0.484513
0.498725 0.491387 0.489887
0.505046 0.496762 0.495262
0.511367 0.502136 0.500636
0.471353 0.470637 0.468191
0.477674 0.476012 0.473566
0.483994 0.481386 0.478940
0.490315 0.486761 0.484315
0.496635 0.492135 0.489689
0.502956 0.497510 0.495064
0.509277 0.502885 0.500439
0.515597 0.508259 0.505813
0.521918 0.513634 0.511188
0.481904 0.482135 0.478743
0.488225 0.487509 0.484117
0.494546 0.492884 0.489492
0.500866 0.498258 0.494866
0.507187 0.503633 0.500241
0.513507 0.509007 0.505615
0.519828 0.514382 0.510990
0.526149 0.519757 0.516364
0.532469 0.525131 0.521739
0.492456 0.493632 0.489294
0.498776 0.499007 0.494668
0.505097 0.504381 0.500043
0.511418 0.509756 0.505418
0.517738 0.515130 0.510792
0.524059 0.520505 0.516167
0.530379 0.525879 0.521541
0.536700 0.531254 0.526916
0.543021 0.536629 0.532290
0.503007 0.505130 0.499845
0.509328 0.510504 0.505220
0.515648 0.515879 0.510594
0.521969 0.521253 0.515969
0.528290 0.526628 0.521344
0.534610 0.532002 0.526718
0.540931 0.537377 0.532093
0.547251 0.542751 0.537467
0.553572 0.548126 0.542842
0.513559 0.516627 0.510397
0.519879 0.522002 0.515771
0.526200 0.527376 0.521146
0.532520 0.532751 0.526520
0.538841 0.538125 0.531895
0.545162 0.543500 0.537269
0.551482 0.548874 0.542644
0.557803 0.554249 0.548019
0.564123 0.559623 0.553393
0.431197 0.426697 0.428981
0.437517 0.432071 0.434355
0.443838 0.437446 0.439730
0.450158 0.442820 0.445105
0.456479 0.448195 0.450479
0.462800 0.453569 0.455854
0.469120 0.458944 0.461228
0.475441 0.464319 0.466603
0.481762 0.469693 0.471977
0.441748 0.438194 0.439532
0.448069 0.443569 0.444907
0.454389 0.448943 0.450281
0.460710 0.454318 0.455656
0.467030 0.459692 0.461030
0.473351 0.465067 0.466405
0.479672 0.470441 0.471780
0.485992 0.475816 0.477154
0.492313 0.481191 0.482529
0.452299 0.449692 0.450084
0.458620 0.455066 0.455458
0.464941 0.460441 0.460833
0.471261 0.465815 0.466207
0.477582 0.471190 0.471582
0.483902 0.476564 0.476956
0.490223 0.481939 0.482331
0.496544 0.487313 0.487706
0.502864 0.492688 0.493080
0.462851 0.461189 0.460635
0.469171 0.466564 0.466010
0.475492 0.471938 0.471384
0.481813 0.477313 0.476759
0.488133 0.482687 0.482133
0.494454 0.488062 0.487508
0.500774 0.493436 0.492882
0.507095 0.498811 0.498257
0.513416 0.504185 0.503631
0.473402 0.472686 0.471186
0.479723 0.478061 0.476561
0.486043 0.483436 0.481936
0.492364 0.488810 0.487310
0.498685 0.494185 0.492685
0.505005 0.499559 0.498059
0.511326 0.504934 0.503434
0.517646 0.510308 0.508808
0.523967 0.515683 0.514183
0.483954 0.484184 0.481738
0.490274 0.489558 0.487112
0.496595 0.494933 0.492487
0.502915 0.500307 0.497861
0.509236 0.505682 0.503236
0.515557 0.511057 0.508611
0.521877 0.516431 0.513985
0.528198 0.521806 0.519360
0.534518 0.527180 0.524734
0.494505 0.495681 0.492289
0.500826 0.501056 0.497664
0.507146 0.506430 0.503038
0.513467 0.511805 0.508413
0.519787 0.517179 0.513787
0.526108 0.522554 0.519162
0.532429 0.527929 0.524536
0.538749 0.533303 0.529911
0.545070 0.538678 0.535286
0.505056 0.507179 0.502841
0.511377 0.512553 0.508215
0.517698 0.517928 0.513590
0.524018 0.523302 0.518964
0.530339 0.528677 0.524339
0.536659 0.534051 0.529713
0.542980 0.539426 0.535088
0.549301 0.544801 0.540462
0.555621 0.550175 0.545837
0.515608 0.518676 0.513392
0.521928 0.524051 0.518766
0.528249 0.529425 0.524141
0.534570 0.534800 0.529516
0.540890 0.540174 0.534890
0.547211 0.545549 0.540265
0.553531 0.550923 0.545639
0.559852 0.556298 0.551014
0.566173 0.561673 0.556388
0.433246 0.428746 0.431976
0.439566 0.434120 0.437351
0.445887 0.439495 0.442725
0.452208 0.444869 0.448100
0.458528 0.450244 0.453474
0.464849 0.455619 0.458849
0.471169 0.460993 0.464223
0.477490 0.466368 0.469598
0.483811 0.471742 0.474973
0.443797 0.440243 0.442527
0.450118 0.445618 0.447902
0.456438 0.450992 0.453277
0.462759 0.456367 0.458651
0.469080 0.461741 0.464026
0.475400 0.467116 0.469400
0.481721 0.472491 0.474775
0.488041 0.477865 0.480149
0.494362 0.483240 0.485524
0.454349 0.451741 0.453079
0.460669 0.457115 0.458453
0.466990 0.462490 0.463828
0.473310 0.467864 0.469203
0.479631 0.473239 0.474577
0.485952 0.478613 0.479952
0.492272 0.483988 0.485326
0.498593 0.489363 0.490701
0.504913 0.494737 0.496075
0.464900 0.463238 0.463630
0.471221 0.468613 0.469005
0.477541 0.473987 0.474379
0.483862 0.479362 0.479754
0.490182 0.484736 0.485128
0.496503 0.490111 0.490503
0.502824 0.495485 0.495878
0.509144 0.500860 0.501252
0.515465 0.506235 0.506627
0.475451 0.474736 0.474182
0.481772 0.480110 0.479556
0.488093 0.485485 0.484931
0.494413 0.490859 0.490305
0.500734 0.496234 0.495680
0.507054 0.501608 0.501054
0.513375 0.506983 0.506429
0.519696 0.512357 0.511803
0.526016 0.517732 0.517178
0.486003 0.486233 0.484733
0.492323 0.491608 0.490108
0.498644 0.496982 0.495482
0.504965 0.502357 0.500857
0.511285 0.507731 0.506231
0.517606 0.513106 0.511606
0.523926 0.518480 0.516980
0.530247 0.523855 0.522355
0.536568 0.529229 0.527729
0.496554 0.497730 0.495284
0.502875 0.503105 0.500659
0.509195 0.508480 0.506033
0.515516 0.513854 0.511408
0.521837 0.519229 0.516783
0.528157 0.524603 0.522157
0.534478 0.529978 0.527532
0.540798 0.535352 0.532906
0.547119 0.540727 0.538281
0.507105 0.509228 0.505836
0.513426 0.514602 0.511210
0.519747 0.519977 0.516585
0.526067 0.525352 0.521959
0.532388 0.530726 0.527334
0.538709 0.536101 0.532709
0.545029 0.541475 0.538083
0.551350 0.546850 0.543458
0.557670 0.552224 0.548832
0.517657 0.520725 0.516387
0.523977 0.526100 0.521762
0.530298 0.531474 0.527136
0.536619 0.536849 0.532511
0.542939 0.542224 0.537885
0.549260 0.547598 0.543260
0.555581 0.552973 0.548634
0.561901 0.558347 0.554009
0.568222 0.563722 0.559384
0.435295 0.430795 0.434971
0.441616 0.436170 0.440346
0.447936 0.441544 0.445720
0.454257 0.446919 0.451095
0.460577 0.452293 0.456470
0.466898 0.457668 0.461844
0.473219 0.463042 0.467219
0.479539 0.468417 0.472593
0.485860 0.473791 0.477968
0.445846 0.442292 0.445523
0.452167 0.447667 0.450897
0.458488 0.453042 0.456272
0.464808 0.458416 0.461646
0.471129 0.463791 0.467021
0.477449 0.469165 0.472395
0.483770 0.474540 0.477770
0.490091 0.479914 0.483145
0.496411 0.485289 0.488519
0.456398 0.453790 0.456074
0.462718 0.459164 0.461449
0.469039 0.464539 0.466823
0.475360 0.469914 0.472198
0.481680 0.475288 0.477572
0.488001 0.480663 0.482947
0.494321 0.486037 0.488321
0.500642 0.491412 0.493696
0.506963 0.496786 0.499071
0.466949 0.465287 0.466625
0.473270 0.470662 0.472000
0.479590 0.476036 0.477375
0.485911 0.481411 0.482749
0.492232 0.486785 0.488124
0.498552 0.492160 0.493498
0.504873 0.497535 0.498873
0.511193 0.502909 0.504247
0.517514 0.508284 0.509622
0.477500 0.476785 0.477177
0.483821 0.482159 0.482551
0.490142 0.487534 0.487926
0.496462 0.492908 0.493300
0.502783 0.498283 0.498675
0.509104 0.503657 0.504050
0.515424 0.509032 0.509424
0.521745 0.514407 0.514799
0.528065 0.519781 0.520173
0.488052 0.488282 0.487728
0.494372 0.493657 0.493103
0.500693 0.499031 0.498477
0.507014 0.504406 0.503852
0.513334 0.509780 0.509226
0.519655 0.515155 0.514601
0.525976 0.520529 0.519976
0.532296 0.525904 0.525350
0.538617 0.531279 0.530725
0.498603 0.499780 0.498280
0.504924 0.505154 0.503654
0.511244 0.510529 0.509029
0.517565 0.515903 0.514403
0.523886 0.521278 0.519778
0.530206 0.526652 0.525152
0.536527 0.532027 0.530527
0.542848 0.537401 0.535901
0.549168 0.542776 0.541276
0.509155 0.511277 0.508831
0.515475 0.516652 0.514206
0.521796 0.522026 0.519580
0.528116 0.527401 0.524955
0.534437 0.532775 0.530329
0.540758 0.538150 0.535704
0.547078 0.543524 0.541078
0.553399 0.548899 0.546453
0.559720 0.554273 0.551827
0.519706 0.522774 0.519382
0.526027 0.528149 0.524757
0.532347 0.533524 0.530131
0.538668 0.538898 0.535506
0.544988 0.544273 0.540881
0.551309 0.549647 0.546255
0.557630 0.555022 0.551630
0.563950 0.560396 0.557004
0.570271 0.565771 0.562379
0.437344 0.432844 0.437967
0.443665 0.438219 0.443341
0.449985 0.443593 0.448716
0.456306 0.448968 0.454090
0.462627 0.454342 0.459465
0.468947 0.459717 0.464839
0.475268 0.465091 0.470214
0.481588 0.470466 0.475588
0.487909 0.475841 0.480963
0.447896 0.444342 0.448518
0.454216 0.449716 0.453892
0.460537 0.455091 0.459267
0.466857 0.460465 0.464642
0.473178 0.465840 0.470016
0.479499 0.471214 0.475391
0.485819 0.476589 0.480765
0.492140 0.481963 0.486140
0.498460 0.487338 0.491514
0.458447 0.455839 0.459069
0.464767 0.461214 0.464444
0.471088 0.466588 0.469818
0.477409 0.471963 0.475193
0.483729 0.477337 0.480568
0.490050 0.482712 0.485942
0.496371 0.488086 0.491317
0.502691 0.493461 0.496691
0.509012 0.498835 0.502066
0.468998 0.467336 0.469621
0.475319 0.472711 0.474995
0.481639 0.478086 0.480370
0.487960 0.483460 0.485744
0.494281 0.488835 0.491119
0.500601 0.494209 0.496493
0.506922 0.499584 0.501868
0.513243 0.504958 0.507243
0.519563 0.510333 0.512617
0.479550 0.478834 0.480172
0.485870 0.484208 0.485547
0.492191 0.489583 0.490921
0.498511 0.494958 0.496296
0.504832 0.500332 0.501670
0.511153 0.505707 0.507045
0.517473 0.511081 0.512419
0.523794 0.516456 0.517794
0.530115 0.521830 0.523168
0.490101 0.490331 0.490723
0.496422 0.495706 0.496098
0.502742 0.501080 0.501473
0.509063 0.506455 0.506847
0.515383 0.511830 0.512222
0.521704 0.517204 0.517596
0.528025 0.522579 0.522971
0.534345 0.527953 0.528345
0.540666 0.533328 0.533720
0.500652 0.501829 0.501275
0.506973 0.507203 0.506649
0.513294 0.512578 0.512024
0.519614 0.517952 0.517398
0.525935 0.523327 0.522773
0.532255 0.528702 0.528148
0.538576 0.534076 0.533522
0.544897 0.539451 0.538897
0.551217 0.544825 0.544271
0.511204 0.513326 0.511826
0.517524 0.518701 0.517201
0.523845 0.524075 0.522575
0.530166 0.529450 0.527950
0.536486 0.534824 0.533324
0.542807 0.540199 0.538699
0.549127 0.545574 0.544074
0.555448 0.550948 0.549448
0.561769 0.556323 0.554823
0.521755 0.524824 0.522378
0.528076 0.530198 0.527752
0.534396 0.535573 0.533127
0.540717 0.540947 0.538501
0.547038 0.546322 0.543876
0.553358 0.551696 0.549250
0.559679 0.557071 0.554625
0.565999 0.562446 0.559999
0.572320 0.567820 0.565374
0.439393 0.434893 0.440962
0.445714 0.440268 0.446336
0.452035 0.445642 0.451711
0.458355 0.451017 0.457085
0.464676 0.456392 0.462460
0.470996 0.461766 0.467835
0.477317 0.467141 0.473209
0.483638 0.472515 0.478584
0.489958 0.477890 0.483958
0.449945 0.446391 0.451513
0.456265 0.451765 0.456888
0.462586 0.457140 0.462262
0.468907 0.462514 0.467637
0.475227 0.467889 0.473011
0.481548 0.473263 0.478386
0.487868 0.478638 0.483760
0.494189 0.484013 0.489135
0.500510 0.489387 0.494510
0.460496 0.457888 0.462065
0.466817 0.463263 0.467439
0.473137 0.468637 0.472814
0.479458 0.474012 0.478188
0.485778 0.479386 0.483563
0.492099 0.484761 0.488937
0.498420 0.490135 0.494312
0.504740 0.495510 0.499686
0.511061 0.500885 0.505061
0.471047 0.469386 0.472616
0.477368 0.474760 0.477990
0.483689 0.480135 0.483365
0.490009 0.485509 0.488740
0.496330 0.490884 0.494114
0.502650 0.496258 0.499489
0.508971 0.501633 0.504863
0.515292 0.507007 0.510238
0.521612 0.512382 0.515612
0.481599 0.480883 0.483167
0.487919 0.486258 0.488542
0.494240 0.491632 0.493916
0.500561 0.497007 0.499291
0.506881 0.502381 0.504665
0.513202 0.507756 0.510040
0.519522 0.513130 0.515415
0.525843 0.518505 0.520789
0.532164 0.523879 0.526164
0.492150 0.492380 0.493719
0.498471 0.497755 0.499093
0.504791 0.503130 0.504468
0.511112 0.508504 0.509842
0.517433 0.513879 0.515217
0.523753 0.519253 0.520591
0.530074 0.524628 0.525966
0.536394 0.530002 0.531341
0.542715 0.535377 0.536715
0.502702 0.503878 0.504270
0.509022 0.509252 0.509645
0.515343 0.514627 0.515019
0.521663 0.520002 0.520394
0.527984 0.525376 0.525768
0.534305 0.530751 0.531143
0.540625 0.536125 0.536517
0.546946 0.541500 0.541892
0.553266 0.546874 0.547266
0.513253 0.515375 0.514821
0.519574 0.520750 0.520196
0.525894 0.526124 0.525571
0.532215 0.531499 0.530945
0.538535 0.536874 0.536320
0.544856 0.542248 0.541694
0.551177 0.547623 0.547069
0.557497 0.552997 0.552443
0.563818 0.558372 0.557818
0.523804 0.526873 0.525373
0.530125 0.532247 0.530747
0.536446 0.537622 0.536122
0.542766 0.542996 0.541496
0.549087 0.548371 0.546871
0.555407 0.553746 0.552246
0.561728 0.559120 0.557620
0.568049 0.564495 0.562995
0.574369 0.569869 0.568369
