shared/src/main/assets/luts/mv_estate_noir.cube
TITLE "DALUR Estate Noir"
LUT_3D_SIZE 17
DOMAIN_MIN 0.0 0.0 0.0
DOMAIN_MAX 1.0 1.0 1.0
0.423000 0.418500 0.417000
0.426160 0.421187 0.419687
0.429321 0.423875 0.422375
0.432481 0.426562 0.425062
0.435641 0.429249 0.427749
0.438802 0.431936 0.430436
0.441962 0.434624 0.433124
0.445122 0.437311 0.435811
0.448282 0.439998 0.438498
0.451443 0.442685 0.441185
0.454603 0.445373 0.443873
0.457763 0.448060 0.446560
0.460924 0.450747 0.449247
0.464084 0.453435 0.451935
0.467244 0.456122 0.454622
0.470405 0.458809 0.457309
0.473565 0.461496 0.459996
0.428276 0.424249 0.422276
0.431436 0.426936 0.424963
0.434596 0.429623 0.427650
0.437757 0.432311 0.430338
0.440917 0.434998 0.433025
0.444077 0.437685 0.435712
0.447238 0.440372 0.438399
0.450398 0.443060 0.441087
0.453558 0.445747 0.443774
0.456718 0.448434 0.446461
0.459879 0.451121 0.449148
0.463039 0.453809 0.451836
0.466199 0.456496 0.454523
0.469360 0.459183 0.457210
0.472520 0.461871 0.459898
0.475680 0.464558 0.462585
0.478841 0.467245 0.465272
0.433551 0.429997 0.427551
0.436712 0.432685 0.430239
0.439872 0.435372 0.432926
0.443032 0.438059 0.435613
0.446193 0.440747 0.438300
0.449353 0.443434 0.440988
0.452513 0.446121 0.443675
0.455674 0.448808 0.446362
0.458834 0.451496 0.449050
0.461994 0.454183 0.451737
0.465154 0.456870 0.454424
0.468315 0.459557 0.457111
0.471475 0.462245 0.459799
0.474635 0.464932 0.462486
0.477796 0.467619 0.465173
0.480956 0.470307 0.467861
0.484116 0.472994 0.470548
0.438827 0.435746 0.432827
0.441987 0.438433 0.435514
0.445148 0.441121 0.438202
0.448308 0.443808 0.440889
0.451468 0.446495 0.443576
0.454629 0.449183 0.446263
0.457789 0.451870 0.448951
0.460949 0.454557 0.451638
0.464110 0.457244 0.454325
0.467270 0.459932 0.457013
0.470430 0.462619 0.459700
0.473590 0.465306 0.462387
0.476751 0.467993 0.465074
0.479911 0.470681 0.467762
0.483071 0.473368 0.470449
0.486232 0.476055 0.473136
0.489392 0.478743 0.475823
0.444103 0.441495 0.438103
0.447263 0.444182 0.440790
0.450423 0.446869 0.443477
0.453584 0.449557 0.446165
0.456744 0.452244 0.448852
0.459904 0.454931 0.451539
0.463065 0.457619 0.454226
0.466225 0.460306 0.456914
0.469385 0.462993 0.459601
0.472546 0.465680 0.462288
0.475706 0.468368 0.464976
0.478866 0.471055 0.467663
0.482026 0.473742 0.470350
0.485187 0.476429 0.473037
0.488347 0.479117 0.475725
0.491507 0.481804 0.478412
0.494668 0.484491 0.481099
0.449378 0.447244 0.443378
0.452539 0.449931 0.446066
0.455699 0.452618 0.448753
0.458859 0.455305 0.451440
0.462020 0.457993 0.454128
0.465180 0.460680 0.456815
0.468340 0.463367 0.459502
0.471501 0.466055 0.462189
0.474661 0.468742 0.464877
0.477821 0.471429 0.467564
0.480982 0.474116 0.470251
0.484142 0.476804 0.472938
0.487302 0.479491 0.475626
0.490462 0.482178 0.478313
0.493623 0.484865 0.481000
0.496783 0.487553 0.483688
0.499943 0.490240 0.486375
0.454654 0.452992 0.448654
0.457814 0.455680 0.451341
0.460975 0.458367 0.454029
0.464135 0.461054 0.456716
0.467295 0.463741 0.459403
0.470456 0.466429 0.462091
0.473616 0.469116 0.464778
0.476776 0.471803 0.467465
0.479937 0.474491 0.470152
0.483097 0.477178 0.472840
0.486257 0.479865 0.475527
0.489418 0.482552 0.478214
0.492578 0.485240 0.480901
0.495738 0.487927 0.483589
0.498898 0.490614 0.486276
0.502059 0.493301 0.488963
0.505219 0.495989 0.491651
0.459930 0.458741 0.453930
0.463090 0.461428 0.456617
0.466250 0.464116 0.459304
0.469411 0.466803 0.461992
0.472571 0.469490 0.464679
0.475731 0.472177 0.467366
0.478892 0.474865 0.470053
0.482052 0.477552 0.472741
0.485212 0.480239 0.475428
0.488373 0.482927 0.478115
0.491533 0.485614 0.480803
0.494693 0.488301 0.483490
0.497854 0.490988 0.486177
0.501014 0.493676 0.488864
0.504174 0.496363 0.491552
0.507334 0.499050 0.494239
0.510495 0.501737 0.496926
0.465206 0.464490 0.459206
0.468366 0.467177 0.461893
0.471526 0.469864 0.464580
0.474686 0.472552 0.467267
0.477847 0.475239 0.469955
0.481007 0.477926 0.472642
0.484167 0.480613 0.475329
0.487328 0.483301 0.478016
0.490488 0.485988 0.480704
0.493648 0.488675 0.483391
0.496809 0.491363 0.486078
0.499969 0.494050 0.488766
0.503129 0.496737 0.491453
0.506289 0.499424 0.494140
0.509450 0.502112 0.496827
0.512610 0.504799 0.499515
0.515770 0.507486 0.502202
0.470481 0.470238 0.464481
0.473642 0.472926 0.467168
0.476802 0.475613 0.469856
0.479962 0.478300 0.472543
0.483122 0.480988 0.475230
0.486283 0.483675 0.477918
0.489443 0.486362 0.480605
0.492603 0.489049 0.483292
0.495764 0.491737 0.485979
0.498924 0.494424 0.488667
0.502084 0.497111 0.491354
0.505245 0.499799 0.494041
0.508405 0.502486 0.496729
0.511565 0.505173 0.499416
0.514725 0.507860 0.502103
0.517886 0.510548 0.504790
0.521046 0.513235 0.507478
0.475757 0.475987 0.469757
0.478917 0.478674 0.472444
0.482078 0.481362 0.475131
0.485238 0.484049 0.477819
0.488398 0.486736 0.480506
0.491558 0.489424 0.483193
0.494719 0.492111 0.485881
0.497879 0.494798 0.488568
0.501039 0.497485 0.491255
0.504200 0.500173 0.493942
0.507360 0.502860 0.496630
0.510520 0.505547 0.499317
0.513681 0.508235 0.502004
0.516841 0.510922 0.504692
0.520001 0.513609 0.507379
0.523161 0.516296 0.510066
0.526322 0.518984 0.512753
0.481033 0.481736 0.475033
0.484193 0.484423 0.477720
0.487353 0.487110 0.480407
0.490514 0.489798 0.483094
0.493674 0.492485 0.485782
0.496834 0.495172 0.488469
0.499994 0.497860 0.491156
0.503155 0.500547 0.493844
0.506315 0.503234 0.496531
0.509475 0.505921 0.499218
0.512636 0.508609 0.501905
0.515796 0.511296 0.504593
0.518956 0.513983 0.507280
0.522117 0.516671 0.509967
0.525277 0.519358 0.512654
0.528437 0.522045 0.515342
0.531597 0.524732 0.518029
0.486308 0.487485 0.480308
0.489469 0.490172 0.482996
0.492629 0.492859 0.485683
0.495789 0.495546 0.488370
0.498950 0.498234 0.491057
0.502110 0.500921 0.493745
0.505270 0.503608 0.496432
0.508430 0.506296 0.499119
0.511591 0.508983 0.501806
0.514751 0.511670 0.504494
0.517911 0.514357 0.507181
0.521072 0.517045 0.509868
0.524232 0.519732 0.512556
0.527392 0.522419 0.515243
0.530553 0.525107 0.517930
0.533713 0.527794 0.520617
0.536873 0.530481 0.523305
0.491584 0.493233 0.485584
0.494744 0.495921 0.488271
0.497905 0.498608 0.490959
0.501065 0.501295 0.493646
0.504225 0.503982 0.496333
0.507386 0.506670 0.499020
0.510546 0.509357 0.501708
0.513706 0.512044 0.504395
0.516866 0.514732 0.507082
0.520027 0.517419 0.509769
0.523187 0.520106 0.512457
0.526347 0.522793 0.515144
0.529508 0.525481 0.517831
0.532668 0.528168 0.520519
0.535828 0.530855 0.523206
0.538989 0.533543 0.525893
0.542149 0.536230 0.528580
0.496860 0.498982 0.490860
0.500020 0.501669 0.493547
0.503180 0.504357 0.496234
0.506341 0.507044 0.498921
0.509501 0.509731 0.501609
0.512661 0.512418 0.504296
0.515821 0.515106 0.506983
0.518982 0.517793 0.509671
0.522142 0.520480 0.512358
0.525302 0.523168 0.515045
0.528463 0.525855 0.517732
0.531623 0.528542 0.520420
0.534783 0.531229 0.523107
0.537944 0.533917 0.525794
0.541104 0.536604 0.528482
0.544264 0.539291 0.531169
0.547425 0.541978 0.533856
0.502135 0.504731 0.496135
0.505296 0.507418 0.498823
0.508456 0.510105 0.501510
0.511616 0.512793 0.504197
0.514777 0.515480 0.506884
0.517937 0.518167 0.509572
0.521097 0.520854 0.512259
0.524257 0.523542 0.514946
0.527418 0.526229 0.517634
0.530578 0.528916 0.520321
0.533738 0.531604 0.523008
0.536899 0.534291 0.525695
0.540059 0.536978 0.528383
0.543219 0.539665 0.531070
0.546380 0.542353 0.533757
0.549540 0.545040 0.536445
0.552700 0.547727 0.539132
0.507411 0.510480 0.501411
0.510571 0.513167 0.504098
0.513732 0.515854 0.506786
0.516892 0.518541 0.509473
0.520052 0.521229 0.512160
0.523213 0.523916 0.514847
0.526373 0.526603 0.517535
0.529533 0.529290 0.520222
0.532693 0.531978 0.522909
0.535854 0.534665 0.525597
0.539014 0.537352 0.528284
0.542174 0.540040 0.530971
0.545335 0.542727 0.533658
0.548495 0.545414 0.536346
0.551655 0.548101 0.539033
0.554816 0.550789 0.541720
0.557976 0.553476 0.544407
0.424025 0.419525 0.418498
0.427185 0.422212 0.421185
0.430345 0.424899 0.423872
0.433505 0.427586 0.426559
0.436666 0.430274 0.429247
0.439826 0.432961 0.431934
0.442986 0.435648 0.434621
0.446147 0.438336 0.437309
0.449307 0.441023 0.439996
0.452467 0.443710 0.442683
0.455628 0.446397 0.445370
0.458788 0.449085 0.448058
0.461948 0.451772 0.450745
0.465109 0.454459 0.453432
0.468269 0.457146 0.456119
0.471429 0.459834 0.458807
0.474589 0.462521 0.461494
0.429300 0.425273 0.423773
0.432461 0.427961 0.426461
0.435621 0.430648 0.429148
0.438781 0.433335 0.431835
0.441941 0.436022 0.434522
0.445102 0.438710 0.437210
0.448262 0.441397 0.439897
0.451422 0.444084 0.442584
0.454583 0.446772 0.445272
0.457743 0.449459 0.447959
0.460903 0.452146 0.450646
0.464064 0.454833 0.453333
0.467224 0.457521 0.456021
0.470384 0.460208 0.458708
0.473545 0.462895 0.461395
0.476705 0.465582 0.464082
0.479865 0.468270 0.466770
0.434576 0.431022 0.429049
0.437736 0.433709 0.431736
0.440897 0.436397 0.434424
0.444057 0.439084 0.437111
0.447217 0.441771 0.439798
0.450377 0.444458 0.442485
0.453538 0.447146 0.445173
0.456698 0.449833 0.447860
0.459858 0.452520 0.450547
0.463019 0.455208 0.453234
0.466179 0.457895 0.455922
0.469339 0.460582 0.458609
0.472500 0.463269 0.461296
0.475660 0.465957 0.463984
0.478820 0.468644 0.466671
0.481981 0.471331 0.469358
0.485141 0.474018 0.472045
0.439852 0.436771 0.434325
0.443012 0.439458 0.437012
0.446172 0.442145 0.439699
0.449333 0.444833 0.442387
0.452493 0.447520 0.445074
0.455653 0.450207 0.447761
0.458813 0.452894 0.450448
0.461974 0.455582 0.453136
0.465134 0.458269 0.455823
0.468294 0.460956 0.458510
0.471455 0.463644 0.461197
0.474615 0.466331 0.463885
0.477775 0.469018 0.466572
0.480936 0.471705 0.469259
0.484096 0.474393 0.471947
0.487256 0.477080 0.474634
0.490417 0.479767 0.477321
0.445127 0.442519 0.439600
0.448288 0.445207 0.442288
0.451448 0.447894 0.444975
0.454608 0.450581 0.447662
0.457769 0.453269 0.450349
0.460929 0.455956 0.453037
0.464089 0.458643 0.455724
0.467249 0.461330 0.458411
0.470410 0.464018 0.461099
0.473570 0.466705 0.463786
0.476730 0.469392 0.466473
0.479891 0.472080 0.469160
0.483051 0.474767 0.471848
0.486211 0.477454 0.474535
0.489372 0.480141 0.477222
0.492532 0.482829 0.479910
0.495692 0.485516 0.482597
0.450403 0.448268 0.444876
0.453563 0.450955 0.447563
0.456724 0.453643 0.450251
0.459884 0.456330 0.452938
0.463044 0.459017 0.455625
0.466205 0.461705 0.458312
0.469365 0.464392 0.461000
0.472525 0.467079 0.463687
0.475685 0.469766 0.466374
0.478846 0.472454 0.469062
0.482006 0.475141 0.471749
0.485166 0.477828 0.474436
0.488327 0.480515 0.477123
0.491487 0.483203 0.479811
0.494647 0.485890 0.482498
0.497808 0.488577 0.485185
0.500968 0.491265 0.487872
0.455679 0.454017 0.450152
0.458839 0.456704 0.452839
0.461999 0.459391 0.455526
0.465160 0.462079 0.458214
0.468320 0.464766 0.460901
0.471480 0.467453 0.463588
0.474641 0.470141 0.466275
0.477801 0.472828 0.468963
0.480961 0.475515 0.471650
0.484121 0.478202 0.474337
0.487282 0.480890 0.477025
0.490442 0.483577 0.479712
0.493602 0.486264 0.482399
0.496763 0.488951 0.485086
0.499923 0.491639 0.487774
0.503083 0.494326 0.490461
0.506244 0.497013 0.493148
0.460954 0.459766 0.455427
0.464115 0.462453 0.458115
0.467275 0.465140 0.460802
0.470435 0.467827 0.463489
0.473596 0.470515 0.466177
0.476756 0.473202 0.468864
0.479916 0.475889 0.471551
0.483077 0.478577 0.474238
0.486237 0.481264 0.476926
0.489397 0.483951 0.479613
0.492557 0.486638 0.482300
0.495718 0.489326 0.484987
0.498878 0.492013 0.487675
0.502038 0.494700 0.490362
0.505199 0.497387 0.493049
0.508359 0.500075 0.495737
0.511519 0.502762 0.498424
0.466230 0.465514 0.460703
0.469390 0.468202 0.463390
0.472551 0.470889 0.466078
0.475711 0.473576 0.468765
0.478871 0.476263 0.471452
0.482032 0.478951 0.474140
0.485192 0.481638 0.476827
0.488352 0.484325 0.479514
0.491513 0.487013 0.482201
0.494673 0.489700 0.484889
0.497833 0.492387 0.487576
0.500993 0.495074 0.490263
0.504154 0.497762 0.492950
0.507314 0.500449 0.495638
0.510474 0.503136 0.498325
0.513635 0.505823 0.501012
0.516795 0.508511 0.503700
0.471506 0.471263 0.465979
0.474666 0.473950 0.468666
0.477826 0.476638 0.471353
0.480987 0.479325 0.474041
0.484147 0.482012 0.476728
0.487307 0.484699 0.479415
0.490468 0.487387 0.482102
0.493628 0.490074 0.484790
0.496788 0.492761 0.487477
0.499949 0.495449 0.490164
0.503109 0.498136 0.492852
0.506269 0.500823 0.495539
0.509429 0.503510 0.498226
0.512590 0.506198 0.500913
0.515750 0.508885 0.503601
0.518910 0.511572 0.506288
0.522071 0.514259 0.508975
0.476781 0.477012 0.471255
0.479942 0.479699 0.473942
0.483102 0.482386 0.476629
0.486262 0.485074 0.479316
0.489423 0.487761 0.482004
0.492583 0.490448 0.484691
0.495743 0.493135 0.487378
0.498904 0.495823 0.490065
0.502064 0.498510 0.492753
0.505224 0.501197 0.495440
0.508385 0.503885 0.498127
0.511545 0.506572 0.500815
0.514705 0.509259 0.503502
0.517865 0.511946 0.506189
0.521026 0.514634 0.508876
0.524186 0.517321 0.511564
0.527346 0.520008 0.514251
0.482057 0.482760 0.476530
0.485217 0.485448 0.479217
0.488378 0.488135 0.481905
0.491538 0.490822 0.484592
0.494698 0.493510 0.487279
0.497859 0.496197 0.489967
0.501019 0.498884 0.492654
0.504179 0.501571 0.495341
0.507340 0.504259 0.498028
0.510500 0.506946 0.500716
0.513660 0.509633 0.503403
0.516821 0.512321 0.506090
0.519981 0.515008 0.508778
0.523141 0.517695 0.511465
0.526301 0.520382 0.514152
0.529462 0.523070 0.516839
0.532622 0.525757 0.519527
0.487333 0.488509 0.481806
0.490493 0.491196 0.484493
0.493653 0.493884 0.487180
0.496814 0.496571 0.489868
0.499974 0.499258 0.492555
0.503134 0.501946 0.495242
0.506295 0.504633 0.497930
0.509455 0.507320 0.500617
0.512615 0.510007 0.503304
0.515776 0.512695 0.505991
0.518936 0.515382 0.508679
0.522096 0.518069 0.511366
0.525257 0.520757 0.514053
0.528417 0.523444 0.516740
0.531577 0.526131 0.519428
0.534737 0.528818 0.522115
0.537898 0.531506 0.524802
0.492609 0.494258 0.487082
0.495769 0.496945 0.489769
0.498929 0.499632 0.492456
0.502089 0.502320 0.495143
0.505250 0.505007 0.497831
0.508410 0.507694 0.500518
0.511570 0.510382 0.503205
0.514731 0.513069 0.505893
0.517891 0.515756 0.508580
0.521051 0.518443 0.511267
0.524212 0.521131 0.513954
0.527372 0.523818 0.516642
0.530532 0.526505 0.519329
0.533693 0.529193 0.522016
0.536853 0.531880 0.524703
0.540013 0.534567 0.527391
0.543173 0.537254 0.530078
0.497884 0.500007 0.492357
0.501045 0.502694 0.495045
0.504205 0.505381 0.497732
0.507365 0.508068 0.500419
0.510525 0.510756 0.503106
0.513686 0.513443 0.505794
0.516846 0.516130 0.508481
0.520006 0.518818 0.511168
0.523167 0.521505 0.513855
0.526327 0.524192 0.516543
0.529487 0.526879 0.519230
0.532648 0.529567 0.521917
0.535808 0.532254 0.524605
0.538968 0.534941 0.527292
0.542129 0.537629 0.529979
0.545289 0.540316 0.532666
0.548449 0.543003 0.535354
0.503160 0.505755 0.497633
0.506320 0.508443 0.500320
0.509481 0.511130 0.503008
0.512641 0.513817 0.505695
0.515801 0.516504 0.508382
0.518961 0.519192 0.511069
0.522122 0.521879 0.513757
0.525282 0.524566 0.516444
0.528442 0.527254 0.519131
0.531603 0.529941 0.521818
0.534763 0.532628 0.524506
0.537923 0.535315 0.527193
0.541084 0.538003 0.529880
0.544244 0.540690 0.532568
0.547404 0.543377 0.535255
0.550565 0.546065 0.537942
0.553725 0.548752 0.540629
0.508436 0.511504 0.502909
0.511596 0.514191 0.505596
0.514756 0.516879 0.508283
0.517917 0.519566 0.510970
0.521077 0.522253 0.513658
0.524237 0.524940 0.516345
0.527397 0.527628 0.519032
0.530558 0.530315 0.521720
0.533718 0.533002 0.524407
0.536878 0.535690 0.527094
0.540039 0.538377 0.529781
0.543199 0.541064 0.532469
0.546359 0.543751 0.535156
0.549520 0.546439 0.537843
0.552680 0.549126 0.540531
0.555840 0.551813 0.543218
0.559001 0.554501 0.545905
0.425049 0.420549 0.419995
0.428209 0.423236 0.422682
0.431370 0.425924 0.425370
0.434530 0.428611 0.428057
0.437690 0.431298 0.430744
0.440851 0.433986 0.433432
0.444011 0.436673 0.436119
0.447171 0.439360 0.438806
0.450332 0.442047 0.441493
0.453492 0.444735 0.444181
0.456652 0.447422 0.446868
0.459813 0.450109 0.449555
0.462973 0.452796 0.452243
0.466133 0.455484 0.454930
0.469293 0.458171 0.457617
0.472454 0.460858 0.460304
0.475614 0.463546 0.462992
0.430325 0.426298 0.425271
0.433485 0.428985 0.427958
0.436645 0.431672 0.430645
0.439806 0.434360 0.433333
0.442966 0.437047 0.436020
0.446126 0.439734 0.438707
0.449287 0.442422 0.441395
0.452447 0.445109 0.444082
0.455607 0.447796 0.446769
0.458768 0.450483 0.449456
0.461928 0.453171 0.452144
0.465088 0.455858 0.454831
0.468249 0.458545 0.457518
0.471409 0.461232 0.460206
0.474569 0.463920 0.462893
0.477729 0.466607 0.465580
0.480890 0.469294 0.468267
0.435601 0.432047 0.430547
0.438761 0.434734 0.433234
0.441921 0.437421 0.435921
0.445081 0.440108 0.438608
0.448242 0.442796 0.441296
0.451402 0.445483 0.443983
0.454562 0.448170 0.446670
0.457723 0.450858 0.449358
0.460883 0.453545 0.452045
0.464043 0.456232 0.454732
0.467204 0.458919 0.457419
0.470364 0.461607 0.460107
0.473524 0.464294 0.462794
0.476685 0.466981 0.465481
0.479845 0.469668 0.468168
0.483005 0.472356 0.470856
0.486165 0.475043 0.473543
0.440876 0.437795 0.435822
0.444037 0.440483 0.438510
0.447197 0.443170 0.441197
0.450357 0.445857 0.443884
0.453517 0.448544 0.446571
0.456678 0.451232 0.449259
0.459838 0.453919 0.451946
0.462998 0.456606 0.454633
0.466159 0.459294 0.457321
0.469319 0.461981 0.460008
0.472479 0.464668 0.462695
0.475640 0.467355 0.465382
0.478800 0.470043 0.468070
0.481960 0.472730 0.470757
0.485121 0.475417 0.473444
0.488281 0.478104 0.476131
0.491441 0.480792 0.478819
0.446152 0.443544 0.441098
0.449312 0.446231 0.443785
0.452473 0.448919 0.446473
0.455633 0.451606 0.449160
0.458793 0.454293 0.451847
0.461953 0.456980 0.454534
0.465114 0.459668 0.457222
0.468274 0.462355 0.459909
0.471434 0.465042 0.462596
0.474595 0.467730 0.465283
0.477755 0.470417 0.467971
0.480915 0.473104 0.470658
0.484076 0.475791 0.473345
0.487236 0.478479 0.476033
0.490396 0.481166 0.478720
0.493557 0.483853 0.481407
0.496717 0.486540 0.484094
0.451428 0.449293 0.446374
0.454588 0.451980 0.449061
0.457748 0.454667 0.451748
0.460909 0.457355 0.454436
0.464069 0.460042 0.457123
0.467229 0.462729 0.459810
0.470389 0.465416 0.462497
0.473550 0.468104 0.465185
0.476710 0.470791 0.467872
0.479870 0.473478 0.470559
0.483031 0.476166 0.473246
0.486191 0.478853 0.475934
0.489351 0.481540 0.478621
0.492512 0.484227 0.481308
0.495672 0.486915 0.483996
0.498832 0.489602 0.486683
0.501993 0.492289 0.489370
0.456703 0.455041 0.451649
0.459864 0.457729 0.454337
0.463024 0.460416 0.457024
0.466184 0.463103 0.459711
0.469345 0.465791 0.462398
0.472505 0.468478 0.465086
0.475665 0.471165 0.467773
0.478825 0.473852 0.470460
0.481986 0.476540 0.473148
0.485146 0.479227 0.475835
0.488306 0.481914 0.478522
0.491467 0.484602 0.481209
0.494627 0.487289 0.483897
0.497787 0.489976 0.486584
0.500948 0.492663 0.489271
0.504108 0.495351 0.491959
0.507268 0.498038 0.494646
0.461979 0.460790 0.456925
0.465139 0.463477 0.459612
0.468300 0.466165 0.462300
0.471460 0.468852 0.464987
0.474620 0.471539 0.467674
0.477781 0.474227 0.470361
0.480941 0.476914 0.473049
0.484101 0.479601 0.475736
0.487261 0.482288 0.478423
0.490422 0.484976 0.481111
0.493582 0.487663 0.483798
0.496742 0.490350 0.486485
0.499903 0.493038 0.489172
0.503063 0.495725 0.491860
0.506223 0.498412 0.494547
0.509384 0.501099 0.497234
0.512544 0.503787 0.499921
0.467255 0.466539 0.462201
0.470415 0.469226 0.464888
0.473575 0.471913 0.467575
0.476736 0.474601 0.470263
0.479896 0.477288 0.472950
0.483056 0.479975 0.475637
0.486217 0.482663 0.478324
0.489377 0.485350 0.481012
0.492537 0.488037 0.483699
0.495697 0.490724 0.486386
0.498858 0.493412 0.489074
0.502018 0.496099 0.491761
0.505178 0.498786 0.494448
0.508339 0.501474 0.497135
0.511499 0.504161 0.499823
0.514659 0.506848 0.502510
0.517820 0.509535 0.505197
0.472530 0.472288 0.467476
0.475691 0.474975 0.470164
0.478851 0.477662 0.472851
0.482011 0.480349 0.475538
0.485172 0.483037 0.478226
0.488332 0.485724 0.480913
0.491492 0.488411 0.483600
0.494653 0.491099 0.486287
0.497813 0.493786 0.488975
0.500973 0.496473 0.491662
0.504133 0.499160 0.494349
0.507294 0.501848 0.497036
0.510454 0.504535 0.499724
0.513614 0.507222 0.502411
0.516775 0.509910 0.505098
0.519935 0.512597 0.507786
0.523095 0.515284 0.510473
0.477806 0.478036 0.472752
0.480966 0.480724 0.475439
0.484127 0.483411 0.478127
0.487287 0.486098 0.480814
0.490447 0.488785 0.483501
0.493608 0.491473 0.486189
0.496768 0.494160 0.488876
0.499928 0.496847 0.491563
0.503089 0.499535 0.494250
0.506249 0.502222 0.496938
0.509409 0.504909 0.499625
0.512569 0.507596 0.502312
0.515730 0.510284 0.504999
0.518890 0.512971 0.507687
0.522050 0.515658 0.510374
0.525211 0.518346 0.513061
0.528371 0.521033 0.515749
0.483082 0.483785 0.478028
0.486242 0.486472 0.480715
0.489402 0.489160 0.483402
0.492563 0.491847 0.486090
0.495723 0.494534 0.488777
0.498883 0.497221 0.491464
0.502044 0.499909 0.494151
0.505204 0.502596 0.496839
0.508364 0.505283 0.499526
0.511525 0.507971 0.502213
0.514685 0.510658 0.504901
0.517845 0.513345 0.507588
0.521005 0.516032 0.510275
0.524166 0.518720 0.512962
0.527326 0.521407 0.515650
0.530486 0.524094 0.518337
0.533647 0.526782 0.521024
0.488357 0.489534 0.483304
0.491518 0.492221 0.485991
0.494678 0.494908 0.488678
0.497838 0.497596 0.491365
0.500999 0.500283 0.494053
0.504159 0.502970 0.496740
0.507319 0.505657 0.499427
0.510480 0.508345 0.502114
0.513640 0.511032 0.504802
0.516800 0.513719 0.507489
0.519961 0.516407 0.510176
0.523121 0.519094 0.512864
0.526281 0.521781 0.515551
0.529441 0.524468 0.518238
0.532602 0.527156 0.520925
0.535762 0.529843 0.523613
0.538922 0.532530 0.526300
0.493633 0.495283 0.488579
0.496793 0.497970 0.491266
0.499954 0.500657 0.493954
0.503114 0.503344 0.496641
0.506274 0.506032 0.499328
0.509435 0.508719 0.502016
0.512595 0.511406 0.504703
0.515755 0.514093 0.507390
0.518916 0.516781 0.510077
0.522076 0.519468 0.512765
0.525236 0.522155 0.515452
0.528396 0.524843 0.518139
0.531557 0.527530 0.520827
0.534717 0.530217 0.523514
0.537877 0.532904 0.526201
0.541038 0.535592 0.528888
0.544198 0.538279 0.531576
0.498909 0.501031 0.493855
0.502069 0.503719 0.496542
0.505229 0.506406 0.499229
0.508390 0.509093 0.501917
0.511550 0.511780 0.504604
0.514710 0.514468 0.507291
0.517871 0.517155 0.509979
0.521031 0.519842 0.512666
0.524191 0.522529 0.515353
0.527352 0.525217 0.518040
0.530512 0.527904 0.520728
0.533672 0.530591 0.523415
0.536832 0.533279 0.526102
0.539993 0.535966 0.528789
0.543153 0.538653 0.531477
0.546313 0.541340 0.534164
0.549474 0.544028 0.536851
0.504185 0.506780 0.499131
0.507345 0.509467 0.501818
0.510505 0.512155 0.504505
0.513665 0.514842 0.507192
0.516826 0.517529 0.509880
0.519986 0.520216 0.512567
0.523146 0.522904 0.515254
0.526307 0.525591 0.517942
0.529467 0.528278 0.520629
0.532627 0.530965 0.523316
0.535788 0.533653 0.526003
0.538948 0.536340 0.528691
0.542108 0.539027 0.531378
0.545268 0.541715 0.534065
0.548429 0.544402 0.536752
0.551589 0.547089 0.539440
0.554749 0.549776 0.542127
0.509460 0.512529 0.504406
0.512621 0.515216 0.507094
0.515781 0.517903 0.509781
0.518941 0.520590 0.512468
0.522101 0.523278 0.515155
0.525262 0.525965 0.517843
0.528422 0.528652 0.520530
0.531582 0.531340 0.523217
0.534743 0.534027 0.525904
0.537903 0.536714 0.528592
0.541063 0.539401 0.531279
0.544224 0.542089 0.533966
0.547384 0.544776 0.536654
0.550544 0.547463 0.539341
0.553704 0.550151 0.542028
0.556865 0.552838 0.544715
0.560025 0.555525 0.547403
0.426074 0.421574 0.421493
0.429234 0.424261 0.424180
0.432394 0.426948 0.426867
0.435555 0.429636 0.429555
0.438715 0.432323 0.432242
0.441875 0.435010 0.434929
0.445036 0.437697 0.437616
0.448196 0.440385 0.440304
0.451356 0.443072 0.442991
0.454516 0.445759 0.445678
0.457677 0.448447 0.448366
0.460837 0.451134 0.451053
0.463997 0.453821 0.453740
0.467158 0.456508 0.456427
0.470318 0.459196 0.459115
0.473478 0.461883 0.461802
0.476639 0.464570 0.464489
0.431349 0.427322 0.426769
