shared/src/main/assets/luts/mv_estate_noir.cube
TITLE "DALUR Estate Noir"
LUT_3D_SIZE 5
DOMAIN_MIN 0.0 0.0 0.0
DOMAIN_MAX 1.0 1.0 1.0
0.423000 0.418500 0.417000
0.435641 0.429249 0.427749
0.448282 0.439998 0.438498
0.460924 0.450747 0.449247
0.473565 0.461496 0.459996
0.444103 0.441495 0.438103
0.456744 0.452244 0.448852
0.469385 0.462993 0.459601
0.482026 0.473742 0.470350
0.494668 0.484491 0.481099
0.465206 0.464490 0.459206
0.477847 0.475239 0.469955
0.490488 0.485988 0.480704
0.503129 0.496737 0.491453
0.515770 0.507486 0.502202
0.486308 0.487485 0.480308
0.498950 0.498234 0.491057
0.511591 0.508983 0.501806
0.524232 0.519732 0.512556
0.536873 0.530481 0.523305
0.507411 0.510480 0.501411
0.520052 0.521229 0.512160
0.532693 0.531978 0.522909
0.545335 0.542727 0.533658
0.557976 0.553476 0.544407
0.427098 0.422598 0.422990
0.439740 0.433347 0.433740
0.452381 0.444097 0.444489
0.465022 0.454846 0.455238
0.477663 0.465595 0.465987
0.448201 0.445593 0.444093
0.460842 0.456342 0.454842
0.473484 0.467091 0.465591
0.486125 0.477841 0.476341
0.498766 0.488590 0.487090
0.469304 0.468588 0.465196
0.481945 0.479337 0.475945
0.494586 0.490086 0.486694
0.507228 0.500835 0.497443
0.519869 0.511585 0.508192
0.490407 0.491583 0.486299
0.503048 0.502332 0.497048
0.515689 0.513081 0.507797
0.528330 0.523830 0.518546
0.540971 0.534579 0.529295
0.511509 0.514578 0.507401
0.524151 0.525327 0.518151
0.536792 0.536076 0.528900
0.549433 0.546825 0.539649
0.562074 0.557574 0.550398
0.431197 0.426697 0.428981
0.443838 0.437446 0.439730
0.456479 0.448195 0.450479
0.469120 0.458944 0.461228
0.481762 0.469693 0.471977
0.452299 0.449692 0.450084
0.464941 0.460441 0.460833
0.477582 0.471190 0.471582
0.490223 0.481939 0.482331
0.502864 0.492688 0.493080
0.473402 0.472686 0.471186
0.486043 0.483436 0.481936
0.498685 0.494185 0.492685
0.511326 0.504934 0.503434
0.523967 0.515683 0.514183
0.494505 0.495681 0.492289
0.507146 0.506430 0.503038
0.519787 0.517179 0.513787
0.532429 0.527929 0.524536
0.545070 0.538678 0.535286
0.515608 0.518676 0.513392
0.528249 0.529425 0.524141
0.540890 0.540174 0.534890
0.553531 0.550923 0.545639
0.566173 0.561673 0.556388
0.435295 0.430795 0.434971
0.447936 0.441544 0.445720
0.460577 0.452293 0.456470
0.473219 0.463042 0.467219
0.485860 0.473791 0.477968
0.456398 0.453790 0.456074
0.469039 0.464539 0.466823
0.481680 0.475288 0.477572
0.494321 0.486037 0.488321
0.506963 0.496786 0.499071
0.477500 0.476785 0.477177
0.490142 0.487534 0.487926
0.502783 0.498283 0.498675
0.515424 0.509032 0.509424
0.528065 0.519781 0.520173
0.498603 0.499780 0.498280
0.511244 0.510529 0.509029
0.523886 0.521278 0.519778
0.536527 0.532027 0.530527
0.549168 0.542776 0.541276
0.519706 0.522774 0.519382
0.532347 0.533524 0.530131
0.544988 0.544273 0.540881
0.557630 0.555022 0.551630
0.570271 0.565771 0.562379
0.439393 0.434893 0.440962
0.452035 0.445642 0.451711
0.464676 0.456392 0.462460
0.477317 0.467141 0.473209
0.489958 0.477890 0.483958
0.460496 0.457888 0.462065
0.473137 0.468637 0.472814
0.485778 0.479386 0.483563
0.498420 0.490135 0.494312
0.511061 0.500885 0.505061
0.481599 0.480883 0.483167
0.494240 0.491632 0.493916
0.506881 0.502381 0.504665
0.519522 0.513130 0.515415
0.532164 0.523879 0.526164
0.502702 0.503878 0.504270
0.515343 0.514627 0.515019
0.527984 0.525376 0.525768
0.540625 0.536125 0.536517
0.553266 0.546874 0.547266
0.523804 0.526873 0.525373
0.536446 0.537622 0.536122
0.549087 0.548371 0.546871
0.561728 0.559120 0.557620
0.574369 0.569869 0.568369
