shared/src/main/assets/luts/mv_hard_contrast.cube
TITLE "DALUR Hard Contrast"
LUT_3D_SIZE 5
DOMAIN_MIN 0.0 0.0 0.0
DOMAIN_MAX 1.0 1.0 1.0
0.390000 0.390000 0.390000
0.412228 0.403978 0.403978
0.434456 0.417957 0.417957
0.456685 0.431935 0.431935
0.478913 0.445913 0.445913
0.417442 0.425692 0.417442
0.439671 0.439671 0.431420
0.461899 0.453649 0.445399
0.484127 0.467627 0.459377
0.506355 0.481605 0.473355
0.444884 0.461384 0.444884
0.467113 0.475363 0.458863
0.489341 0.489341 0.472841
0.511569 0.503319 0.486819
0.533797 0.517297 0.500798
0.472327 0.497077 0.472327
0.494555 0.511055 0.486305
0.516783 0.525033 0.500283
0.539012 0.539012 0.514262
0.561240 0.552990 0.528240
0.499769 0.532769 0.499769
0.521997 0.546747 0.513747
0.544226 0.560725 0.527726
0.566454 0.574704 0.541704
0.588682 0.588682 0.555682
0.395330 0.395330 0.403580
0.417558 0.409308 0.417558
0.439786 0.423286 0.431536
0.462014 0.437264 0.445514
0.484243 0.451242 0.459493
0.422772 0.431022 0.431022
0.445000 0.445000 0.445000
0.467228 0.458978 0.458978
0.489457 0.472957 0.472957
0.511685 0.486935 0.486935
0.450214 0.466714 0.458464
0.472442 0.480692 0.472442
0.494670 0.494670 0.486420
0.516899 0.508649 0.500399
0.539127 0.522627 0.514377
0.477656 0.502406 0.485906
0.499885 0.516385 0.499885
0.522113 0.530363 0.513863
0.544341 0.544341 0.527841
0.566569 0.558319 0.541819
0.505098 0.538098 0.513348
0.527327 0.552077 0.527327
0.549555 0.566055 0.541305
0.571783 0.580033 0.555283
0.594012 0.594012 0.569261
0.400659 0.400659 0.417159
0.422887 0.414637 0.431137
0.445115 0.428615 0.445115
0.467344 0.442594 0.459094
0.489572 0.456572 0.473072
0.428101 0.436351 0.444601
0.450329 0.450329 0.458580
0.472558 0.464308 0.472558
0.494786 0.478286 0.486536
0.517014 0.492264 0.500514
0.455543 0.472043 0.472043
0.477772 0.486022 0.486022
0.500000 0.500000 0.500000
0.522228 0.513978 0.513978
0.544457 0.527956 0.527956
0.482986 0.507736 0.499486
0.505214 0.521714 0.513464
0.527442 0.535692 0.527442
0.549671 0.549671 0.541421
0.571899 0.563649 0.555399
0.510428 0.543428 0.526928
0.532656 0.557406 0.540906
0.554885 0.571384 0.554885
0.577113 0.585363 0.568863
0.599341 0.599341 0.582841
0.405989 0.405989 0.430739
0.428217 0.419967 0.444717
0.450445 0.433945 0.458695
0.472673 0.447923 0.472673
0.494901 0.461902 0.486652
0.433431 0.441681 0.458181
0.455659 0.455659 0.472159
0.477887 0.469637 0.486137
0.500115 0.483615 0.500115
0.522344 0.497594 0.514094
0.460873 0.477373 0.485623
0.483101 0.491351 0.499601
0.505329 0.505329 0.513579
0.527558 0.519308 0.527558
0.549786 0.533286 0.541536
0.488315 0.513065 0.513065
0.510544 0.527044 0.527044
0.532772 0.541022 0.541022
0.555000 0.555000 0.555000
0.577228 0.568978 0.568978
0.515757 0.548757 0.540507
0.537986 0.562736 0.554486
0.560214 0.576714 0.568464
0.582442 0.590692 0.582442
0.604670 0.604670 0.596421
0.411318 0.411318 0.444318
0.433546 0.425296 0.458296
0.455774 0.439275 0.472274
0.478003 0.453253 0.486253
0.500231 0.467231 0.500231
0.438760 0.447010 0.471760
0.460989 0.460989 0.485739
0.483217 0.474967 0.499717
0.505445 0.488945 0.513695
0.527673 0.502923 0.527673
0.466202 0.482702 0.499202
0.488431 0.496681 0.513181
0.510659 0.510659 0.527159
0.532887 0.524637 0.541137
0.555115 0.538616 0.555115
0.493645 0.518395 0.526645
0.515873 0.532373 0.540623
0.538101 0.546351 0.554601
0.560330 0.560330 0.568580
0.582558 0.574308 0.582558
0.521087 0.554087 0.554087
0.543315 0.568065 0.568065
0.565543 0.582044 0.582044
0.587772 0.596022 0.596022
0.610000 0.610000 0.610000
