shared/src/main/assets/luts/mv_hard_contrast.cube
TITLE "DALUR Hard Contrast"
LUT_3D_SIZE 9
DOMAIN_MIN 0.0 0.0 0.0
DOMAIN_MAX 1.0 1.0 1.0
0.390000 0.390000 0.390000
0.401114 0.396989 0.396989
0.412228 0.403978 0.403978
0.423342 0.410967 0.410967
0.434456 0.417957 0.417957
0.445571 0.424946 0.424946
0.456685 0.431935 0.431935
0.467799 0.438924 0.438924
0.478913 0.445913 0.445913
0.403721 0.407846 0.403721
0.414835 0.414835 0.410710
0.425949 0.421824 0.417699
0.437063 0.428813 0.424688
0.448178 0.435803 0.431678
0.459292 0.442792 0.438667
0.470406 0.449781 0.445656
0.481520 0.456770 0.452645
0.492634 0.463759 0.459634
0.417442 0.425692 0.417442
0.428556 0.432681 0.424431
0.439671 0.439671 0.431420
0.450785 0.446660 0.438410
0.461899 0.453649 0.445399
0.473013 0.460638 0.452388
0.484127 0.467627 0.459377
0.495241 0.474616 0.466366
0.506355 0.481605 0.473355
0.431163 0.443538 0.431163
0.442277 0.450527 0.438152
0.453392 0.457517 0.445142
0.464506 0.464506 0.452131
0.475620 0.471495 0.459120
0.486734 0.478484 0.466109
0.497848 0.485473 0.473098
0.508962 0.492462 0.480087
0.520076 0.499451 0.487076
0.444884 0.461384 0.444884
0.455999 0.468374 0.451874
0.467113 0.475363 0.458863
0.478227 0.482352 0.465852
0.489341 0.489341 0.472841
0.500455 0.496330 0.479830
0.511569 0.503319 0.486819
0.522683 0.510308 0.493808
0.533797 0.517297 0.500798
0.458606 0.479231 0.458606
0.469720 0.486220 0.465595
0.480834 0.493209 0.472584
0.491948 0.500198 0.479573
0.503062 0.507187 0.486562
0.514176 0.514176 0.493551
0.525290 0.521165 0.500540
0.536405 0.528154 0.507529
0.547519 0.535144 0.514519
0.472327 0.497077 0.472327
0.483441 0.504066 0.479316
0.494555 0.511055 0.486305
0.505669 0.518044 0.493294
0.516783 0.525033 0.500283
0.527897 0.532022 0.507272
0.539012 0.539012 0.514262
0.550126 0.546001 0.521251
0.561240 0.552990 0.528240
0.486048 0.514923 0.486048
0.497162 0.521912 0.493037
0.508276 0.528901 0.500026
0.519390 0.535890 0.507015
0.530504 0.542879 0.514004
0.541619 0.549868 0.520993
0.552733 0.556858 0.527983
0.563847 0.563847 0.534972
0.574961 0.570836 0.541961
0.499769 0.532769 0.499769
0.510883 0.539758 0.506758
0.521997 0.546747 0.513747
0.533111 0.553736 0.520736
0.544226 0.560725 0.527726
0.555340 0.567715 0.534715
0.566454 0.574704 0.541704
0.577568 0.581693 0.548693
0.588682 0.588682 0.555682
0.392665 0.392665 0.396790
0.403779 0.399654 0.403779
0.414893 0.406643 0.410768
0.426007 0.413632 0.417757
0.437121 0.420621 0.424746
0.448235 0.427610 0.431735
0.459349 0.434599 0.438724
0.470464 0.441589 0.445714
0.481578 0.448578 0.452703
0.406386 0.410511 0.410511
0.417500 0.417500 0.417500
0.428614 0.424489 0.424489
0.439728 0.431478 0.431478
0.450842 0.438467 0.438467
0.461956 0.445456 0.445456
0.473071 0.452446 0.452446
0.484185 0.459435 0.459435
0.495299 0.466424 0.466424
0.420107 0.428357 0.424232
0.431221 0.435346 0.431221
0.442335 0.442335 0.438210
0.453449 0.449324 0.445199
0.464563 0.456313 0.452188
0.475678 0.463303 0.459178
0.486792 0.470292 0.466167
0.497906 0.477281 0.473156
0.509020 0.484270 0.480145
0.433828 0.446203 0.437953
0.444942 0.453192 0.444942
0.456056 0.460181 0.451931
0.467170 0.467170 0.458920
0.478285 0.474160 0.465910
0.489399 0.481149 0.472899
0.500513 0.488138 0.479888
0.511627 0.495127 0.486877
0.522741 0.502116 0.493866
0.447549 0.464049 0.451674
0.458663 0.471038 0.458663
0.469778 0.478027 0.465653
0.480892 0.485017 0.472642
0.492006 0.492006 0.479631
0.503120 0.498995 0.486620
0.514234 0.505984 0.493609
0.525348 0.512973 0.500598
0.536462 0.519962 0.507587
0.461270 0.481895 0.465395
0.472384 0.488884 0.472384
0.483499 0.495874 0.479374
0.494613 0.502863 0.486363
0.505727 0.509852 0.493352
0.516841 0.516841 0.500341
0.527955 0.523830 0.507330
0.539069 0.530819 0.514319
0.550183 0.537808 0.521308
0.474992 0.499742 0.479117
0.486106 0.506731 0.486106
0.497220 0.513720 0.493095
0.508334 0.520709 0.500084
0.519448 0.527698 0.507073
0.530562 0.534687 0.514062
0.541676 0.541676 0.521051
0.552790 0.548665 0.528040
0.563905 0.555655 0.535030
0.488713 0.517588 0.492838
0.499827 0.524577 0.499827
0.510941 0.531566 0.506816
0.522055 0.538555 0.513805
0.533169 0.545544 0.520794
0.544283 0.552533 0.527783
0.555397 0.559522 0.534772
0.566512 0.566512 0.541762
0.577626 0.573501 0.548751
0.502434 0.535434 0.506559
0.513548 0.542423 0.513548
0.524662 0.549412 0.520537
0.535776 0.556401 0.527526
0.546890 0.563390 0.534515
0.558004 0.570379 0.541504
0.569118 0.577368 0.548493
0.580233 0.584358 0.555483
0.591347 0.591347 0.562472
0.395330 0.395330 0.403580
0.406444 0.402319 0.410569
0.417558 0.409308 0.417558
0.428672 0.416297 0.424547
0.439786 0.423286 0.431536
0.450900 0.430275 0.438525
0.462014 0.437264 0.445514
0.473128 0.444253 0.452503
0.484243 0.451242 0.459493
0.409051 0.413176 0.417301
0.420165 0.420165 0.424290
0.431279 0.427154 0.431279
0.442393 0.434143 0.438268
0.453507 0.441132 0.445257
0.464621 0.448121 0.452246
0.475735 0.455110 0.459235
0.486849 0.462099 0.466224
0.497964 0.469089 0.473214
0.422772 0.431022 0.431022
0.433886 0.438011 0.438011
0.445000 0.445000 0.445000
0.456114 0.451989 0.451989
0.467228 0.458978 0.458978
0.478342 0.465967 0.465967
0.489457 0.472957 0.472957
0.500571 0.479946 0.479946
0.511685 0.486935 0.486935
0.436493 0.448868 0.444743
0.447607 0.455857 0.451732
0.458721 0.462846 0.458721
0.469835 0.469835 0.465710
0.480949 0.476824 0.472699
0.492063 0.483813 0.479688
0.503178 0.490803 0.486678
0.514292 0.497792 0.493667
0.525406 0.504781 0.500656
0.450214 0.466714 0.458464
0.461328 0.473703 0.465453
0.472442 0.480692 0.472442
0.483556 0.487681 0.479431
0.494670 0.494670 0.486420
0.505785 0.501660 0.493410
0.516899 0.508649 0.500399
0.528013 0.515638 0.507388
0.539127 0.522627 0.514377
0.463935 0.484560 0.472185
0.475049 0.491549 0.479174
0.486163 0.498538 0.486163
0.497278 0.505528 0.493153
0.508392 0.512517 0.500142
0.519506 0.519506 0.507131
0.530620 0.526495 0.514120
0.541734 0.533484 0.521109
0.552848 0.540473 0.528098
0.477656 0.502406 0.485906
0.488770 0.509395 0.492895
0.499885 0.516385 0.499885
0.510999 0.523374 0.506874
0.522113 0.530363 0.513863
0.533227 0.537352 0.520852
0.544341 0.544341 0.527841
0.555455 0.551330 0.534830
0.566569 0.558319 0.541819
0.491377 0.520252 0.499627
0.502491 0.527242 0.506617
0.513606 0.534231 0.513606
0.524720 0.541220 0.520595
0.535834 0.548209 0.527584
0.546948 0.555198 0.534573
0.558062 0.562187 0.541562
0.569176 0.569176 0.548551
0.580290 0.576165 0.555540
0.505098 0.538098 0.513348
0.516213 0.545088 0.520338
0.527327 0.552077 0.527327
0.538441 0.559066 0.534316
0.549555 0.566055 0.541305
0.560669 0.573044 0.548294
0.571783 0.580033 0.555283
0.582897 0.587022 0.562272
0.594012 0.594012 0.569261
0.397994 0.397994 0.410369
0.409108 0.404983 0.417358
0.420222 0.411973 0.424347
0.431337 0.418962 0.431337
0.442451 0.425951 0.438326
0.453565 0.432940 0.445315
0.464679 0.439929 0.452304
0.475793 0.446918 0.459293
0.486907 0.453907 0.466282
0.411715 0.415840 0.424090
0.422829 0.422829 0.431079
0.433944 0.429819 0.438069
0.445058 0.436808 0.445058
0.456172 0.443797 0.452047
0.467286 0.450786 0.459036
0.478400 0.457775 0.466025
0.489514 0.464764 0.473014
0.500628 0.471753 0.480003
0.425436 0.433686 0.437811
0.436551 0.440676 0.444801
0.447665 0.447665 0.451790
0.458779 0.454654 0.458779
0.469893 0.461643 0.465768
0.481007 0.468632 0.472757
0.492121 0.475621 0.479746
0.503235 0.482610 0.486735
0.514350 0.489599 0.493724
0.439158 0.451533 0.451533
0.450272 0.458522 0.458522
0.461386 0.465511 0.465511
0.472500 0.472500 0.472500
0.483614 0.479489 0.479489
0.494728 0.486478 0.486478
0.505842 0.493467 0.493467
0.516957 0.500456 0.500456
0.528071 0.507446 0.507446
0.452879 0.469379 0.465254
0.463993 0.476368 0.472243
0.475107 0.483357 0.479232
0.486221 0.490346 0.486221
0.497335 0.497335 0.493210
0.508449 0.504324 0.500199
0.519563 0.511313 0.507188
0.530678 0.518303 0.514178
0.541792 0.525292 0.521167
0.466600 0.487225 0.478975
0.477714 0.494214 0.485964
0.488828 0.501203 0.492953
0.499942 0.508192 0.499942
0.511056 0.515181 0.506931
0.522170 0.522170 0.513921
0.533285 0.529160 0.520910
0.544399 0.536149 0.527899
0.555513 0.543138 0.534888
0.480321 0.505071 0.492696
0.491435 0.512060 0.499685
0.502549 0.519049 0.506674
0.513663 0.526038 0.513663
0.524778 0.533027 0.520652
0.535892 0.540017 0.527642
0.547006 0.547006 0.534631
0.558120 0.553995 0.541620
0.569234 0.560984 0.548609
0.494042 0.522917 0.506417
0.505156 0.529906 0.513406
0.516270 0.536895 0.520395
0.527384 0.543884 0.527384
0.538499 0.550874 0.534374
0.549613 0.557863 0.541363
0.560727 0.564852 0.548352
0.571841 0.571841 0.555341
0.582955 0.578830 0.562330
0.507763 0.540763 0.520138
0.518877 0.547752 0.527127
0.529991 0.554741 0.534116
0.541106 0.561731 0.541106
0.552220 0.568720 0.548095
0.563334 0.575709 0.555084
0.574448 0.582698 0.562073
0.585562 0.589687 0.569062
0.596676 0.596676 0.576051
0.400659 0.400659 0.417159
0.411773 0.407648 0.424148
0.422887 0.414637 0.431137
0.434001 0.421626 0.438126
0.445115 0.428615 0.445115
0.456230 0.435605 0.452105
0.467344 0.442594 0.459094
0.478458 0.449583 0.466083
0.489572 0.456572 0.473072
0.414380 0.418505 0.430880
0.425494 0.425494 0.437869
0.436608 0.432483 0.444858
0.447722 0.439472 0.451847
0.458837 0.446462 0.458837
0.469951 0.453451 0.465826
0.481065 0.460440 0.472815
0.492179 0.467429 0.479804
0.503293 0.474418 0.486793
0.428101 0.436351 0.444601
0.439215 0.443340 0.451590
0.450329 0.450329 0.458580
0.461444 0.457319 0.465569
0.472558 0.464308 0.472558
0.483672 0.471297 0.479547
0.494786 0.478286 0.486536
0.505900 0.485275 0.493525
0.517014 0.492264 0.500514
0.441822 0.454197 0.458322
0.452936 0.461186 0.465311
0.464051 0.468176 0.472301
0.475165 0.475165 0.479290
0.486279 0.482154 0.486279
0.497393 0.489143 0.493268
0.508507 0.496132 0.500257
0.519621 0.503121 0.507246
0.530735 0.510110 0.514235
0.455543 0.472043 0.472043
0.466658 0.479033 0.479033
0.477772 0.486022 0.486022
0.488886 0.493011 0.493011
0.500000 0.500000 0.500000
0.511114 0.506989 0.506989
0.522228 0.513978 0.513978
0.533342 0.520967 0.520967
0.544457 0.527956 0.527956
0.469265 0.489890 0.485765
0.480379 0.496879 0.492754
0.491493 0.503868 0.499743
0.502607 0.510857 0.506732
0.513721 0.517846 0.513721
0.524835 0.524835 0.520710
0.535949 0.531824 0.527699
0.547064 0.538814 0.534689
0.558178 0.545803 0.541678
0.482986 0.507736 0.499486
0.494100 0.514725 0.506475
0.505214 0.521714 0.513464
0.516328 0.528703 0.520453
0.527442 0.535692 0.527442
0.538556 0.542681 0.534431
0.549671 0.549671 0.541421
0.560785 0.556660 0.548410
0.571899 0.563649 0.555399
0.496707 0.525582 0.513207
0.507821 0.532571 0.520196
0.518935 0.539560 0.527185
0.530049 0.546549 0.534174
0.541163 0.553538 0.541163
0.552277 0.560527 0.548152
0.563392 0.567517 0.555142
0.574506 0.574506 0.562131
0.585620 0.581495 0.569120
0.510428 0.543428 0.526928
0.521542 0.550417 0.533917
0.532656 0.557406 0.540906
0.543770 0.564395 0.547895
0.554885 0.571384 0.554885
0.565999 0.578374 0.561874
0.577113 0.585363 0.568863
0.588227 0.592352 0.575852
0.599341 0.599341 0.582841
0.403324 0.403324 0.423949
0.414438 0.410313 0.430938
0.425552 0.417302 0.437927
0.436666 0.424291 0.444916
0.447780 0.431280 0.451905
0.458894 0.438269 0.458894
0.470008 0.445259 0.465883
0.481123 0.452248 0.472873
0.492237 0.459237 0.479862
0.417045 0.421170 0.437670
0.428159 0.428159 0.444659
0.439273 0.435148 0.451648
0.450387 0.442137 0.458637
0.461501 0.449126 0.465626
0.472615 0.456115 0.472615
0.483730 0.463105 0.479605
0.494844 0.470094 0.486594
0.505958 0.477083 0.493583
0.430766 0.439016 0.451391
0.441880 0.446005 0.458380
0.452994 0.452994 0.465369
0.464108 0.459983 0.472358
0.475222 0.466972 0.479347
0.486337 0.473962 0.486337
0.497451 0.480951 0.493326
0.508565 0.487940 0.500315
0.519679 0.494929 0.507304
0.444487 0.456862 0.465112
0.455601 0.463851 0.472101
0.466715 0.470840 0.479090
0.477829 0.477829 0.486079
0.488944 0.484819 0.493069
0.500058 0.491808 0.500058
0.511172 0.498797 0.507047
0.522286 0.505786 0.514036
0.533400 0.512775 0.521025
0.458208 0.474708 0.478833
0.469322 0.481697 0.485822
0.480436 0.488687 0.492812
0.491551 0.495676 0.499801
0.502665 0.502665 0.506790
0.513779 0.509654 0.513779
0.524893 0.516643 0.520768
0.536007 0.523632 0.527757
0.547121 0.530621 0.534746
0.471929 0.492554 0.492554
0.483043 0.499543 0.499543
0.494158 0.506533 0.506533
0.505272 0.513522 0.513522
0.516386 0.520511 0.520511
0.527500 0.527500 0.527500
0.538614 0.534489 0.534489
0.549728 0.541478 0.541478
0.560842 0.548467 0.548467
0.485651 0.510401 0.506275
0.496765 0.517390 0.513265
0.507879 0.524379 0.520254
0.518993 0.531368 0.527243
0.530107 0.538357 0.534232
0.541221 0.545346 0.541221
0.552335 0.552335 0.548210
0.563449 0.559324 0.555199
0.574564 0.566314 0.562189
0.499372 0.528247 0.519997
0.510486 0.535236 0.526986
0.521600 0.542225 0.533975
0.532714 0.549214 0.540964
0.543828 0.556203 0.547953
0.554942 0.563192 0.554942
0.566056 0.570181 0.561931
0.577171 0.577171 0.568921
0.588285 0.584160 0.575910
0.513093 0.546093 0.533718
0.524207 0.553082 0.540707
0.535321 0.560071 0.547696
0.546435 0.567060 0.554685
0.557549 0.574049 0.561674
0.568663 0.581038 0.568663
0.579777 0.588027 0.575652
0.590892 0.595017 0.582642
0.602006 0.602006 0.589631
0.405989 0.405989 0.430739
0.417103 0.412978 0.437728
0.428217 0.419967 0.444717
0.439331 0.426956 0.451706
0.450445 0.433945 0.458695
0.461559 0.440934 0.465684
0.472673 0.447923 0.472673
0.483787 0.454912 0.479662
0.494901 0.461902 0.486652
0.419710 0.423835 0.444460
0.430824 0.430824 0.451449
0.441938 0.437813 0.458438
0.453052 0.444802 0.465427
0.464166 0.451791 0.472416
0.475280 0.458780 0.479405
0.486394 0.465769 0.486394
0.497508 0.472758 0.493383
0.508623 0.479748 0.500373
0.433431 0.441681 0.458181
0.444545 0.448670 0.465170
0.455659 0.455659 0.472159
0.466773 0.462648 0.479148
0.477887 0.469637 0.486137
0.489001 0.476626 0.493126
0.500115 0.483615 0.500115
0.511230 0.490605 0.507105
0.522344 0.497594 0.514094
0.447152 0.459527 0.471902
0.458266 0.466516 0.478891
0.469380 0.473505 0.485880
0.480494 0.480494 0.492869
0.491608 0.487483 0.499858
0.502722 0.494472 0.506848
0.513837 0.501462 0.513837
0.524951 0.508451 0.520826
0.536065 0.515440 0.527815
0.460873 0.477373 0.485623
0.471987 0.484362 0.492612
0.483101 0.491351 0.499601
0.494215 0.498340 0.506590
0.505329 0.505329 0.513579
0.516444 0.512319 0.520569
0.527558 0.519308 0.527558
0.538672 0.526297 0.534547
0.549786 0.533286 0.541536
0.474594 0.495219 0.499344
0.485708 0.502208 0.506333
0.496822 0.509197 0.513322
0.507937 0.516186 0.520312
0.519051 0.523176 0.527301
0.530165 0.530165 0.534290
0.541279 0.537154 0.541279
0.552393 0.544143 0.548268
0.563507 0.551132 0.555257
0.488315 0.513065 0.513065
0.499429 0.520054 0.520054
0.510544 0.527044 0.527044
0.521658 0.534033 0.534033
0.532772 0.541022 0.541022
0.543886 0.548011 0.548011
0.555000 0.555000 0.555000
0.566114 0.561989 0.561989
0.577228 0.568978 0.568978
0.502036 0.530911 0.526786
0.513150 0.537901 0.533775
0.524265 0.544890 0.540765
0.535379 0.551879 0.547754
0.546493 0.558868 0.554743
0.557607 0.565857 0.561732
0.568721 0.572846 0.568721
0.579835 0.579835 0.575710
0.590949 0.586824 0.582699
0.515757 0.548757 0.540507
0.526872 0.555747 0.547497
0.537986 0.562736 0.554486
0.549100 0.569725 0.561475
0.560214 0.576714 0.568464
0.571328 0.583703 0.575453
0.582442 0.590692 0.582442
0.593556 0.597681 0.589431
0.604670 0.604670 0.596421
0.408653 0.408653 0.437528
0.419767 0.415642 0.444517
0.430881 0.422631 0.451506
0.441996 0.429621 0.458496
0.453110 0.436610 0.465485
0.464224 0.443599 0.472474
0.475338 0.450588 0.479463
0.486452 0.457577 0.486452
0.497566 0.464566 0.493441
0.422374 0.426499 0.451249
0.433488 0.433488 0.458238
0.444603 0.440478 0.465228
0.455717 0.447467 0.472217
0.466831 0.454456 0.479206
0.477945 0.461445 0.486195
0.489059 0.468434 0.493184
0.500173 0.475423 0.500173
0.511287 0.482412 0.507162
0.436095 0.444345 0.464970
0.447210 0.451335 0.471960
0.458324 0.458324 0.478949
0.469438 0.465313 0.485938
0.480552 0.472302 0.492927
0.491666 0.479291 0.499916
0.502780 0.486280 0.506905
0.513894 0.493269 0.513894
0.525008 0.500258 0.520883
0.449817 0.462192 0.478692
0.460931 0.469181 0.485681
0.472045 0.476170 0.492670
0.483159 0.483159 0.499659
0.494273 0.490148 0.506648
0.505387 0.497137 0.513637
0.516501 0.504126 0.520626
0.527616 0.511115 0.527616
0.538730 0.518105 0.534605
0.463538 0.480038 0.492413
0.474652 0.487027 0.499402
0.485766 0.494016 0.506391
0.496880 0.501005 0.513380
0.507994 0.507994 0.520369
0.519108 0.514983 0.527358
0.530223 0.521973 0.534348
0.541337 0.528962 0.541337
0.552451 0.535951 0.548326
0.477259 0.497884 0.506134
0.488373 0.504873 0.513123
0.499487 0.511862 0.520112
0.510601 0.518851 0.527101
0.521715 0.525840 0.534090
0.532829 0.532829 0.541079
0.543944 0.539819 0.548069
0.555058 0.546808 0.555058
0.566172 0.553797 0.562047
0.490980 0.515730 0.519855
0.502094 0.522719 0.526844
0.513208 0.529708 0.533833
0.524322 0.536697 0.540822
0.535436 0.543686 0.547812
0.546551 0.550676 0.554801
0.557665 0.557665 0.561790
0.568779 0.564654 0.568779
0.579893 0.571643 0.575768
0.504701 0.533576 0.533576
0.515815 0.540565 0.540565
0.526929 0.547554 0.547554
0.538044 0.554544 0.554544
0.549158 0.561533 0.561533
0.560272 0.568522 0.568522
0.571386 0.575511 0.575511
0.582500 0.582500 0.582500
0.593614 0.589489 0.589489
0.518422 0.551422 0.547297
0.529536 0.558411 0.554286
0.540650 0.565400 0.561275
0.551765 0.572390 0.568265
0.562879 0.579379 0.575254
0.573993 0.586368 0.582243
0.585107 0.593357 0.589232
0.596221 0.600346 0.596221
0.607335 0.607335 0.603210
0.411318 0.411318 0.444318
0.422432 0.418307 0.451307
0.433546 0.425296 0.458296
0.444660 0.432285 0.465285
0.455774 0.439275 0.472274
0.466889 0.446264 0.479264
0.478003 0.453253 0.486253
0.489117 0.460242 0.493242
0.500231 0.467231 0.500231
0.425039 0.429164 0.458039
0.436153 0.436153 0.465028
0.447267 0.443142 0.472017
0.458381 0.450131 0.479006
0.469496 0.457121 0.485996
0.480610 0.464110 0.492985
0.491724 0.471099 0.499974
0.502838 0.478088 0.506963
0.513952 0.485077 0.513952
0.438760 0.447010 0.471760
0.449874 0.453999 0.478749
0.460989 0.460989 0.485739
0.472103 0.467978 0.492728
0.483217 0.474967 0.499717
0.494331 0.481956 0.506706
0.505445 0.488945 0.513695
0.516559 0.495934 0.520684
0.527673 0.502923 0.527673
0.452481 0.464856 0.485481
0.463595 0.471845 0.492470
0.474710 0.478835 0.499460
0.485824 0.485824 0.506449
0.496938 0.492813 0.513438
0.508052 0.499802 0.520427
0.519166 0.506791 0.527416
0.530280 0.513780 0.534405
0.541394 0.520769 0.541394
0.466202 0.482702 0.499202
0.477317 0.489692 0.506192
0.488431 0.496681 0.513181
0.499545 0.503670 0.520170
0.510659 0.510659 0.527159
0.521773 0.517648 0.534148
0.532887 0.524637 0.541137
0.544001 0.531626 0.548126
0.555115 0.538616 0.555115
0.479924 0.500549 0.512924
0.491038 0.507538 0.519913
0.502152 0.514527 0.526902
0.513266 0.521516 0.533891
0.524380 0.528505 0.540880
0.535494 0.535494 0.547869
0.546608 0.542483 0.554858
0.557723 0.549473 0.561848
0.568837 0.556462 0.568837
0.493645 0.518395 0.526645
0.504759 0.525384 0.533634
0.515873 0.532373 0.540623
0.526987 0.539362 0.547612
0.538101 0.546351 0.554601
0.549215 0.553340 0.561590
0.560330 0.560330 0.568580
0.571444 0.567319 0.575569
0.582558 0.574308 0.582558
0.507366 0.536241 0.540366
0.518480 0.543230 0.547355
0.529594 0.550219 0.554344
0.540708 0.557208 0.561333
0.551822 0.564197 0.568322
0.562936 0.571186 0.575311
0.574051 0.578176 0.582301
0.585165 0.585165 0.589290
0.596279 0.592154 0.596279
0.521087 0.554087 0.554087
0.532201 0.561076 0.561076
0.543315 0.568065 0.568065
0.554429 0.575054 0.575054
0.565543 0.582044 0.582044
0.576658 0.589033 0.589033
0.587772 0.596022 0.596022
0.598886 0.603011 0.603011
0.610000 0.610000 0.610000
