shared/src/main/assets/luts/mv_high_school_pop.cube
TITLE "DALUR High School Pop"
LUT_3D_SIZE 5
DOMAIN_MIN 0.0 0.0 0.0
DOMAIN_MAX 1.0 1.0 1.0
0.430000 0.429000 0.430000
0.447825 0.436325 0.437325
0.465651 0.443651 0.444651
0.483476 0.450976 0.451976
0.501302 0.458302 0.459302
0.444381 0.453881 0.444381
0.462207 0.461207 0.451707
0.480032 0.468532 0.459032
0.497858 0.475858 0.466358
0.515683 0.483183 0.473683
0.458763 0.478763 0.458763
0.476588 0.486089 0.466089
0.494414 0.493414 0.473414
0.512239 0.500740 0.480739
0.530065 0.508065 0.488065
0.473144 0.503645 0.473144
0.490970 0.510970 0.480470
0.508795 0.518295 0.487795
0.526621 0.525621 0.495121
0.544446 0.532946 0.502446
0.487526 0.528526 0.487526
0.505351 0.535851 0.494851
0.523177 0.543177 0.502177
0.541002 0.550503 0.509502
0.558828 0.557828 0.516828
0.432793 0.431793 0.443293
0.450618 0.439118 0.450618
0.468444 0.446444 0.457944
0.486269 0.453769 0.465269
0.504095 0.461095 0.472595
0.447174 0.456674 0.457674
0.465000 0.464000 0.465000
0.482825 0.471325 0.472325
0.500651 0.478651 0.479651
0.518477 0.485976 0.486976
0.461556 0.481556 0.472056
0.479382 0.488882 0.479382
0.497207 0.496207 0.486707
0.515033 0.503533 0.494032
0.532858 0.510858 0.501358
0.475938 0.506437 0.486437
0.493763 0.513763 0.493763
0.511589 0.521088 0.501088
0.529414 0.528414 0.508414
0.547239 0.535740 0.515740
0.490319 0.531319 0.500819
0.508144 0.538644 0.508144
0.525970 0.545970 0.515470
0.543795 0.553296 0.522795
0.561621 0.560621 0.530121
0.435586 0.434586 0.456586
0.453411 0.441911 0.463911
0.471237 0.449237 0.471237
0.489062 0.456562 0.478562
0.506888 0.463888 0.485888
0.449967 0.459467 0.470967
0.467793 0.466793 0.478293
0.485618 0.474118 0.485618
0.503444 0.481444 0.492944
0.521270 0.488769 0.500269
0.464349 0.484349 0.485349
0.482175 0.491675 0.492675
0.500000 0.499000 0.500000
0.517826 0.506326 0.507326
0.535651 0.513651 0.514651
0.478731 0.509231 0.499730
0.496556 0.516556 0.507056
0.514382 0.523881 0.514382
0.532207 0.531207 0.521707
0.550033 0.538533 0.529033
0.493112 0.534112 0.514112
0.510938 0.541438 0.521437
0.528763 0.548763 0.528763
0.546589 0.556088 0.536088
0.564414 0.563414 0.543414
0.438379 0.437379 0.469879
0.456204 0.444704 0.477204
0.474030 0.452030 0.484530
0.491855 0.459355 0.491855
0.509681 0.466681 0.499181
0.452760 0.462260 0.484260
0.470586 0.469586 0.491586
0.488411 0.476911 0.498911
0.506237 0.484237 0.506237
0.524062 0.491562 0.513562
0.467142 0.487142 0.498642
0.484967 0.494468 0.505968
0.502793 0.501793 0.513293
0.520618 0.509119 0.520618
0.538444 0.516444 0.527944
0.481523 0.512023 0.513023
0.499349 0.519349 0.520349
0.517174 0.526675 0.527675
0.535000 0.534000 0.535000
0.552825 0.541326 0.542326
0.495905 0.536905 0.527405
0.513730 0.544230 0.534730
0.531556 0.551556 0.542056
0.549381 0.558882 0.549381
0.567207 0.566207 0.556707
0.441172 0.440172 0.483172
0.458997 0.447497 0.490497
0.476823 0.454823 0.497823
0.494648 0.462148 0.505149
0.512474 0.469474 0.512474
0.455553 0.465053 0.497553
0.473379 0.472379 0.504879
0.491204 0.479704 0.512204
0.509030 0.487030 0.519530
0.526856 0.494355 0.526856
0.469935 0.489935 0.511935
0.487761 0.497261 0.519261
0.505586 0.504586 0.526586
0.523412 0.511912 0.533912
0.541237 0.519237 0.541237
0.484317 0.514817 0.526317
0.502142 0.522142 0.533642
0.519968 0.529467 0.540968
0.537793 0.536793 0.548293
0.555619 0.544119 0.555619
0.498698 0.539698 0.540698
0.516524 0.547023 0.548023
0.534349 0.554349 0.555349
0.552175 0.561674 0.562674
0.570000 0.569000 0.570000
