shared/src/main/assets/luts/mv_high_school_pop.cube
TITLE "DALUR High School Pop"
LUT_3D_SIZE 17
DOMAIN_MIN 0.0 0.0 0.0
DOMAIN_MAX 1.0 1.0 1.0
0.430000 0.429000 0.430000
0.434456 0.430831 0.431831
0.438913 0.432663 0.433663
0.443369 0.434494 0.435494
0.447825 0.436325 0.437325
0.452282 0.438157 0.439157
0.456738 0.439988 0.440988
0.461195 0.441820 0.442820
0.465651 0.443651 0.444651
0.470107 0.445482 0.446482
0.474564 0.447314 0.448314
0.479020 0.449145 0.450145
0.483476 0.450976 0.451976
0.487933 0.452808 0.453808
0.492389 0.454639 0.455639
0.496846 0.456471 0.457471
0.501302 0.458302 0.459302
0.433595 0.435220 0.433595
0.438052 0.437052 0.435427
0.442508 0.438883 0.437258
0.446964 0.440714 0.439089
0.451421 0.442546 0.440921
0.455877 0.444377 0.442752
0.460334 0.446209 0.444584
0.464790 0.448040 0.446415
0.469246 0.449871 0.448246
0.473703 0.451703 0.450078
0.478159 0.453534 0.451909
0.482615 0.455365 0.453740
0.487072 0.457197 0.455572
0.491528 0.459028 0.457403
0.495985 0.460860 0.459235
0.500441 0.462691 0.461066
0.504897 0.464522 0.462897
0.437191 0.441441 0.437191
0.441647 0.443272 0.439022
0.446103 0.445103 0.440854
0.450560 0.446935 0.442685
0.455016 0.448766 0.444516
0.459473 0.450598 0.446348
0.463929 0.452429 0.448179
0.468385 0.454260 0.450010
0.472842 0.456092 0.451842
0.477298 0.457923 0.453673
0.481754 0.459755 0.455504
0.486211 0.461586 0.457336
0.490667 0.463417 0.459167
0.495124 0.465249 0.460999
0.499580 0.467080 0.462830
0.504036 0.468911 0.464661
0.508493 0.470743 0.466493
0.440786 0.447661 0.440786
0.445242 0.449492 0.442617
0.449699 0.451324 0.444449
0.454155 0.453155 0.446280
0.458612 0.454987 0.448112
0.463068 0.456818 0.449943
0.467524 0.458649 0.451774
0.471981 0.460481 0.453606
0.476437 0.462312 0.455437
0.480894 0.464143 0.457269
0.485350 0.465975 0.459100
0.489806 0.467806 0.460931
0.494263 0.469638 0.462763
0.498719 0.471469 0.464594
0.503175 0.473300 0.466425
0.507632 0.475132 0.468257
0.512088 0.476963 0.470088
0.444381 0.453881 0.444381
0.448838 0.455713 0.446213
0.453294 0.457544 0.448044
0.457751 0.459376 0.449876
0.462207 0.461207 0.451707
0.466663 0.463038 0.453538
0.471120 0.464870 0.455370
0.475576 0.466701 0.457201
0.480032 0.468532 0.459032
0.484489 0.470364 0.460864
0.488945 0.472195 0.462695
0.493402 0.474027 0.464527
0.497858 0.475858 0.466358
0.502314 0.477689 0.468189
0.506771 0.479521 0.470021
0.511227 0.481352 0.471852
0.515683 0.483183 0.473683
0.447977 0.460102 0.447977
0.452433 0.461933 0.449808
0.456890 0.463765 0.451640
0.461346 0.465596 0.453471
0.465802 0.467427 0.455302
0.470259 0.469259 0.457134
0.474715 0.471090 0.458965
0.479172 0.472921 0.460796
0.483628 0.474753 0.462628
0.488084 0.476584 0.464459
0.492541 0.478416 0.466291
0.496997 0.480247 0.468122
0.501453 0.482078 0.469953
0.505910 0.483910 0.471785
0.510366 0.485741 0.473616
0.514822 0.487573 0.475448
0.519279 0.489404 0.477279
0.451572 0.466322 0.451572
0.456029 0.468154 0.453404
0.460485 0.469985 0.455235
0.464941 0.471816 0.457066
0.469398 0.473648 0.458898
0.473854 0.475479 0.460729
0.478310 0.477310 0.462560
0.482767 0.479142 0.464392
0.487223 0.480973 0.466223
0.491680 0.482805 0.468055
0.496136 0.484636 0.469886
0.500592 0.486467 0.471717
0.505049 0.488299 0.473549
0.509505 0.490130 0.475380
0.513961 0.491961 0.477211
0.518418 0.493793 0.479043
0.522874 0.495624 0.480874
0.455168 0.472543 0.455168
0.459624 0.474374 0.456999
0.464080 0.476205 0.458830
0.468537 0.478037 0.460662
0.472993 0.479868 0.462493
0.477449 0.481700 0.464324
0.481906 0.483531 0.466156
0.486362 0.485362 0.467987
0.490819 0.487194 0.469819
0.495275 0.489025 0.471650
0.499731 0.490856 0.473481
0.504188 0.492688 0.475313
0.508644 0.494519 0.477144
0.513100 0.496350 0.478975
0.517557 0.498182 0.480807
0.522013 0.500013 0.482638
0.526470 0.501845 0.484470
0.458763 0.478763 0.458763
0.463219 0.480594 0.460594
0.467676 0.482426 0.462426
0.472132 0.484257 0.464257
0.476588 0.486089 0.466089
0.481045 0.487920 0.467920
0.485501 0.489751 0.469751
0.489958 0.491583 0.471583
0.494414 0.493414 0.473414
0.498870 0.495245 0.475245
0.503327 0.497077 0.477077
0.507783 0.498908 0.478908
0.512239 0.500740 0.480739
0.516696 0.502571 0.482571
0.521152 0.504402 0.484402
0.525609 0.506234 0.486234
0.530065 0.508065 0.488065
0.462358 0.484983 0.462358
0.466815 0.486815 0.464190
0.471271 0.488646 0.466021
0.475727 0.490478 0.467853
0.480184 0.492309 0.469684
0.484640 0.494140 0.471515
0.489097 0.495972 0.473347
0.493553 0.497803 0.475178
0.498009 0.499634 0.477009
0.502466 0.501466 0.478841
0.506922 0.503297 0.480672
0.511378 0.505128 0.482503
0.515835 0.506960 0.484335
0.520291 0.508791 0.486166
0.524748 0.510623 0.487998
0.529204 0.512454 0.489829
0.533660 0.514285 0.491660
0.465954 0.491204 0.465954
0.470410 0.493035 0.467785
0.474866 0.494866 0.469616
0.479323 0.496698 0.471448
0.483779 0.498529 0.473279
0.488236 0.500361 0.475111
0.492692 0.502192 0.476942
0.497148 0.504023 0.478773
0.501605 0.505855 0.480605
0.506061 0.507686 0.482436
0.510517 0.509517 0.484267
0.514974 0.511349 0.486099
0.519430 0.513180 0.487930
0.523887 0.515012 0.489762
0.528343 0.516843 0.491593
0.532799 0.518674 0.493424
0.537256 0.520506 0.495256
0.469549 0.497424 0.469549
0.474005 0.499255 0.471380
0.478462 0.501087 0.473212
0.482918 0.502918 0.475043
0.487375 0.504750 0.476875
0.491831 0.506581 0.478706
0.496287 0.508412 0.480537
0.500744 0.510244 0.482369
0.505200 0.512075 0.484200
0.509656 0.513906 0.486031
0.514113 0.515738 0.487863
0.518569 0.517569 0.489694
0.523026 0.519401 0.491526
0.527482 0.521232 0.493357
0.531938 0.523063 0.495188
0.536395 0.524895 0.497020
0.540851 0.526726 0.498851
0.473144 0.503645 0.473144
0.477601 0.505476 0.474976
0.482057 0.507307 0.476807
0.486514 0.509139 0.478639
0.490970 0.510970 0.480470
0.495426 0.512801 0.482301
0.499883 0.514633 0.484133
0.504339 0.516464 0.485964
0.508795 0.518295 0.487795
0.513252 0.520127 0.489627
0.517708 0.521958 0.491458
0.522165 0.523790 0.493290
0.526621 0.525621 0.495121
0.531077 0.527452 0.496952
0.535534 0.529284 0.498784
0.539990 0.531115 0.500615
0.544446 0.532946 0.502446
0.476740 0.509865 0.476740
0.481196 0.511696 0.478571
0.485653 0.513528 0.480403
0.490109 0.515359 0.482234
0.494565 0.517190 0.484065
0.499022 0.519022 0.485897
0.503478 0.520853 0.487728
0.507934 0.522684 0.489559
0.512391 0.524516 0.491391
0.516847 0.526347 0.493222
0.521304 0.528179 0.495054
0.525760 0.530010 0.496885
0.530216 0.531841 0.498716
0.534673 0.533673 0.500548
0.539129 0.535504 0.502379
0.543585 0.537335 0.504210
0.548042 0.539167 0.506042
0.480335 0.516085 0.480335
0.484792 0.517917 0.482167
0.489248 0.519748 0.483998
0.493704 0.521579 0.485829
0.498161 0.523411 0.487661
0.502617 0.525242 0.489492
0.507073 0.527073 0.491323
0.511530 0.528905 0.493155
0.515986 0.530736 0.494986
0.520443 0.532568 0.496818
0.524899 0.534399 0.498649
0.529355 0.536230 0.500480
0.533812 0.538062 0.502312
0.538268 0.539893 0.504143
0.542724 0.541724 0.505974
0.547181 0.543556 0.507806
0.551637 0.545387 0.509637
0.483931 0.522306 0.483931
0.488387 0.524137 0.485762
0.492843 0.525968 0.487593
0.497300 0.527800 0.489425
0.501756 0.529631 0.491256
0.506212 0.531462 0.493087
0.510669 0.533294 0.494919
0.515125 0.535125 0.496750
0.519582 0.536957 0.498582
0.524038 0.538788 0.500413
0.528494 0.540619 0.502244
0.532951 0.542451 0.504076
0.537407 0.544282 0.505907
0.541863 0.546114 0.507738
0.546320 0.547945 0.509570
0.550776 0.549776 0.511401
0.555233 0.551608 0.513233
0.487526 0.528526 0.487526
0.491982 0.530357 0.489357
0.496439 0.532189 0.491189
0.500895 0.534020 0.493020
0.505351 0.535851 0.494851
0.509808 0.537683 0.496683
0.514264 0.539514 0.498514
0.518721 0.541346 0.500346
0.523177 0.543177 0.502177
0.527633 0.545008 0.504008
0.532090 0.546840 0.505840
0.536546 0.548671 0.507671
0.541002 0.550503 0.509502
0.545459 0.552334 0.511334
0.549915 0.554165 0.513165
0.554372 0.555997 0.514997
0.558828 0.557828 0.516828
0.430698 0.429698 0.433323
0.435155 0.431530 0.435155
0.439611 0.433361 0.436986
0.444067 0.435192 0.438817
0.448524 0.437024 0.440649
0.452980 0.438855 0.442480
0.457436 0.440686 0.444311
0.461893 0.442518 0.446143
0.466349 0.444349 0.447974
0.470806 0.446181 0.449806
0.475262 0.448012 0.451637
0.479718 0.449843 0.453468
0.484175 0.451675 0.455300
0.488631 0.453506 0.457131
0.493087 0.455337 0.458962
0.497544 0.457169 0.460794
0.502000 0.459000 0.462625
0.434294 0.435919 0.436919
0.438750 0.437750 0.438750
0.443206 0.439581 0.440581
0.447663 0.441413 0.442413
0.452119 0.443244 0.444244
0.456575 0.445075 0.446075
0.461032 0.446907 0.447907
0.465488 0.448738 0.449738
0.469945 0.450570 0.451570
0.474401 0.452401 0.453401
0.478857 0.454232 0.455232
0.483314 0.456064 0.457064
0.487770 0.457895 0.458895
0.492226 0.459726 0.460726
0.496683 0.461558 0.462558
0.501139 0.463389 0.464389
0.505596 0.465221 0.466221
0.437889 0.442139 0.440514
0.442345 0.443970 0.442345
0.446802 0.445802 0.444177
0.451258 0.447633 0.446008
0.455714 0.449464 0.447839
0.460171 0.451296 0.449671
0.464627 0.453127 0.451502
0.469084 0.454959 0.453334
0.473540 0.456790 0.455165
0.477996 0.458621 0.456996
0.482453 0.460453 0.458828
0.486909 0.462284 0.460659
0.491365 0.464115 0.462490
0.495822 0.465947 0.464322
0.500278 0.467778 0.466153
0.504735 0.469610 0.467985
0.509191 0.471441 0.469816
0.441484 0.448359 0.444109
0.445941 0.450191 0.445941
0.450397 0.452022 0.447772
0.454853 0.453853 0.449603
0.459310 0.455685 0.451435
0.463766 0.457516 0.453266
0.468223 0.459348 0.455098
0.472679 0.461179 0.456929
0.477135 0.463010 0.458760
0.481592 0.464842 0.460592
0.486048 0.466673 0.462423
0.490504 0.468504 0.464254
0.494961 0.470336 0.466086
0.499417 0.472167 0.467917
0.503874 0.473999 0.469749
0.508330 0.475830 0.471580
0.512786 0.477661 0.473411
0.445080 0.454580 0.447705
0.449536 0.456411 0.449536
0.453992 0.458242 0.451367
0.458449 0.460074 0.453199
0.462905 0.461905 0.455030
0.467362 0.463737 0.456862
0.471818 0.465568 0.458693
0.476274 0.467399 0.460524
0.480731 0.469231 0.462356
0.485187 0.471062 0.464187
0.489643 0.472893 0.466018
0.494100 0.474725 0.467850
0.498556 0.476556 0.469681
0.503013 0.478388 0.471513
0.507469 0.480219 0.473344
0.511925 0.482050 0.475175
0.516382 0.483882 0.477007
0.448675 0.460800 0.451300
0.453131 0.462631 0.453131
0.457588 0.464463 0.454963
0.462044 0.466294 0.456794
0.466501 0.468126 0.458626
0.470957 0.469957 0.460457
0.475413 0.471788 0.462288
0.479870 0.473620 0.464120
0.484326 0.475451 0.465951
0.488783 0.477282 0.467782
0.493239 0.479114 0.469614
0.497695 0.480945 0.471445
0.502152 0.482777 0.473277
0.506608 0.484608 0.475108
0.511064 0.486439 0.476939
0.515521 0.488271 0.478771
0.519977 0.490102 0.480602
0.452270 0.467020 0.454895
0.456727 0.468852 0.456727
0.461183 0.470683 0.458558
0.465640 0.472515 0.460390
0.470096 0.474346 0.462221
0.474552 0.476177 0.464052
0.479009 0.478009 0.465884
0.483465 0.479840 0.467715
0.487921 0.481671 0.469546
0.492378 0.483503 0.471378
0.496834 0.485334 0.473209
0.501291 0.487166 0.475041
0.505747 0.488997 0.476872
0.510203 0.490828 0.478703
0.514660 0.492660 0.480535
0.519116 0.494491 0.482366
0.523572 0.496322 0.484198
0.455866 0.473241 0.458491
0.460322 0.475072 0.460322
0.464779 0.476904 0.462154
0.469235 0.478735 0.463985
0.473691 0.480566 0.465816
0.478148 0.482398 0.467648
0.482604 0.484229 0.469479
0.487061 0.486061 0.471310
0.491517 0.487892 0.473142
0.495973 0.489723 0.474973
0.500430 0.491555 0.476805
0.504886 0.493386 0.478636
0.509342 0.495217 0.480467
0.513799 0.497049 0.482299
0.518255 0.498880 0.484130
0.522711 0.500712 0.485962
0.527168 0.502543 0.487793
0.459461 0.479461 0.462086
0.463918 0.481293 0.463918
0.468374 0.483124 0.465749
0.472830 0.484955 0.467580
0.477287 0.486787 0.469412
0.481743 0.488618 0.471243
0.486199 0.490449 0.473074
0.490656 0.492281 0.474906
0.495112 0.494112 0.476737
0.499569 0.495944 0.478569
0.504025 0.497775 0.480400
0.508481 0.499606 0.482231
0.512938 0.501438 0.484063
0.517394 0.503269 0.485894
0.521850 0.505101 0.487726
0.526307 0.506932 0.489557
0.530763 0.508763 0.491388
0.463057 0.485682 0.465682
0.467513 0.487513 0.467513
0.471969 0.489344 0.469344
0.476426 0.491176 0.471176
0.480882 0.493007 0.473007
0.485339 0.494839 0.474838
0.489795 0.496670 0.476670
0.494251 0.498501 0.478501
0.498708 0.500333 0.480333
0.503164 0.502164 0.482164
0.507620 0.503995 0.483995
0.512077 0.505827 0.485827
0.516533 0.507658 0.487658
0.520989 0.509490 0.489489
0.525446 0.511321 0.491321
0.529902 0.513152 0.493152
0.534359 0.514984 0.494984
0.466652 0.491902 0.469277
0.471108 0.493733 0.471108
0.475565 0.495565 0.472940
0.480021 0.497396 0.474771
0.484477 0.499227 0.476602
0.488934 0.501059 0.478434
0.493390 0.502890 0.480265
0.497847 0.504722 0.482097
0.502303 0.506553 0.483928
0.506759 0.508384 0.485759
0.511216 0.510216 0.487591
0.515672 0.512047 0.489422
0.520128 0.513879 0.491253
0.524585 0.515710 0.493085
0.529041 0.517541 0.494916
0.533498 0.519373 0.496748
0.537954 0.521204 0.498579
0.470247 0.498122 0.472872
0.474704 0.499954 0.474704
0.479160 0.501785 0.476535
0.483616 0.503616 0.478366
0.488073 0.505448 0.480198
0.492529 0.507279 0.482029
0.496986 0.509111 0.483861
0.501442 0.510942 0.485692
0.505898 0.512773 0.487523
0.510355 0.514605 0.489355
0.514811 0.516436 0.491186
0.519267 0.518267 0.493017
0.523724 0.520099 0.494849
0.528180 0.521930 0.496680
0.532637 0.523762 0.498512
0.537093 0.525593 0.500343
0.541549 0.527424 0.502174
0.473843 0.504343 0.476468
0.478299 0.506174 0.478299
0.482756 0.508005 0.480131
0.487212 0.509837 0.481962
0.491668 0.511668 0.483793
0.496125 0.513500 0.485625
0.500581 0.515331 0.487456
0.505037 0.517162 0.489287
0.509494 0.518994 0.491119
0.513950 0.520825 0.492950
0.518406 0.522656 0.494781
0.522863 0.524488 0.496613
0.527319 0.526319 0.498444
0.531776 0.528151 0.500276
0.536232 0.529982 0.502107
0.540688 0.531813 0.503938
0.545145 0.533645 0.505770
0.477438 0.510563 0.480063
0.481894 0.512394 0.481894
0.486351 0.514226 0.483726
0.490807 0.516057 0.485557
0.495264 0.517889 0.487389
0.499720 0.519720 0.489220
0.504176 0.521551 0.491051
0.508633 0.523383 0.492883
0.513089 0.525214 0.494714
0.517545 0.527045 0.496545
0.522002 0.528877 0.498377
0.526458 0.530708 0.500208
0.530915 0.532540 0.502040
0.535371 0.534371 0.503871
0.539827 0.536202 0.505702
0.544284 0.538034 0.507534
0.548740 0.539865 0.509365
0.481034 0.516784 0.483659
0.485490 0.518615 0.485490
0.489946 0.520446 0.487321
0.494403 0.522278 0.489153
0.498859 0.524109 0.490984
0.503315 0.525940 0.492815
0.507772 0.527772 0.494647
0.512228 0.529603 0.496478
0.516684 0.531435 0.498310
0.521141 0.533266 0.500141
0.525597 0.535097 0.501972
0.530054 0.536929 0.503804
0.534510 0.538760 0.505635
0.538966 0.540591 0.507466
0.543423 0.542423 0.509298
0.547879 0.544254 0.511129
0.552336 0.546086 0.512961
0.484629 0.523004 0.487254
0.489085 0.524835 0.489085
0.493542 0.526667 0.490917
0.497998 0.528498 0.492748
0.502454 0.530329 0.494579
0.506911 0.532161 0.496411
0.511367 0.533992 0.498242
0.515823 0.535824 0.500074
0.520280 0.537655 0.501905
0.524736 0.539486 0.503736
0.529193 0.541318 0.505568
0.533649 0.543149 0.507399
0.538105 0.544980 0.509230
0.542562 0.546812 0.511062
0.547018 0.548643 0.512893
0.551474 0.550474 0.514725
0.555931 0.552306 0.516556
0.488224 0.529224 0.490849
0.492681 0.531056 0.492681
0.497137 0.532887 0.494512
0.501593 0.534718 0.496343
0.506050 0.536550 0.498175
0.510506 0.538381 0.500006
0.514962 0.540212 0.501837
0.519419 0.542044 0.503669
0.523875 0.543875 0.505500
0.528332 0.545707 0.507332
0.532788 0.547538 0.509163
0.537244 0.549369 0.510994
0.541701 0.551201 0.512826
0.546157 0.553032 0.514657
0.550613 0.554864 0.516489
0.555070 0.556695 0.518320
0.559526 0.558526 0.520151
0.431397 0.430397 0.436646
0.435853 0.432228 0.438478
0.440309 0.434059 0.440309
0.444766 0.435891 0.442141
0.449222 0.437722 0.443972
0.453678 0.439553 0.445803
0.458135 0.441385 0.447635
0.462591 0.443216 0.449466
0.467048 0.445048 0.451298
0.471504 0.446879 0.453129
0.475960 0.448710 0.454960
0.480417 0.450542 0.456792
0.484873 0.452373 0.458623
0.489329 0.454204 0.460454
0.493786 0.456036 0.462286
0.498242 0.457867 0.464117
0.502699 0.459699 0.465949
0.434992 0.436617 0.440242
0.439448 0.438448 0.442073
0.443905 0.440280 0.443905
0.448361 0.442111 0.445736
0.452817 0.443942 0.447567
0.457274 0.445774 0.449399
0.461730 0.447605 0.451230
0.466187 0.449436 0.453062
0.470643 0.451268 0.454893
0.475099 0.453099 0.456724
0.479556 0.454931 0.458556
0.484012 0.456762 0.460387
0.488468 0.458593 0.462218
0.492925 0.460425 0.464050
0.497381 0.462256 0.465881
0.501838 0.464087 0.467712
0.506294 0.465919 0.469544
0.438587 0.442837 0.443837
0.443044 0.444669 0.445669
0.447500 0.446500 0.447500
0.451956 0.448331 0.449331
0.456413 0.450163 0.451163
0.460869 0.451994 0.452994
0.465325 0.453825 0.454825
0.469782 0.455657 0.456657
0.474238 0.457488 0.458488
0.478695 0.459320 0.460320
0.483151 0.461151 0.462151
0.487607 0.462982 0.463982
0.492064 0.464814 0.465814
0.496520 0.466645 0.467645
0.500976 0.468476 0.469476
0.505433 0.470308 0.471308
0.509889 0.472139 0.473139
0.442183 0.449058 0.447433
0.446639 0.450889 0.449264
0.451095 0.452720 0.451095
0.455552 0.454552 0.452927
0.460008 0.456383 0.454758
0.464465 0.458215 0.456590
0.468921 0.460046 0.458421
0.473377 0.461877 0.460252
0.477834 0.463709 0.462084
0.482290 0.465540 0.463915
0.486746 0.467371 0.465746
0.491203 0.469203 0.467578
0.495659 0.471034 0.469409
0.500116 0.472866 0.471241
0.504572 0.474697 0.473072
0.509028 0.476528 0.474903
0.513485 0.478360 0.476735
0.445778 0.455278 0.451028
0.450234 0.457109 0.452859
0.454691 0.458941 0.454691
0.459147 0.460772 0.456522
0.463604 0.462604 0.458354
0.468060 0.464435 0.460185
0.472516 0.466266 0.462016
0.476973 0.468098 0.463848
0.481429 0.469929 0.465679
0.485885 0.471760 0.467510
0.490342 0.473592 0.469342
0.494798 0.475423 0.471173
0.499254 0.477254 0.473004
0.503711 0.479086 0.474836
0.508167 0.480917 0.476667
0.512624 0.482749 0.478499
0.517080 0.484580 0.480330
0.449373 0.461498 0.454623
0.453830 0.463330 0.456455
0.458286 0.465161 0.458286
0.462742 0.466992 0.460117
0.467199 0.468824 0.461949
0.471655 0.470655 0.463780
0.476112 0.472487 0.465612
0.480568 0.474318 0.467443
0.485024 0.476149 0.469274
0.489481 0.477981 0.471106
0.493937 0.479812 0.472937
0.498393 0.481644 0.474768
0.502850 0.483475 0.476600
0.507306 0.485306 0.478431
0.511763 0.487138 0.480263
0.516219 0.488969 0.482094
0.520675 0.490800 0.483925
0.452969 0.467719 0.458219
0.457425 0.469550 0.460050
0.461881 0.471381 0.461881
0.466338 0.473213 0.463713
0.470794 0.475044 0.465544
0.475251 0.476876 0.467376
0.479707 0.478707 0.469207
0.484163 0.480538 0.471038
0.488620 0.482370 0.472870
0.493076 0.484201 0.474701
0.497532 0.486032 0.476532
0.501989 0.487864 0.478364
0.506445 0.489695 0.480195
0.510902 0.491527 0.482027
0.515358 0.493358 0.483858
0.519814 0.495189 0.485689
0.524271 0.497021 0.487521
0.456564 0.473939 0.461814
0.461020 0.475770 0.463645
0.465477 0.477602 0.465477
0.469933 0.479433 0.467308
0.474390 0.481265 0.469140
0.478846 0.483096 0.470971
0.483302 0.484927 0.472802
0.487759 0.486759 0.474634
0.492215 0.488590 0.476465
0.496672 0.490422 0.478297
0.501128 0.492253 0.480128
0.505584 0.494084 0.481959
0.510041 0.495916 0.483791
0.514497 0.497747 0.485622
0.518953 0.499578 0.487453
0.523410 0.501410 0.489285
0.527866 0.503241 0.491116
0.460159 0.480159 0.465409
0.464616 0.481991 0.467241
0.469072 0.483822 0.469072
0.473529 0.485654 0.470904
0.477985 0.487485 0.472735
0.482441 0.489316 0.474566
0.486898 0.491148 0.476398
0.491354 0.492979 0.478229
0.495810 0.494810 0.480061
0.500267 0.496642 0.481892
0.504723 0.498473 0.483723
0.509180 0.500305 0.485555
0.513636 0.502136 0.487386
0.518092 0.503967 0.489217
0.522549 0.505799 0.491049
0.527005 0.507630 0.492880
0.531462 0.509462 0.494711
0.463755 0.486380 0.469005
0.468211 0.488211 0.470836
0.472668 0.490043 0.472668
0.477124 0.491874 0.474499
0.481580 0.493705 0.476330
0.486037 0.495537 0.478162
0.490493 0.497368 0.479993
0.494950 0.499200 0.481825
0.499406 0.501031 0.483656
0.503862 0.502862 0.485487
0.508319 0.504694 0.487319
0.512775 0.506525 0.489150
0.517231 0.508356 0.490981
0.521688 0.510188 0.492813
0.526144 0.512019 0.494644
0.530601 0.513851 0.496476
0.535057 0.515682 0.498307
0.467350 0.492600 0.472600
0.471807 0.494432 0.474432
0.476263 0.496263 0.476263
0.480719 0.498094 0.478094
0.485176 0.499926 0.479926
0.489632 0.501757 0.481757
0.494088 0.503588 0.483588
0.498545 0.505420 0.485420
0.503001 0.507251 0.487251
0.507458 0.509083 0.489083
0.511914 0.510914 0.490914
0.516370 0.512745 0.492745
0.520827 0.514577 0.494577
0.525283 0.516408 0.496408
0.529739 0.518239 0.498239
0.534196 0.520071 0.500071
0.538652 0.521902 0.501902
0.470946 0.498821 0.476196
0.475402 0.500652 0.478027
0.479858 0.502483 0.479858
0.484315 0.504315 0.481690
0.488771 0.506146 0.483521
0.493227 0.507977 0.485353
0.497684 0.509809 0.487184
0.502140 0.511640 0.489015
0.506597 0.513472 0.490847
0.511053 0.515303 0.492678
0.515509 0.517134 0.494509
0.519966 0.518966 0.496341
0.524422 0.520797 0.498172
0.528879 0.522629 0.500004
0.533335 0.524460 0.501835
0.537791 0.526291 0.503666
0.542248 0.528123 0.505498
0.474541 0.505041 0.479791
0.478997 0.506872 0.481622
0.483454 0.508704 0.483454
0.487910 0.510535 0.485285
0.492367 0.512367 0.487117
0.496823 0.514198 0.488948
0.501279 0.516029 0.490779
0.505736 0.517861 0.492611
0.510192 0.519692 0.494442
0.514648 0.521523 0.496273
0.519105 0.523355 0.498105
0.523561 0.525186 0.499936
0.528018 0.527018 0.501768
0.532474 0.528849 0.503599
0.536930 0.530680 0.505430
0.541387 0.532512 0.507262
0.545843 0.534343 0.509093
0.478136 0.511261 0.483386
0.482593 0.513093 0.485218
0.487049 0.514924 0.487049
0.491505 0.516755 0.488880
0.495962 0.518587 0.490712
0.500418 0.520418 0.492543
0.504875 0.522250 0.494375
0.509331 0.524081 0.496206
0.513787 0.525912 0.498037
0.518244 0.527744 0.499869
0.522700 0.529575 0.501700
0.527156 0.531406 0.503531
0.531613 0.533238 0.505363
0.536069 0.535069 0.507194
0.540526 0.536901 0.509026
0.544982 0.538732 0.510857
0.549438 0.540563 0.512688
0.481732 0.517482 0.486982
0.486188 0.519313 0.488813
0.490644 0.521145 0.490644
0.495101 0.522976 0.492476
0.499557 0.524807 0.494307
0.504014 0.526639 0.496139
0.508470 0.528470 0.497970
0.512926 0.530301 0.499801
0.517383 0.532133 0.501633
0.521839 0.533964 0.503464
0.526296 0.535795 0.505296
0.530752 0.537627 0.507127
0.535208 0.539458 0.508958
0.539665 0.541290 0.510790
0.544121 0.543121 0.512621
0.548577 0.544952 0.514452
0.553034 0.546784 0.516284
0.485327 0.523702 0.490577
0.489783 0.525533 0.492408
0.494240 0.527365 0.494240
0.498696 0.529196 0.496071
0.503153 0.531028 0.497903
0.507609 0.532859 0.499734
0.512065 0.534690 0.501565
0.516522 0.536522 0.503397
0.520978 0.538353 0.505228
0.525435 0.540184 0.507059
0.529891 0.542016 0.508891
0.534347 0.543847 0.510722
0.538804 0.545679 0.512554
0.543260 0.547510 0.514385
0.547716 0.549341 0.516216
0.552173 0.551173 0.518048
0.556629 0.553004 0.519879
0.488923 0.529923 0.494173
0.493379 0.531754 0.496004
0.497835 0.533585 0.497835
0.502292 0.535417 0.499667
0.506748 0.537248 0.501498
0.511204 0.539079 0.503329
0.515661 0.540911 0.505161
0.520117 0.542742 0.506992
0.524574 0.544574 0.508824
0.529030 0.546405 0.510655
0.533486 0.548236 0.512486
0.537943 0.550068 0.514318
0.542399 0.551899 0.516149
0.546855 0.553730 0.517980
0.551312 0.555562 0.519812
0.555768 0.557393 0.521643
0.560225 0.559225 0.523475
0.432095 0.431095 0.439970
0.436551 0.432926 0.441801
0.441007 0.434757 0.443632
0.445464 0.436589 0.445464
0.449920 0.438420 0.447295
0.454377 0.440252 0.449127
0.458833 0.442083 0.450958
0.463289 0.443914 0.452789
0.467746 0.445746 0.454621
0.472202 0.447577 0.456452
0.476658 0.449408 0.458283
0.481115 0.451240 0.460115
0.485571 0.453071 0.461946
0.490028 0.454903 0.463778
0.494484 0.456734 0.465609
0.498940 0.458565 0.467440
0.503397 0.460397 0.469272
0.435690 0.437315 0.443565
