shared/src/main/assets/luts/mv_high_school_pop.cube
TITLE "DALUR High School Pop"
LUT_3D_SIZE 9
DOMAIN_MIN 0.0 0.0 0.0
DOMAIN_MAX 1.0 1.0 1.0
0.430000 0.429000 0.430000
0.438913 0.432663 0.433663
0.447825 0.436325 0.437325
0.456738 0.439988 0.440988
0.465651 0.443651 0.444651
0.474564 0.447314 0.448314
0.483476 0.450976 0.451976
0.492389 0.454639 0.455639
0.501302 0.458302 0.459302
0.437191 0.441441 0.437191
0.446103 0.445103 0.440854
0.455016 0.448766 0.444516
0.463929 0.452429 0.448179
0.472842 0.456092 0.451842
0.481754 0.459755 0.455504
0.490667 0.463417 0.459167
0.499580 0.467080 0.462830
0.508493 0.470743 0.466493
0.444381 0.453881 0.444381
0.453294 0.457544 0.448044
0.462207 0.461207 0.451707
0.471120 0.464870 0.455370
0.480032 0.468532 0.459032
0.488945 0.472195 0.462695
0.497858 0.475858 0.466358
0.506771 0.479521 0.470021
0.515683 0.483183 0.473683
0.451572 0.466322 0.451572
0.460485 0.469985 0.455235
0.469398 0.473648 0.458898
0.478310 0.477310 0.462560
0.487223 0.480973 0.466223
0.496136 0.484636 0.469886
0.505049 0.488299 0.473549
0.513961 0.491961 0.477211
0.522874 0.495624 0.480874
0.458763 0.478763 0.458763
0.467676 0.482426 0.462426
0.476588 0.486089 0.466089
0.485501 0.489751 0.469751
0.494414 0.493414 0.473414
0.503327 0.497077 0.477077
0.512239 0.500740 0.480739
0.521152 0.504402 0.484402
0.530065 0.508065 0.488065
0.465954 0.491204 0.465954
0.474866 0.494866 0.469616
0.483779 0.498529 0.473279
0.492692 0.502192 0.476942
0.501605 0.505855 0.480605
0.510517 0.509517 0.484267
0.519430 0.513180 0.487930
0.528343 0.516843 0.491593
0.537256 0.520506 0.495256
0.473144 0.503645 0.473144
0.482057 0.507307 0.476807
0.490970 0.510970 0.480470
0.499883 0.514633 0.484133
0.508795 0.518295 0.487795
0.517708 0.521958 0.491458
0.526621 0.525621 0.495121
0.535534 0.529284 0.498784
0.544446 0.532946 0.502446
0.480335 0.516085 0.480335
0.489248 0.519748 0.483998
0.498161 0.523411 0.487661
0.507073 0.527073 0.491323
0.515986 0.530736 0.494986
0.524899 0.534399 0.498649
0.533812 0.538062 0.502312
0.542724 0.541724 0.505974
0.551637 0.545387 0.509637
0.487526 0.528526 0.487526
0.496439 0.532189 0.491189
0.505351 0.535851 0.494851
0.514264 0.539514 0.498514
0.523177 0.543177 0.502177
0.532090 0.546840 0.505840
0.541002 0.550503 0.509502
0.549915 0.554165 0.513165
0.558828 0.557828 0.516828
0.431397 0.430397 0.436646
0.440309 0.434059 0.440309
0.449222 0.437722 0.443972
0.458135 0.441385 0.447635
0.467048 0.445048 0.451298
0.475960 0.448710 0.454960
0.484873 0.452373 0.458623
0.493786 0.456036 0.462286
0.502699 0.459699 0.465949
0.438587 0.442837 0.443837
0.447500 0.446500 0.447500
0.456413 0.450163 0.451163
0.465325 0.453825 0.454825
0.474238 0.457488 0.458488
0.483151 0.461151 0.462151
0.492064 0.464814 0.465814
0.500976 0.468476 0.469476
0.509889 0.472139 0.473139
0.445778 0.455278 0.451028
0.454691 0.458941 0.454691
0.463604 0.462604 0.458354
0.472516 0.466266 0.462016
0.481429 0.469929 0.465679
0.490342 0.473592 0.469342
0.499254 0.477254 0.473004
0.508167 0.480917 0.476667
0.517080 0.484580 0.480330
0.452969 0.467719 0.458219
0.461881 0.471381 0.461881
0.470794 0.475044 0.465544
0.479707 0.478707 0.469207
0.488620 0.482370 0.472870
0.497532 0.486032 0.476532
0.506445 0.489695 0.480195
0.515358 0.493358 0.483858
0.524271 0.497021 0.487521
0.460159 0.480159 0.465409
0.469072 0.483822 0.469072
0.477985 0.487485 0.472735
0.486898 0.491148 0.476398
0.495810 0.494810 0.480061
0.504723 0.498473 0.483723
0.513636 0.502136 0.487386
0.522549 0.505799 0.491049
0.531462 0.509462 0.494711
0.467350 0.492600 0.472600
0.476263 0.496263 0.476263
0.485176 0.499926 0.479926
0.494088 0.503588 0.483588
0.503001 0.507251 0.487251
0.511914 0.510914 0.490914
0.520827 0.514577 0.494577
0.529739 0.518239 0.498239
0.538652 0.521902 0.501902
0.474541 0.505041 0.479791
0.483454 0.508704 0.483454
0.492367 0.512367 0.487117
0.501279 0.516029 0.490779
0.510192 0.519692 0.494442
0.519105 0.523355 0.498105
0.528018 0.527018 0.501768
0.536930 0.530680 0.505430
0.545843 0.534343 0.509093
0.481732 0.517482 0.486982
0.490644 0.521145 0.490644
0.499557 0.524807 0.494307
0.508470 0.528470 0.497970
0.517383 0.532133 0.501633
0.526296 0.535795 0.505296
0.535208 0.539458 0.508958
0.544121 0.543121 0.512621
0.553034 0.546784 0.516284
0.488923 0.529923 0.494173
0.497835 0.533585 0.497835
0.506748 0.537248 0.501498
0.515661 0.540911 0.505161
0.524574 0.544574 0.508824
0.533486 0.548236 0.512486
0.542399 0.551899 0.516149
0.551312 0.555562 0.519812
0.560225 0.559225 0.523475
0.432793 0.431793 0.443293
0.441706 0.435456 0.446956
0.450618 0.439118 0.450618
0.459531 0.442781 0.454281
0.468444 0.446444 0.457944
0.477357 0.450107 0.461607
0.486269 0.453769 0.465269
0.495182 0.457432 0.468932
0.504095 0.461095 0.472595
0.439984 0.444234 0.450484
0.448896 0.447896 0.454146
0.457809 0.451559 0.457809
0.466722 0.455222 0.461472
0.475635 0.458885 0.465135
0.484547 0.462548 0.468797
0.493460 0.466210 0.472460
0.502373 0.469873 0.476123
0.511286 0.473536 0.479786
0.447174 0.456674 0.457674
0.456087 0.460337 0.461337
0.465000 0.464000 0.465000
0.473913 0.467663 0.468663
0.482825 0.471325 0.472325
0.491738 0.474988 0.475988
0.500651 0.478651 0.479651
0.509564 0.482314 0.483314
0.518477 0.485976 0.486976
0.454365 0.469115 0.464865
0.463278 0.472778 0.468528
0.472191 0.476441 0.472191
0.481103 0.480103 0.475853
0.490016 0.483766 0.479516
0.498929 0.487429 0.483179
0.507842 0.491092 0.486842
0.516755 0.494754 0.490504
0.525667 0.498417 0.494167
0.461556 0.481556 0.472056
0.470469 0.485219 0.475719
0.479382 0.488882 0.479382
0.488294 0.492544 0.483044
0.497207 0.496207 0.486707
0.506120 0.499870 0.490370
0.515033 0.503533 0.494032
0.523945 0.507195 0.497695
0.532858 0.510858 0.501358
0.468747 0.493997 0.479247
0.477659 0.497659 0.482909
0.486572 0.501322 0.486572
0.495485 0.504985 0.490235
0.504398 0.508648 0.493898
0.513311 0.512311 0.497560
0.522223 0.515973 0.501223
0.531136 0.519636 0.504886
0.540049 0.523299 0.508549
0.475938 0.506437 0.486437
0.484850 0.510100 0.490100
0.493763 0.513763 0.493763
0.502676 0.517426 0.497426
0.511589 0.521088 0.501088
0.520501 0.524751 0.504751
0.529414 0.528414 0.508414
0.538327 0.532077 0.512077
0.547239 0.535740 0.515740
0.483128 0.518878 0.493628
0.492041 0.522541 0.497291
0.500954 0.526204 0.500954
0.509867 0.529867 0.504617
0.518779 0.533529 0.508279
0.527692 0.537192 0.511942
0.536605 0.540855 0.515605
0.545517 0.544517 0.519267
0.554430 0.548180 0.522930
0.490319 0.531319 0.500819
0.499232 0.534982 0.504482
0.508144 0.538644 0.508144
0.517057 0.542307 0.511807
0.525970 0.545970 0.515470
0.534883 0.549633 0.519133
0.543795 0.553296 0.522795
0.552708 0.556958 0.526458
0.561621 0.560621 0.530121
0.434189 0.433189 0.449939
0.443102 0.436852 0.453602
0.452015 0.440515 0.457265
0.460928 0.444178 0.460928
0.469840 0.447840 0.464590
0.478753 0.451503 0.468253
0.487666 0.455166 0.471916
0.496579 0.458829 0.475579
0.505491 0.462491 0.479241
0.441380 0.445630 0.457130
0.450293 0.449293 0.460793
0.459206 0.452956 0.464456
0.468118 0.456618 0.468118
0.477031 0.460281 0.471781
0.485944 0.463944 0.475444
0.494857 0.467607 0.479107
0.503769 0.471270 0.482770
0.512682 0.474932 0.486432
0.448571 0.458071 0.464321
0.457484 0.461734 0.467984
0.466396 0.465396 0.471646
0.475309 0.469059 0.475309
0.484222 0.472722 0.478972
0.493135 0.476385 0.482635
0.502047 0.480047 0.486297
0.510960 0.483710 0.489960
0.519873 0.487373 0.493623
0.455762 0.470512 0.471512
0.464674 0.474174 0.475174
0.473587 0.477837 0.478837
0.482500 0.481500 0.482500
0.491413 0.485163 0.486163
0.500325 0.488825 0.489825
0.509238 0.492488 0.493488
0.518151 0.496151 0.497151
0.527064 0.499814 0.500814
0.462952 0.482952 0.478702
0.471865 0.486615 0.482365
0.480778 0.490278 0.486028
0.489691 0.493941 0.489691
0.498603 0.497603 0.493353
0.507516 0.501266 0.497016
0.516429 0.504929 0.500679
0.525342 0.508592 0.504342
0.534254 0.512254 0.508004
0.470143 0.495393 0.485893
0.479056 0.499056 0.489556
0.487969 0.502719 0.493219
0.496881 0.506381 0.496881
0.505794 0.510044 0.500544
0.514707 0.513707 0.504207
0.523620 0.517370 0.507870
0.532532 0.521033 0.511532
0.541445 0.524695 0.515195
0.477334 0.507834 0.493084
0.486247 0.511497 0.496747
0.495159 0.515159 0.500409
0.504072 0.518822 0.504072
0.512985 0.522485 0.507735
0.521898 0.526148 0.511398
0.530811 0.529811 0.515061
0.539723 0.533473 0.518723
0.548636 0.537136 0.522386
0.484525 0.520275 0.500275
0.493437 0.523937 0.503937
0.502350 0.527600 0.507600
0.511263 0.531263 0.511263
0.520176 0.534926 0.514926
0.529088 0.538588 0.518589
0.538001 0.542251 0.522251
0.546914 0.545914 0.525914
0.555827 0.549577 0.529577
0.491715 0.532716 0.507466
0.500628 0.536378 0.511128
0.509541 0.540041 0.514791
0.518454 0.543704 0.518454
0.527366 0.547366 0.522116
0.536279 0.551029 0.525779
0.545192 0.554692 0.529442
0.554105 0.558355 0.533105
0.563018 0.562018 0.536767
0.435586 0.434586 0.456586
0.444499 0.438249 0.460249
0.453411 0.441911 0.463911
0.462324 0.445574 0.467574
0.471237 0.449237 0.471237
0.480150 0.452900 0.474900
0.489062 0.456562 0.478562
0.497975 0.460225 0.482225
0.506888 0.463888 0.485888
0.442777 0.447027 0.463777
0.451689 0.450689 0.467440
0.460602 0.454352 0.471102
0.469515 0.458015 0.474765
0.478428 0.461678 0.478428
0.487340 0.465340 0.482090
0.496253 0.469003 0.485753
0.505166 0.472666 0.489416
0.514079 0.476329 0.493079
0.449967 0.459467 0.470967
0.458880 0.463130 0.474630
0.467793 0.466793 0.478293
0.476706 0.470456 0.481956
0.485618 0.474118 0.485618
0.494531 0.477781 0.489281
0.503444 0.481444 0.492944
0.512357 0.485107 0.496607
0.521270 0.488769 0.500269
0.457158 0.471908 0.478158
0.466071 0.475571 0.481821
0.474984 0.479234 0.485484
0.483896 0.482896 0.489146
0.492809 0.486559 0.492809
0.501722 0.490222 0.496472
0.510635 0.493885 0.500135
0.519548 0.497548 0.503798
0.528460 0.501210 0.507460
0.464349 0.484349 0.485349
0.473262 0.488012 0.489012
0.482175 0.491675 0.492675
0.491087 0.495337 0.496337
0.500000 0.499000 0.500000
0.508913 0.502663 0.503663
0.517826 0.506326 0.507326
0.526738 0.509988 0.510988
0.535651 0.513651 0.514651
0.471540 0.496790 0.492540
0.480452 0.500452 0.496202
0.489365 0.504115 0.499865
0.498278 0.507778 0.503528
0.507191 0.511441 0.507191
0.516103 0.515103 0.510853
0.525016 0.518766 0.514516
0.533929 0.522429 0.518179
0.542842 0.526092 0.521842
0.478731 0.509231 0.499730
0.487643 0.512893 0.503393
0.496556 0.516556 0.507056
0.505469 0.520219 0.510719
0.514382 0.523881 0.514382
0.523294 0.527544 0.518044
0.532207 0.531207 0.521707
0.541120 0.534870 0.525370
0.550033 0.538533 0.529033
0.485921 0.521671 0.506921
0.494834 0.525334 0.510584
0.503747 0.528997 0.514247
0.512659 0.532659 0.517910
0.521572 0.536322 0.521572
0.530485 0.539985 0.525235
0.539398 0.543648 0.528898
0.548310 0.547310 0.532560
0.557223 0.550973 0.536223
0.493112 0.534112 0.514112
0.502025 0.537775 0.517775
0.510938 0.541438 0.521437
0.519850 0.545100 0.525100
0.528763 0.548763 0.528763
0.537676 0.552426 0.532426
0.546589 0.556088 0.536088
0.555501 0.559751 0.539751
0.564414 0.563414 0.543414
0.436982 0.435982 0.463232
0.445895 0.439645 0.466895
0.454808 0.443308 0.470558
0.463721 0.446971 0.474221
0.472633 0.450634 0.477884
0.481546 0.454296 0.481546
0.490459 0.457959 0.485209
0.499372 0.461622 0.488872
0.508285 0.465284 0.492534
0.444173 0.448423 0.470423
0.453086 0.452086 0.474086
0.461999 0.455749 0.477749
0.470911 0.459411 0.481411
0.479824 0.463074 0.485074
0.488737 0.466737 0.488737
0.497650 0.470400 0.492400
0.506563 0.474062 0.496062
0.515475 0.477725 0.499725
0.451364 0.460864 0.477614
0.460277 0.464527 0.481277
0.469189 0.468189 0.484939
0.478102 0.471852 0.488602
0.487015 0.475515 0.492265
0.495928 0.479178 0.495928
0.504841 0.482841 0.499590
0.513753 0.486503 0.503253
0.522666 0.490166 0.506916
0.458555 0.473305 0.484805
0.467467 0.476967 0.488467
0.476380 0.480630 0.492130
0.485293 0.484293 0.495793
0.494206 0.487956 0.499456
0.503119 0.491618 0.503119
0.512031 0.495281 0.506781
0.520944 0.498944 0.510444
0.529857 0.502607 0.514107
0.465745 0.485745 0.491995
0.474658 0.489408 0.495658
0.483571 0.493071 0.499321
0.492484 0.496734 0.502984
0.501397 0.500397 0.506646
0.510309 0.504059 0.510309
0.519222 0.507722 0.513972
0.528135 0.511385 0.517635
0.537048 0.515047 0.521297
0.472936 0.498186 0.499186
0.481849 0.501849 0.502849
0.490762 0.505512 0.506512
0.499674 0.509174 0.510174
0.508587 0.512837 0.513837
0.517500 0.516500 0.517500
0.526413 0.520163 0.521163
0.535325 0.523825 0.524825
0.544238 0.527488 0.528488
0.480127 0.510627 0.506377
0.489040 0.514290 0.510040
0.497953 0.517953 0.513703
0.506865 0.521615 0.517365
0.515778 0.525278 0.521028
0.524691 0.528941 0.524691
0.533604 0.532604 0.528354
0.542516 0.536266 0.532016
0.551429 0.539929 0.535679
0.487318 0.523068 0.513568
0.496231 0.526730 0.517230
0.505143 0.530393 0.520893
0.514056 0.534056 0.524556
0.522969 0.537719 0.528219
0.531882 0.541381 0.531882
0.540794 0.545044 0.535544
0.549707 0.548707 0.539207
0.558620 0.552370 0.542870
0.494509 0.535509 0.520759
0.503421 0.539171 0.524421
0.512334 0.542834 0.528084
0.521247 0.546497 0.531747
0.530160 0.550160 0.535409
0.539072 0.553822 0.539072
0.547985 0.557485 0.542735
0.556898 0.561148 0.546398
0.565810 0.564810 0.550061
0.438379 0.437379 0.469879
0.447292 0.441042 0.473542
0.456204 0.444704 0.477204
0.465117 0.448367 0.480867
0.474030 0.452030 0.484530
0.482943 0.455693 0.488193
0.491855 0.459355 0.491855
0.500768 0.463018 0.495518
0.509681 0.466681 0.499181
0.445570 0.449820 0.477070
0.454482 0.453482 0.480733
0.463395 0.457145 0.484395
0.472308 0.460808 0.488058
0.481221 0.464471 0.491721
0.490133 0.468133 0.495383
0.499046 0.471796 0.499046
0.507959 0.475459 0.502709
0.516872 0.479122 0.506372
0.452760 0.462260 0.484260
0.461673 0.465923 0.487923
0.470586 0.469586 0.491586
0.479499 0.473249 0.495249
0.488411 0.476911 0.498911
0.497324 0.480574 0.502574
0.506237 0.484237 0.506237
0.515150 0.487900 0.509900
0.524062 0.491562 0.513562
0.459951 0.474701 0.491451
0.468864 0.478364 0.495114
0.477777 0.482027 0.498777
0.486689 0.485689 0.502439
0.495602 0.489352 0.506102
0.504515 0.493015 0.509765
0.513428 0.496678 0.513428
0.522340 0.500340 0.517091
0.531253 0.504003 0.520753
0.467142 0.487142 0.498642
0.476055 0.490805 0.502305
0.484967 0.494468 0.505968
0.493880 0.498130 0.509630
0.502793 0.501793 0.513293
0.511706 0.505456 0.516956
0.520618 0.509119 0.520618
0.529531 0.512781 0.524281
0.538444 0.516444 0.527944
0.474333 0.499583 0.505833
0.483245 0.503245 0.509495
0.492158 0.506908 0.513158
0.501071 0.510571 0.516821
0.509984 0.514234 0.520484
0.518896 0.517896 0.524146
0.527809 0.521559 0.527809
0.536722 0.525222 0.531472
0.545635 0.528885 0.535135
0.481523 0.512023 0.513023
0.490436 0.515686 0.516686
0.499349 0.519349 0.520349
0.508262 0.523012 0.524012
0.517174 0.526675 0.527675
0.526087 0.530337 0.531337
0.535000 0.534000 0.535000
0.543913 0.537663 0.538663
0.552825 0.541326 0.542326
0.488714 0.524464 0.520214
0.497627 0.528127 0.523877
0.506540 0.531790 0.527540
0.515452 0.535452 0.531203
0.524365 0.539115 0.534865
0.533278 0.542778 0.538528
0.542191 0.546441 0.542191
0.551103 0.550103 0.545853
0.560016 0.553766 0.549516
0.495905 0.536905 0.527405
0.504818 0.540568 0.531068
0.513730 0.544230 0.534730
0.522643 0.547893 0.538393
0.531556 0.551556 0.542056
0.540469 0.555219 0.545719
0.549381 0.558882 0.549381
0.558294 0.562544 0.553044
0.567207 0.566207 0.556707
0.439775 0.438775 0.476525
0.448688 0.442438 0.480188
0.457601 0.446101 0.483851
0.466514 0.449764 0.487514
0.475426 0.453427 0.491177
0.484339 0.457089 0.494839
0.493252 0.460752 0.498502
0.502165 0.464415 0.502165
0.511078 0.468077 0.505827
0.446966 0.451216 0.483716
0.455879 0.454879 0.487379
0.464792 0.458542 0.491042
0.473704 0.462205 0.494704
0.482617 0.465867 0.498367
0.491530 0.469530 0.502030
0.500443 0.473193 0.505693
0.509355 0.476855 0.509355
0.518268 0.480518 0.513018
0.454157 0.463657 0.490907
0.463070 0.467320 0.494570
0.471982 0.470982 0.498232
0.480895 0.474645 0.501895
0.489808 0.478308 0.505558
0.498721 0.481971 0.509221
0.507633 0.485633 0.512883
0.516546 0.489296 0.516546
0.525459 0.492959 0.520209
0.461348 0.476098 0.498098
0.470260 0.479760 0.501760
0.479173 0.483423 0.505423
0.488086 0.487086 0.509086
0.496999 0.490749 0.512749
0.505911 0.494412 0.516412
0.514824 0.498074 0.520074
0.523737 0.501737 0.523737
0.532650 0.505400 0.527400
0.468538 0.488538 0.505288
0.477451 0.492201 0.508951
0.486364 0.495864 0.512614
0.495277 0.499527 0.516277
0.504189 0.503189 0.519939
0.513102 0.506852 0.523602
0.522015 0.510515 0.527265
0.530928 0.514178 0.530928
0.539840 0.517840 0.534590
0.475729 0.500979 0.512479
0.484642 0.504642 0.516142
0.493555 0.508305 0.519805
0.502467 0.511967 0.523467
0.511380 0.515630 0.527130
0.520293 0.519293 0.530793
0.529206 0.522956 0.534456
0.538118 0.526618 0.538118
0.547031 0.530281 0.541781
0.482920 0.513420 0.519670
0.491833 0.517083 0.523333
0.500745 0.520745 0.526995
0.509658 0.524408 0.530658
0.518571 0.528071 0.534321
0.527484 0.531734 0.537984
0.536397 0.535397 0.541647
0.545309 0.539059 0.545309
0.554222 0.542722 0.548972
0.490111 0.525861 0.526861
0.499023 0.529523 0.530523
0.507936 0.533186 0.534186
0.516849 0.536849 0.537849
0.525762 0.540512 0.541512
0.534674 0.544174 0.545174
0.543587 0.547837 0.548837
0.552500 0.551500 0.552500
0.561413 0.555163 0.556163
0.497301 0.538301 0.534052
0.506214 0.541964 0.537714
0.515127 0.545627 0.541377
0.524040 0.549290 0.545040
0.532952 0.552952 0.548702
0.541865 0.556615 0.552365
0.550778 0.560278 0.556028
0.559691 0.563941 0.559691
0.568604 0.567604 0.563353
0.441172 0.440172 0.483172
0.450085 0.443835 0.486835
0.458997 0.447497 0.490497
0.467910 0.451160 0.494160
0.476823 0.454823 0.497823
0.485736 0.458486 0.501486
0.494648 0.462148 0.505149
0.503561 0.465811 0.508811
0.512474 0.469474 0.512474
0.448363 0.452613 0.490363
0.457276 0.456276 0.494026
0.466188 0.459938 0.497688
0.475101 0.463601 0.501351
0.484014 0.467264 0.505014
0.492926 0.470927 0.508676
0.501839 0.474589 0.512339
0.510752 0.478252 0.516002
0.519665 0.481915 0.519665
0.455553 0.465053 0.497553
0.464466 0.468716 0.501216
0.473379 0.472379 0.504879
0.482292 0.476042 0.508542
0.491204 0.479704 0.512204
0.500117 0.483367 0.515867
0.509030 0.487030 0.519530
0.517943 0.490693 0.523193
0.526856 0.494355 0.526856
0.462744 0.477494 0.504744
0.471657 0.481157 0.508407
0.480570 0.484820 0.512070
0.489482 0.488482 0.515733
0.498395 0.492145 0.519395
0.507308 0.495808 0.523058
0.516221 0.499471 0.526721
0.525134 0.503134 0.530384
0.534046 0.506796 0.534046
0.469935 0.489935 0.511935
0.478848 0.493598 0.515598
0.487761 0.497261 0.519261
0.496673 0.500923 0.522923
0.505586 0.504586 0.526586
0.514499 0.508249 0.530249
0.523412 0.511912 0.533912
0.532324 0.515574 0.537574
0.541237 0.519237 0.541237
0.477126 0.502376 0.519126
0.486038 0.506038 0.522788
0.494951 0.509701 0.526451
0.503864 0.513364 0.530114
0.512777 0.517027 0.533777
0.521689 0.520689 0.537439
0.530602 0.524352 0.541102
0.539515 0.528015 0.544765
0.548428 0.531678 0.548428
0.484317 0.514817 0.526317
0.493229 0.518479 0.529979
0.502142 0.522142 0.533642
0.511055 0.525805 0.537305
0.519968 0.529467 0.540968
0.528880 0.533130 0.544630
0.537793 0.536793 0.548293
0.546706 0.540456 0.551956
0.555619 0.544119 0.555619
0.491507 0.527257 0.533507
0.500420 0.530920 0.537170
0.509333 0.534583 0.540833
0.518245 0.538245 0.544496
0.527158 0.541908 0.548158
0.536071 0.545571 0.551821
0.544984 0.549234 0.555484
0.553897 0.552897 0.559146
0.562809 0.556559 0.562809
0.498698 0.539698 0.540698
0.507611 0.543361 0.544361
0.516524 0.547023 0.548023
0.525436 0.550686 0.551686
0.534349 0.554349 0.555349
0.543262 0.558012 0.559012
0.552175 0.561674 0.562674
0.561087 0.565337 0.566337
0.570000 0.569000 0.570000
