shared/src/main/assets/luts/mv_hard_contrast.cube
TITLE "DALUR Hard Contrast"
LUT_3D_SIZE 17
DOMAIN_MIN 0.0 0.0 0.0
DOMAIN_MAX 1.0 1.0 1.0
0.390000 0.390000 0.390000
0.395557 0.393495 0.393495
0.401114 0.396989 0.396989
0.406671 0.400484 0.400484
0.412228 0.403978 0.403978
0.417785 0.407473 0.407473
0.423342 0.410967 0.410967
0.428899 0.414462 0.414462
0.434456 0.417957 0.417957
0.440014 0.421451 0.421451
0.445571 0.424946 0.424946
0.451128 0.428440 0.428440
0.456685 0.431935 0.431935
0.462242 0.435429 0.435429
0.467799 0.438924 0.438924
0.473356 0.442418 0.442418
0.478913 0.445913 0.445913
0.396861 0.398923 0.396861
0.402418 0.402418 0.400355
0.407975 0.405912 0.403850
0.413532 0.409407 0.407344
0.419089 0.412901 0.410839
0.424646 0.416396 0.414333
0.430203 0.419890 0.417828
0.435760 0.423385 0.421322
0.441317 0.426880 0.424817
0.446874 0.430374 0.428312
0.452431 0.433869 0.431806
0.457988 0.437363 0.435301
0.463545 0.440858 0.438795
0.469102 0.444352 0.442290
0.474659 0.447847 0.445784
0.480216 0.451342 0.449279
0.485774 0.454836 0.452774
0.403721 0.407846 0.403721
0.409278 0.411341 0.407216
0.414835 0.414835 0.410710
0.420392 0.418330 0.414205
0.425949 0.421824 0.417699
0.431506 0.425319 0.421194
0.437063 0.428813 0.424688
0.442621 0.432308 0.428183
0.448178 0.435803 0.431678
0.453735 0.439297 0.435172
0.459292 0.442792 0.438667
0.464849 0.446286 0.442161
0.470406 0.449781 0.445656
0.475963 0.453275 0.449150
0.481520 0.456770 0.452645
0.487077 0.460265 0.456140
0.492634 0.463759 0.459634
0.410582 0.416769 0.410582
0.416139 0.420264 0.414076
0.421696 0.423758 0.417571
0.427253 0.427253 0.421065
0.432810 0.430747 0.424560
0.438367 0.434242 0.428055
0.443924 0.437737 0.431549
0.449481 0.441231 0.435044
0.455038 0.444726 0.438538
0.460595 0.448220 0.442033
0.466152 0.451715 0.445527
0.471709 0.455209 0.449022
0.477266 0.458704 0.452516
0.482824 0.462199 0.456011
0.488381 0.465693 0.459506
0.493938 0.469188 0.463000
0.499495 0.472682 0.466495
0.417442 0.425692 0.417442
0.422999 0.429187 0.420937
0.428556 0.432681 0.424431
0.434113 0.436176 0.427926
0.439671 0.439671 0.431420
0.445228 0.443165 0.434915
0.450785 0.446660 0.438410
0.456342 0.450154 0.441904
0.461899 0.453649 0.445399
0.467456 0.457143 0.448893
0.473013 0.460638 0.452388
0.478570 0.464132 0.455882
0.484127 0.467627 0.459377
0.489684 0.471122 0.462872
0.495241 0.474616 0.466366
0.500798 0.478111 0.469861
0.506355 0.481605 0.473355
0.424303 0.434615 0.424303
0.429860 0.438110 0.427797
0.435417 0.441604 0.431292
0.440974 0.445099 0.434786
0.446531 0.448594 0.438281
0.452088 0.452088 0.441776
0.457645 0.455583 0.445270
0.463202 0.459077 0.448765
0.468759 0.462572 0.452259
0.474316 0.466066 0.455754
0.479873 0.469561 0.459248
0.485430 0.473056 0.462743
0.490988 0.476550 0.466238
0.496545 0.480045 0.469732
0.502102 0.483539 0.473227
0.507659 0.487034 0.476721
0.513216 0.490528 0.480216
0.431163 0.443538 0.431163
0.436720 0.447033 0.434658
0.442277 0.450527 0.438152
0.447835 0.454022 0.441647
0.453392 0.457517 0.445142
0.458949 0.461011 0.448636
0.464506 0.464506 0.452131
0.470063 0.468000 0.455625
0.475620 0.471495 0.459120
0.481177 0.474989 0.462614
0.486734 0.478484 0.466109
0.492291 0.481979 0.469604
0.497848 0.485473 0.473098
0.503405 0.488968 0.476593
0.508962 0.492462 0.480087
0.514519 0.495957 0.483582
0.520076 0.499451 0.487076
0.438024 0.452461 0.438024
0.443581 0.455956 0.441519
0.449138 0.459451 0.445013
0.454695 0.462945 0.448508
0.460252 0.466440 0.452002
0.465809 0.469934 0.455497
0.471366 0.473429 0.458991
0.476923 0.476923 0.462486
0.482480 0.480418 0.465980
0.488038 0.483912 0.469475
0.493595 0.487407 0.472970
0.499152 0.490902 0.476464
0.504709 0.494396 0.479959
0.510266 0.497891 0.483453
0.515823 0.501385 0.486948
0.521380 0.504880 0.490442
0.526937 0.508374 0.493937
0.444884 0.461384 0.444884
0.450442 0.464879 0.448379
0.455999 0.468374 0.451874
0.461556 0.471868 0.455368
0.467113 0.475363 0.458863
0.472670 0.478857 0.462357
0.478227 0.482352 0.465852
0.483784 0.485846 0.469346
0.489341 0.489341 0.472841
0.494898 0.492836 0.476336
0.500455 0.496330 0.479830
0.506012 0.499825 0.483325
0.511569 0.503319 0.486819
0.517126 0.506814 0.490314
0.522683 0.510308 0.493808
0.528240 0.513803 0.497303
0.533797 0.517297 0.500798
0.451745 0.470308 0.451745
0.457302 0.473802 0.455240
0.462859 0.477297 0.458734
0.468416 0.480791 0.462229
0.473973 0.484286 0.465723
0.479530 0.487780 0.469218
0.485087 0.491275 0.472712
0.490645 0.494770 0.476207
0.496202 0.498264 0.479702
0.501759 0.501759 0.483196
0.507316 0.505253 0.486691
0.512873 0.508748 0.490185
0.518430 0.512242 0.493680
0.523987 0.515737 0.497174
0.529544 0.519231 0.500669
0.535101 0.522726 0.504164
0.540658 0.526221 0.507658
0.458606 0.479231 0.458606
0.464163 0.482725 0.462100
0.469720 0.486220 0.465595
0.475277 0.489714 0.469089
0.480834 0.493209 0.472584
0.486391 0.496703 0.476078
0.491948 0.500198 0.479573
0.497505 0.503693 0.483068
0.503062 0.507187 0.486562
0.508619 0.510682 0.490057
0.514176 0.514176 0.493551
0.519733 0.517671 0.497046
0.525290 0.521165 0.500540
0.530847 0.524660 0.504035
0.536405 0.528154 0.507529
0.541962 0.531649 0.511024
0.547519 0.535144 0.514519
0.465466 0.488154 0.465466
0.471023 0.491648 0.468961
0.476580 0.495143 0.472455
0.482137 0.498637 0.475950
0.487694 0.502132 0.479444
0.493251 0.505626 0.482939
0.498809 0.509121 0.486434
0.504366 0.512616 0.489928
0.509923 0.516110 0.493423
0.515480 0.519605 0.496917
0.521037 0.523099 0.500412
0.526594 0.526594 0.503906
0.532151 0.530088 0.507401
0.537708 0.533583 0.510895
0.543265 0.537078 0.514390
0.548822 0.540572 0.517885
0.554379 0.544067 0.521379
0.472327 0.497077 0.472327
0.477884 0.500571 0.475821
0.483441 0.504066 0.479316
0.488998 0.507560 0.482810
0.494555 0.511055 0.486305
0.500112 0.514550 0.489800
0.505669 0.518044 0.493294
0.511226 0.521539 0.496789
0.516783 0.525033 0.500283
0.522340 0.528528 0.503778
0.527897 0.532022 0.507272
0.533454 0.535517 0.510767
0.539012 0.539012 0.514262
0.544569 0.542506 0.517756
0.550126 0.546001 0.521251
0.555683 0.549495 0.524745
0.561240 0.552990 0.528240
0.479187 0.506000 0.479187
0.484744 0.509494 0.482682
0.490301 0.512989 0.486176
0.495859 0.516483 0.489671
0.501416 0.519978 0.493166
0.506973 0.523473 0.496660
0.512530 0.526967 0.500155
0.518087 0.530462 0.503649
0.523644 0.533956 0.507144
0.529201 0.537451 0.510638
0.534758 0.540945 0.514133
0.540315 0.544440 0.517628
0.545872 0.547935 0.521122
0.551429 0.551429 0.524617
0.556986 0.554924 0.528111
0.562543 0.558418 0.531606
0.568100 0.561913 0.535100
0.486048 0.514923 0.486048
0.491605 0.518417 0.489542
0.497162 0.521912 0.493037
0.502719 0.525407 0.496532
0.508276 0.528901 0.500026
0.513833 0.532396 0.503521
0.519390 0.535890 0.507015
0.524947 0.539385 0.510510
0.530504 0.542879 0.514004
0.536061 0.546374 0.517499
0.541619 0.549868 0.520993
0.547176 0.553363 0.524488
0.552733 0.556858 0.527983
0.558290 0.560352 0.531477
0.563847 0.563847 0.534972
0.569404 0.567341 0.538466
0.574961 0.570836 0.541961
0.492908 0.523846 0.492908
0.498465 0.527340 0.496403
0.504023 0.530835 0.499898
0.509580 0.534330 0.503392
0.515137 0.537824 0.506887
0.520694 0.541319 0.510381
0.526251 0.544813 0.513876
0.531808 0.548308 0.517370
0.537365 0.551802 0.520865
0.542922 0.555297 0.524360
0.548479 0.558792 0.527854
0.554036 0.562286 0.531349
0.559593 0.565781 0.534843
0.565150 0.569275 0.538338
0.570707 0.572770 0.541832
0.576264 0.576264 0.545327
0.581821 0.579759 0.548821
0.499769 0.532769 0.499769
0.505326 0.536264 0.503264
0.510883 0.539758 0.506758
0.516440 0.543253 0.510253
0.521997 0.546747 0.513747
0.527554 0.550242 0.517242
0.533111 0.553736 0.520736
0.538668 0.557231 0.524231
0.544226 0.560725 0.527726
0.549783 0.564220 0.531220
0.555340 0.567715 0.534715
0.560897 0.571209 0.538209
0.566454 0.574704 0.541704
0.572011 0.578198 0.545198
0.577568 0.581693 0.548693
0.583125 0.585187 0.552187
0.588682 0.588682 0.555682
0.391332 0.391332 0.393395
0.396889 0.394827 0.396889
0.402446 0.398321 0.400384
0.408004 0.401816 0.403879
0.413561 0.405311 0.407373
0.419118 0.408805 0.410868
0.424675 0.412300 0.414362
0.430232 0.415794 0.417857
0.435789 0.419289 0.421351
0.441346 0.422783 0.424846
0.446903 0.426278 0.428340
0.452460 0.429773 0.431835
0.458017 0.433267 0.435330
0.463574 0.436762 0.438824
0.469131 0.440256 0.442319
0.474688 0.443751 0.445813
0.480245 0.447245 0.449308
0.398193 0.400255 0.400255
0.403750 0.403750 0.403750
0.409307 0.407245 0.407245
0.414864 0.410739 0.410739
0.420421 0.414234 0.414234
0.425978 0.417728 0.417728
0.431535 0.421223 0.421223
0.437092 0.424717 0.424717
0.442649 0.428212 0.428212
0.448207 0.431707 0.431707
0.453764 0.435201 0.435201
0.459321 0.438696 0.438696
0.464878 0.442190 0.442190
0.470435 0.445685 0.445685
0.475992 0.449179 0.449179
0.481549 0.452674 0.452674
0.487106 0.456168 0.456168
0.405053 0.409178 0.407116
0.410611 0.412673 0.410611
0.416168 0.416168 0.414105
0.421725 0.419662 0.417600
0.427282 0.423157 0.421094
0.432839 0.426651 0.424589
0.438396 0.430146 0.428083
0.443953 0.433640 0.431578
0.449510 0.437135 0.435072
0.455067 0.440630 0.438567
0.460624 0.444124 0.442062
0.466181 0.447619 0.445556
0.471738 0.451113 0.449051
0.477295 0.454608 0.452545
0.482852 0.458102 0.456040
0.488409 0.461597 0.459534
0.493966 0.465091 0.463029
0.411914 0.418102 0.413977
0.417471 0.421596 0.417471
0.423028 0.425091 0.420966
0.428585 0.428585 0.424460
0.434142 0.432080 0.427955
0.439699 0.435574 0.431449
0.445256 0.439069 0.434944
0.450814 0.442563 0.438439
0.456371 0.446058 0.441933
0.461928 0.449553 0.445428
0.467485 0.453047 0.448922
0.473042 0.456542 0.452417
0.478599 0.460036 0.455911
0.484156 0.463531 0.459406
0.489713 0.467025 0.462900
0.495270 0.470520 0.466395
0.500827 0.474015 0.469890
0.418775 0.427025 0.420837
0.424332 0.430519 0.424332
0.429889 0.434014 0.427826
0.435446 0.437508 0.431321
0.441003 0.441003 0.434815
0.446560 0.444497 0.438310
0.452117 0.447992 0.441804
0.457674 0.451487 0.445299
0.463231 0.454981 0.448794
0.468788 0.458476 0.452288
0.474345 0.461970 0.455783
0.479902 0.465465 0.459277
0.485459 0.468959 0.462772
0.491016 0.472454 0.466266
0.496574 0.475948 0.469761
0.502131 0.479443 0.473256
0.507688 0.482938 0.476750
0.425635 0.435948 0.427698
0.431192 0.439442 0.431192
0.436749 0.442937 0.434687
0.442306 0.446431 0.438181
0.447863 0.449926 0.441676
0.453421 0.453421 0.445170
0.458978 0.456915 0.448665
0.464535 0.460410 0.452160
0.470092 0.463904 0.455654
0.475649 0.467399 0.459149
0.481206 0.470893 0.462643
0.486763 0.474388 0.466138
0.492320 0.477882 0.469632
0.497877 0.481377 0.473127
0.503434 0.484872 0.476622
0.508991 0.488366 0.480116
0.514548 0.491861 0.483611
0.432496 0.444871 0.434558
0.438053 0.448365 0.438053
0.443610 0.451860 0.441547
0.449167 0.455354 0.445042
0.454724 0.458849 0.448536
0.460281 0.462344 0.452031
0.465838 0.465838 0.455526
0.471395 0.469333 0.459020
0.476952 0.472827 0.462515
0.482509 0.476322 0.466009
0.488066 0.479816 0.469504
0.493623 0.483311 0.472998
0.499180 0.486806 0.476493
0.504738 0.490300 0.479988
0.510295 0.493795 0.483482
0.515852 0.497289 0.486977
0.521409 0.500784 0.490471
0.439356 0.453794 0.441419
0.444913 0.457288 0.444913
0.450470 0.460783 0.448408
0.456028 0.464278 0.451903
0.461585 0.467772 0.455397
0.467142 0.471267 0.458892
0.472699 0.474761 0.462386
0.478256 0.478256 0.465881
0.483813 0.481750 0.469375
0.489370 0.485245 0.472870
0.494927 0.488739 0.476364
0.500484 0.492234 0.479859
0.506041 0.495729 0.483354
0.511598 0.499223 0.486848
0.517155 0.502718 0.490343
0.522712 0.506212 0.493837
0.528269 0.509707 0.497332
0.446217 0.462717 0.448279
0.451774 0.466211 0.451774
0.457331 0.469706 0.455269
0.462888 0.473201 0.458763
0.468445 0.476695 0.462258
0.474002 0.480190 0.465752
0.479559 0.483684 0.469247
0.485116 0.487179 0.472741
0.490673 0.490673 0.476236
0.496230 0.494168 0.479730
0.501787 0.497662 0.483225
0.507345 0.501157 0.486720
0.512902 0.504652 0.490214
0.518459 0.508146 0.493709
0.524016 0.511641 0.497203
0.529573 0.515135 0.500698
0.535130 0.518630 0.504192
0.453077 0.471640 0.455140
0.458635 0.475135 0.458635
0.464192 0.478629 0.462129
0.469749 0.482124 0.465624
0.475306 0.485618 0.469118
0.480863 0.489113 0.472613
0.486420 0.492607 0.476107
0.491977 0.496102 0.479602
0.497534 0.499596 0.483096
0.503091 0.503091 0.486591
0.508648 0.506586 0.490086
0.514205 0.510080 0.493580
0.519762 0.513575 0.497075
0.525319 0.517069 0.500569
0.530876 0.520564 0.504064
0.536433 0.524058 0.507558
0.541990 0.527553 0.511053
0.459938 0.480563 0.462000
0.465495 0.484058 0.465495
0.471052 0.487552 0.468990
0.476609 0.491047 0.472484
0.482166 0.494541 0.475979
0.487723 0.498036 0.479473
0.493280 0.501530 0.482968
0.498837 0.505025 0.486462
0.504394 0.508520 0.489957
0.509952 0.512014 0.493452
0.515509 0.515509 0.496946
0.521066 0.519003 0.500441
0.526623 0.522498 0.503935
0.532180 0.525992 0.507430
0.537737 0.529487 0.510924
0.543294 0.532981 0.514419
0.548851 0.536476 0.517914
0.466799 0.489486 0.468861
0.472356 0.492981 0.472356
0.477913 0.496475 0.475850
0.483470 0.499970 0.479345
0.489027 0.503464 0.482839
0.494584 0.506959 0.486334
0.500141 0.510453 0.489828
0.505698 0.513948 0.493323
0.511255 0.517443 0.496818
0.516812 0.520937 0.500312
0.522369 0.524432 0.503807
0.527926 0.527926 0.507301
0.533483 0.531421 0.510796
0.539040 0.534915 0.514290
0.544597 0.538410 0.517785
0.550154 0.541905 0.521280
0.555712 0.545399 0.524774
0.473659 0.498409 0.475722
0.479216 0.501904 0.479216
0.484773 0.505398 0.482711
0.490330 0.508893 0.486205
0.495887 0.512387 0.489700
0.501444 0.515882 0.493194
0.507001 0.519377 0.496689
0.512559 0.522871 0.500184
0.518116 0.526366 0.503678
0.523673 0.529860 0.507173
0.529230 0.533355 0.510667
0.534787 0.536849 0.514162
0.540344 0.540344 0.517656
0.545901 0.543838 0.521151
0.551458 0.547333 0.524645
0.557015 0.550828 0.528140
0.562572 0.554322 0.531635
0.480520 0.507332 0.482582
0.486077 0.510827 0.486077
0.491634 0.514321 0.489571
0.497191 0.517816 0.493066
0.502748 0.521310 0.496560
0.508305 0.524805 0.500055
0.513862 0.528300 0.503550
0.519419 0.531794 0.507044
0.524976 0.535289 0.510539
0.530533 0.538783 0.514033
0.536090 0.542278 0.517528
0.541647 0.545772 0.521022
0.547204 0.549267 0.524517
0.552762 0.552762 0.528011
0.558319 0.556256 0.531506
0.563876 0.559751 0.535001
0.569433 0.563245 0.538495
0.487380 0.516255 0.489443
0.492937 0.519750 0.492937
0.498494 0.523244 0.496432
0.504051 0.526739 0.499926
0.509609 0.530234 0.503421
0.515166 0.533728 0.506916
0.520723 0.537223 0.510410
0.526280 0.540717 0.513905
0.531837 0.544212 0.517399
0.537394 0.547706 0.520894
0.542951 0.551201 0.524388
0.548508 0.554695 0.527883
0.554065 0.558190 0.531377
0.559622 0.561685 0.534872
0.565179 0.565179 0.538367
0.570736 0.568674 0.541861
0.576293 0.572168 0.545356
0.494241 0.525178 0.496303
0.499798 0.528673 0.499798
0.505355 0.532167 0.503292
0.510912 0.535662 0.506787
0.516469 0.539157 0.510282
0.522026 0.542651 0.513776
0.527583 0.546146 0.517271
0.533140 0.549640 0.520765
0.538697 0.553135 0.524260
0.544254 0.556629 0.527754
0.549811 0.560124 0.531249
0.555368 0.563618 0.534743
0.560926 0.567113 0.538238
0.566483 0.570608 0.541733
0.572040 0.574102 0.545227
0.577597 0.577597 0.548722
0.583154 0.581091 0.552216
0.501101 0.534101 0.503164
0.506658 0.537596 0.506658
0.512215 0.541090 0.510153
0.517773 0.544585 0.513648
0.523330 0.548080 0.517142
0.528887 0.551574 0.520637
0.534444 0.555069 0.524131
0.540001 0.558563 0.527626
0.545558 0.562058 0.531120
0.551115 0.565552 0.534615
0.556672 0.569047 0.538109
0.562229 0.572542 0.541604
0.567786 0.576036 0.545099
0.573343 0.579531 0.548593
0.578900 0.583025 0.552088
0.584457 0.586520 0.555582
0.590014 0.590014 0.559077
0.392665 0.392665 0.396790
0.398222 0.396159 0.400284
0.403779 0.399654 0.403779
0.409336 0.403148 0.407273
0.414893 0.406643 0.410768
0.420450 0.410138 0.414263
0.426007 0.413632 0.417757
0.431564 0.417127 0.421252
0.437121 0.420621 0.424746
0.442678 0.424116 0.428241
0.448235 0.427610 0.431735
0.453792 0.431105 0.435230
0.459349 0.434599 0.438724
0.464907 0.438094 0.442219
0.470464 0.441589 0.445714
0.476021 0.445083 0.449208
0.481578 0.448578 0.452703
0.399525 0.401588 0.403650
0.405082 0.405082 0.407145
0.410639 0.408577 0.410639
0.416196 0.412071 0.414134
0.421754 0.415566 0.417629
0.427311 0.419061 0.421123
0.432868 0.422555 0.424618
0.438425 0.426050 0.428112
0.443982 0.429544 0.431607
0.449539 0.433039 0.435101
0.455096 0.436533 0.438596
0.460653 0.440028 0.442090
0.466210 0.443523 0.445585
0.471767 0.447017 0.449080
0.477324 0.450512 0.452574
0.482881 0.454006 0.456069
0.488438 0.457501 0.459563
0.406386 0.410511 0.410511
0.411943 0.414005 0.414005
0.417500 0.417500 0.417500
0.423057 0.420995 0.420995
0.428614 0.424489 0.424489
0.434171 0.427984 0.427984
0.439728 0.431478 0.431478
0.445285 0.434973 0.434973
0.450842 0.438467 0.438467
0.456399 0.441962 0.441962
0.461956 0.445456 0.445456
0.467514 0.448951 0.448951
0.473071 0.452446 0.452446
0.478628 0.455940 0.455940
0.484185 0.459435 0.459435
0.489742 0.462929 0.462929
0.495299 0.466424 0.466424
0.413246 0.419434 0.417371
0.418803 0.422928 0.420866
0.424361 0.426423 0.424361
0.429918 0.429918 0.427855
0.435475 0.433412 0.431350
0.441032 0.436907 0.434844
0.446589 0.440401 0.438339
0.452146 0.443896 0.441833
0.457703 0.447390 0.445328
0.463260 0.450885 0.448822
0.468817 0.454380 0.452317
0.474374 0.457874 0.455812
0.479931 0.461369 0.459306
0.485488 0.464863 0.462801
0.491045 0.468358 0.466295
0.496602 0.471852 0.469790
0.502159 0.475347 0.473284
0.420107 0.428357 0.424232
0.425664 0.431852 0.427727
0.431221 0.435346 0.431221
0.436778 0.438841 0.434716
0.442335 0.442335 0.438210
0.447892 0.445830 0.441705
0.453449 0.449324 0.445199
0.459006 0.452819 0.448694
0.464563 0.456313 0.452188
0.470121 0.459808 0.455683
0.475678 0.463303 0.459178
0.481235 0.466797 0.462672
0.486792 0.470292 0.466167
0.492349 0.473786 0.469661
0.497906 0.477281 0.473156
0.503463 0.480775 0.476650
0.509020 0.484270 0.480145
0.426968 0.437280 0.431093
0.432525 0.440775 0.434587
0.438082 0.444269 0.438082
0.443639 0.447764 0.441576
0.449196 0.451258 0.445071
0.454753 0.454753 0.448565
0.460310 0.458247 0.452060
0.465867 0.461742 0.455555
0.471424 0.465237 0.459049
0.476981 0.468731 0.462544
0.482538 0.472226 0.466038
0.488095 0.475720 0.469533
0.493652 0.479215 0.473027
0.499209 0.482709 0.476522
0.504766 0.486204 0.480016
0.510323 0.489698 0.483511
0.515881 0.493193 0.487006
0.433828 0.446203 0.437953
0.439385 0.449698 0.441448
0.444942 0.453192 0.444942
0.450499 0.456687 0.448437
0.456056 0.460181 0.451931
0.461613 0.463676 0.455426
0.467170 0.467170 0.458920
0.472728 0.470665 0.462415
0.478285 0.474160 0.465910
0.483842 0.477654 0.469404
0.489399 0.481149 0.472899
0.494956 0.484643 0.476393
0.500513 0.488138 0.479888
0.506070 0.491632 0.483382
0.511627 0.495127 0.486877
0.517184 0.498622 0.490372
0.522741 0.502116 0.493866
0.440689 0.455126 0.444814
0.446246 0.458621 0.448308
0.451803 0.462115 0.451803
0.457360 0.465610 0.455297
0.462917 0.469104 0.458792
0.468474 0.472599 0.462286
0.474031 0.476094 0.465781
0.479588 0.479588 0.469276
0.485145 0.483083 0.472770
0.490702 0.486577 0.476265
0.496259 0.490072 0.479759
0.501816 0.493566 0.483254
0.507373 0.497061 0.486748
0.512930 0.500555 0.490243
0.518488 0.504050 0.493738
0.524045 0.507545 0.497232
0.529602 0.511039 0.500727
0.447549 0.464049 0.451674
0.453106 0.467544 0.455169
0.458663 0.471038 0.458663
0.464220 0.474533 0.462158
0.469778 0.478027 0.465653
0.475335 0.481522 0.469147
0.480892 0.485017 0.472642
0.486449 0.488511 0.476136
0.492006 0.492006 0.479631
0.497563 0.495500 0.483125
0.503120 0.498995 0.486620
0.508677 0.502489 0.490114
0.514234 0.505984 0.493609
0.519791 0.509479 0.497104
0.525348 0.512973 0.500598
0.530905 0.516468 0.504093
0.536462 0.519962 0.507587
0.454410 0.472972 0.458535
0.459967 0.476467 0.462029
0.465524 0.479961 0.465524
0.471081 0.483456 0.469019
0.476638 0.486951 0.472513
0.482195 0.490445 0.476008
0.487752 0.493940 0.479502
0.493309 0.497434 0.482997
0.498866 0.500929 0.486491
0.504423 0.504423 0.489986
0.509980 0.507918 0.493480
0.515537 0.511413 0.496975
0.521095 0.514907 0.500470
0.526652 0.518402 0.503964
0.532209 0.521896 0.507459
0.537766 0.525391 0.510953
0.543323 0.528885 0.514448
0.461270 0.481895 0.465395
0.466827 0.485390 0.468890
0.472384 0.488884 0.472384
0.477942 0.492379 0.475879
0.483499 0.495874 0.479374
0.489056 0.499368 0.482868
0.494613 0.502863 0.486363
0.500170 0.506357 0.489857
0.505727 0.509852 0.493352
0.511284 0.513346 0.496846
0.516841 0.516841 0.500341
0.522398 0.520336 0.503836
0.527955 0.523830 0.507330
0.533512 0.527325 0.510825
0.539069 0.530819 0.514319
0.544626 0.534314 0.517814
0.550183 0.537808 0.521308
0.468131 0.490818 0.472256
0.473688 0.494313 0.475750
0.479245 0.497808 0.479245
0.484802 0.501302 0.482740
0.490359 0.504797 0.486234
0.495916 0.508291 0.489729
0.501473 0.511786 0.493223
0.507030 0.515280 0.496718
0.512587 0.518775 0.500212
0.518145 0.522270 0.503707
0.523702 0.525764 0.507202
0.529259 0.529259 0.510696
0.534816 0.532753 0.514191
0.540373 0.536248 0.517685
0.545930 0.539742 0.521180
0.551487 0.543237 0.524674
0.557044 0.546731 0.528169
0.474992 0.499742 0.479117
0.480549 0.503236 0.482611
0.486106 0.506731 0.486106
0.491663 0.510225 0.489600
0.497220 0.513720 0.493095
0.502777 0.517214 0.496589
0.508334 0.520709 0.500084
0.513891 0.524203 0.503578
0.519448 0.527698 0.507073
0.525005 0.531193 0.510568
0.530562 0.534687 0.514062
0.536119 0.538182 0.517557
0.541676 0.541676 0.521051
0.547233 0.545171 0.524546
0.552790 0.548665 0.528040
0.558347 0.552160 0.531535
0.563905 0.555655 0.535030
0.481852 0.508665 0.485977
0.487409 0.512159 0.489472
0.492966 0.515654 0.492966
0.498523 0.519148 0.496461
0.504080 0.522643 0.499955
0.509637 0.526137 0.503450
0.515194 0.529632 0.506944
0.520752 0.533126 0.510439
0.526309 0.536621 0.513934
0.531866 0.540116 0.517428
0.537423 0.543610 0.520923
0.542980 0.547105 0.524417
0.548537 0.550599 0.527912
0.554094 0.554094 0.531406
0.559651 0.557588 0.534901
0.565208 0.561083 0.538396
0.570765 0.564578 0.541890
0.488713 0.517588 0.492838
0.494270 0.521082 0.496332
0.499827 0.524577 0.499827
0.505384 0.528071 0.503321
0.510941 0.531566 0.506816
0.516498 0.535060 0.510310
0.522055 0.538555 0.513805
0.527612 0.542050 0.517300
0.533169 0.545544 0.520794
0.538726 0.549039 0.524289
0.544283 0.552533 0.527783
0.549840 0.556028 0.531278
0.555397 0.559522 0.534772
0.560954 0.563017 0.538267
0.566512 0.566512 0.541762
0.572069 0.570006 0.545256
0.577626 0.573501 0.548751
0.495573 0.526511 0.499698
0.501130 0.530005 0.503193
0.506687 0.533500 0.506687
0.512244 0.536994 0.510182
0.517801 0.540489 0.513676
0.523358 0.543983 0.517171
0.528916 0.547478 0.520666
0.534473 0.550973 0.524160
0.540030 0.554467 0.527655
0.545587 0.557962 0.531149
0.551144 0.561456 0.534644
0.556701 0.564951 0.538138
0.562258 0.568445 0.541633
0.567815 0.571940 0.545127
0.573372 0.575435 0.548622
0.578929 0.578929 0.552117
0.584486 0.582424 0.555611
0.502434 0.535434 0.506559
0.507991 0.538928 0.510053
0.513548 0.542423 0.513548
0.519105 0.545917 0.517042
0.524662 0.549412 0.520537
0.530219 0.552907 0.524032
0.535776 0.556401 0.527526
0.541333 0.559896 0.531021
0.546890 0.563390 0.534515
0.552447 0.566885 0.538010
0.558004 0.570379 0.541504
0.563561 0.573874 0.544999
0.569118 0.577368 0.548493
0.574676 0.580863 0.551988
0.580233 0.584358 0.555483
0.585790 0.587852 0.558977
0.591347 0.591347 0.562472
0.393997 0.393997 0.400185
0.399554 0.397492 0.403679
0.405111 0.400986 0.407174
0.410668 0.404481 0.410668
0.416225 0.407975 0.414163
0.421782 0.411470 0.417657
0.427340 0.414965 0.421152
0.432897 0.418459 0.424647
0.438454 0.421954 0.428141
0.444011 0.425448 0.431636
0.449568 0.428943 0.435130
0.455125 0.432437 0.438625
0.460682 0.435932 0.442119
0.466239 0.439426 0.445614
0.471796 0.442921 0.449109
0.477353 0.446416 0.452603
0.482910 0.449910 0.456098
0.400858 0.402920 0.407045
