shared/src/main/assets/luts/mv_luxury_contrast.cube
TITLE "DALUR Luxury Contrast"
LUT_3D_SIZE 5
DOMAIN_MIN 0.0 0.0 0.0
DOMAIN_MAX 1.0 1.0 1.0
0.404800 0.397000 0.395200
0.427705 0.407831 0.406031
0.450610 0.418661 0.416861
0.473514 0.429492 0.427692
0.496419 0.440322 0.438522
0.426063 0.430337 0.416463
0.448967 0.441167 0.427293
0.471872 0.451998 0.438124
0.494777 0.462829 0.448954
0.517682 0.473659 0.459785
0.447325 0.463674 0.437725
0.470230 0.474504 0.448556
0.493135 0.485335 0.459386
0.516040 0.496165 0.470217
0.538944 0.506996 0.481048
0.468588 0.497011 0.458988
0.491493 0.507841 0.469819
0.514398 0.518672 0.480649
0.537302 0.529502 0.491480
0.560207 0.540333 0.502310
0.489851 0.530348 0.480251
0.512755 0.541178 0.491081
0.535660 0.552009 0.501912
0.558565 0.562839 0.512742
0.581470 0.573670 0.523573
0.408929 0.401129 0.411404
0.431834 0.411960 0.422234
0.454739 0.422790 0.433065
0.477644 0.433621 0.443895
0.500548 0.444452 0.454726
0.430192 0.434466 0.432666
0.453097 0.445297 0.443497
0.476002 0.456127 0.454327
0.498906 0.466958 0.465158
0.521811 0.477788 0.475988
0.451455 0.467803 0.453929
0.474359 0.478634 0.464759
0.497264 0.489464 0.475590
0.520169 0.500295 0.486421
0.543074 0.511125 0.497251
0.472717 0.501140 0.475192
0.495622 0.511971 0.486022
0.518527 0.522801 0.496853
0.541432 0.533632 0.507683
0.564336 0.544462 0.518514
0.493980 0.534477 0.496454
0.516885 0.545307 0.507285
0.539790 0.556138 0.518115
0.562694 0.566969 0.528946
0.585599 0.577799 0.539777
0.413059 0.405259 0.427607
0.435964 0.416089 0.438438
0.458868 0.426920 0.449268
0.481773 0.437750 0.460099
0.504678 0.448581 0.470929
0.434321 0.438596 0.448870
0.457226 0.449426 0.459700
0.480131 0.460257 0.470531
0.503036 0.471087 0.481362
0.525940 0.481918 0.492192
0.455584 0.471933 0.470133
0.478489 0.482763 0.480963
0.501394 0.493594 0.491794
0.524298 0.504424 0.502624
0.547203 0.515255 0.513455
0.476847 0.505269 0.491395
0.499752 0.516100 0.502226
0.522656 0.526931 0.513056
0.545561 0.537761 0.523887
0.568466 0.548592 0.534717
0.498109 0.538606 0.512658
0.521014 0.549437 0.523488
0.543919 0.560267 0.534319
0.566824 0.571098 0.545150
0.589729 0.581929 0.555980
0.417188 0.409388 0.443811
0.440093 0.420219 0.454641
0.462998 0.431049 0.465472
0.485902 0.441880 0.476302
0.508807 0.452710 0.487133
0.438451 0.442725 0.465073
0.461356 0.453556 0.475904
0.484260 0.464386 0.486735
0.507165 0.475217 0.497565
0.530070 0.486047 0.508396
0.459713 0.476062 0.486336
0.482618 0.486892 0.497167
0.505523 0.497723 0.507997
0.528428 0.508554 0.518828
0.551333 0.519384 0.529658
0.480976 0.509399 0.507599
0.503881 0.520229 0.518429
0.526786 0.531060 0.529260
0.549690 0.541890 0.540090
0.572595 0.552721 0.550921
0.502239 0.542736 0.528861
0.525144 0.553566 0.539692
0.548048 0.564397 0.550523
0.570953 0.575227 0.561353
0.593858 0.586058 0.572184
0.421318 0.413518 0.460014
0.444222 0.424348 0.470845
0.467127 0.435179 0.481675
0.490032 0.446009 0.492506
0.512937 0.456840 0.503337
0.442580 0.446854 0.481277
0.465485 0.457685 0.492108
0.488390 0.468516 0.502938
0.511294 0.479346 0.513769
0.534199 0.490177 0.524599
0.463843 0.480191 0.502540
0.486748 0.491022 0.513370
0.509652 0.501852 0.524201
0.532557 0.512683 0.535031
0.555462 0.523514 0.545862
0.485106 0.513528 0.523802
0.508010 0.524359 0.534633
0.530915 0.535189 0.545463
0.553820 0.546020 0.556294
0.576725 0.556850 0.567125
0.506368 0.546865 0.545065
0.529273 0.557696 0.555896
0.552178 0.568526 0.566726
0.575083 0.579357 0.577557
0.597987 0.590187 0.588387
