shared/src/main/assets/luts/mv_luxury_contrast.cube
TITLE "DALUR Luxury Contrast"
LUT_3D_SIZE 17
DOMAIN_MIN 0.0 0.0 0.0
DOMAIN_MAX 1.0 1.0 1.0
0.404800 0.397000 0.395200
0.410526 0.399708 0.397908
0.416252 0.402415 0.400615
0.421979 0.405123 0.403323
0.427705 0.407831 0.406031
0.433431 0.410538 0.408738
0.439157 0.413246 0.411446
0.444883 0.415953 0.414153
0.450610 0.418661 0.416861
0.456336 0.421369 0.419569
0.462062 0.424076 0.422276
0.467788 0.426784 0.424984
0.473514 0.429492 0.427692
0.479240 0.432199 0.430399
0.484967 0.434907 0.433107
0.490693 0.437615 0.435815
0.496419 0.440322 0.438522
0.410116 0.405334 0.400516
0.415842 0.408042 0.403223
0.421568 0.410749 0.405931
0.427294 0.413457 0.408639
0.433020 0.416165 0.411346
0.438747 0.418872 0.414054
0.444473 0.421580 0.416762
0.450199 0.424288 0.419469
0.455925 0.426995 0.422177
0.461651 0.429703 0.424884
0.467378 0.432411 0.427592
0.473104 0.435118 0.430300
0.478830 0.437826 0.433007
0.484556 0.440534 0.435715
0.490282 0.443241 0.438423
0.496009 0.445949 0.441130
0.501735 0.448656 0.443838
0.415431 0.413668 0.405831
0.421158 0.416376 0.408539
0.426884 0.419084 0.411247
0.432610 0.421791 0.413954
0.438336 0.424499 0.416662
0.444062 0.427207 0.419370
0.449788 0.429914 0.422077
0.455515 0.432622 0.424785
0.461241 0.435330 0.427492
0.466967 0.438037 0.430200
0.472693 0.440745 0.432908
0.478419 0.443452 0.435615
0.484146 0.446160 0.438323
0.489872 0.448868 0.441031
0.495598 0.451575 0.443738
0.501324 0.454283 0.446446
0.507050 0.456991 0.449154
0.420747 0.422003 0.411147
0.426473 0.424710 0.413855
0.432199 0.427418 0.416562
0.437926 0.430126 0.419270
0.443652 0.432833 0.421978
0.449378 0.435541 0.424685
0.455104 0.438248 0.427393
0.460830 0.440956 0.430100
0.466557 0.443664 0.432808
0.472283 0.446371 0.435516
0.478009 0.449079 0.438223
0.483735 0.451787 0.440931
0.489461 0.454494 0.443639
0.495187 0.457202 0.446346
0.500914 0.459910 0.449054
0.506640 0.462617 0.451762
0.512366 0.465325 0.454469
0.426063 0.430337 0.416463
0.431789 0.433045 0.419170
0.437515 0.435752 0.421878
0.443241 0.438460 0.424586
0.448967 0.441167 0.427293
0.454694 0.443875 0.430001
0.460420 0.446583 0.432709
0.466146 0.449290 0.435416
0.471872 0.451998 0.438124
0.477598 0.454706 0.440831
0.483325 0.457413 0.443539
0.489051 0.460121 0.446247
0.494777 0.462829 0.448954
0.500503 0.465536 0.451662
0.506229 0.468244 0.454370
0.511956 0.470951 0.457077
0.517682 0.473659 0.459785
0.431378 0.438671 0.421778
0.437105 0.441379 0.424486
0.442831 0.444086 0.427194
0.448557 0.446794 0.429901
0.454283 0.449502 0.432609
0.460009 0.452209 0.435317
0.465735 0.454917 0.438024
0.471462 0.457625 0.440732
0.477188 0.460332 0.443439
0.482914 0.463040 0.446147
0.488640 0.465747 0.448855
0.494366 0.468455 0.451562
0.500093 0.471163 0.454270
0.505819 0.473870 0.456978
0.511545 0.476578 0.459685
0.517271 0.479286 0.462393
0.522997 0.481993 0.465101
0.436694 0.447005 0.427094
0.442420 0.449713 0.429802
0.448146 0.452421 0.432509
0.453873 0.455128 0.435217
0.459599 0.457836 0.437925
0.465325 0.460544 0.440632
0.471051 0.463251 0.443340
0.476777 0.465959 0.446047
0.482504 0.468666 0.448755
0.488230 0.471374 0.451463
0.493956 0.474082 0.454170
0.499682 0.476789 0.456878
0.505408 0.479497 0.459586
0.511134 0.482205 0.462293
0.516861 0.484912 0.465001
0.522587 0.487620 0.467709
0.528313 0.490328 0.470416
0.442010 0.455340 0.432410
0.447736 0.458047 0.435117
0.453462 0.460755 0.437825
0.459188 0.463462 0.440533
0.464914 0.466170 0.443240
0.470641 0.468878 0.445948
0.476367 0.471585 0.448656
0.482093 0.474293 0.451363
0.487819 0.477001 0.454071
0.493545 0.479708 0.456778
0.499272 0.482416 0.459486
0.504998 0.485124 0.462194
0.510724 0.487831 0.464901
0.516450 0.490539 0.467609
0.522176 0.493246 0.470317
0.527903 0.495954 0.473024
0.533629 0.498662 0.475732
0.447325 0.463674 0.437725
0.453052 0.466381 0.440433
0.458778 0.469089 0.443141
0.464504 0.471797 0.445848
0.470230 0.474504 0.448556
0.475956 0.477212 0.451264
0.481682 0.479920 0.453971
0.487409 0.482627 0.456679
0.493135 0.485335 0.459386
0.498861 0.488043 0.462094
0.504587 0.490750 0.464802
0.510313 0.493458 0.467509
0.516040 0.496165 0.470217
0.521766 0.498873 0.472925
0.527492 0.501581 0.475632
0.533218 0.504288 0.478340
0.538944 0.506996 0.481048
0.452641 0.472008 0.443041
0.458367 0.474716 0.445749
0.464093 0.477423 0.448456
0.469820 0.480131 0.451164
0.475546 0.482839 0.453872
0.481272 0.485546 0.456579
0.486998 0.488254 0.459287
0.492724 0.490961 0.461994
0.498451 0.493669 0.464702
0.504177 0.496377 0.467410
0.509903 0.499084 0.470117
0.515629 0.501792 0.472825
0.521355 0.504500 0.475533
0.527082 0.507207 0.478240
0.532808 0.509915 0.480948
0.538534 0.512623 0.483656
0.544260 0.515330 0.486363
0.457957 0.480342 0.448357
0.463683 0.483050 0.451064
0.469409 0.485757 0.453772
0.475135 0.488465 0.456480
0.480861 0.491173 0.459187
0.486588 0.493880 0.461895
0.492314 0.496588 0.464603
0.498040 0.499296 0.467310
0.503766 0.502003 0.470018
0.509492 0.504711 0.472725
0.515219 0.507419 0.475433
0.520945 0.510126 0.478141
0.526671 0.512834 0.480848
0.532397 0.515542 0.483556
0.538123 0.518249 0.486264
0.543850 0.520957 0.488971
0.549576 0.523664 0.491679
0.463272 0.488676 0.453672
0.468999 0.491384 0.456380
0.474725 0.494092 0.459088
0.480451 0.496799 0.461795
0.486177 0.499507 0.464503
0.491903 0.502215 0.467211
0.497629 0.504922 0.469918
0.503356 0.507630 0.472626
0.509082 0.510338 0.475333
0.514808 0.513045 0.478041
0.520534 0.515753 0.480749
0.526260 0.518460 0.483456
0.531987 0.521168 0.486164
0.537713 0.523876 0.488872
0.543439 0.526583 0.491579
0.549165 0.529291 0.494287
0.554891 0.531999 0.496995
0.468588 0.497011 0.458988
0.474314 0.499718 0.461696
0.480040 0.502426 0.464403
0.485767 0.505134 0.467111
0.491493 0.507841 0.469819
0.497219 0.510549 0.472526
0.502945 0.513256 0.475234
0.508671 0.515964 0.477942
0.514398 0.518672 0.480649
0.520124 0.521379 0.483357
0.525850 0.524087 0.486064
0.531576 0.526795 0.488772
0.537302 0.529502 0.491480
0.543029 0.532210 0.494187
0.548755 0.534918 0.496895
0.554481 0.537625 0.499603
0.560207 0.540333 0.502310
0.473904 0.505345 0.464304
0.479630 0.508052 0.467011
0.485356 0.510760 0.469719
0.491082 0.513468 0.472427
0.496808 0.516175 0.475134
0.502535 0.518883 0.477842
0.508261 0.521591 0.480550
0.513987 0.524298 0.483257
0.519713 0.527006 0.485965
0.525439 0.529714 0.488672
0.531166 0.532421 0.491380
0.536892 0.535129 0.494088
0.542618 0.537837 0.496795
0.548344 0.540544 0.499503
0.554070 0.543252 0.502211
0.559797 0.545959 0.504918
0.565523 0.548667 0.507626
0.479219 0.513679 0.469619
0.484946 0.516387 0.472327
0.490672 0.519094 0.475035
0.496398 0.521802 0.477742
0.502124 0.524510 0.480450
0.507850 0.527217 0.483158
0.513577 0.529925 0.485865
0.519303 0.532633 0.488573
0.525029 0.535340 0.491280
0.530755 0.538048 0.493988
0.536481 0.540755 0.496696
0.542207 0.543463 0.499403
0.547934 0.546171 0.502111
0.553660 0.548878 0.504819
0.559386 0.551586 0.507526
0.565112 0.554294 0.510234
0.570838 0.557001 0.512942
0.484535 0.522013 0.474935
0.490261 0.524721 0.477643
0.495987 0.527429 0.480350
0.501714 0.530136 0.483058
0.507440 0.532844 0.485766
0.513166 0.535551 0.488473
0.518892 0.538259 0.491181
0.524618 0.540967 0.493889
0.530345 0.543674 0.496596
0.536071 0.546382 0.499304
0.541797 0.549090 0.502011
0.547523 0.551797 0.504719
0.553249 0.554505 0.507427
0.558976 0.557213 0.510134
0.564702 0.559920 0.512842
0.570428 0.562628 0.515550
0.576154 0.565336 0.518257
0.489851 0.530348 0.480251
0.495577 0.533055 0.482958
0.501303 0.535763 0.485666
0.507029 0.538470 0.488374
0.512755 0.541178 0.491081
0.518482 0.543886 0.493789
0.524208 0.546593 0.496497
0.529934 0.549301 0.499204
0.535660 0.552009 0.501912
0.541386 0.554716 0.504619
0.547113 0.557424 0.507327
0.552839 0.560132 0.510035
0.558565 0.562839 0.512742
0.564291 0.565547 0.515450
0.570017 0.568254 0.518158
0.575744 0.570962 0.520865
0.581470 0.573670 0.523573
0.405832 0.398032 0.399251
0.411559 0.400740 0.401959
0.417285 0.403448 0.404666
0.423011 0.406155 0.407374
0.428737 0.408863 0.410081
0.434463 0.411571 0.412789
0.440189 0.414278 0.415497
0.445916 0.416986 0.418204
0.451642 0.419693 0.420912
0.457368 0.422401 0.423620
0.463094 0.425109 0.426327
0.468820 0.427816 0.429035
0.474547 0.430524 0.431743
0.480273 0.433232 0.434450
0.485999 0.435939 0.437158
0.491725 0.438647 0.439865
0.497451 0.441355 0.442573
0.411148 0.406367 0.404567
0.416874 0.409074 0.407274
0.422600 0.411782 0.409982
0.428327 0.414489 0.412689
0.434053 0.417197 0.415397
0.439779 0.419905 0.418105
0.445505 0.422612 0.420812
0.451231 0.425320 0.423520
0.456958 0.428028 0.426228
0.462684 0.430735 0.428935
0.468410 0.433443 0.431643
0.474136 0.436151 0.434351
0.479862 0.438858 0.437058
0.485588 0.441566 0.439766
0.491315 0.444274 0.442474
0.497041 0.446981 0.445181
0.502767 0.449689 0.447889
0.416464 0.414701 0.409882
0.422190 0.417408 0.412590
0.427916 0.420116 0.415298
0.433642 0.422824 0.418005
0.439368 0.425531 0.420713
0.445095 0.428239 0.423420
0.450821 0.430947 0.426128
0.456547 0.433654 0.428836
0.462273 0.436362 0.431543
0.467999 0.439070 0.434251
0.473726 0.441777 0.436959
0.479452 0.444485 0.439666
0.485178 0.447192 0.442374
0.490904 0.449900 0.445082
0.496630 0.452608 0.447789
0.502357 0.455315 0.450497
0.508083 0.458023 0.453204
0.421779 0.423035 0.415198
0.427506 0.425743 0.417906
0.433232 0.428450 0.420613
0.438958 0.431158 0.423321
0.444684 0.433866 0.426028
0.450410 0.436573 0.428736
0.456136 0.439281 0.431444
0.461863 0.441988 0.434151
0.467589 0.444696 0.436859
0.473315 0.447404 0.439567
0.479041 0.450111 0.442274
0.484767 0.452819 0.444982
0.490494 0.455527 0.447690
0.496220 0.458234 0.450397
0.501946 0.460942 0.453105
0.507672 0.463650 0.455813
0.513398 0.466357 0.458520
0.427095 0.431369 0.420514
0.432821 0.434077 0.423221
0.438547 0.436785 0.425929
0.444274 0.439492 0.428636
0.450000 0.442200 0.431344
0.455726 0.444907 0.434052
0.461452 0.447615 0.436759
0.467178 0.450323 0.439467
0.472905 0.453030 0.442175
0.478631 0.455738 0.444882
0.484357 0.458446 0.447590
0.490083 0.461153 0.450298
0.495809 0.463861 0.453005
0.501536 0.466569 0.455713
0.507262 0.469276 0.458421
0.512988 0.471984 0.461128
0.518714 0.474691 0.463836
0.432411 0.439703 0.425829
0.438137 0.442411 0.428537
0.443863 0.445119 0.431245
0.449589 0.447826 0.433952
0.455315 0.450534 0.436660
0.461042 0.453242 0.439367
0.466768 0.455949 0.442075
0.472494 0.458657 0.444783
0.478220 0.461365 0.447490
0.483946 0.464072 0.450198
0.489673 0.466780 0.452906
0.495399 0.469487 0.455613
0.501125 0.472195 0.458321
0.506851 0.474903 0.461029
0.512577 0.477610 0.463736
0.518304 0.480318 0.466444
0.524030 0.483026 0.469151
0.437726 0.448038 0.431145
0.443453 0.450745 0.433853
0.449179 0.453453 0.436560
0.454905 0.456161 0.439268
0.460631 0.458868 0.441975
0.466357 0.461576 0.444683
0.472084 0.464284 0.447391
0.477810 0.466991 0.450098
0.483536 0.469699 0.452806
0.489262 0.472406 0.455514
0.494988 0.475114 0.458221
0.500714 0.477822 0.460929
0.506441 0.480529 0.463637
0.512167 0.483237 0.466344
0.517893 0.485945 0.469052
0.523619 0.488652 0.471760
0.529345 0.491360 0.474467
0.443042 0.456372 0.436461
0.448768 0.459080 0.439168
0.454494 0.461787 0.441876
0.460221 0.464495 0.444583
0.465947 0.467202 0.447291
0.471673 0.469910 0.449999
0.477399 0.472618 0.452706
0.483125 0.475325 0.455414
0.488852 0.478033 0.458122
0.494578 0.480741 0.460829
0.500304 0.483448 0.463537
0.506030 0.486156 0.466245
0.511756 0.488864 0.468952
0.517483 0.491571 0.471660
0.523209 0.494279 0.474368
0.528935 0.496986 0.477075
0.534661 0.499694 0.479783
0.448358 0.464706 0.441776
0.454084 0.467414 0.444484
0.459810 0.470121 0.447192
0.465536 0.472829 0.449899
0.471262 0.475537 0.452607
0.476989 0.478244 0.455314
0.482715 0.480952 0.458022
0.488441 0.483660 0.460730
0.494167 0.486367 0.463437
0.499893 0.489075 0.466145
0.505620 0.491783 0.468853
0.511346 0.494490 0.471560
0.517072 0.497198 0.474268
0.522798 0.499905 0.476976
0.528524 0.502613 0.479683
0.534251 0.505321 0.482391
0.539977 0.508028 0.485098
0.453673 0.473040 0.447092
0.459400 0.475748 0.449800
0.465126 0.478456 0.452507
0.470852 0.481163 0.455215
0.476578 0.483871 0.457922
0.482304 0.486579 0.460630
0.488031 0.489286 0.463338
0.493757 0.491994 0.466045
0.499483 0.494701 0.468753
0.505209 0.497409 0.471461
0.510935 0.500117 0.474168
0.516661 0.502824 0.476876
0.522388 0.505532 0.479584
0.528114 0.508240 0.482291
0.533840 0.510947 0.484999
0.539566 0.513655 0.487707
0.545292 0.516363 0.490414
0.458989 0.481375 0.452408
0.464715 0.484082 0.455115
0.470441 0.486790 0.457823
0.476168 0.489497 0.460530
0.481894 0.492205 0.463238
0.487620 0.494913 0.465946
0.493346 0.497620 0.468653
0.499072 0.500328 0.471361
0.504799 0.503036 0.474069
0.510525 0.505743 0.476776
0.516251 0.508451 0.479484
0.521977 0.511159 0.482192
0.527703 0.513866 0.484899
0.533430 0.516574 0.487607
0.539156 0.519282 0.490315
0.544882 0.521989 0.493022
0.550608 0.524697 0.495730
0.464305 0.489709 0.457723
0.470031 0.492416 0.460431
0.475757 0.495124 0.463139
0.481483 0.497832 0.465846
0.487209 0.500539 0.468554
0.492936 0.503247 0.471261
0.498662 0.505955 0.473969
0.504388 0.508662 0.476677
0.510114 0.511370 0.479384
0.515840 0.514078 0.482092
0.521567 0.516785 0.484800
0.527293 0.519493 0.487507
0.533019 0.522200 0.490215
0.538745 0.524908 0.492923
0.544471 0.527616 0.495630
0.550198 0.530323 0.498338
0.555924 0.533031 0.501045
0.469620 0.498043 0.463039
0.475347 0.500751 0.465747
0.481073 0.503458 0.468454
0.486799 0.506166 0.471162
0.492525 0.508874 0.473869
0.498251 0.511581 0.476577
0.503978 0.514289 0.479285
0.509704 0.516996 0.481992
0.515430 0.519704 0.484700
0.521156 0.522412 0.487408
0.526882 0.525119 0.490115
0.532608 0.527827 0.492823
0.538335 0.530535 0.495531
0.544061 0.533242 0.498238
0.549787 0.535950 0.500946
0.555513 0.538658 0.503654
0.561239 0.541365 0.506361
0.474936 0.506377 0.468355
0.480662 0.509085 0.471062
0.486388 0.511792 0.473770
0.492115 0.514500 0.476478
0.497841 0.517208 0.479185
0.503567 0.519915 0.481893
0.509293 0.522623 0.484600
0.515019 0.525331 0.487308
0.520746 0.528038 0.490016
0.526472 0.530746 0.492723
0.532198 0.533454 0.495431
0.537924 0.536161 0.498139
0.543650 0.538869 0.500846
0.549377 0.541577 0.503554
0.555103 0.544284 0.506262
0.560829 0.546992 0.508969
0.566555 0.549699 0.511677
0.480252 0.514711 0.473670
0.485978 0.517419 0.476378
0.491704 0.520127 0.479086
0.497430 0.522834 0.481793
0.503156 0.525542 0.484501
0.508883 0.528250 0.487208
0.514609 0.530957 0.489916
0.520335 0.533665 0.492624
0.526061 0.536373 0.495331
0.531787 0.539080 0.498039
0.537514 0.541788 0.500747
0.543240 0.544495 0.503454
0.548966 0.547203 0.506162
0.554692 0.549911 0.508870
0.560418 0.552618 0.511577
0.566145 0.555326 0.514285
0.571871 0.558034 0.516992
0.485567 0.523046 0.478986
0.491294 0.525753 0.481694
0.497020 0.528461 0.484401
0.502746 0.531169 0.487109
0.508472 0.533876 0.489816
0.514198 0.536584 0.492524
0.519925 0.539291 0.495232
0.525651 0.541999 0.497939
0.531377 0.544707 0.500647
0.537103 0.547414 0.503355
0.542829 0.550122 0.506062
0.548555 0.552830 0.508770
0.554282 0.555537 0.511478
0.560008 0.558245 0.514185
0.565734 0.560953 0.516893
0.571460 0.563660 0.519601
0.577186 0.566368 0.522308
0.490883 0.531380 0.484302
0.496609 0.534087 0.487009
0.502335 0.536795 0.489717
0.508062 0.539503 0.492425
0.513788 0.542210 0.495132
0.519514 0.544918 0.497840
0.525240 0.547626 0.500547
0.530966 0.550333 0.503255
0.536693 0.553041 0.505963
0.542419 0.555749 0.508670
0.548145 0.558456 0.511378
0.553871 0.561164 0.514086
0.559597 0.563872 0.516793
0.565324 0.566579 0.519501
0.571050 0.569287 0.522209
0.576776 0.571994 0.524916
0.582502 0.574702 0.527624
0.406865 0.399065 0.403302
0.412591 0.401772 0.406009
0.418317 0.404480 0.408717
0.424043 0.407188 0.411425
0.429769 0.409895 0.414132
0.435496 0.412603 0.416840
0.441222 0.415311 0.419548
0.446948 0.418018 0.422255
0.452674 0.420726 0.424963
0.458400 0.423433 0.427671
0.464127 0.426141 0.430378
0.469853 0.428849 0.433086
0.475579 0.431556 0.435793
0.481305 0.434264 0.438501
0.487031 0.436972 0.441209
0.492758 0.439679 0.443916
0.498484 0.442387 0.446624
0.412180 0.407399 0.408617
0.417907 0.410107 0.411325
0.423633 0.412814 0.414033
0.429359 0.415522 0.416740
0.435085 0.418229 0.419448
0.440811 0.420937 0.422156
0.446538 0.423645 0.424863
0.452264 0.426352 0.427571
0.457990 0.429060 0.430279
0.463716 0.431768 0.432986
0.469442 0.434475 0.435694
0.475168 0.437183 0.438402
0.480895 0.439891 0.441109
0.486621 0.442598 0.443817
0.492347 0.445306 0.446524
0.498073 0.448014 0.449232
0.503799 0.450721 0.451940
0.417496 0.415733 0.413933
0.423222 0.418441 0.416641
0.428948 0.421148 0.419348
0.434675 0.423856 0.422056
0.440401 0.426564 0.424764
0.446127 0.429271 0.427471
0.451853 0.431979 0.430179
0.457579 0.434687 0.432887
0.463306 0.437394 0.435594
0.469032 0.440102 0.438302
0.474758 0.442810 0.441010
0.480484 0.445517 0.443717
0.486210 0.448225 0.446425
0.491937 0.450932 0.449132
0.497663 0.453640 0.451840
0.503389 0.456348 0.454548
0.509115 0.459055 0.457255
0.422812 0.424067 0.419249
0.428538 0.426775 0.421956
0.434264 0.429483 0.424664
0.439990 0.432190 0.427372
0.445716 0.434898 0.430079
0.451443 0.437606 0.432787
0.457169 0.440313 0.435495
0.462895 0.443021 0.438202
0.468621 0.445728 0.440910
0.474347 0.448436 0.443618
0.480074 0.451144 0.446325
0.485800 0.453851 0.449033
0.491526 0.456559 0.451740
0.497252 0.459267 0.454448
0.502978 0.461974 0.457156
0.508705 0.464682 0.459863
0.514431 0.467390 0.462571
0.428127 0.432402 0.424564
0.433854 0.435109 0.427272
0.439580 0.437817 0.429980
0.445306 0.440524 0.432687
0.451032 0.443232 0.435395
0.456758 0.445940 0.438103
0.462485 0.448647 0.440810
0.468211 0.451355 0.443518
0.473937 0.454063 0.446226
0.479663 0.456770 0.448933
0.485389 0.459478 0.451641
0.491115 0.462186 0.454349
0.496842 0.464893 0.457056
0.502568 0.467601 0.459764
0.508294 0.470309 0.462471
0.514020 0.473016 0.465179
0.519746 0.475724 0.467887
0.433443 0.440736 0.429880
0.439169 0.443443 0.432588
0.444895 0.446151 0.435295
0.450622 0.448859 0.438003
0.456348 0.451566 0.440711
0.462074 0.454274 0.443418
0.467800 0.456982 0.446126
0.473526 0.459689 0.448834
0.479253 0.462397 0.451541
0.484979 0.465105 0.454249
0.490705 0.467812 0.456957
0.496431 0.470520 0.459664
0.502157 0.473227 0.462372
0.507884 0.475935 0.465079
0.513610 0.478643 0.467787
0.519336 0.481350 0.470495
0.525062 0.484058 0.473202
0.438759 0.449070 0.435196
0.444485 0.451778 0.437903
0.450211 0.454485 0.440611
0.455937 0.457193 0.443319
0.461663 0.459901 0.446026
0.467390 0.462608 0.448734
0.473116 0.465316 0.451442
0.478842 0.468023 0.454149
0.484568 0.470731 0.456857
0.490294 0.473439 0.459565
0.496021 0.476146 0.462272
0.501747 0.478854 0.464980
0.507473 0.481562 0.467687
0.513199 0.484269 0.470395
0.518925 0.486977 0.473103
0.524652 0.489685 0.475810
0.530378 0.492392 0.478518
0.444074 0.457404 0.440511
0.449801 0.460112 0.443219
0.455527 0.462820 0.445927
0.461253 0.465527 0.448634
0.466979 0.468235 0.451342
0.472705 0.470942 0.454050
0.478432 0.473650 0.456757
0.484158 0.476358 0.459465
0.489884 0.479065 0.462173
0.495610 0.481773 0.464880
0.501336 0.484481 0.467588
0.507062 0.487188 0.470296
0.512789 0.489896 0.473003
0.518515 0.492604 0.475711
0.524241 0.495311 0.478418
0.529967 0.498019 0.481126
0.535693 0.500726 0.483834
0.449390 0.465738 0.445827
0.455116 0.468446 0.448535
0.460842 0.471154 0.451242
0.466569 0.473861 0.453950
0.472295 0.476569 0.456658
0.478021 0.479277 0.459365
0.483747 0.481984 0.462073
0.489473 0.484692 0.464781
0.495200 0.487400 0.467488
0.500926 0.490107 0.470196
0.506652 0.492815 0.472904
0.512378 0.495522 0.475611
0.518104 0.498230 0.478319
0.523831 0.500938 0.481026
0.529557 0.503645 0.483734
0.535283 0.506353 0.486442
0.541009 0.509061 0.489149
0.454706 0.474073 0.451143
0.460432 0.476780 0.453850
0.466158 0.479488 0.456558
0.471884 0.482196 0.459266
0.477610 0.484903 0.461973
0.483337 0.487611 0.464681
0.489063 0.490319 0.467389
0.494789 0.493026 0.470096
0.500515 0.495734 0.472804
0.506241 0.498441 0.475512
0.511968 0.501149 0.478219
0.517694 0.503857 0.480927
0.523420 0.506564 0.483634
0.529146 0.509272 0.486342
0.534872 0.511980 0.489050
0.540599 0.514687 0.491757
0.546325 0.517395 0.494465
0.460021 0.482407 0.456458
0.465748 0.485115 0.459166
0.471474 0.487822 0.461874
0.477200 0.490530 0.464581
0.482926 0.493237 0.467289
0.488652 0.495945 0.469997
0.494379 0.498653 0.472704
0.500105 0.501360 0.475412
0.505831 0.504068 0.478120
0.511557 0.506776 0.480827
0.517283 0.509483 0.483535
0.523009 0.512191 0.486243
0.528736 0.514899 0.488950
0.534462 0.517606 0.491658
0.540188 0.520314 0.494365
0.545914 0.523021 0.497073
0.551640 0.525729 0.499781
0.465337 0.490741 0.461774
0.471063 0.493449 0.464482
0.476789 0.496156 0.467189
0.482516 0.498864 0.469897
0.488242 0.501572 0.472605
0.493968 0.504279 0.475312
0.499694 0.506987 0.478020
0.505420 0.509695 0.480728
0.511147 0.512402 0.483435
0.516873 0.515110 0.486143
0.522599 0.517818 0.488851
0.528325 0.520525 0.491558
0.534051 0.523233 0.494266
0.539778 0.525940 0.496973
0.545504 0.528648 0.499681
0.551230 0.531356 0.502389
0.556956 0.534063 0.505096
0.470653 0.499075 0.467090
0.476379 0.501783 0.469797
0.482105 0.504491 0.472505
0.487831 0.507198 0.475213
0.493557 0.509906 0.477920
0.499284 0.512614 0.480628
0.505010 0.515321 0.483336
0.510736 0.518029 0.486043
0.516462 0.520736 0.488751
0.522188 0.523444 0.491459
0.527915 0.526152 0.494166
0.533641 0.528859 0.496874
0.539367 0.531567 0.499581
0.545093 0.534275 0.502289
0.550819 0.536982 0.504997
0.556546 0.539690 0.507704
0.562272 0.542398 0.510412
0.475968 0.507410 0.472405
0.481695 0.510117 0.475113
0.487421 0.512825 0.477821
0.493147 0.515532 0.480528
0.498873 0.518240 0.483236
0.504599 0.520948 0.485944
0.510326 0.523655 0.488651
0.516052 0.526363 0.491359
0.521778 0.529071 0.494067
0.527504 0.531778 0.496774
0.533230 0.534486 0.499482
0.538956 0.537194 0.502190
0.544683 0.539901 0.504897
0.550409 0.542609 0.507605
0.556135 0.545317 0.510312
0.561861 0.548024 0.513020
0.567587 0.550732 0.515728
0.481284 0.515744 0.477721
0.487010 0.518451 0.480429
0.492736 0.521159 0.483136
0.498463 0.523867 0.485844
0.504189 0.526574 0.488552
0.509915 0.529282 0.491259
0.515641 0.531990 0.493967
0.521367 0.534697 0.496675
0.527094 0.537405 0.499382
0.532820 0.540113 0.502090
0.538546 0.542820 0.504798
0.544272 0.545528 0.507505
0.549998 0.548235 0.510213
0.555725 0.550943 0.512920
0.561451 0.553651 0.515628
0.567177 0.556358 0.518336
0.572903 0.559066 0.521043
0.486600 0.524078 0.483037
0.492326 0.526786 0.485744
0.498052 0.529493 0.488452
0.503778 0.532201 0.491160
0.509504 0.534909 0.493867
0.515231 0.537616 0.496575
0.520957 0.540324 0.499283
0.526683 0.543031 0.501990
0.532409 0.545739 0.504698
0.538135 0.548447 0.507406
0.543862 0.551154 0.510113
0.549588 0.553862 0.512821
0.555314 0.556570 0.515528
0.561040 0.559277 0.518236
0.566766 0.561985 0.520944
0.572493 0.564693 0.523651
0.578219 0.567400 0.526359
0.491915 0.532412 0.488352
0.497642 0.535120 0.491060
0.503368 0.537827 0.493768
0.509094 0.540535 0.496475
0.514820 0.543243 0.499183
0.520546 0.545950 0.501891
0.526273 0.548658 0.504598
0.531999 0.551366 0.507306
0.537725 0.554073 0.510014
0.543451 0.556781 0.512721
0.549177 0.559489 0.515429
0.554903 0.562196 0.518137
0.560630 0.564904 0.520844
0.566356 0.567612 0.523552
0.572082 0.570319 0.526259
0.577808 0.573027 0.528967
0.583534 0.575734 0.531675
0.407897 0.400097 0.407353
0.413623 0.402805 0.410060
0.419349 0.405512 0.412768
0.425076 0.408220 0.415476
0.430802 0.410928 0.418183
0.436528 0.413635 0.420891
0.442254 0.416343 0.423599
0.447980 0.419051 0.426306
0.453707 0.421758 0.429014
0.459433 0.424466 0.431721
0.465159 0.427173 0.434429
0.470885 0.429881 0.437137
0.476611 0.432589 0.439844
0.482338 0.435296 0.442552
0.488064 0.438004 0.445260
0.493790 0.440712 0.447967
0.499516 0.443419 0.450675
0.413213 0.408431 0.412668
