shared/src/main/assets/luts/mv_luxury_contrast.cube
TITLE "DALUR Luxury Contrast"
LUT_3D_SIZE 9
DOMAIN_MIN 0.0 0.0 0.0
DOMAIN_MAX 1.0 1.0 1.0
0.404800 0.397000 0.395200
0.416252 0.402415 0.400615
0.427705 0.407831 0.406031
0.439157 0.413246 0.411446
0.450610 0.418661 0.416861
0.462062 0.424076 0.422276
0.473514 0.429492 0.427692
0.484967 0.434907 0.433107
0.496419 0.440322 0.438522
0.415431 0.413668 0.405831
0.426884 0.419084 0.411247
0.438336 0.424499 0.416662
0.449788 0.429914 0.422077
0.461241 0.435330 0.427492
0.472693 0.440745 0.432908
0.484146 0.446160 0.438323
0.495598 0.451575 0.443738
0.507050 0.456991 0.449154
0.426063 0.430337 0.416463
0.437515 0.435752 0.421878
0.448967 0.441167 0.427293
0.460420 0.446583 0.432709
0.471872 0.451998 0.438124
0.483325 0.457413 0.443539
0.494777 0.462829 0.448954
0.506229 0.468244 0.454370
0.517682 0.473659 0.459785
0.436694 0.447005 0.427094
0.448146 0.452421 0.432509
0.459599 0.457836 0.437925
0.471051 0.463251 0.443340
0.482504 0.468666 0.448755
0.493956 0.474082 0.454170
0.505408 0.479497 0.459586
0.516861 0.484912 0.465001
0.528313 0.490328 0.470416
0.447325 0.463674 0.437725
0.458778 0.469089 0.443141
0.470230 0.474504 0.448556
0.481682 0.479920 0.453971
0.493135 0.485335 0.459386
0.504587 0.490750 0.464802
0.516040 0.496165 0.470217
0.527492 0.501581 0.475632
0.538944 0.506996 0.481048
0.457957 0.480342 0.448357
0.469409 0.485757 0.453772
0.480861 0.491173 0.459187
0.492314 0.496588 0.464603
0.503766 0.502003 0.470018
0.515219 0.507419 0.475433
0.526671 0.512834 0.480848
0.538123 0.518249 0.486264
0.549576 0.523664 0.491679
0.468588 0.497011 0.458988
0.480040 0.502426 0.464403
0.491493 0.507841 0.469819
0.502945 0.513256 0.475234
0.514398 0.518672 0.480649
0.525850 0.524087 0.486064
0.537302 0.529502 0.491480
0.548755 0.534918 0.496895
0.560207 0.540333 0.502310
0.479219 0.513679 0.469619
0.490672 0.519094 0.475035
0.502124 0.524510 0.480450
0.513577 0.529925 0.485865
0.525029 0.535340 0.491280
0.536481 0.540755 0.496696
0.547934 0.546171 0.502111
0.559386 0.551586 0.507526
0.570838 0.557001 0.512942
0.489851 0.530348 0.480251
0.501303 0.535763 0.485666
0.512755 0.541178 0.491081
0.524208 0.546593 0.496497
0.535660 0.552009 0.501912
0.547113 0.557424 0.507327
0.558565 0.562839 0.512742
0.570017 0.568254 0.518158
0.581470 0.573670 0.523573
0.406865 0.399065 0.403302
0.418317 0.404480 0.408717
0.429769 0.409895 0.414132
0.441222 0.415311 0.419548
0.452674 0.420726 0.424963
0.464127 0.426141 0.430378
0.475579 0.431556 0.435793
0.487031 0.436972 0.441209
0.498484 0.442387 0.446624
0.417496 0.415733 0.413933
0.428948 0.421148 0.419348
0.440401 0.426564 0.424764
0.451853 0.431979 0.430179
0.463306 0.437394 0.435594
0.474758 0.442810 0.441010
0.486210 0.448225 0.446425
0.497663 0.453640 0.451840
0.509115 0.459055 0.457255
0.428127 0.432402 0.424564
0.439580 0.437817 0.429980
0.451032 0.443232 0.435395
0.462485 0.448647 0.440810
0.473937 0.454063 0.446226
0.485389 0.459478 0.451641
0.496842 0.464893 0.457056
0.508294 0.470309 0.462471
0.519746 0.475724 0.467887
0.438759 0.449070 0.435196
0.450211 0.454485 0.440611
0.461663 0.459901 0.446026
0.473116 0.465316 0.451442
0.484568 0.470731 0.456857
0.496021 0.476146 0.462272
0.507473 0.481562 0.467687
0.518925 0.486977 0.473103
0.530378 0.492392 0.478518
0.449390 0.465738 0.445827
0.460842 0.471154 0.451242
0.472295 0.476569 0.456658
0.483747 0.481984 0.462073
0.495200 0.487400 0.467488
0.506652 0.492815 0.472904
0.518104 0.498230 0.478319
0.529557 0.503645 0.483734
0.541009 0.509061 0.489149
0.460021 0.482407 0.456458
0.471474 0.487822 0.461874
0.482926 0.493237 0.467289
0.494379 0.498653 0.472704
0.505831 0.504068 0.478120
0.517283 0.509483 0.483535
0.528736 0.514899 0.488950
0.540188 0.520314 0.494365
0.551640 0.525729 0.499781
0.470653 0.499075 0.467090
0.482105 0.504491 0.472505
0.493557 0.509906 0.477920
0.505010 0.515321 0.483336
0.516462 0.520736 0.488751
0.527915 0.526152 0.494166
0.539367 0.531567 0.499581
0.550819 0.536982 0.504997
0.562272 0.542398 0.510412
0.481284 0.515744 0.477721
0.492736 0.521159 0.483136
0.504189 0.526574 0.488552
0.515641 0.531990 0.493967
0.527094 0.537405 0.499382
0.538546 0.542820 0.504798
0.549998 0.548235 0.510213
0.561451 0.553651 0.515628
0.572903 0.559066 0.521043
0.491915 0.532412 0.488352
0.503368 0.537827 0.493768
0.514820 0.543243 0.499183
0.526273 0.548658 0.504598
0.537725 0.554073 0.510014
0.549177 0.559489 0.515429
0.560630 0.564904 0.520844
0.572082 0.570319 0.526259
0.583534 0.575734 0.531675
0.408929 0.401129 0.411404
0.420382 0.406545 0.416819
0.431834 0.411960 0.422234
0.443287 0.417375 0.427649
0.454739 0.422790 0.433065
0.466191 0.428206 0.438480
0.477644 0.433621 0.443895
0.489096 0.439036 0.449311
0.500548 0.444452 0.454726
0.419561 0.417798 0.422035
0.431013 0.423213 0.427450
0.442465 0.428628 0.432865
0.453918 0.434044 0.438281
0.465370 0.439459 0.443696
0.476823 0.444874 0.449111
0.488275 0.450289 0.454527
0.499727 0.455705 0.459942
0.511180 0.461120 0.465357
0.430192 0.434466 0.432666
0.441644 0.439882 0.438082
0.453097 0.445297 0.443497
0.464549 0.450712 0.448912
0.476002 0.456127 0.454327
0.487454 0.461543 0.459743
0.498906 0.466958 0.465158
0.510359 0.472373 0.470573
0.521811 0.477788 0.475988
0.440823 0.451135 0.443298
0.452276 0.456550 0.448713
0.463728 0.461965 0.454128
0.475181 0.467381 0.459543
0.486633 0.472796 0.464959
0.498085 0.478211 0.470374
0.509538 0.483626 0.475789
0.520990 0.489042 0.481205
0.532442 0.494457 0.486620
0.451455 0.467803 0.453929
0.462907 0.473218 0.459344
0.474359 0.478634 0.464759
0.485812 0.484049 0.470175
0.497264 0.489464 0.475590
0.508717 0.494880 0.481005
0.520169 0.500295 0.486421
0.531621 0.505710 0.491836
0.543074 0.511125 0.497251
0.462086 0.484472 0.464560
0.473538 0.489887 0.469976
0.484991 0.495302 0.475391
0.496443 0.500717 0.480806
0.507896 0.506133 0.486221
0.519348 0.511548 0.491637
0.530800 0.516963 0.497052
0.542253 0.522379 0.502467
0.553705 0.527794 0.507883
0.472717 0.501140 0.475192
0.484170 0.506555 0.480607
0.495622 0.511971 0.486022
0.507075 0.517386 0.491437
0.518527 0.522801 0.496853
0.529979 0.528216 0.502268
0.541432 0.533632 0.507683
0.552884 0.539047 0.513099
0.564336 0.544462 0.518514
0.483349 0.517808 0.485823
0.494801 0.523224 0.491238
0.506254 0.528639 0.496654
0.517706 0.534054 0.502069
0.529158 0.539470 0.507484
0.540611 0.544885 0.512899
0.552063 0.550300 0.518315
0.563515 0.555715 0.523730
0.574968 0.561131 0.529145
0.493980 0.534477 0.496454
0.505432 0.539892 0.501870
0.516885 0.545307 0.507285
0.528337 0.550723 0.512700
0.539790 0.556138 0.518115
0.551242 0.561553 0.523531
0.562694 0.566969 0.528946
0.574147 0.572384 0.534361
0.585599 0.577799 0.539777
0.410994 0.403194 0.419505
0.422446 0.408609 0.424921
0.433899 0.414025 0.430336
0.445351 0.419440 0.435751
0.456804 0.424855 0.441166
0.468256 0.430270 0.446582
0.479708 0.435686 0.451997
0.491161 0.441101 0.457412
0.502613 0.446516 0.462828
0.421625 0.419863 0.430137
0.433078 0.425278 0.435552
0.444530 0.430693 0.440967
0.455983 0.436108 0.446383
0.467435 0.441524 0.451798
0.478887 0.446939 0.457213
0.490340 0.452354 0.462628
0.501792 0.457769 0.468044
0.513244 0.463185 0.473459
0.432257 0.436531 0.440768
0.443709 0.441946 0.446183
0.455162 0.447362 0.451599
0.466614 0.452777 0.457014
0.478066 0.458192 0.462429
0.489519 0.463607 0.467844
0.500971 0.469023 0.473260
0.512423 0.474438 0.478675
0.523876 0.479853 0.484090
0.442888 0.453199 0.451399
0.454340 0.458615 0.456815
0.465793 0.464030 0.462230
0.477245 0.469445 0.467645
0.488698 0.474861 0.473061
0.500150 0.480276 0.478476
0.511602 0.485691 0.483891
0.523055 0.491106 0.489306
0.534507 0.496522 0.494722
0.453519 0.469868 0.462031
0.464972 0.475283 0.467446
0.476424 0.480698 0.472861
0.487877 0.486114 0.478277
0.499329 0.491529 0.483692
0.510781 0.496944 0.489107
0.522234 0.502360 0.494522
0.533686 0.507775 0.499938
0.545138 0.513190 0.505353
0.464151 0.486536 0.472662
0.475603 0.491952 0.478077
0.487056 0.497367 0.483493
0.498508 0.502782 0.488908
0.509960 0.508197 0.494323
0.521413 0.513613 0.499738
0.532865 0.519028 0.505154
0.544317 0.524443 0.510569
0.555770 0.529859 0.515984
0.474782 0.503205 0.483293
0.486234 0.508620 0.488709
0.497687 0.514035 0.494124
0.509139 0.519451 0.499539
0.520592 0.524866 0.504955
0.532044 0.530281 0.510370
0.543496 0.535696 0.515785
0.554949 0.541112 0.521200
0.566401 0.546527 0.526616
0.485413 0.519873 0.493925
0.496866 0.525288 0.499340
0.508318 0.530704 0.504755
0.519771 0.536119 0.510171
0.531223 0.541534 0.515586
0.542675 0.546950 0.521001
0.554128 0.552365 0.526416
0.565580 0.557780 0.531832
0.577032 0.563195 0.537247
0.496045 0.536542 0.504556
0.507497 0.541957 0.509971
0.518950 0.547372 0.515387
0.530402 0.552787 0.520802
0.541854 0.558203 0.526217
0.553307 0.563618 0.531632
0.564759 0.569033 0.537048
0.576211 0.574449 0.542463
0.587664 0.579864 0.547878
0.413059 0.405259 0.427607
0.424511 0.410674 0.433022
0.435964 0.416089 0.438438
0.447416 0.421505 0.443853
0.458868 0.426920 0.449268
0.470321 0.432335 0.454684
0.481773 0.437750 0.460099
0.493225 0.443166 0.465514
0.504678 0.448581 0.470929
0.423690 0.421927 0.438239
0.435142 0.427342 0.443654
0.446595 0.432758 0.449069
0.458047 0.438173 0.454484
0.469500 0.443588 0.459900
0.480952 0.449004 0.465315
0.492404 0.454419 0.470730
0.503857 0.459834 0.476145
0.515309 0.465249 0.481561
0.434321 0.438596 0.448870
0.445774 0.444011 0.454285
0.457226 0.449426 0.459700
0.468679 0.454841 0.465116
0.480131 0.460257 0.470531
0.491583 0.465672 0.475946
0.503036 0.471087 0.481362
0.514488 0.476503 0.486777
0.525940 0.481918 0.492192
0.444953 0.455264 0.459501
0.456405 0.460679 0.464916
0.467858 0.466095 0.470332
0.479310 0.471510 0.475747
0.490762 0.476925 0.481162
0.502215 0.482340 0.486578
0.513667 0.487756 0.491993
0.525119 0.493171 0.497408
0.536572 0.498586 0.502823
0.455584 0.471933 0.470133
0.467036 0.477348 0.475548
0.478489 0.482763 0.480963
0.489941 0.488178 0.486378
0.501394 0.493594 0.491794
0.512846 0.499009 0.497209
0.524298 0.504424 0.502624
0.535751 0.509839 0.508039
0.547203 0.515255 0.513455
0.466215 0.488601 0.480764
0.477668 0.494016 0.486179
0.489120 0.499432 0.491594
0.500573 0.504847 0.497010
0.512025 0.510262 0.502425
0.523477 0.515677 0.507840
0.534930 0.521093 0.513256
0.546382 0.526508 0.518671
0.557835 0.531923 0.524086
0.476847 0.505269 0.491395
0.488299 0.510685 0.496810
0.499752 0.516100 0.502226
0.511204 0.521515 0.507641
0.522656 0.526931 0.513056
0.534109 0.532346 0.518472
0.545561 0.537761 0.523887
0.557013 0.543176 0.529302
0.568466 0.548592 0.534717
0.487478 0.521938 0.502027
0.498930 0.527353 0.507442
0.510383 0.532768 0.512857
0.521835 0.538184 0.518272
0.533288 0.543599 0.523688
0.544740 0.549014 0.529103
0.556192 0.554430 0.534518
0.567645 0.559845 0.539933
0.579097 0.565260 0.545349
0.498109 0.538606 0.512658
0.509562 0.544022 0.518073
0.521014 0.549437 0.523488
0.532467 0.554852 0.528904
0.543919 0.560267 0.534319
0.555371 0.565683 0.539734
0.566824 0.571098 0.545150
0.578276 0.576513 0.550565
0.589729 0.581929 0.555980
0.415123 0.407323 0.435709
0.426576 0.412739 0.441124
0.438028 0.418154 0.446540
0.449481 0.423569 0.451955
0.460933 0.428985 0.457370
0.472385 0.434400 0.462785
0.483838 0.439815 0.468201
0.495290 0.445230 0.473616
0.506743 0.450646 0.479031
0.425755 0.423992 0.446340
0.437207 0.429407 0.451756
0.448660 0.434822 0.457171
0.460112 0.440238 0.462586
0.471564 0.445653 0.468001
0.483017 0.451068 0.473417
0.494469 0.456484 0.478832
0.505921 0.461899 0.484247
0.517374 0.467314 0.489663
0.436386 0.440660 0.456972
0.447839 0.446076 0.462387
0.459291 0.451491 0.467802
0.470743 0.456906 0.473217
0.482196 0.462321 0.478633
0.493648 0.467737 0.484048
0.505100 0.473152 0.489463
0.516553 0.478567 0.494879
0.528005 0.483983 0.500294
0.447017 0.457329 0.467603
0.458470 0.462744 0.473018
0.469922 0.468159 0.478434
0.481375 0.473575 0.483849
0.492827 0.478990 0.489264
0.504279 0.484405 0.494679
0.515732 0.489820 0.500095
0.527184 0.495236 0.505510
0.538637 0.500651 0.510925
0.457649 0.473997 0.478234
0.469101 0.479412 0.483650
0.480554 0.484828 0.489065
0.492006 0.490243 0.494480
0.503458 0.495658 0.499895
0.514911 0.501074 0.505311
0.526363 0.506489 0.510726
0.537815 0.511904 0.516141
0.549268 0.517319 0.521557
0.468280 0.490666 0.488866
0.479733 0.496081 0.494281
0.491185 0.501496 0.499696
0.502637 0.506911 0.505111
0.514090 0.512327 0.510527
0.525542 0.517742 0.515942
0.536994 0.523157 0.521357
0.548447 0.528573 0.526773
0.559899 0.533988 0.532188
0.478911 0.507334 0.499497
0.490364 0.512749 0.504912
0.501816 0.518165 0.510328
0.513269 0.523580 0.515743
0.524721 0.528995 0.521158
0.536173 0.534410 0.526573
0.547626 0.539826 0.531989
0.559078 0.545241 0.537404
0.570531 0.550656 0.542819
0.489543 0.524003 0.510128
0.500995 0.529418 0.515544
0.512448 0.534833 0.520959
0.523900 0.540248 0.526374
0.535352 0.545664 0.531789
0.546805 0.551079 0.537205
0.558257 0.556494 0.542620
0.569709 0.561909 0.548035
0.581162 0.567325 0.553451
0.500174 0.540671 0.520760
0.511627 0.546086 0.526175
0.523079 0.551502 0.531590
0.534531 0.556917 0.537005
0.545984 0.562332 0.542421
0.557436 0.567747 0.547836
0.568888 0.573163 0.553251
0.580341 0.578578 0.558667
0.591793 0.583993 0.564082
0.417188 0.409388 0.443811
0.428641 0.414803 0.449226
0.440093 0.420219 0.454641
0.451545 0.425634 0.460057
0.462998 0.431049 0.465472
0.474450 0.436465 0.470887
0.485902 0.441880 0.476302
0.497355 0.447295 0.481718
0.508807 0.452710 0.487133
0.427819 0.426057 0.454442
0.439272 0.431472 0.459857
0.450724 0.436887 0.465273
0.462177 0.442302 0.470688
0.473629 0.447718 0.476103
0.485081 0.453133 0.481518
0.496534 0.458548 0.486934
0.507986 0.463964 0.492349
0.519439 0.469379 0.497764
0.438451 0.442725 0.465073
0.449903 0.448140 0.470489
0.461356 0.453556 0.475904
0.472808 0.458971 0.481319
0.484260 0.464386 0.486735
0.495713 0.469801 0.492150
0.507165 0.475217 0.497565
0.518617 0.480632 0.502980
0.530070 0.486047 0.508396
0.449082 0.459393 0.475705
0.460535 0.464809 0.481120
0.471987 0.470224 0.486535
0.483439 0.475639 0.491951
0.494892 0.481055 0.497366
0.506344 0.486470 0.502781
0.517796 0.491885 0.508196
0.529249 0.497300 0.513612
0.540701 0.502716 0.519027
0.459713 0.476062 0.486336
0.471166 0.481477 0.491751
0.482618 0.486892 0.497167
0.494071 0.492308 0.502582
0.505523 0.497723 0.507997
0.516975 0.503138 0.513412
0.528428 0.508554 0.518828
0.539880 0.513969 0.524243
0.551333 0.519384 0.529658
0.470345 0.492730 0.496967
0.481797 0.498146 0.502383
0.493250 0.503561 0.507798
0.504702 0.508976 0.513213
0.516154 0.514391 0.518629
0.527607 0.519807 0.524044
0.539059 0.525222 0.529459
0.550511 0.530637 0.534874
0.561964 0.536053 0.540290
0.480976 0.509399 0.507599
0.492429 0.514814 0.513014
0.503881 0.520229 0.518429
0.515333 0.525645 0.523845
0.526786 0.531060 0.529260
0.538238 0.536475 0.534675
0.549690 0.541890 0.540090
0.561143 0.547306 0.545506
0.572595 0.552721 0.550921
0.491607 0.526067 0.518230
0.503060 0.531482 0.523645
0.514512 0.536898 0.529061
0.525965 0.542313 0.534476
0.537417 0.547728 0.539891
0.548869 0.553144 0.545307
0.560322 0.558559 0.550722
0.571774 0.563974 0.556137
0.583227 0.569389 0.561552
0.502239 0.542736 0.528861
0.513691 0.548151 0.534277
0.525144 0.553566 0.539692
0.536596 0.558981 0.545107
0.548048 0.564397 0.550523
0.559501 0.569812 0.555938
0.570953 0.575227 0.561353
0.582406 0.580643 0.566768
0.593858 0.586058 0.572184
0.419253 0.411453 0.451913
0.430705 0.416868 0.457328
0.442158 0.422283 0.462743
0.453610 0.427699 0.468158
0.465062 0.433114 0.473574
0.476515 0.438529 0.478989
0.487967 0.443945 0.484404
0.499420 0.449360 0.489820
0.510872 0.454775 0.495235
0.429884 0.428121 0.462544
0.441337 0.433537 0.467959
0.452789 0.438952 0.473374
0.464241 0.444367 0.478790
0.475694 0.449782 0.484205
0.487146 0.455198 0.489620
0.498598 0.460613 0.495036
0.510051 0.466028 0.500451
0.521503 0.471444 0.505866
0.440515 0.444790 0.473175
0.451968 0.450205 0.478590
0.463420 0.455620 0.484006
0.474873 0.461036 0.489421
0.486325 0.466451 0.494836
0.497777 0.471866 0.500252
0.509230 0.477281 0.505667
0.520682 0.482697 0.511082
0.532135 0.488112 0.516497
0.451147 0.461458 0.483807
0.462599 0.466873 0.489222
0.474052 0.472289 0.494637
0.485504 0.477704 0.500052
0.496956 0.483119 0.505468
0.508409 0.488535 0.510883
0.519861 0.493950 0.516298
0.531314 0.499365 0.521714
0.542766 0.504780 0.527129
0.461778 0.478127 0.494438
0.473231 0.483542 0.499853
0.484683 0.488957 0.505268
0.496135 0.494372 0.510684
0.507588 0.499788 0.516099
0.519040 0.505203 0.521514
0.530492 0.510618 0.526930
0.541945 0.516034 0.532345
0.553397 0.521449 0.537760
0.472410 0.494795 0.505069
0.483862 0.500210 0.510485
0.495314 0.505626 0.515900
0.506767 0.511041 0.521315
0.518219 0.516456 0.526730
0.529671 0.521871 0.532146
0.541124 0.527287 0.537561
0.552576 0.532702 0.542976
0.564029 0.538117 0.548391
0.483041 0.511463 0.515701
0.494493 0.516879 0.521116
0.505946 0.522294 0.526531
0.517398 0.527709 0.531946
0.528850 0.533125 0.537362
0.540303 0.538540 0.542777
0.551755 0.543955 0.548192
0.563208 0.549370 0.553608
0.574660 0.554786 0.559023
0.493672 0.528132 0.526332
0.505125 0.533547 0.531747
0.516577 0.538962 0.537162
0.528029 0.544378 0.542578
0.539482 0.549793 0.547993
0.550934 0.555208 0.553408
0.562386 0.560624 0.558824
0.573839 0.566039 0.564239
0.585291 0.571454 0.569654
0.504304 0.544800 0.536963
0.515756 0.550216 0.542379
0.527208 0.555631 0.547794
0.538661 0.561046 0.553209
0.550113 0.566461 0.558624
0.561565 0.571877 0.564040
0.573018 0.577292 0.569455
0.584470 0.582707 0.574870
0.595923 0.588123 0.580285
0.421318 0.413518 0.460014
0.432770 0.418933 0.465430
0.444222 0.424348 0.470845
0.455675 0.429763 0.476260
0.467127 0.435179 0.481675
0.478579 0.440594 0.487091
0.490032 0.446009 0.492506
0.501484 0.451424 0.497921
0.512937 0.456840 0.503337
0.431949 0.430186 0.470646
0.443401 0.435601 0.476061
0.454854 0.441017 0.481476
0.466306 0.446432 0.486892
0.477758 0.451847 0.492307
0.489211 0.457262 0.497722
0.500663 0.462678 0.503137
0.512116 0.468093 0.508553
0.523568 0.473508 0.513968
0.442580 0.446854 0.481277
0.454033 0.452270 0.486692
0.465485 0.457685 0.492108
0.476937 0.463100 0.497523
0.488390 0.468516 0.502938
0.499842 0.473931 0.508353
0.511294 0.479346 0.513769
0.522747 0.484761 0.519184
0.534199 0.490177 0.524599
0.453212 0.463523 0.491908
0.464664 0.468938 0.497324
0.476116 0.474353 0.502739
0.487569 0.479769 0.508154
0.499021 0.485184 0.513569
0.510473 0.490599 0.518985
0.521926 0.496015 0.524400
0.533378 0.501430 0.529815
0.544831 0.506845 0.535231
0.463843 0.480191 0.502540
0.475295 0.485607 0.507955
0.486748 0.491022 0.513370
0.498200 0.496437 0.518786
0.509652 0.501852 0.524201
0.521105 0.507268 0.529616
0.532557 0.512683 0.535031
0.544010 0.518098 0.540447
0.555462 0.523514 0.545862
0.474474 0.496860 0.513171
0.485927 0.502275 0.518586
0.497379 0.507690 0.524002
0.508831 0.513106 0.529417
0.520284 0.518521 0.534832
0.531736 0.523936 0.540247
0.543188 0.529351 0.545663
0.554641 0.534767 0.551078
0.566093 0.540182 0.556493
0.485106 0.513528 0.523802
0.496558 0.518943 0.529218
0.508010 0.524359 0.534633
0.519463 0.529774 0.540048
0.530915 0.535189 0.545463
0.542367 0.540605 0.550879
0.553820 0.546020 0.556294
0.565272 0.551435 0.561709
0.576725 0.556850 0.567125
0.495737 0.530197 0.534434
0.507189 0.535612 0.539849
0.518642 0.541027 0.545264
0.530094 0.546442 0.550680
0.541546 0.551858 0.556095
0.552999 0.557273 0.561510
0.564451 0.562688 0.566925
0.575904 0.568104 0.572341
0.587356 0.573519 0.577756
0.506368 0.546865 0.545065
0.517821 0.552280 0.550480
0.529273 0.557696 0.555896
0.540725 0.563111 0.561311
0.552178 0.568526 0.566726
0.563630 0.573941 0.572141
0.575083 0.579357 0.577557
0.586535 0.584772 0.582972
0.597987 0.590187 0.588387
