shared/src/main/assets/luts/mv_mono_rock.cube
TITLE "DALUR Mono Rock"
LUT_3D_SIZE 9
DOMAIN_MIN 0.0 0.0 0.0
DOMAIN_MAX 1.0 1.0 1.0
0.400000 0.400000 0.400000
0.391817 0.414007 0.414007
0.383633 0.428014 0.428014
0.375450 0.442021 0.442021
0.367267 0.456028 0.456028
0.359084 0.470035 0.470035
0.350900 0.484042 0.484042
0.342717 0.498049 0.498049
0.334534 0.512056 0.512056
0.427499 0.405308 0.427499
0.419315 0.419315 0.441506
0.411132 0.433322 0.455513
0.402949 0.447329 0.469520
0.394766 0.461336 0.483527
0.386582 0.475343 0.497533
0.378399 0.489350 0.511540
0.370216 0.503357 0.525547
0.362033 0.517364 0.539554
0.454997 0.410617 0.454997
0.446814 0.424624 0.469004
0.438631 0.438631 0.483011
0.430447 0.452638 0.497018
0.422264 0.466645 0.511025
0.414081 0.480652 0.525032
0.405898 0.494659 0.539039
0.397714 0.508666 0.553046
0.389531 0.522673 0.567053
0.482496 0.415925 0.482496
0.474313 0.429932 0.496503
0.466129 0.443939 0.510510
0.457946 0.457946 0.524517
0.449763 0.471953 0.538524
0.441580 0.485960 0.552531
0.433396 0.499967 0.566538
0.425213 0.513974 0.580545
0.417030 0.527981 0.594552
0.509995 0.421234 0.509995
0.501811 0.435241 0.524002
0.493628 0.449248 0.538008
0.485445 0.463255 0.552015
0.477261 0.477261 0.566022
0.469078 0.491268 0.580029
0.460895 0.505275 0.594036
0.452712 0.519282 0.608043
0.444528 0.533289 0.622050
0.537493 0.426542 0.537493
0.529310 0.440549 0.551500
0.521127 0.454556 0.565507
0.512943 0.468563 0.579514
0.504760 0.482570 0.593521
0.496577 0.496577 0.607528
0.488394 0.510584 0.621535
0.480210 0.524591 0.635542
0.472027 0.538598 0.649549
0.564992 0.431850 0.564992
0.556809 0.445857 0.578999
0.548625 0.459864 0.593006
0.540442 0.473871 0.607013
0.532259 0.487878 0.621020
0.524075 0.501885 0.635027
0.515892 0.515892 0.649034
0.507709 0.529899 0.663041
0.499526 0.543906 0.677048
0.592490 0.437159 0.592490
0.584307 0.451166 0.606497
0.576124 0.465173 0.620504
0.567941 0.479180 0.634511
0.559757 0.493187 0.648518
0.551574 0.507194 0.662525
0.543391 0.521201 0.676532
0.535208 0.535208 0.690539
0.527024 0.549215 0.704546
0.619989 0.442467 0.619989
0.611806 0.456474 0.633996
0.603623 0.470481 0.648003
0.595439 0.484488 0.662010
0.587256 0.498495 0.676017
0.579073 0.512502 0.690024
0.570889 0.526509 0.704031
0.562706 0.540516 0.718038
0.554523 0.554523 0.732045
0.405340 0.405340 0.383150
0.397157 0.419347 0.397157
0.388974 0.433354 0.411164
0.380791 0.447361 0.425171
0.372607 0.461368 0.439178
0.364424 0.475375 0.453185
0.356241 0.489382 0.467192
0.348058 0.503389 0.481199
0.339874 0.517396 0.495206
0.432839 0.410649 0.410649
0.424656 0.424656 0.424656
0.416473 0.438663 0.438663
0.408289 0.452670 0.452670
0.400106 0.466677 0.466677
0.391923 0.480684 0.480684
0.383739 0.494691 0.494691
0.375556 0.508698 0.508698
0.367373 0.522705 0.522705
0.460338 0.415957 0.438147
0.452154 0.429964 0.452154
0.443971 0.443971 0.466161
0.435788 0.457978 0.480168
0.427605 0.471985 0.494175
0.419421 0.485992 0.508182
0.411238 0.499999 0.522189
0.403055 0.514006 0.536196
0.394872 0.528013 0.550203
0.487836 0.421266 0.465646
0.479653 0.435273 0.479653
0.471470 0.449280 0.493660
0.463287 0.463287 0.507667
0.455103 0.477294 0.521674
0.446920 0.491300 0.535681
0.438737 0.505307 0.549688
0.430553 0.519314 0.563695
0.422370 0.533321 0.577702
0.515335 0.426574 0.493145
0.507152 0.440581 0.507152
0.498968 0.454588 0.521159
0.490785 0.468595 0.535166
0.482602 0.482602 0.549173
0.474419 0.496609 0.563180
0.466235 0.510616 0.577187
0.458052 0.524623 0.591194
0.449869 0.538630 0.605201
0.542834 0.431882 0.520643
0.534650 0.445889 0.534650
0.526467 0.459896 0.548657
0.518284 0.473903 0.562664
0.510101 0.487910 0.576671
0.501917 0.501917 0.590678
0.493734 0.515924 0.604685
0.485551 0.529931 0.618692
0.477367 0.543938 0.632699
0.570332 0.437191 0.548142
0.562149 0.451198 0.562149
0.553966 0.465205 0.576156
0.545782 0.479212 0.590163
0.537599 0.493219 0.604170
0.529416 0.507226 0.618177
0.521233 0.521233 0.632184
0.513049 0.535240 0.646191
0.504866 0.549247 0.660198
0.597831 0.442499 0.575641
0.589648 0.456506 0.589648
0.581464 0.470513 0.603655
0.573281 0.484520 0.617662
0.565098 0.498527 0.631669
0.556915 0.512534 0.645675
0.548731 0.526541 0.659682
0.540548 0.540548 0.673689
0.532365 0.554555 0.687696
0.625330 0.447808 0.603139
0.617146 0.461815 0.617146
0.608963 0.475822 0.631153
0.600780 0.489829 0.645160
0.592596 0.503836 0.659167
0.584413 0.517842 0.673174
0.576230 0.531849 0.687181
0.568047 0.545856 0.701188
0.559863 0.559863 0.715195
0.410681 0.410681 0.366300
0.402498 0.424688 0.380307
0.394314 0.438695 0.394314
0.386131 0.452702 0.408321
0.377948 0.466709 0.422328
0.369765 0.480716 0.436335
0.361581 0.494723 0.450342
0.353398 0.508730 0.464349
0.345215 0.522737 0.478356
0.438180 0.415989 0.393799
0.429996 0.429996 0.407806
0.421813 0.444003 0.421813
0.413630 0.458010 0.435820
0.405446 0.472017 0.449827
0.397263 0.486024 0.463834
0.389080 0.500031 0.477841
0.380897 0.514038 0.491848
0.372713 0.528045 0.505855
0.465678 0.421298 0.421298
0.457495 0.435305 0.435305
0.449312 0.449312 0.449312
0.441128 0.463319 0.463319
0.432945 0.477326 0.477326
0.424762 0.491333 0.491333
0.416579 0.505340 0.505340
0.408395 0.519346 0.519346
0.400212 0.533353 0.533353
0.493177 0.426606 0.448796
0.484994 0.440613 0.462803
0.476810 0.454620 0.476810
0.468627 0.468627 0.490817
0.460444 0.482634 0.504824
0.452260 0.496641 0.518831
0.444077 0.510648 0.532838
0.435894 0.524655 0.546845
0.427711 0.538662 0.560852
0.520675 0.431914 0.476295
0.512492 0.445921 0.490302
0.504309 0.459928 0.504309
0.496126 0.473935 0.518316
0.487942 0.487942 0.532323
0.479759 0.501949 0.546330
0.471576 0.515956 0.560337
0.463393 0.529963 0.574344
0.455209 0.543970 0.588351
0.548174 0.437223 0.503794
0.539991 0.451230 0.517801
0.531808 0.465237 0.531808
0.523624 0.479244 0.545815
0.515441 0.493251 0.559821
0.507258 0.507258 0.573828
0.499074 0.521265 0.587835
0.490891 0.535272 0.601842
0.482708 0.549279 0.615849
0.575673 0.442531 0.531292
0.567489 0.456538 0.545299
0.559306 0.470545 0.559306
0.551123 0.484552 0.573313
0.542940 0.498559 0.587320
0.534756 0.512566 0.601327
0.526573 0.526573 0.615334
0.518390 0.540580 0.629341
0.510207 0.554587 0.643348
0.603171 0.447840 0.558791
0.594988 0.461847 0.572798
0.586805 0.475854 0.586805
0.578622 0.489861 0.600812
0.570438 0.503868 0.614819
0.562255 0.517875 0.628826
0.554072 0.531882 0.642833
0.545888 0.545888 0.656840
0.537705 0.559895 0.670847
0.630670 0.453148 0.586289
0.622487 0.467155 0.600296
0.614303 0.481162 0.614303
0.606120 0.495169 0.628310
0.597937 0.509176 0.642317
0.589754 0.523183 0.656324
0.581570 0.537190 0.670331
0.573387 0.551197 0.684338
0.565204 0.565204 0.698345
0.416021 0.416021 0.349451
0.407838 0.430028 0.363458
0.399655 0.444035 0.377465
0.391472 0.458042 0.391472
0.383288 0.472049 0.405479
0.375105 0.486056 0.419485
0.366922 0.500063 0.433492
0.358738 0.514070 0.447499
0.350555 0.528077 0.461506
0.443520 0.421330 0.376949
0.435337 0.435337 0.390956
0.427153 0.449344 0.404963
0.418970 0.463351 0.418970
0.410787 0.477358 0.432977
0.402604 0.491365 0.446984
0.394420 0.505372 0.460991
0.386237 0.519379 0.474998
0.378054 0.533386 0.489005
0.471019 0.426638 0.404448
0.462835 0.440645 0.418455
0.454652 0.454652 0.432462
0.446469 0.468659 0.446469
0.438286 0.482666 0.460476
0.430102 0.496673 0.474483
0.421919 0.510680 0.488490
0.413736 0.524687 0.502497
0.405552 0.538694 0.516504
0.498517 0.431947 0.431947
0.490334 0.445954 0.445954
0.482151 0.459960 0.459960
0.473967 0.473967 0.473967
0.465784 0.487974 0.487974
0.457601 0.501981 0.501981
0.449418 0.515988 0.515988
0.441234 0.529995 0.529995
0.433051 0.544002 0.544002
0.526016 0.437255 0.459445
0.517833 0.451262 0.473452
0.509649 0.465269 0.487459
0.501466 0.479276 0.501466
0.493283 0.493283 0.515473
0.485100 0.507290 0.529480
0.476916 0.521297 0.543487
0.468733 0.535304 0.557494
0.460550 0.549311 0.571501
0.553515 0.442563 0.486944
0.545331 0.456570 0.500951
0.537148 0.470577 0.514958
0.528965 0.484584 0.528965
0.520781 0.498591 0.542972
0.512598 0.512598 0.556979
0.504415 0.526605 0.570986
0.496232 0.540612 0.584993
0.488048 0.554619 0.599000
0.581013 0.447872 0.514442
0.572830 0.461879 0.528449
0.564647 0.475886 0.542456
0.556463 0.489893 0.556463
0.548280 0.503900 0.570470
0.540097 0.517907 0.584477
0.531914 0.531914 0.598484
0.523730 0.545921 0.612491
0.515547 0.559927 0.626498
0.608512 0.453180 0.541941
0.600329 0.467187 0.555948
0.592145 0.481194 0.569955
0.583962 0.495201 0.583962
0.575779 0.509208 0.597969
0.567595 0.523215 0.611976
0.559412 0.537222 0.625983
0.551229 0.551229 0.639990
0.543046 0.565236 0.653997
0.636010 0.458489 0.569440
0.627827 0.472496 0.583447
0.619644 0.486502 0.597454
0.611461 0.500509 0.611461
0.603277 0.514516 0.625468
0.595094 0.528523 0.639475
0.586911 0.542530 0.653482
0.578728 0.556537 0.667488
0.570544 0.570544 0.681495
0.421362 0.421362 0.332601
0.413179 0.435369 0.346608
0.404995 0.449376 0.360615
0.396812 0.463383 0.374622
0.388629 0.477390 0.388629
0.380445 0.491397 0.402636
0.372262 0.505404 0.416643
0.364079 0.519411 0.430650
0.355896 0.533418 0.444657
0.448860 0.426670 0.360099
0.440677 0.440677 0.374106
0.432494 0.454684 0.388113
0.424311 0.468691 0.402120
0.416127 0.482698 0.416127
0.407944 0.496705 0.430134
0.399761 0.510712 0.444141
0.391578 0.524719 0.458148
0.383394 0.538726 0.472155
0.476359 0.431979 0.387598
0.468176 0.445986 0.401605
0.459993 0.459993 0.415612
0.451809 0.474000 0.429619
0.443626 0.488006 0.443626
0.435443 0.502013 0.457633
0.427259 0.516020 0.471640
0.419076 0.530027 0.485647
0.410893 0.544034 0.499654
0.503858 0.437287 0.415097
0.495674 0.451294 0.429104
0.487491 0.465301 0.443111
0.479308 0.479308 0.457118
0.471125 0.493315 0.471125
0.462941 0.507322 0.485132
0.454758 0.521329 0.499139
0.446575 0.535336 0.513146
0.438392 0.549343 0.527153
0.531356 0.442595 0.442595
0.523173 0.456602 0.456602
0.514990 0.470609 0.470609
0.506807 0.484616 0.484616
0.498623 0.498623 0.498623
0.490440 0.512630 0.512630
0.482257 0.526637 0.526637
0.474073 0.540644 0.540644
0.465890 0.554651 0.554651
0.558855 0.447904 0.470094
0.550672 0.461911 0.484101
0.542488 0.475918 0.498108
0.534305 0.489925 0.512115
0.526122 0.503932 0.526122
0.517939 0.517939 0.540129
0.509755 0.531946 0.554136
0.501572 0.545953 0.568143
0.493389 0.559960 0.582150
0.586354 0.453212 0.497593
0.578170 0.467219 0.511600
0.569987 0.481226 0.525607
0.561804 0.495233 0.539614
0.553621 0.509240 0.553621
0.545437 0.523247 0.567628
0.537254 0.537254 0.581634
0.529071 0.551261 0.595641
0.520887 0.565268 0.609648
0.613852 0.458521 0.525091
0.605669 0.472528 0.539098
0.597486 0.486535 0.553105
0.589302 0.500541 0.567112
0.581119 0.514548 0.581119
0.572936 0.528555 0.595126
0.564753 0.542562 0.609133
0.556569 0.556569 0.623140
0.548386 0.570576 0.637147
0.641351 0.463829 0.552590
0.633168 0.477836 0.566597
0.624984 0.491843 0.580604
0.616801 0.505850 0.594611
0.608618 0.519857 0.608618
0.600435 0.533864 0.622625
0.592251 0.547871 0.636632
0.584068 0.561878 0.650639
0.575885 0.575885 0.664646
0.426702 0.426702 0.315751
0.418519 0.440709 0.329758
0.410336 0.454716 0.343765
0.402152 0.468723 0.357772
0.393969 0.482730 0.371779
0.385786 0.496737 0.385786
0.377603 0.510744 0.399793
0.369419 0.524751 0.413800
0.361236 0.538758 0.427807
0.454201 0.432011 0.343250
0.446018 0.446018 0.357257
0.437834 0.460025 0.371264
0.429651 0.474032 0.385271
0.421468 0.488039 0.399278
0.413285 0.502045 0.413285
0.405101 0.516052 0.427292
0.396918 0.530059 0.441298
0.388735 0.544066 0.455305
0.481700 0.437319 0.370748
0.473516 0.451326 0.384755
0.465333 0.465333 0.398762
0.457150 0.479340 0.412769
0.448966 0.493347 0.426776
0.440783 0.507354 0.440783
0.432600 0.521361 0.454790
0.424417 0.535368 0.468797
0.416233 0.549375 0.482804
0.509198 0.442627 0.398247
0.501015 0.456634 0.412254
0.492832 0.470641 0.426261
0.484648 0.484648 0.440268
0.476465 0.498655 0.454275
0.468282 0.512662 0.468282
0.460099 0.526669 0.482289
0.451915 0.540676 0.496296
0.443732 0.554683 0.510303
0.536697 0.447936 0.425746
0.528514 0.461943 0.439753
0.520330 0.475950 0.453760
0.512147 0.489957 0.467767
0.503964 0.503964 0.481773
0.495780 0.517971 0.495780
0.487597 0.531978 0.509787
0.479414 0.545985 0.523794
0.471231 0.559992 0.537801
0.564195 0.453244 0.453244
0.556012 0.467251 0.467251
0.547829 0.481258 0.481258
0.539646 0.495265 0.495265
0.531462 0.509272 0.509272
0.523279 0.523279 0.523279
0.515096 0.537286 0.537286
0.506913 0.551293 0.551293
0.498729 0.565300 0.565300
0.591694 0.458553 0.480743
0.583511 0.472560 0.494750
0.575328 0.486567 0.508757
0.567144 0.500574 0.522764
0.558961 0.514581 0.536771
0.550778 0.528587 0.550778
0.542594 0.542594 0.564785
0.534411 0.556601 0.578792
0.526228 0.570608 0.592799
0.619193 0.463861 0.508242
0.611009 0.477868 0.522248
0.602826 0.491875 0.536255
0.594643 0.505882 0.550262
0.586460 0.519889 0.564269
0.578276 0.533896 0.578276
0.570093 0.547903 0.592283
0.561910 0.561910 0.606290
0.553727 0.575917 0.620297
0.646691 0.469169 0.535740
0.638508 0.483176 0.549747
0.630325 0.497183 0.563754
0.622142 0.511190 0.577761
0.613958 0.525197 0.591768
0.605775 0.539204 0.605775
0.597592 0.553211 0.619782
0.589408 0.567218 0.633789
0.581225 0.581225 0.647796
0.432043 0.432043 0.298901
0.423859 0.446050 0.312908
0.415676 0.460057 0.326915
0.407493 0.474064 0.340922
0.399310 0.488071 0.354929
0.391126 0.502078 0.368936
0.382943 0.516085 0.382943
0.374760 0.530091 0.396950
0.366577 0.544098 0.410957
0.459541 0.437351 0.326400
0.451358 0.451358 0.340407
0.443175 0.465365 0.354414
0.434992 0.479372 0.368421
0.426808 0.493379 0.382428
0.418625 0.507386 0.396435
0.410442 0.521393 0.410442
0.402258 0.535400 0.424449
0.394075 0.549407 0.438456
0.487040 0.442659 0.353899
0.478857 0.456666 0.367906
0.470673 0.470673 0.381912
0.462490 0.484680 0.395919
0.454307 0.498687 0.409926
0.446124 0.512694 0.423933
0.437940 0.526701 0.437940
0.429757 0.540708 0.451947
0.421574 0.554715 0.465954
0.514539 0.447968 0.381397
0.506355 0.461975 0.395404
0.498172 0.475982 0.409411
0.489989 0.489989 0.423418
0.481806 0.503996 0.437425
0.473622 0.518003 0.451432
0.465439 0.532010 0.465439
0.457256 0.546017 0.479446
0.449072 0.560024 0.493453
0.542037 0.453276 0.408896
0.533854 0.467283 0.422903
0.525671 0.481290 0.436910
0.517487 0.495297 0.450917
0.509304 0.509304 0.464924
0.501121 0.523311 0.478931
0.492938 0.537318 0.492938
0.484754 0.551325 0.506945
0.476571 0.565332 0.520952
0.569536 0.458585 0.436394
0.561353 0.472592 0.450401
0.553169 0.486599 0.464408
0.544986 0.500606 0.478415
0.536803 0.514613 0.492422
0.528620 0.528620 0.506429
0.520436 0.542627 0.520436
0.512253 0.556633 0.534443
0.504070 0.570640 0.548450
0.597035 0.463893 0.463893
0.588851 0.477900 0.477900
0.580668 0.491907 0.491907
0.572485 0.505914 0.505914
0.564301 0.519921 0.519921
0.556118 0.533928 0.533928
0.547935 0.547935 0.547935
0.539752 0.561942 0.561942
0.531568 0.575949 0.575949
0.624533 0.469201 0.491392
0.616350 0.483208 0.505399
0.608167 0.497215 0.519406
0.599983 0.511222 0.533413
0.591800 0.525229 0.547420
0.583617 0.539236 0.561427
0.575434 0.553243 0.575434
0.567250 0.567250 0.589441
0.559067 0.581257 0.603447
0.652032 0.474510 0.518890
0.643849 0.488517 0.532897
0.635665 0.502524 0.546904
0.627482 0.516531 0.560911
0.619299 0.530538 0.574918
0.611115 0.544545 0.588925
0.602932 0.558552 0.602932
0.594749 0.572559 0.616939
0.586566 0.586566 0.630946
0.437383 0.437383 0.282051
0.429200 0.451390 0.296058
0.421017 0.465397 0.310065
0.412833 0.479404 0.324072
0.404650 0.493411 0.338079
0.396467 0.507418 0.352086
0.388284 0.521425 0.366093
0.380100 0.535432 0.380100
0.371917 0.549439 0.394107
0.464882 0.442692 0.309550
0.456699 0.456699 0.323557
0.448515 0.470705 0.337564
0.440332 0.484712 0.351571
0.432149 0.498719 0.365578
0.423965 0.512726 0.379585
0.415782 0.526733 0.393592
0.407599 0.540740 0.407599
0.399416 0.554747 0.421606
0.492380 0.448000 0.337049
0.484197 0.462007 0.351056
0.476014 0.476014 0.365063
0.467831 0.490021 0.379070
0.459647 0.504028 0.393077
0.451464 0.518035 0.407084
0.443281 0.532042 0.421091
0.435098 0.546049 0.435098
0.426914 0.560056 0.449105
0.519879 0.453308 0.364547
0.511696 0.467315 0.378554
0.503513 0.481322 0.392561
0.495329 0.495329 0.406568
0.487146 0.509336 0.420575
0.478963 0.523343 0.434582
0.470779 0.537350 0.448589
0.462596 0.551357 0.462596
0.454413 0.565364 0.476603
0.547378 0.458617 0.392046
0.539194 0.472624 0.406053
0.531011 0.486631 0.420060
0.522828 0.500638 0.434067
0.514645 0.514645 0.448074
0.506461 0.528652 0.462081
0.498278 0.542659 0.476088
0.490095 0.556666 0.490095
0.481912 0.570673 0.504102
0.574876 0.463925 0.419545
0.566693 0.477932 0.433552
0.558510 0.491939 0.447559
0.550327 0.505946 0.461566
0.542143 0.519953 0.475573
0.533960 0.533960 0.489580
0.525777 0.547967 0.503586
0.517593 0.561974 0.517593
0.509410 0.575981 0.531600
0.602375 0.469234 0.447043
0.594192 0.483241 0.461050
0.586008 0.497247 0.475057
0.577825 0.511254 0.489064
0.569642 0.525261 0.503071
0.561459 0.539268 0.517078
0.553275 0.553275 0.531085
0.545092 0.567282 0.545092
0.536909 0.581289 0.559099
0.629874 0.474542 0.474542
0.621690 0.488549 0.488549
0.613507 0.502556 0.502556
0.605324 0.516563 0.516563
0.597141 0.530570 0.530570
0.588957 0.544577 0.544577
0.580774 0.558584 0.558584
0.572591 0.572591 0.572591
0.564407 0.586598 0.586598
0.657372 0.479850 0.502041
0.649189 0.493857 0.516048
0.641006 0.507864 0.530055
0.632822 0.521871 0.544061
0.624639 0.535878 0.558068
0.616456 0.549885 0.572075
0.608273 0.563892 0.586082
0.600089 0.577899 0.600089
0.591906 0.591906 0.614096
0.442724 0.442724 0.265202
0.434540 0.456731 0.279209
0.426357 0.470738 0.293216
0.418174 0.484745 0.307223
0.409991 0.498751 0.321230
0.401807 0.512758 0.335237
0.393624 0.526765 0.349244
0.385441 0.540772 0.363251
0.377257 0.554779 0.377257
0.470222 0.448032 0.292700
0.462039 0.462039 0.306707
0.453856 0.476046 0.320714
0.445672 0.490053 0.334721
0.437489 0.504060 0.348728
0.429306 0.518067 0.362735
0.421123 0.532074 0.376742
0.412939 0.546081 0.390749
0.404756 0.560088 0.404756
0.497721 0.453340 0.320199
0.489538 0.467347 0.334206
0.481354 0.481354 0.348213
0.473171 0.495361 0.362220
0.464988 0.509368 0.376227
0.456805 0.523375 0.390234
0.448621 0.537382 0.404241
0.440438 0.551389 0.418248
0.432255 0.565396 0.432255
0.525220 0.458649 0.347698
0.517036 0.472656 0.361705
0.508853 0.486663 0.375712
0.500670 0.500670 0.389719
0.492486 0.514677 0.403725
0.484303 0.528684 0.417732
0.476120 0.542691 0.431739
0.467937 0.556698 0.445746
0.459753 0.570705 0.459753
0.552718 0.463957 0.375196
0.544535 0.477964 0.389203
0.536352 0.491971 0.403210
0.528168 0.505978 0.417217
0.519985 0.519985 0.431224
0.511802 0.533992 0.445231
0.503619 0.547999 0.459238
0.495435 0.562006 0.473245
0.487252 0.576013 0.487252
0.580217 0.469266 0.402695
0.572034 0.483273 0.416702
0.563850 0.497280 0.430709
0.555667 0.511286 0.444716
0.547484 0.525293 0.458723
0.539300 0.539300 0.472730
0.531117 0.553307 0.486737
0.522934 0.567314 0.500744
0.514751 0.581321 0.514751
0.607715 0.474574 0.430194
0.599532 0.488581 0.444200
0.591349 0.502588 0.458207
0.583166 0.516595 0.472214
0.574982 0.530602 0.486221
0.566799 0.544609 0.500228
0.558616 0.558616 0.514235
0.550433 0.572623 0.528242
0.542249 0.586630 0.542249
0.635214 0.479882 0.457692
0.627031 0.493889 0.471699
0.618848 0.507896 0.485706
0.610664 0.521903 0.499713
0.602481 0.535910 0.513720
0.594298 0.549917 0.527727
0.586114 0.563924 0.541734
0.577931 0.577931 0.555741
0.569748 0.591938 0.569748
0.662713 0.485191 0.485191
0.654529 0.499198 0.499198
0.646346 0.513205 0.513205
0.638163 0.527212 0.527212
0.629980 0.541219 0.541219
0.621796 0.555226 0.555226
0.613613 0.569233 0.569233
0.605430 0.583240 0.583240
0.597247 0.597247 0.597247
