shared/src/main/assets/luts/mv_mono_rock.cube
TITLE "DALUR Mono Rock"
LUT_3D_SIZE 5
DOMAIN_MIN 0.0 0.0 0.0
DOMAIN_MAX 1.0 1.0 1.0
0.400000 0.400000 0.400000
0.383633 0.428014 0.428014
0.367267 0.456028 0.456028
0.350900 0.484042 0.484042
0.334534 0.512056 0.512056
0.454997 0.410617 0.454997
0.438631 0.438631 0.483011
0.422264 0.466645 0.511025
0.405898 0.494659 0.539039
0.389531 0.522673 0.567053
0.509995 0.421234 0.509995
0.493628 0.449248 0.538008
0.477261 0.477261 0.566022
0.460895 0.505275 0.594036
0.444528 0.533289 0.622050
0.564992 0.431850 0.564992
0.548625 0.459864 0.593006
0.532259 0.487878 0.621020
0.515892 0.515892 0.649034
0.499526 0.543906 0.677048
0.619989 0.442467 0.619989
0.603623 0.470481 0.648003
0.587256 0.498495 0.676017
0.570889 0.526509 0.704031
0.554523 0.554523 0.732045
0.410681 0.410681 0.366300
0.394314 0.438695 0.394314
0.377948 0.466709 0.422328
0.361581 0.494723 0.450342
0.345215 0.522737 0.478356
0.465678 0.421298 0.421298
0.449312 0.449312 0.449312
0.432945 0.477326 0.477326
0.416579 0.505340 0.505340
0.400212 0.533353 0.533353
0.520675 0.431914 0.476295
0.504309 0.459928 0.504309
0.487942 0.487942 0.532323
0.471576 0.515956 0.560337
0.455209 0.543970 0.588351
0.575673 0.442531 0.531292
0.559306 0.470545 0.559306
0.542940 0.498559 0.587320
0.526573 0.526573 0.615334
0.510207 0.554587 0.643348
0.630670 0.453148 0.586289
0.614303 0.481162 0.614303
0.597937 0.509176 0.642317
0.581570 0.537190 0.670331
0.565204 0.565204 0.698345
0.421362 0.421362 0.332601
0.404995 0.449376 0.360615
0.388629 0.477390 0.388629
0.372262 0.505404 0.416643
0.355896 0.533418 0.444657
0.476359 0.431979 0.387598
0.459993 0.459993 0.415612
0.443626 0.488006 0.443626
0.427259 0.516020 0.471640
0.410893 0.544034 0.499654
0.531356 0.442595 0.442595
0.514990 0.470609 0.470609
0.498623 0.498623 0.498623
0.482257 0.526637 0.526637
0.465890 0.554651 0.554651
0.586354 0.453212 0.497593
0.569987 0.481226 0.525607
0.553621 0.509240 0.553621
0.537254 0.537254 0.581634
0.520887 0.565268 0.609648
0.641351 0.463829 0.552590
0.624984 0.491843 0.580604
0.608618 0.519857 0.608618
0.592251 0.547871 0.636632
0.575885 0.575885 0.664646
0.432043 0.432043 0.298901
0.415676 0.460057 0.326915
0.399310 0.488071 0.354929
0.382943 0.516085 0.382943
0.366577 0.544098 0.410957
0.487040 0.442659 0.353899
0.470673 0.470673 0.381912
0.454307 0.498687 0.409926
0.437940 0.526701 0.437940
0.421574 0.554715 0.465954
0.542037 0.453276 0.408896
0.525671 0.481290 0.436910
0.509304 0.509304 0.464924
0.492938 0.537318 0.492938
0.476571 0.565332 0.520952
0.597035 0.463893 0.463893
0.580668 0.491907 0.491907
0.564301 0.519921 0.519921
0.547935 0.547935 0.547935
0.531568 0.575949 0.575949
0.652032 0.474510 0.518890
0.635665 0.502524 0.546904
0.619299 0.530538 0.574918
0.602932 0.558552 0.602932
0.586566 0.586566 0.630946
0.442724 0.442724 0.265202
0.426357 0.470738 0.293216
0.409991 0.498751 0.321230
0.393624 0.526765 0.349244
0.377257 0.554779 0.377257
0.497721 0.453340 0.320199
0.481354 0.481354 0.348213
0.464988 0.509368 0.376227
0.448621 0.537382 0.404241
0.432255 0.565396 0.432255
0.552718 0.463957 0.375196
0.536352 0.491971 0.403210
0.519985 0.519985 0.431224
0.503619 0.547999 0.459238
0.487252 0.576013 0.487252
0.607715 0.474574 0.430194
0.591349 0.502588 0.458207
0.574982 0.530602 0.486221
0.558616 0.558616 0.514235
0.542249 0.586630 0.542249
0.662713 0.485191 0.485191
0.646346 0.513205 0.513205
0.629980 0.541219 0.541219
0.613613 0.569233 0.569233
0.597247 0.597247 0.597247
