shared/src/main/assets/luts/mv_mono_rock.cube
TITLE "DALUR Mono Rock"
LUT_3D_SIZE 17
DOMAIN_MIN 0.0 0.0 0.0
DOMAIN_MAX 1.0 1.0 1.0
0.400000 0.400000 0.400000
0.395908 0.407003 0.407003
0.391817 0.414007 0.414007
0.387725 0.421010 0.421010
0.383633 0.428014 0.428014
0.379542 0.435017 0.435017
0.375450 0.442021 0.442021
0.371359 0.449024 0.449024
0.367267 0.456028 0.456028
0.363175 0.463031 0.463031
0.359084 0.470035 0.470035
0.354992 0.477038 0.477038
0.350900 0.484042 0.484042
0.346809 0.491045 0.491045
0.342717 0.498049 0.498049
0.338626 0.505052 0.505052
0.334534 0.512056 0.512056
0.413749 0.402654 0.413749
0.409658 0.409658 0.420753
0.405566 0.416661 0.427756
0.401474 0.423665 0.434760
0.397383 0.430668 0.441763
0.393291 0.437672 0.448767
0.389200 0.444675 0.455770
0.385108 0.451679 0.462774
0.381016 0.458682 0.469777
0.376925 0.465686 0.476781
0.372833 0.472689 0.483784
0.368741 0.479693 0.490788
0.364650 0.486696 0.497791
0.360558 0.493700 0.504795
0.356466 0.500703 0.511798
0.352375 0.507706 0.518802
0.348283 0.514710 0.525805
0.427499 0.405308 0.427499
0.423407 0.412312 0.434502
0.419315 0.419315 0.441506
0.415224 0.426319 0.448509
0.411132 0.433322 0.455513
0.407040 0.440326 0.462516
0.402949 0.447329 0.469520
0.398857 0.454333 0.476523
0.394766 0.461336 0.483527
0.390674 0.468340 0.490530
0.386582 0.475343 0.497533
0.382491 0.482347 0.504537
0.378399 0.489350 0.511540
0.374307 0.496354 0.518544
0.370216 0.503357 0.525547
0.366124 0.510361 0.532551
0.362033 0.517364 0.539554
0.441248 0.407963 0.441248
0.437156 0.414966 0.448251
0.433065 0.421970 0.455255
0.428973 0.428973 0.462258
0.424881 0.435977 0.469262
0.420790 0.442980 0.476265
0.416698 0.449984 0.483269
0.412607 0.456987 0.490272
0.408515 0.463990 0.497276
0.404423 0.470994 0.504279
0.400332 0.477997 0.511283
0.396240 0.485001 0.518286
0.392148 0.492004 0.525290
0.388057 0.499008 0.532293
0.383965 0.506011 0.539297
0.379873 0.513015 0.546300
0.375782 0.520018 0.553304
0.454997 0.410617 0.454997
0.450906 0.417620 0.462001
0.446814 0.424624 0.469004
0.442722 0.431627 0.476008
0.438631 0.438631 0.483011
0.434539 0.445634 0.490015
0.430447 0.452638 0.497018
0.426356 0.459641 0.504022
0.422264 0.466645 0.511025
0.418173 0.473648 0.518029
0.414081 0.480652 0.525032
0.409989 0.487655 0.532036
0.405898 0.494659 0.539039
0.401806 0.501662 0.546043
0.397714 0.508666 0.553046
0.393623 0.515669 0.560050
0.389531 0.522673 0.567053
0.468747 0.413271 0.468747
0.464655 0.420274 0.475750
0.460563 0.427278 0.482754
0.456472 0.434281 0.489757
0.452380 0.441285 0.496761
0.448288 0.448288 0.503764
0.444197 0.455292 0.510767
0.440105 0.462295 0.517771
0.436014 0.469299 0.524774
0.431922 0.476302 0.531778
0.427830 0.483306 0.538781
0.423739 0.490309 0.545785
0.419647 0.497313 0.552788
0.415555 0.504316 0.559792
0.411464 0.511320 0.566795
0.407372 0.518323 0.573799
0.403280 0.525327 0.580802
0.482496 0.415925 0.482496
0.478404 0.422929 0.489499
0.474313 0.429932 0.496503
0.470221 0.436936 0.503506
0.466129 0.443939 0.510510
0.462038 0.450943 0.517513
0.457946 0.457946 0.524517
0.453854 0.464950 0.531520
0.449763 0.471953 0.538524
0.445671 0.478957 0.545527
0.441580 0.485960 0.552531
0.437488 0.492964 0.559534
0.433396 0.499967 0.566538
0.429305 0.506970 0.573541
0.425213 0.513974 0.580545
0.421121 0.520977 0.587548
0.417030 0.527981 0.594552
0.496245 0.418579 0.496245
0.492154 0.425583 0.503249
0.488062 0.432586 0.510252
0.483970 0.439590 0.517256
0.479879 0.446593 0.524259
0.475787 0.453597 0.531263
0.471695 0.460600 0.538266
0.467604 0.467604 0.545270
0.463512 0.474607 0.552273
0.459421 0.481611 0.559277
0.455329 0.488614 0.566280
0.451237 0.495618 0.573284
0.447146 0.502621 0.580287
0.443054 0.509625 0.587291
0.438962 0.516628 0.594294
0.434871 0.523632 0.601297
0.430779 0.530635 0.608301
0.509995 0.421234 0.509995
0.505903 0.428237 0.516998
0.501811 0.435241 0.524002
0.497720 0.442244 0.531005
0.493628 0.449248 0.538008
0.489536 0.456251 0.545012
0.485445 0.463255 0.552015
0.481353 0.470258 0.559019
0.477261 0.477261 0.566022
0.473170 0.484265 0.573026
0.469078 0.491268 0.580029
0.464987 0.498272 0.587033
0.460895 0.505275 0.594036
0.456803 0.512279 0.601040
0.452712 0.519282 0.608043
0.448620 0.526286 0.615047
0.444528 0.533289 0.622050
0.523744 0.423888 0.523744
0.519652 0.430891 0.530747
0.515561 0.437895 0.537751
0.511469 0.444898 0.544754
0.507377 0.451902 0.551758
0.503286 0.458905 0.558761
0.499194 0.465909 0.565765
0.495102 0.472912 0.572768
0.491011 0.479916 0.579772
0.486919 0.486919 0.586775
0.482828 0.493923 0.593779
0.478736 0.500926 0.600782
0.474644 0.507930 0.607786
0.470553 0.514933 0.614789
0.466461 0.521937 0.621793
0.462369 0.528940 0.628796
0.458278 0.535944 0.635800
0.537493 0.426542 0.537493
0.533402 0.433545 0.544497
0.529310 0.440549 0.551500
0.525218 0.447552 0.558504
0.521127 0.454556 0.565507
0.517035 0.461559 0.572511
0.512943 0.468563 0.579514
0.508852 0.475566 0.586518
0.504760 0.482570 0.593521
0.500668 0.489573 0.600525
0.496577 0.496577 0.607528
0.492485 0.503580 0.614532
0.488394 0.510584 0.621535
0.484302 0.517587 0.628538
0.480210 0.524591 0.635542
0.476119 0.531594 0.642545
0.472027 0.538598 0.649549
0.551242 0.429196 0.551242
0.547151 0.436200 0.558246
0.543059 0.443203 0.565249
0.538968 0.450207 0.572253
0.534876 0.457210 0.579256
0.530784 0.464214 0.586260
0.526693 0.471217 0.593263
0.522601 0.478221 0.600267
0.518509 0.485224 0.607270
0.514418 0.492228 0.614274
0.510326 0.499231 0.621277
0.506235 0.506235 0.628281
0.502143 0.513238 0.635284
0.498051 0.520241 0.642288
0.493960 0.527245 0.649291
0.489868 0.534248 0.656295
0.485776 0.541252 0.663298
0.564992 0.431850 0.564992
0.560900 0.438854 0.571995
0.556809 0.445857 0.578999
0.552717 0.452861 0.586002
0.548625 0.459864 0.593006
0.544534 0.466868 0.600009
0.540442 0.473871 0.607013
0.536350 0.480875 0.614016
0.532259 0.487878 0.621020
0.528167 0.494882 0.628023
0.524075 0.501885 0.635027
0.519984 0.508889 0.642030
0.515892 0.515892 0.649034
0.511801 0.522896 0.656037
0.507709 0.529899 0.663041
0.503617 0.536903 0.670044
0.499526 0.543906 0.677048
0.578741 0.434505 0.578741
0.574649 0.441508 0.585745
0.570558 0.448512 0.592748
0.566466 0.455515 0.599752
0.562375 0.462519 0.606755
0.558283 0.469522 0.613759
0.554191 0.476525 0.620762
0.550100 0.483529 0.627766
0.546008 0.490532 0.634769
0.541916 0.497536 0.641772
0.537825 0.504539 0.648776
0.533733 0.511543 0.655779
0.529642 0.518546 0.662783
0.525550 0.525550 0.669786
0.521458 0.532553 0.676790
0.517367 0.539557 0.683793
0.513275 0.546560 0.690797
0.592490 0.437159 0.592490
0.588399 0.444162 0.599494
0.584307 0.451166 0.606497
0.580216 0.458169 0.613501
0.576124 0.465173 0.620504
0.572032 0.472176 0.627508
0.567941 0.479180 0.634511
0.563849 0.486183 0.641515
0.559757 0.493187 0.648518
0.555666 0.500190 0.655522
0.551574 0.507194 0.662525
0.547482 0.514197 0.669529
0.543391 0.521201 0.676532
0.539299 0.528204 0.683536
0.535208 0.535208 0.690539
0.531116 0.542211 0.697543
0.527024 0.549215 0.704546
0.606240 0.439813 0.606240
0.602148 0.446816 0.613243
0.598056 0.453820 0.620247
0.593965 0.460823 0.627250
0.589873 0.467827 0.634254
0.585782 0.474830 0.641257
0.581690 0.481834 0.648261
0.577598 0.488837 0.655264
0.573507 0.495841 0.662268
0.569415 0.502844 0.669271
0.565323 0.509848 0.676275
0.561232 0.516851 0.683278
0.557140 0.523855 0.690282
0.553049 0.530858 0.697285
0.548957 0.537862 0.704289
0.544865 0.544865 0.711292
0.540774 0.551869 0.718296
0.619989 0.442467 0.619989
0.615897 0.449471 0.626993
0.611806 0.456474 0.633996
0.607714 0.463478 0.641000
0.603623 0.470481 0.648003
0.599531 0.477485 0.655006
0.595439 0.484488 0.662010
0.591348 0.491492 0.669013
0.587256 0.498495 0.676017
0.583164 0.505499 0.683020
0.579073 0.512502 0.690024
0.574981 0.519506 0.697027
0.570889 0.526509 0.704031
0.566798 0.533512 0.711034
0.562706 0.540516 0.718038
0.558615 0.547519 0.725041
0.554523 0.554523 0.732045
0.402670 0.402670 0.391575
0.398579 0.409674 0.398579
0.394487 0.416677 0.405582
0.390395 0.423681 0.412586
0.386304 0.430684 0.419589
0.382212 0.437688 0.426593
0.378120 0.444691 0.433596
0.374029 0.451695 0.440600
0.369937 0.458698 0.447603
0.365846 0.465702 0.454606
0.361754 0.472705 0.461610
0.357662 0.479709 0.468613
0.353571 0.486712 0.475617
0.349479 0.493716 0.482620
0.345387 0.500719 0.489624
0.341296 0.507722 0.496627
0.337204 0.514726 0.503631
0.416420 0.405324 0.405324
0.412328 0.412328 0.412328
0.408236 0.419331 0.419331
0.404145 0.426335 0.426335
0.400053 0.433338 0.433338
0.395961 0.440342 0.440342
0.391870 0.447345 0.447345
0.387778 0.454349 0.454349
0.383686 0.461352 0.461352
0.379595 0.468356 0.468356
0.375503 0.475359 0.475359
0.371412 0.482363 0.482363
0.367320 0.489366 0.489366
0.363228 0.496370 0.496370
0.359137 0.503373 0.503373
0.355045 0.510377 0.510377
0.350953 0.517380 0.517380
0.430169 0.407979 0.419074
0.426077 0.414982 0.426077
0.421986 0.421986 0.433081
0.417894 0.428989 0.440084
0.413802 0.435993 0.447088
0.409711 0.442996 0.454091
0.405619 0.450000 0.461095
0.401527 0.457003 0.468098
0.397436 0.464007 0.475102
0.393344 0.471010 0.482105
0.389253 0.478013 0.489109
0.385161 0.485017 0.496112
0.381069 0.492020 0.503116
0.376978 0.499024 0.510119
0.372886 0.506027 0.517123
0.368794 0.513031 0.524126
0.364703 0.520034 0.531130
0.443918 0.410633 0.432823
0.439827 0.417636 0.439827
0.435735 0.424640 0.446830
0.431643 0.431643 0.453834
0.427552 0.438647 0.460837
0.423460 0.445650 0.467840
0.419368 0.452654 0.474844
0.415277 0.459657 0.481847
0.411185 0.466661 0.488851
0.407093 0.473664 0.495854
0.403002 0.480668 0.502858
0.398910 0.487671 0.509861
0.394819 0.494675 0.516865
0.390727 0.501678 0.523868
0.386635 0.508682 0.530872
0.382544 0.515685 0.537875
0.378452 0.522689 0.544879
0.457667 0.413287 0.446572
0.453576 0.420291 0.453576
0.449484 0.427294 0.460579
0.445393 0.434297 0.467583
0.441301 0.441301 0.474586
0.437209 0.448304 0.481590
0.433118 0.455308 0.488593
0.429026 0.462311 0.495597
0.424934 0.469315 0.502600
0.420843 0.476318 0.509604
0.416751 0.483322 0.516607
0.412660 0.490325 0.523611
0.408568 0.497329 0.530614
0.404476 0.504332 0.537618
0.400385 0.511336 0.544621
0.396293 0.518339 0.551625
0.392201 0.525343 0.558628
0.471417 0.415941 0.460322
0.467325 0.422945 0.467325
0.463234 0.429948 0.474329
0.459142 0.436952 0.481332
0.455050 0.443955 0.488336
0.450959 0.450959 0.495339
0.446867 0.457962 0.502343
0.442775 0.464966 0.509346
0.438684 0.471969 0.516350
0.434592 0.478973 0.523353
0.430500 0.485976 0.530357
0.426409 0.492980 0.537360
0.422317 0.499983 0.544364
0.418226 0.506987 0.551367
0.414134 0.513990 0.558370
0.410042 0.520993 0.565374
0.405951 0.527997 0.572377
0.485166 0.418595 0.474071
0.481074 0.425599 0.481074
0.476983 0.432602 0.488078
0.472891 0.439606 0.495081
0.468800 0.446609 0.502085
0.464708 0.453613 0.509088
0.460616 0.460616 0.516092
0.456525 0.467620 0.523095
0.452433 0.474623 0.530099
0.448341 0.481627 0.537102
0.444250 0.488630 0.544106
0.440158 0.495634 0.551109
0.436067 0.502637 0.558113
0.431975 0.509641 0.565116
0.427883 0.516644 0.572120
0.423792 0.523648 0.579123
0.419700 0.530651 0.586127
0.498915 0.421250 0.487820
0.494824 0.428253 0.494824
0.490732 0.435257 0.501827
0.486641 0.442260 0.508831
0.482549 0.449264 0.515834
0.478457 0.456267 0.522838
0.474366 0.463271 0.529841
0.470274 0.470274 0.536845
0.466182 0.477277 0.543848
0.462091 0.484281 0.550852
0.457999 0.491284 0.557855
0.453907 0.498288 0.564859
0.449816 0.505291 0.571862
0.445724 0.512295 0.578866
0.441633 0.519298 0.585869
0.437541 0.526302 0.592873
0.433449 0.533305 0.599876
0.512665 0.423904 0.501570
0.508573 0.430907 0.508573
0.504481 0.437911 0.515577
0.500390 0.444914 0.522580
0.496298 0.451918 0.529584
0.492207 0.458921 0.536587
0.488115 0.465925 0.543591
0.484023 0.472928 0.550594
0.479932 0.479932 0.557598
0.475840 0.486935 0.564601
0.471748 0.493939 0.571604
0.467657 0.500942 0.578608
0.463565 0.507946 0.585611
0.459474 0.514949 0.592615
0.455382 0.521953 0.599618
0.451290 0.528956 0.606622
0.447199 0.535960 0.613625
0.526414 0.426558 0.515319
0.522322 0.433561 0.522322
0.518231 0.440565 0.529326
0.514139 0.447568 0.536329
0.510048 0.454572 0.543333
0.505956 0.461575 0.550336
0.501864 0.468579 0.557340
0.497773 0.475582 0.564343
0.493681 0.482586 0.571347
0.489589 0.489589 0.578350
0.485498 0.496593 0.585354
0.481406 0.503596 0.592357
0.477314 0.510600 0.599361
0.473223 0.517603 0.606364
0.469131 0.524607 0.613368
0.465040 0.531610 0.620371
0.460948 0.538614 0.627375
0.540163 0.429212 0.529068
0.536072 0.436216 0.536072
0.531980 0.443219 0.543075
0.527888 0.450223 0.550079
0.523797 0.457226 0.557082
0.519705 0.464230 0.564086
0.515614 0.471233 0.571089
0.511522 0.478237 0.578093
0.507430 0.485240 0.585096
0.503339 0.492244 0.592100
0.499247 0.499247 0.599103
0.495155 0.506251 0.606107
0.491064 0.513254 0.613110
0.486972 0.520258 0.620114
0.482881 0.527261 0.627117
0.478789 0.534264 0.634121
0.474697 0.541268 0.641124
0.553913 0.431866 0.542818
0.549821 0.438870 0.549821
0.545729 0.445873 0.556825
0.541638 0.452877 0.563828
0.537546 0.459880 0.570832
0.533455 0.466884 0.577835
0.529363 0.473887 0.584839
0.525271 0.480891 0.591842
0.521180 0.487894 0.598845
0.517088 0.494898 0.605849
0.512996 0.501901 0.612852
0.508905 0.508905 0.619856
0.504813 0.515908 0.626859
0.500721 0.522912 0.633863
0.496630 0.529915 0.640866
0.492538 0.536919 0.647870
0.488447 0.543922 0.654873
0.567662 0.434521 0.556567
0.563570 0.441524 0.563570
0.559479 0.448528 0.570574
0.555387 0.455531 0.577577
0.551295 0.462535 0.584581
0.547204 0.469538 0.591584
0.543112 0.476542 0.598588
0.539021 0.483545 0.605591
0.534929 0.490548 0.612595
0.530837 0.497552 0.619598
0.526746 0.504555 0.626602
0.522654 0.511559 0.633605
0.518562 0.518562 0.640609
0.514471 0.525566 0.647612
0.510379 0.532569 0.654616
0.506288 0.539573 0.661619
0.502196 0.546576 0.668623
0.581411 0.437175 0.570316
0.577320 0.444178 0.577320
0.573228 0.451182 0.584323
0.569136 0.458185 0.591327
0.565045 0.465189 0.598330
0.560953 0.472192 0.605334
0.556862 0.479196 0.612337
0.552770 0.486199 0.619341
0.548678 0.493203 0.626344
0.544587 0.500206 0.633348
0.540495 0.507210 0.640351
0.536403 0.514213 0.647355
0.532312 0.521217 0.654358
0.528220 0.528220 0.661362
0.524128 0.535224 0.668365
0.520037 0.542227 0.675368
0.515945 0.549231 0.682372
0.595161 0.439829 0.584066
0.591069 0.446832 0.591069
0.586977 0.453836 0.598073
0.582886 0.460839 0.605076
0.578794 0.467843 0.612079
0.574702 0.474846 0.619083
0.570611 0.481850 0.626086
0.566519 0.488853 0.633090
0.562428 0.495857 0.640093
0.558336 0.502860 0.647097
0.554244 0.509864 0.654100
0.550153 0.516867 0.661104
0.546061 0.523871 0.668107
0.541969 0.530874 0.675111
0.537878 0.537878 0.682114
0.533786 0.544881 0.689118
0.529695 0.551885 0.696121
0.608910 0.442483 0.597815
0.604818 0.449487 0.604818
0.600727 0.456490 0.611822
0.596635 0.463494 0.618825
0.592543 0.470497 0.625829
0.588452 0.477501 0.632832
0.584360 0.484504 0.639836
0.580269 0.491508 0.646839
0.576177 0.498511 0.653843
0.572085 0.505515 0.660846
0.567994 0.512518 0.667850
0.563902 0.519522 0.674853
0.559810 0.526525 0.681857
0.555719 0.533529 0.688860
0.551627 0.540532 0.695864
0.547535 0.547535 0.702867
0.543444 0.554539 0.709871
0.622659 0.445137 0.611564
0.618568 0.452141 0.618568
0.614476 0.459144 0.625571
0.610384 0.466148 0.632575
0.606293 0.473151 0.639578
0.602201 0.480155 0.646582
0.598109 0.487158 0.653585
0.594018 0.494162 0.660589
0.589926 0.501165 0.667592
0.585835 0.508169 0.674596
0.581743 0.515172 0.681599
0.577651 0.522176 0.688603
0.573560 0.529179 0.695606
0.569468 0.536183 0.702609
0.565376 0.543186 0.709613
0.561285 0.550190 0.716616
0.557193 0.557193 0.723620
0.405340 0.405340 0.383150
0.401249 0.412344 0.390154
0.397157 0.419347 0.397157
0.393066 0.426351 0.404161
0.388974 0.433354 0.411164
0.384882 0.440358 0.418168
0.380791 0.447361 0.425171
0.376699 0.454365 0.432175
0.372607 0.461368 0.439178
0.368516 0.468372 0.446182
0.364424 0.475375 0.453185
0.360332 0.482379 0.460189
0.356241 0.489382 0.467192
0.352149 0.496386 0.474196
0.348058 0.503389 0.481199
0.343966 0.510393 0.488202
0.339874 0.517396 0.495206
0.419090 0.407995 0.396900
0.414998 0.414998 0.403903
0.410907 0.422002 0.410907
0.406815 0.429005 0.417910
0.402723 0.436009 0.424913
0.398632 0.443012 0.431917
0.394540 0.450016 0.438920
0.390448 0.457019 0.445924
0.386357 0.464023 0.452927
0.382265 0.471026 0.459931
0.378173 0.478029 0.466934
0.374082 0.485033 0.473938
0.369990 0.492036 0.480941
0.365899 0.499040 0.487945
0.361807 0.506043 0.494948
0.357715 0.513047 0.501952
0.353624 0.520050 0.508955
0.432839 0.410649 0.410649
0.428747 0.417652 0.417652
0.424656 0.424656 0.424656
0.420564 0.431659 0.431659
0.416473 0.438663 0.438663
0.412381 0.445666 0.445666
0.408289 0.452670 0.452670
0.404198 0.459673 0.459673
0.400106 0.466677 0.466677
0.396014 0.473680 0.473680
0.391923 0.480684 0.480684
0.387831 0.487687 0.487687
0.383739 0.494691 0.494691
0.379648 0.501694 0.501694
0.375556 0.508698 0.508698
0.371465 0.515701 0.515701
0.367373 0.522705 0.522705
0.446588 0.413303 0.424398
0.442497 0.420307 0.431402
0.438405 0.427310 0.438405
0.434314 0.434314 0.445409
0.430222 0.441317 0.452412
0.426130 0.448320 0.459416
0.422039 0.455324 0.466419
0.417947 0.462327 0.473423
0.413855 0.469331 0.480426
0.409764 0.476334 0.487430
0.405672 0.483338 0.494433
0.401580 0.490341 0.501436
0.397489 0.497345 0.508440
0.393397 0.504348 0.515443
0.389306 0.511352 0.522447
0.385214 0.518355 0.529450
0.381122 0.525359 0.536454
0.460338 0.415957 0.438147
0.456246 0.422961 0.445151
0.452154 0.429964 0.452154
0.448063 0.436968 0.459158
0.443971 0.443971 0.466161
0.439880 0.450975 0.473165
0.435788 0.457978 0.480168
0.431696 0.464982 0.487172
0.427605 0.471985 0.494175
0.423513 0.478989 0.501179
0.419421 0.485992 0.508182
0.415330 0.492996 0.515186
0.411238 0.499999 0.522189
0.407146 0.507003 0.529193
0.403055 0.514006 0.536196
0.398963 0.521010 0.543200
0.394872 0.528013 0.550203
0.474087 0.418611 0.451897
0.469995 0.425615 0.458900
0.465904 0.432618 0.465904
0.461812 0.439622 0.472907
0.457721 0.446625 0.479911
0.453629 0.453629 0.486914
0.449537 0.460632 0.493918
0.445446 0.467636 0.500921
0.441354 0.474639 0.507925
0.437262 0.481643 0.514928
0.433171 0.488646 0.521932
0.429079 0.495650 0.528935
0.424987 0.502653 0.535939
0.420896 0.509657 0.542942
0.416804 0.516660 0.549946
0.412713 0.523664 0.556949
0.408621 0.530667 0.563953
0.487836 0.421266 0.465646
0.483745 0.428269 0.472650
0.479653 0.435273 0.479653
0.475561 0.442276 0.486657
0.471470 0.449280 0.493660
0.467378 0.456283 0.500664
0.463287 0.463287 0.507667
0.459195 0.470290 0.514671
0.455103 0.477294 0.521674
0.451012 0.484297 0.528677
0.446920 0.491300 0.535681
0.442828 0.498304 0.542684
0.438737 0.505307 0.549688
0.434645 0.512311 0.556691
0.430553 0.519314 0.563695
0.426462 0.526318 0.570698
0.422370 0.533321 0.577702
0.501586 0.423920 0.479395
0.497494 0.430923 0.486399
0.493402 0.437927 0.493402
0.489311 0.444930 0.500406
0.485219 0.451934 0.507409
0.481128 0.458937 0.514413
0.477036 0.465941 0.521416
0.472944 0.472944 0.528420
0.468853 0.479948 0.535423
0.464761 0.486951 0.542427
0.460669 0.493955 0.549430
0.456578 0.500958 0.556434
0.452486 0.507962 0.563437
0.448394 0.514965 0.570441
0.444303 0.521969 0.577444
0.440211 0.528972 0.584448
0.436120 0.535976 0.591451
0.515335 0.426574 0.493145
0.511243 0.433578 0.500148
0.507152 0.440581 0.507152
0.503060 0.447584 0.514155
0.498968 0.454588 0.521159
0.494877 0.461591 0.528162
0.490785 0.468595 0.535166
0.486694 0.475598 0.542169
0.482602 0.482602 0.549173
0.478510 0.489605 0.556176
0.474419 0.496609 0.563180
0.470327 0.503612 0.570183
0.466235 0.510616 0.577187
0.462144 0.517619 0.584190
0.458052 0.524623 0.591194
0.453960 0.531626 0.598197
0.449869 0.538630 0.605201
0.529084 0.429228 0.506894
0.524993 0.436232 0.513898
0.520901 0.443235 0.520901
0.516809 0.450239 0.527905
0.512718 0.457242 0.534908
0.508626 0.464246 0.541911
0.504535 0.471249 0.548915
0.500443 0.478253 0.555918
0.496351 0.485256 0.562922
0.492260 0.492260 0.569925
0.488168 0.499263 0.576929
0.484076 0.506267 0.583932
0.479985 0.513270 0.590936
0.475893 0.520274 0.597939
0.471801 0.527277 0.604943
0.467710 0.534281 0.611946
0.463618 0.541284 0.618950
0.542834 0.431882 0.520643
0.538742 0.438886 0.527647
0.534650 0.445889 0.534650
0.530559 0.452893 0.541654
0.526467 0.459896 0.548657
0.522375 0.466900 0.555661
0.518284 0.473903 0.562664
0.514192 0.480907 0.569668
0.510101 0.487910 0.576671
0.506009 0.494914 0.583675
0.501917 0.501917 0.590678
0.497826 0.508921 0.597682
0.493734 0.515924 0.604685
0.489642 0.522928 0.611689
0.485551 0.529931 0.618692
0.481459 0.536935 0.625696
0.477367 0.543938 0.632699
0.556583 0.434537 0.534393
0.552491 0.441540 0.541396
0.548400 0.448544 0.548400
0.544308 0.455547 0.555403
0.540216 0.462551 0.562407
0.536125 0.469554 0.569410
0.532033 0.476558 0.576414
0.527942 0.483561 0.583417
0.523850 0.490565 0.590421
0.519758 0.497568 0.597424
0.515667 0.504571 0.604428
0.511575 0.511575 0.611431
0.507483 0.518578 0.618435
0.503392 0.525582 0.625438
0.499300 0.532585 0.632441
0.495208 0.539589 0.639445
0.491117 0.546592 0.646448
0.570332 0.437191 0.548142
0.566241 0.444194 0.555145
0.562149 0.451198 0.562149
0.558057 0.458201 0.569152
0.553966 0.465205 0.576156
0.549874 0.472208 0.583159
0.545782 0.479212 0.590163
0.541691 0.486215 0.597166
0.537599 0.493219 0.604170
0.533508 0.500222 0.611173
0.529416 0.507226 0.618177
0.525324 0.514229 0.625180
0.521233 0.521233 0.632184
0.517141 0.528236 0.639187
0.513049 0.535240 0.646191
0.508958 0.542243 0.653194
0.504866 0.549247 0.660198
0.584082 0.439845 0.561891
0.579990 0.446849 0.568895
0.575898 0.453852 0.575898
0.571807 0.460855 0.582902
0.567715 0.467859 0.589905
0.563623 0.474862 0.596909
0.559532 0.481866 0.603912
0.555440 0.488869 0.610916
0.551349 0.495873 0.617919
0.547257 0.502876 0.624923
0.543165 0.509880 0.631926
0.539074 0.516883 0.638930
0.534982 0.523887 0.645933
0.530890 0.530890 0.652937
0.526799 0.537894 0.659940
0.522707 0.544897 0.666944
0.518615 0.551901 0.673947
0.597831 0.442499 0.575641
0.593739 0.449503 0.582644
0.589648 0.456506 0.589648
0.585556 0.463510 0.596651
0.581464 0.470513 0.603655
0.577373 0.477517 0.610658
0.573281 0.484520 0.617662
0.569189 0.491524 0.624665
0.565098 0.498527 0.631669
0.561006 0.505531 0.638672
0.556915 0.512534 0.645675
0.552823 0.519538 0.652679
0.548731 0.526541 0.659682
0.544640 0.533545 0.666686
0.540548 0.540548 0.673689
0.536456 0.547552 0.680693
0.532365 0.554555 0.687696
0.611580 0.445153 0.589390
0.607489 0.452157 0.596393
0.603397 0.459160 0.603397
0.599305 0.466164 0.610400
0.595214 0.473167 0.617404
0.591122 0.480171 0.624407
0.587030 0.487174 0.631411
0.582939 0.494178 0.638414
0.578847 0.501181 0.645418
0.574756 0.508185 0.652421
0.570664 0.515188 0.659425
0.566572 0.522192 0.666428
0.562481 0.529195 0.673432
0.558389 0.536199 0.680435
0.554297 0.543202 0.687439
0.550206 0.550206 0.694442
0.546114 0.557209 0.701446
0.625330 0.447808 0.603139
0.621238 0.454811 0.610143
0.617146 0.461815 0.617146
0.613055 0.468818 0.624150
0.608963 0.475822 0.631153
0.604871 0.482825 0.638157
0.600780 0.489829 0.645160
0.596688 0.496832 0.652164
0.592596 0.503836 0.659167
0.588505 0.510839 0.666171
0.584413 0.517842 0.673174
0.580322 0.524846 0.680178
0.576230 0.531849 0.687181
0.572138 0.538853 0.694185
0.568047 0.545856 0.701188
0.563955 0.552860 0.708192
0.559863 0.559863 0.715195
0.408011 0.408011 0.374725
0.403919 0.415014 0.381729
0.399827 0.422018 0.388732
0.395736 0.429021 0.395736
0.391644 0.436025 0.402739
0.387553 0.443028 0.409743
0.383461 0.450032 0.416746
0.379369 0.457035 0.423750
0.375278 0.464039 0.430753
0.371186 0.471042 0.437757
0.367094 0.478046 0.444760
0.363003 0.485049 0.451764
0.358911 0.492052 0.458767
0.354819 0.499056 0.465771
0.350728 0.506059 0.472774
0.346636 0.513063 0.479778
0.342545 0.520066 0.486781
0.421760 0.410665 0.388475
