shared/src/main/assets/luts/mv_midnight_red.cube
TITLE "DALUR Midnight Red"
LUT_3D_SIZE 17
DOMAIN_MIN 0.0 0.0 0.0
DOMAIN_MAX 1.0 1.0 1.0
0.407000 0.406000 0.413000
0.411547 0.408476 0.415476
0.416093 0.410952 0.417952
0.420640 0.413429 0.420429
0.425187 0.415905 0.422905
0.429733 0.418381 0.425381
0.434280 0.420857 0.427857
0.438827 0.423334 0.430334
0.443373 0.425810 0.432810
0.447920 0.428286 0.435286
0.452466 0.430762 0.437762
0.457013 0.433238 0.440238
0.461560 0.435715 0.442715
0.466106 0.438191 0.445191
0.470653 0.440667 0.447667
0.475200 0.443143 0.450143
0.479746 0.445620 0.452620
0.411861 0.412932 0.417861
0.416408 0.415408 0.420338
0.420955 0.417884 0.422814
0.425501 0.420360 0.425290
0.430048 0.422837 0.427766
0.434595 0.425313 0.430242
0.439141 0.427789 0.432719
0.443688 0.430265 0.435195
0.448235 0.432742 0.437671
0.452781 0.435218 0.440147
0.457328 0.437694 0.442624
0.461874 0.440170 0.445100
0.466421 0.442646 0.447576
0.470968 0.445123 0.450052
0.475514 0.447599 0.452529
0.480061 0.450075 0.455005
0.484608 0.452551 0.457481
0.416723 0.419864 0.422723
0.421269 0.422340 0.425199
0.425816 0.424816 0.427675
0.430363 0.427292 0.430151
0.434909 0.429768 0.432628
0.439456 0.432245 0.435104
0.444003 0.434721 0.437580
0.448549 0.437197 0.440056
0.453096 0.439673 0.442533
0.457643 0.442150 0.445009
0.462189 0.444626 0.447485
0.466736 0.447102 0.449961
0.471282 0.449578 0.452437
0.475829 0.452054 0.454914
0.480376 0.454531 0.457390
0.484922 0.457007 0.459866
0.489469 0.459483 0.462342
0.421584 0.426795 0.427584
0.426131 0.429272 0.430060
0.430677 0.431748 0.432537
0.435224 0.434224 0.435013
0.439771 0.436700 0.437489
0.444317 0.439176 0.439965
0.448864 0.441653 0.442441
0.453411 0.444129 0.444918
0.457957 0.446605 0.447394
0.462504 0.449081 0.449870
0.467051 0.451558 0.452346
0.471597 0.454034 0.454823
0.476144 0.456510 0.457299
0.480690 0.458986 0.459775
0.485237 0.461462 0.462251
0.489784 0.463939 0.464727
0.494330 0.466415 0.467204
0.426445 0.433727 0.432445
0.430992 0.436203 0.434922
0.435539 0.438680 0.437398
0.440085 0.441156 0.439874
0.444632 0.443632 0.442350
0.449179 0.446108 0.444827
0.453725 0.448584 0.447303
0.458272 0.451061 0.449779
0.462819 0.453537 0.452255
0.467365 0.456013 0.454731
0.471912 0.458489 0.457208
0.476459 0.460966 0.459684
0.481005 0.463442 0.462160
0.485552 0.465918 0.464636
0.490098 0.468394 0.467113
0.494645 0.470870 0.469589
0.499192 0.473347 0.472065
0.431307 0.440659 0.437307
0.435853 0.443135 0.439783
0.440400 0.445611 0.442259
0.444947 0.448088 0.444735
0.449493 0.450564 0.447212
0.454040 0.453040 0.449688
0.458587 0.455516 0.452164
0.463133 0.457992 0.454640
0.467680 0.460469 0.457117
0.472227 0.462945 0.459593
0.476773 0.465421 0.462069
0.481320 0.467897 0.464545
0.485867 0.470374 0.467021
0.490413 0.472850 0.469498
0.494960 0.475326 0.471974
0.499506 0.477802 0.474450
0.504053 0.480278 0.476926
0.436168 0.447591 0.442168
0.440715 0.450067 0.444644
0.445261 0.452543 0.447121
0.449808 0.455019 0.449597
0.454355 0.457496 0.452073
0.458901 0.459972 0.454549
0.463448 0.462448 0.457025
0.467995 0.464924 0.459502
0.472541 0.467400 0.461978
0.477088 0.469877 0.464454
0.481635 0.472353 0.466930
0.486181 0.474829 0.469407
0.490728 0.477305 0.471883
0.495275 0.479782 0.474359
0.499821 0.482258 0.476835
0.504368 0.484734 0.479311
0.508914 0.487210 0.481788
0.441029 0.454522 0.447029
0.445576 0.456999 0.449506
0.450123 0.459475 0.451982
0.454669 0.461951 0.454458
0.459216 0.464427 0.456934
0.463763 0.466904 0.459411
0.468309 0.469380 0.461887
0.472856 0.471856 0.464363
0.477403 0.474332 0.466839
0.481949 0.476808 0.469315
0.486496 0.479285 0.471792
0.491043 0.481761 0.474268
0.495589 0.484237 0.476744
0.500136 0.486713 0.479220
0.504683 0.489190 0.481697
0.509229 0.491666 0.484173
0.513776 0.494142 0.486649
0.445891 0.461454 0.451891
0.450437 0.463930 0.454367
0.454984 0.466407 0.456843
0.459531 0.468883 0.459319
0.464077 0.471359 0.461796
0.468624 0.473835 0.464272
0.473171 0.476312 0.466748
0.477717 0.478788 0.469224
0.482264 0.481264 0.471701
0.486811 0.483740 0.474177
0.491357 0.486216 0.476653
0.495904 0.488693 0.479129
0.500451 0.491169 0.481606
0.504997 0.493645 0.484082
0.509544 0.496121 0.486558
0.514091 0.498598 0.489034
0.518637 0.501074 0.491510
0.450752 0.468386 0.456752
0.455299 0.470862 0.459228
0.459845 0.473338 0.461705
0.464392 0.475815 0.464181
0.468939 0.478291 0.466657
0.473485 0.480767 0.469133
0.478032 0.483243 0.471610
0.482579 0.485720 0.474086
0.487125 0.488196 0.476562
0.491672 0.490672 0.479038
0.496219 0.493148 0.481514
0.500765 0.495624 0.483991
0.505312 0.498101 0.486467
0.509859 0.500577 0.488943
0.514405 0.503053 0.491419
0.518952 0.505529 0.493896
0.523499 0.508006 0.496372
0.455614 0.475318 0.461614
0.460160 0.477794 0.464090
0.464707 0.480270 0.466566
0.469253 0.482746 0.469042
0.473800 0.485223 0.471518
0.478347 0.487699 0.473995
0.482893 0.490175 0.476471
0.487440 0.492651 0.478947
0.491987 0.495128 0.481423
0.496533 0.497604 0.483900
0.501080 0.500080 0.486376
0.505627 0.502556 0.488852
0.510173 0.505032 0.491328
0.514720 0.507509 0.493804
0.519267 0.509985 0.496281
0.523813 0.512461 0.498757
0.528360 0.514937 0.501233
0.460475 0.482250 0.466475
0.465022 0.484726 0.468951
0.469568 0.487202 0.471427
0.474115 0.489678 0.473904
0.478661 0.492154 0.476380
0.483208 0.494631 0.478856
0.487755 0.497107 0.481332
0.492301 0.499583 0.483808
0.496848 0.502059 0.486285
0.501395 0.504536 0.488761
0.505941 0.507012 0.491237
0.510488 0.509488 0.493713
0.515035 0.511964 0.496190
0.519581 0.514440 0.498666
0.524128 0.516917 0.501142
0.528675 0.519393 0.503618
0.533221 0.521869 0.506094
0.465336 0.489181 0.471336
0.469883 0.491658 0.473812
0.474430 0.494134 0.476289
0.478976 0.496610 0.478765
0.483523 0.499086 0.481241
0.488069 0.501562 0.483717
0.492616 0.504039 0.486194
0.497163 0.506515 0.488670
0.501709 0.508991 0.491146
0.506256 0.511467 0.493622
0.510803 0.513944 0.496098
0.515349 0.516420 0.498575
0.519896 0.518896 0.501051
0.524443 0.521372 0.503527
0.528989 0.523848 0.506003
0.533536 0.526325 0.508480
0.538083 0.528801 0.510956
0.470198 0.496113 0.476198
0.474744 0.498589 0.478674
0.479291 0.501066 0.481150
0.483838 0.503542 0.483626
0.488384 0.506018 0.486102
0.492931 0.508494 0.488579
0.497477 0.510970 0.491055
0.502024 0.513447 0.493531
0.506571 0.515923 0.496007
0.511117 0.518399 0.498484
0.515664 0.520875 0.500960
0.520211 0.523352 0.503436
0.524757 0.525828 0.505912
0.529304 0.528304 0.508388
0.533851 0.530780 0.510865
0.538397 0.533256 0.513341
0.542944 0.535733 0.515817
0.475059 0.503045 0.481059
0.479606 0.505521 0.483535
0.484152 0.507997 0.486011
0.488699 0.510474 0.488488
0.493246 0.512950 0.490964
0.497792 0.515426 0.493440
0.502339 0.517902 0.495916
0.506885 0.520378 0.498392
0.511432 0.522855 0.500869
0.515979 0.525331 0.503345
0.520525 0.527807 0.505821
0.525072 0.530283 0.508297
0.529619 0.532760 0.510774
0.534165 0.535236 0.513250
0.538712 0.537712 0.515726
0.543259 0.540188 0.518202
0.547805 0.542664 0.520679
0.479920 0.509977 0.485920
0.484467 0.512453 0.488396
0.489014 0.514929 0.490873
0.493560 0.517405 0.493349
0.498107 0.519882 0.495825
0.502654 0.522358 0.498301
0.507200 0.524834 0.500778
0.511747 0.527310 0.503254
0.516293 0.529786 0.505730
0.520840 0.532263 0.508206
0.525387 0.534739 0.510683
0.529933 0.537215 0.513159
0.534480 0.539691 0.515635
0.539027 0.542168 0.518111
0.543573 0.544644 0.520587
0.548120 0.547120 0.523064
0.552667 0.549596 0.525540
0.484782 0.516908 0.490782
0.489328 0.519385 0.493258
0.493875 0.521861 0.495734
0.498422 0.524337 0.498210
0.502968 0.526813 0.500687
0.507515 0.529290 0.503163
0.512062 0.531766 0.505639
0.516608 0.534242 0.508115
0.521155 0.536718 0.510591
0.525701 0.539194 0.513068
0.530248 0.541671 0.515544
0.534795 0.544147 0.518020
0.539341 0.546623 0.520496
0.543888 0.549099 0.522973
0.548435 0.551576 0.525449
0.552981 0.554052 0.527925
0.557528 0.556528 0.530401
0.407944 0.406944 0.416015
0.412491 0.409420 0.418491
0.417037 0.411897 0.420967
0.421584 0.414373 0.423443
0.426131 0.416849 0.425919
0.430677 0.419325 0.428396
0.435224 0.421801 0.430872
0.439771 0.424278 0.433348
0.444317 0.426754 0.435824
0.448864 0.429230 0.438301
0.453411 0.431706 0.440777
0.457957 0.434183 0.443253
0.462504 0.436659 0.445729
0.467051 0.439135 0.448205
0.471597 0.441611 0.450682
0.476144 0.444087 0.453158
0.480690 0.446564 0.455634
0.412805 0.413876 0.420876
0.417352 0.416352 0.423352
0.421899 0.418828 0.425828
0.426445 0.421305 0.428305
0.430992 0.423781 0.430781
0.435539 0.426257 0.433257
0.440085 0.428733 0.435733
0.444632 0.431209 0.438209
0.449179 0.433686 0.440686
0.453725 0.436162 0.443162
0.458272 0.438638 0.445638
0.462819 0.441114 0.448114
0.467365 0.443591 0.450591
0.471912 0.446067 0.453067
0.476459 0.448543 0.455543
0.481005 0.451019 0.458019
0.485552 0.453495 0.460495
0.417667 0.420808 0.425737
0.422213 0.423284 0.428213
0.426760 0.425760 0.430690
0.431307 0.428236 0.433166
0.435853 0.430713 0.435642
0.440400 0.433189 0.438118
0.444947 0.435665 0.440595
0.449493 0.438141 0.443071
0.454040 0.440617 0.445547
0.458587 0.443094 0.448023
0.463133 0.445570 0.450499
0.467680 0.448046 0.452976
0.472227 0.450522 0.455452
0.476773 0.452999 0.457928
0.481320 0.455475 0.460404
0.485867 0.457951 0.462881
0.490413 0.460427 0.465357
0.422528 0.427739 0.430599
0.427075 0.430216 0.433075
0.431621 0.432692 0.435551
0.436168 0.435168 0.438027
0.440715 0.437644 0.440503
0.445261 0.440121 0.442980
0.449808 0.442597 0.445456
0.454355 0.445073 0.447932
0.458901 0.447549 0.450408
0.463448 0.450025 0.452885
0.467995 0.452502 0.455361
0.472541 0.454978 0.457837
0.477088 0.457454 0.460313
0.481635 0.459930 0.462790
0.486181 0.462407 0.465266
0.490728 0.464883 0.467742
0.495275 0.467359 0.470218
0.427390 0.434671 0.435460
0.431936 0.437147 0.437936
0.436483 0.439624 0.440412
0.441029 0.442100 0.442889
0.445576 0.444576 0.445365
0.450123 0.447052 0.447841
0.454669 0.449529 0.450317
0.459216 0.452005 0.452794
0.463763 0.454481 0.455270
0.468309 0.456957 0.457746
0.472856 0.459433 0.460222
0.477403 0.461910 0.462698
0.481949 0.464386 0.465175
0.486496 0.466862 0.467651
0.491043 0.469338 0.470127
0.495589 0.471815 0.472603
0.500136 0.474291 0.475080
0.432251 0.441603 0.440321
0.436798 0.444079 0.442798
0.441344 0.446555 0.445274
0.445891 0.449032 0.447750
0.450437 0.451508 0.450226
0.454984 0.453984 0.452702
0.459531 0.456460 0.455179
0.464077 0.458937 0.457655
0.468624 0.461413 0.460131
0.473171 0.463889 0.462607
0.477717 0.466365 0.465084
0.482264 0.468841 0.467560
0.486811 0.471318 0.470036
0.491357 0.473794 0.472512
0.495904 0.476270 0.474988
0.500451 0.478746 0.477465
0.504997 0.481223 0.479941
0.437112 0.448535 0.445183
0.441659 0.451011 0.447659
0.446206 0.453487 0.450135
0.450752 0.455963 0.452611
0.455299 0.458440 0.455088
0.459845 0.460916 0.457564
0.464392 0.463392 0.460040
0.468939 0.465868 0.462516
0.473485 0.468345 0.464992
0.478032 0.470821 0.467469
0.482579 0.473297 0.469945
0.487125 0.475773 0.472421
0.491672 0.478249 0.474897
0.496219 0.480726 0.477374
0.500765 0.483202 0.479850
0.505312 0.485678 0.482326
0.509859 0.488154 0.484802
0.441974 0.455467 0.450044
0.446520 0.457943 0.452520
0.451067 0.460419 0.454996
0.455614 0.462895 0.457473
0.460160 0.465371 0.459949
0.464707 0.467848 0.462425
0.469253 0.470324 0.464901
0.473800 0.472800 0.467378
0.478347 0.475276 0.469854
0.482893 0.477753 0.472330
0.487440 0.480229 0.474806
0.491987 0.482705 0.477282
0.496533 0.485181 0.479759
0.501080 0.487657 0.482235
0.505627 0.490134 0.484711
0.510173 0.492610 0.487187
0.514720 0.495086 0.489664
0.446835 0.462398 0.454905
0.451382 0.464875 0.457382
0.455928 0.467351 0.459858
0.460475 0.469827 0.462334
0.465022 0.472303 0.464810
0.469568 0.474779 0.467286
0.474115 0.477256 0.469763
0.478661 0.479732 0.472239
0.483208 0.482208 0.474715
0.487755 0.484684 0.477191
0.492301 0.487161 0.479668
0.496848 0.489637 0.482144
0.501395 0.492113 0.484620
0.505941 0.494589 0.487096
0.510488 0.497065 0.489572
0.515035 0.499542 0.492049
0.519581 0.502018 0.494525
0.451696 0.469330 0.459767
0.456243 0.471806 0.462243
0.460790 0.474283 0.464719
0.465336 0.476759 0.467195
0.469883 0.479235 0.469672
0.474430 0.481711 0.472148
0.478976 0.484187 0.474624
0.483523 0.486664 0.477100
0.488069 0.489140 0.479576
0.492616 0.491616 0.482053
0.497163 0.494092 0.484529
0.501709 0.496569 0.487005
0.506256 0.499045 0.489481
0.510803 0.501521 0.491958
0.515349 0.503997 0.494434
0.519896 0.506473 0.496910
0.524443 0.508950 0.499386
0.456558 0.476262 0.464628
0.461104 0.478738 0.467104
0.465651 0.481214 0.469580
0.470198 0.483691 0.472057
0.474744 0.486167 0.474533
0.479291 0.488643 0.477009
0.483838 0.491119 0.479485
0.488384 0.493595 0.481962
0.492931 0.496072 0.484438
0.497477 0.498548 0.486914
0.502024 0.501024 0.489390
0.506571 0.503500 0.491867
0.511117 0.505977 0.494343
0.515664 0.508453 0.496819
0.520211 0.510929 0.499295
0.524757 0.513405 0.501771
0.529304 0.515881 0.504248
0.461419 0.483194 0.469489
0.465966 0.485670 0.471966
0.470512 0.488146 0.474442
0.475059 0.490622 0.476918
0.479606 0.493099 0.479394
0.484152 0.495575 0.481871
0.488699 0.498051 0.484347
0.493246 0.500527 0.486823
0.497792 0.503003 0.489299
0.502339 0.505480 0.491775
0.506885 0.507956 0.494252
0.511432 0.510432 0.496728
0.515979 0.512908 0.499204
0.520525 0.515385 0.501680
0.525072 0.517861 0.504157
0.529619 0.520337 0.506633
0.534165 0.522813 0.509109
0.466280 0.490125 0.474351
0.470827 0.492602 0.476827
0.475374 0.495078 0.479303
0.479920 0.497554 0.481779
0.484467 0.500030 0.484256
0.489014 0.502507 0.486732
0.493560 0.504983 0.489208
0.498107 0.507459 0.491684
0.502654 0.509935 0.494161
0.507200 0.512411 0.496637
0.511747 0.514888 0.499113
0.516293 0.517364 0.501589
0.520840 0.519840 0.504065
0.525387 0.522316 0.506542
0.529933 0.524793 0.509018
0.534480 0.527269 0.511494
0.539027 0.529745 0.513970
0.471142 0.497057 0.479212
0.475688 0.499533 0.481688
0.480235 0.502010 0.484165
0.484782 0.504486 0.486641
0.489328 0.506962 0.489117
0.493875 0.509438 0.491593
0.498422 0.511915 0.494069
0.502968 0.514391 0.496546
0.507515 0.516867 0.499022
0.512062 0.519343 0.501498
0.516608 0.521819 0.503974
0.521155 0.524296 0.506451
0.525701 0.526772 0.508927
0.530248 0.529248 0.511403
0.534795 0.531724 0.513879
0.539341 0.534201 0.516355
0.543888 0.536677 0.518832
0.476003 0.503989 0.484073
0.480550 0.506465 0.486550
0.485096 0.508941 0.489026
0.489643 0.511418 0.491502
0.494190 0.513894 0.493978
0.498736 0.516370 0.496455
0.503283 0.518846 0.498931
0.507830 0.521323 0.501407
0.512376 0.523799 0.503883
0.516923 0.526275 0.506359
0.521470 0.528751 0.508836
0.526016 0.531227 0.511312
0.530563 0.533704 0.513788
0.535109 0.536180 0.516264
0.539656 0.538656 0.518741
0.544203 0.541132 0.521217
0.548749 0.543609 0.523693
0.480864 0.510921 0.488935
0.485411 0.513397 0.491411
0.489958 0.515873 0.493887
0.494504 0.518349 0.496363
0.499051 0.520826 0.498840
0.503598 0.523302 0.501316
0.508144 0.525778 0.503792
0.512691 0.528254 0.506268
0.517238 0.530731 0.508745
0.521784 0.533207 0.511221
0.526331 0.535683 0.513697
0.530878 0.538159 0.516173
0.535424 0.540635 0.518650
0.539971 0.543112 0.521126
0.544517 0.545588 0.523602
0.549064 0.548064 0.526078
0.553611 0.550540 0.528554
0.485726 0.517852 0.493796
0.490272 0.520329 0.496272
0.494819 0.522805 0.498749
0.499366 0.525281 0.501225
0.503912 0.527757 0.503701
0.508459 0.530234 0.506177
0.513006 0.532710 0.508654
0.517552 0.535186 0.511130
0.522099 0.537662 0.513606
0.526646 0.540139 0.516082
0.531192 0.542615 0.518558
0.535739 0.545091 0.521035
0.540286 0.547567 0.523511
0.544832 0.550043 0.525987
0.549379 0.552520 0.528463
0.553925 0.554996 0.530940
0.558472 0.557472 0.533416
0.408888 0.407888 0.419029
0.413435 0.410364 0.421505
0.417982 0.412841 0.423982
0.422528 0.415317 0.426458
0.427075 0.417793 0.428934
0.431621 0.420269 0.431410
0.436168 0.422746 0.433886
0.440715 0.425222 0.436363
0.445261 0.427698 0.438839
0.449808 0.430174 0.441315
0.454355 0.432650 0.443791
0.458901 0.435127 0.446268
0.463448 0.437603 0.448744
0.467995 0.440079 0.451220
0.472541 0.442555 0.453696
0.477088 0.445032 0.456172
0.481635 0.447508 0.458649
0.413750 0.414820 0.423890
0.418296 0.417296 0.426367
0.422843 0.419772 0.428843
0.427390 0.422249 0.431319
0.431936 0.424725 0.433795
0.436483 0.427201 0.436272
0.441029 0.429677 0.438748
0.445576 0.432154 0.441224
0.450123 0.434630 0.443700
0.454669 0.437106 0.446176
0.459216 0.439582 0.448653
0.463763 0.442058 0.451129
0.468309 0.444535 0.453605
0.472856 0.447011 0.456081
0.477403 0.449487 0.458558
0.481949 0.451963 0.461034
0.486496 0.454440 0.463510
0.418611 0.421752 0.428752
0.423158 0.424228 0.431228
0.427704 0.426704 0.433704
0.432251 0.429180 0.436180
0.436798 0.431657 0.438657
0.441344 0.434133 0.441133
0.445891 0.436609 0.443609
0.450437 0.439085 0.446085
0.454984 0.441562 0.448562
0.459531 0.444038 0.451038
0.464077 0.446514 0.453514
0.468624 0.448990 0.455990
0.473171 0.451466 0.458466
0.477717 0.453943 0.460943
0.482264 0.456419 0.463419
0.486811 0.458895 0.465895
0.491357 0.461371 0.468371
0.423472 0.428684 0.433613
0.428019 0.431160 0.436089
0.432566 0.433636 0.438566
0.437112 0.436112 0.441042
0.441659 0.438588 0.443518
0.446206 0.441065 0.445994
0.450752 0.443541 0.448470
0.455299 0.446017 0.450947
0.459845 0.448493 0.453423
0.464392 0.450970 0.455899
0.468939 0.453446 0.458375
0.473485 0.455922 0.460852
0.478032 0.458398 0.463328
0.482579 0.460874 0.465804
0.487125 0.463351 0.468280
0.491672 0.465827 0.470756
0.496219 0.468303 0.473233
0.428334 0.435615 0.438474
0.432880 0.438092 0.440951
0.437427 0.440568 0.443427
0.441974 0.443044 0.445903
0.446520 0.445520 0.448379
0.451067 0.447996 0.450856
0.455614 0.450473 0.453332
0.460160 0.452949 0.455808
0.464707 0.455425 0.458284
0.469253 0.457901 0.460760
0.473800 0.460378 0.463237
0.478347 0.462854 0.465713
0.482893 0.465330 0.468189
0.487440 0.467806 0.470665
0.491987 0.470282 0.473142
0.496533 0.472759 0.475618
0.501080 0.475235 0.478094
0.433195 0.442547 0.443336
0.437742 0.445023 0.445812
0.442288 0.447500 0.448288
0.446835 0.449976 0.450765
0.451382 0.452452 0.453241
0.455928 0.454928 0.455717
0.460475 0.457404 0.458193
0.465022 0.459881 0.460669
0.469568 0.462357 0.463146
0.474115 0.464833 0.465622
0.478661 0.467309 0.468098
0.483208 0.469786 0.470574
0.487755 0.472262 0.473051
0.492301 0.474738 0.475527
0.496848 0.477214 0.478003
0.501395 0.479690 0.480479
0.505941 0.482167 0.482955
0.438056 0.449479 0.448197
0.442603 0.451955 0.450673
0.447150 0.454431 0.453150
0.451696 0.456908 0.455626
0.456243 0.459384 0.458102
0.460790 0.461860 0.460578
0.465336 0.464336 0.463055
0.469883 0.466812 0.465531
0.474430 0.469289 0.468007
0.478976 0.471765 0.470483
0.483523 0.474241 0.472959
0.488069 0.476717 0.475436
0.492616 0.479194 0.477912
0.497163 0.481670 0.480388
0.501709 0.484146 0.482864
0.506256 0.486622 0.485341
0.510803 0.489098 0.487817
0.442918 0.456411 0.453059
0.447464 0.458887 0.455535
0.452011 0.461363 0.458011
0.456558 0.463839 0.460487
0.461104 0.466316 0.462963
0.465651 0.468792 0.465440
0.470198 0.471268 0.467916
0.474744 0.473744 0.470392
0.479291 0.476220 0.472868
0.483838 0.478697 0.475345
0.488384 0.481173 0.477821
0.492931 0.483649 0.480297
0.497477 0.486125 0.482773
0.502024 0.488602 0.485249
0.506571 0.491078 0.487726
0.511117 0.493554 0.490202
0.515664 0.496030 0.492678
0.447779 0.463342 0.457920
0.452326 0.465819 0.460396
0.456872 0.468295 0.462872
0.461419 0.470771 0.465349
0.465966 0.473247 0.467825
0.470512 0.475724 0.470301
0.475059 0.478200 0.472777
0.479606 0.480676 0.475253
0.484152 0.483152 0.477730
0.488699 0.485628 0.480206
0.493246 0.488105 0.482682
0.497792 0.490581 0.485158
0.502339 0.493057 0.487635
0.506885 0.495533 0.490111
0.511432 0.498010 0.492587
0.515979 0.500486 0.495063
0.520525 0.502962 0.497539
0.452640 0.470274 0.462781
0.457187 0.472750 0.465257
0.461734 0.475227 0.467734
0.466280 0.477703 0.470210
0.470827 0.480179 0.472686
0.475374 0.482655 0.475162
0.479920 0.485132 0.477639
0.484467 0.487608 0.480115
0.489014 0.490084 0.482591
0.493560 0.492560 0.485067
0.498107 0.495036 0.487543
0.502654 0.497513 0.490020
0.507200 0.499989 0.492496
0.511747 0.502465 0.494972
0.516293 0.504941 0.497448
0.520840 0.507418 0.499925
0.525387 0.509894 0.502401
0.457502 0.477206 0.467643
0.462048 0.479682 0.470119
0.466595 0.482158 0.472595
0.471142 0.484635 0.475071
0.475688 0.487111 0.477547
0.480235 0.489587 0.480024
0.484782 0.492063 0.482500
0.489328 0.494540 0.484976
0.493875 0.497016 0.487452
0.498422 0.499492 0.489929
0.502968 0.501968 0.492405
0.507515 0.504444 0.494881
0.512062 0.506921 0.497357
0.516608 0.509397 0.499834
0.521155 0.511873 0.502310
0.525701 0.514349 0.504786
0.530248 0.516826 0.507262
0.462363 0.484138 0.472504
0.466910 0.486614 0.474980
0.471456 0.489090 0.477456
0.476003 0.491566 0.479933
0.480550 0.494043 0.482409
0.485096 0.496519 0.484885
0.489643 0.498995 0.487361
0.494190 0.501471 0.489838
0.498736 0.503948 0.492314
0.503283 0.506424 0.494790
0.507830 0.508900 0.497266
0.512376 0.511376 0.499742
0.516923 0.513852 0.502219
0.521470 0.516329 0.504695
0.526016 0.518805 0.507171
0.530563 0.521281 0.509647
0.535109 0.523757 0.512124
0.467224 0.491070 0.477365
0.471771 0.493546 0.479842
0.476318 0.496022 0.482318
0.480864 0.498498 0.484794
0.485411 0.500974 0.487270
0.489958 0.503451 0.489746
0.494504 0.505927 0.492223
0.499051 0.508403 0.494699
0.503598 0.510879 0.497175
0.508144 0.513356 0.499651
0.512691 0.515832 0.502128
0.517238 0.518308 0.504604
0.521784 0.520784 0.507080
0.526331 0.523260 0.509556
0.530878 0.525737 0.512032
0.535424 0.528213 0.514509
0.539971 0.530689 0.516985
0.472086 0.498001 0.482227
0.476632 0.500478 0.484703
0.481179 0.502954 0.487179
0.485726 0.505430 0.489655
0.490272 0.507906 0.492132
0.494819 0.510382 0.494608
0.499366 0.512859 0.497084
0.503912 0.515335 0.499560
0.508459 0.517811 0.502036
0.513006 0.520287 0.504513
0.517552 0.522764 0.506989
0.522099 0.525240 0.509465
0.526646 0.527716 0.511941
0.531192 0.530192 0.514418
0.535739 0.532668 0.516894
0.540286 0.535145 0.519370
0.544832 0.537621 0.521846
0.476947 0.504933 0.487088
0.481494 0.507409 0.489564
0.486040 0.509886 0.492040
0.490587 0.512362 0.494517
0.495134 0.514838 0.496993
0.499680 0.517314 0.499469
0.504227 0.519790 0.501945
0.508774 0.522267 0.504422
0.513320 0.524743 0.506898
0.517867 0.527219 0.509374
0.522414 0.529695 0.511850
0.526960 0.532172 0.514326
0.531507 0.534648 0.516803
0.536054 0.537124 0.519279
0.540600 0.539600 0.521755
0.545147 0.542076 0.524231
0.549693 0.544553 0.526708
0.481808 0.511865 0.491949
0.486355 0.514341 0.494426
0.490902 0.516817 0.496902
0.495448 0.519294 0.499378
0.499995 0.521770 0.501854
0.504542 0.524246 0.504330
0.509088 0.526722 0.506807
0.513635 0.529198 0.509283
0.518182 0.531675 0.511759
0.522728 0.534151 0.514235
0.527275 0.536627 0.516712
0.531822 0.539103 0.519188
0.536368 0.541580 0.521664
0.540915 0.544056 0.524140
0.545462 0.546532 0.526616
0.550008 0.549008 0.529093
0.554555 0.551484 0.531569
0.486670 0.518797 0.496811
0.491216 0.521273 0.499287
0.495763 0.523749 0.501763
0.500310 0.526225 0.504239
0.504856 0.528702 0.506716
0.509403 0.531178 0.509192
0.513950 0.533654 0.511668
0.518496 0.536130 0.514144
0.523043 0.538606 0.516620
0.527590 0.541083 0.519097
0.532136 0.543559 0.521573
0.536683 0.546035 0.524049
0.541230 0.548511 0.526525
0.545776 0.550988 0.529002
0.550323 0.553464 0.531478
0.554870 0.555940 0.533954
0.559416 0.558416 0.536430
0.409832 0.408832 0.422044
0.414379 0.411309 0.424520
0.418926 0.413785 0.426996
0.423472 0.416261 0.429472
0.428019 0.418737 0.431949
0.432566 0.421213 0.434425
0.437112 0.423690 0.436901
0.441659 0.426166 0.439377
0.446206 0.428642 0.441853
0.450752 0.431118 0.444330
0.455299 0.433595 0.446806
0.459845 0.436071 0.449282
0.464392 0.438547 0.451758
0.468939 0.441023 0.454235
0.473485 0.443499 0.456711
0.478032 0.445976 0.459187
0.482579 0.448452 0.461663
0.414694 0.415764 0.426905
