shared/src/main/assets/luts/mv_midnight_red.cube
TITLE "DALUR Midnight Red"
LUT_3D_SIZE 5
DOMAIN_MIN 0.0 0.0 0.0
DOMAIN_MAX 1.0 1.0 1.0
0.407000 0.406000 0.413000
0.425187 0.415905 0.422905
0.443373 0.425810 0.432810
0.461560 0.435715 0.442715
0.479746 0.445620 0.452620
0.426445 0.433727 0.432445
0.444632 0.443632 0.442350
0.462819 0.453537 0.452255
0.481005 0.463442 0.462160
0.499192 0.473347 0.472065
0.445891 0.461454 0.451891
0.464077 0.471359 0.461796
0.482264 0.481264 0.471701
0.500451 0.491169 0.481606
0.518637 0.501074 0.491510
0.465336 0.489181 0.471336
0.483523 0.499086 0.481241
0.501709 0.508991 0.491146
0.519896 0.518896 0.501051
0.538083 0.528801 0.510956
0.484782 0.516908 0.490782
0.502968 0.526813 0.500687
0.521155 0.536718 0.510591
0.539341 0.546623 0.520496
0.557528 0.556528 0.530401
0.410776 0.409776 0.425058
0.428963 0.419681 0.434963
0.447150 0.429586 0.444868
0.465336 0.439491 0.454773
0.483523 0.449396 0.464678
0.430222 0.437504 0.444504
0.448408 0.447408 0.454408
0.466595 0.457313 0.464313
0.484782 0.467218 0.474218
0.502968 0.477123 0.484123
0.449667 0.465231 0.463949
0.467854 0.475136 0.473854
0.486040 0.485040 0.483759
0.504227 0.494945 0.493664
0.522414 0.504850 0.503569
0.469113 0.492958 0.483394
0.487299 0.502863 0.493299
0.505486 0.512768 0.503204
0.523672 0.522672 0.513109
0.541859 0.532577 0.523014
0.488558 0.520685 0.502840
0.506745 0.530590 0.512745
0.524931 0.540495 0.522650
0.543118 0.550400 0.532554
0.561304 0.560304 0.542459
0.414553 0.413553 0.437116
0.432739 0.423458 0.447021
0.450926 0.433363 0.456926
0.469113 0.443268 0.466831
0.487299 0.453172 0.476736
0.433998 0.441280 0.456562
0.452185 0.451185 0.466467
0.470371 0.461090 0.476371
0.488558 0.470995 0.486276
0.506745 0.480900 0.496181
0.453444 0.469007 0.476007
0.471630 0.478912 0.485912
0.489817 0.488817 0.495817
0.508003 0.498722 0.505722
0.526190 0.508627 0.515627
0.472889 0.496734 0.495452
0.491076 0.506639 0.505357
0.509262 0.516544 0.515262
0.527449 0.526449 0.525167
0.545635 0.536354 0.535072
0.492335 0.524461 0.514898
0.510521 0.534366 0.524803
0.528708 0.544271 0.534708
0.546894 0.554176 0.544613
0.565081 0.564081 0.554517
0.418329 0.417329 0.449174
0.436516 0.427234 0.459079
0.454703 0.437139 0.468984
0.472889 0.447044 0.478889
0.491076 0.456949 0.488794
0.437775 0.445056 0.468620
0.455961 0.454961 0.478525
0.474148 0.464866 0.488430
0.492335 0.474771 0.498335
0.510521 0.484676 0.508239
0.457220 0.472784 0.488065
0.475407 0.482688 0.497970
0.493593 0.492593 0.507875
0.511780 0.502498 0.517780
0.529967 0.512403 0.527685
0.476666 0.500511 0.507511
0.494852 0.510416 0.517416
0.513039 0.520320 0.527320
0.531225 0.530225 0.537225
0.549412 0.540130 0.547130
0.496111 0.528238 0.526956
0.514298 0.538143 0.536861
0.532484 0.548048 0.546766
0.550671 0.557952 0.556671
0.568857 0.567857 0.566576
0.422106 0.421106 0.461233
0.440292 0.431011 0.471137
0.458479 0.440916 0.481042
0.476666 0.450821 0.490947
0.494852 0.460725 0.500852
0.441551 0.448833 0.480678
0.459738 0.458738 0.490583
0.477924 0.468643 0.500488
0.496111 0.478548 0.510393
0.514298 0.488452 0.520298
0.460997 0.476560 0.500123
0.479183 0.486465 0.510028
0.497370 0.496370 0.519933
0.515556 0.506275 0.529838
0.533743 0.516180 0.539743
0.480442 0.504287 0.519569
0.498629 0.514192 0.529474
0.516815 0.524097 0.539379
0.535002 0.534002 0.549283
0.553188 0.543907 0.559188
0.499887 0.532014 0.539014
0.518074 0.541919 0.548919
0.536261 0.551824 0.558824
0.554447 0.561729 0.568729
0.572634 0.571634 0.578634
