shared/src/main/assets/luts/mv_midnight_red.cube
TITLE "DALUR Midnight Red"
LUT_3D_SIZE 9
DOMAIN_MIN 0.0 0.0 0.0
DOMAIN_MAX 1.0 1.0 1.0
0.407000 0.406000 0.413000
0.416093 0.410952 0.417952
0.425187 0.415905 0.422905
0.434280 0.420857 0.427857
0.443373 0.425810 0.432810
0.452466 0.430762 0.437762
0.461560 0.435715 0.442715
0.470653 0.440667 0.447667
0.479746 0.445620 0.452620
0.416723 0.419864 0.422723
0.425816 0.424816 0.427675
0.434909 0.429768 0.432628
0.444003 0.434721 0.437580
0.453096 0.439673 0.442533
0.462189 0.444626 0.447485
0.471282 0.449578 0.452437
0.480376 0.454531 0.457390
0.489469 0.459483 0.462342
0.426445 0.433727 0.432445
0.435539 0.438680 0.437398
0.444632 0.443632 0.442350
0.453725 0.448584 0.447303
0.462819 0.453537 0.452255
0.471912 0.458489 0.457208
0.481005 0.463442 0.462160
0.490098 0.468394 0.467113
0.499192 0.473347 0.472065
0.436168 0.447591 0.442168
0.445261 0.452543 0.447121
0.454355 0.457496 0.452073
0.463448 0.462448 0.457025
0.472541 0.467400 0.461978
0.481635 0.472353 0.466930
0.490728 0.477305 0.471883
0.499821 0.482258 0.476835
0.508914 0.487210 0.481788
0.445891 0.461454 0.451891
0.454984 0.466407 0.456843
0.464077 0.471359 0.461796
0.473171 0.476312 0.466748
0.482264 0.481264 0.471701
0.491357 0.486216 0.476653
0.500451 0.491169 0.481606
0.509544 0.496121 0.486558
0.518637 0.501074 0.491510
0.455614 0.475318 0.461614
0.464707 0.480270 0.466566
0.473800 0.485223 0.471518
0.482893 0.490175 0.476471
0.491987 0.495128 0.481423
0.501080 0.500080 0.486376
0.510173 0.505032 0.491328
0.519267 0.509985 0.496281
0.528360 0.514937 0.501233
0.465336 0.489181 0.471336
0.474430 0.494134 0.476289
0.483523 0.499086 0.481241
0.492616 0.504039 0.486194
0.501709 0.508991 0.491146
0.510803 0.513944 0.496098
0.519896 0.518896 0.501051
0.528989 0.523848 0.506003
0.538083 0.528801 0.510956
0.475059 0.503045 0.481059
0.484152 0.507997 0.486011
0.493246 0.512950 0.490964
0.502339 0.517902 0.495916
0.511432 0.522855 0.500869
0.520525 0.527807 0.505821
0.529619 0.532760 0.510774
0.538712 0.537712 0.515726
0.547805 0.542664 0.520679
0.484782 0.516908 0.490782
0.493875 0.521861 0.495734
0.502968 0.526813 0.500687
0.512062 0.531766 0.505639
0.521155 0.536718 0.510591
0.530248 0.541671 0.515544
0.539341 0.546623 0.520496
0.548435 0.551576 0.525449
0.557528 0.556528 0.530401
0.408888 0.407888 0.419029
0.417982 0.412841 0.423982
0.427075 0.417793 0.428934
0.436168 0.422746 0.433886
0.445261 0.427698 0.438839
0.454355 0.432650 0.443791
0.463448 0.437603 0.448744
0.472541 0.442555 0.453696
0.481635 0.447508 0.458649
0.418611 0.421752 0.428752
0.427704 0.426704 0.433704
0.436798 0.431657 0.438657
0.445891 0.436609 0.443609
0.454984 0.441562 0.448562
0.464077 0.446514 0.453514
0.473171 0.451466 0.458466
0.482264 0.456419 0.463419
0.491357 0.461371 0.468371
0.428334 0.435615 0.438474
0.437427 0.440568 0.443427
0.446520 0.445520 0.448379
0.455614 0.450473 0.453332
0.464707 0.455425 0.458284
0.473800 0.460378 0.463237
0.482893 0.465330 0.468189
0.491987 0.470282 0.473142
0.501080 0.475235 0.478094
0.438056 0.449479 0.448197
0.447150 0.454431 0.453150
0.456243 0.459384 0.458102
0.465336 0.464336 0.463055
0.474430 0.469289 0.468007
0.483523 0.474241 0.472959
0.492616 0.479194 0.477912
0.501709 0.484146 0.482864
0.510803 0.489098 0.487817
0.447779 0.463342 0.457920
0.456872 0.468295 0.462872
0.465966 0.473247 0.467825
0.475059 0.478200 0.472777
0.484152 0.483152 0.477730
0.493246 0.488105 0.482682
0.502339 0.493057 0.487635
0.511432 0.498010 0.492587
0.520525 0.502962 0.497539
0.457502 0.477206 0.467643
0.466595 0.482158 0.472595
0.475688 0.487111 0.477547
0.484782 0.492063 0.482500
0.493875 0.497016 0.487452
0.502968 0.501968 0.492405
0.512062 0.506921 0.497357
0.521155 0.511873 0.502310
0.530248 0.516826 0.507262
0.467224 0.491070 0.477365
0.476318 0.496022 0.482318
0.485411 0.500974 0.487270
0.494504 0.505927 0.492223
0.503598 0.510879 0.497175
0.512691 0.515832 0.502128
0.521784 0.520784 0.507080
0.530878 0.525737 0.512032
0.539971 0.530689 0.516985
0.476947 0.504933 0.487088
0.486040 0.509886 0.492040
0.495134 0.514838 0.496993
0.504227 0.519790 0.501945
0.513320 0.524743 0.506898
0.522414 0.529695 0.511850
0.531507 0.534648 0.516803
0.540600 0.539600 0.521755
0.549693 0.544553 0.526708
0.486670 0.518797 0.496811
0.495763 0.523749 0.501763
0.504856 0.528702 0.506716
0.513950 0.533654 0.511668
0.523043 0.538606 0.516620
0.532136 0.543559 0.521573
0.541230 0.548511 0.526525
0.550323 0.553464 0.531478
0.559416 0.558416 0.536430
0.410776 0.409776 0.425058
0.419870 0.414729 0.430011
0.428963 0.419681 0.434963
0.438056 0.424634 0.439915
0.447150 0.429586 0.444868
0.456243 0.434539 0.449820
0.465336 0.439491 0.454773
0.474430 0.444444 0.459725
0.483523 0.449396 0.464678
0.420499 0.423640 0.434781
0.429592 0.428592 0.439733
0.438686 0.433545 0.444686
0.447779 0.438497 0.449638
0.456872 0.443450 0.454591
0.465966 0.448402 0.459543
0.475059 0.453355 0.464496
0.484152 0.458307 0.469448
0.493246 0.463260 0.474400
0.430222 0.437504 0.444504
0.439315 0.442456 0.449456
0.448408 0.447408 0.454408
0.457502 0.452361 0.459361
0.466595 0.457313 0.464313
0.475688 0.462266 0.469266
0.484782 0.467218 0.474218
0.493875 0.472171 0.479171
0.502968 0.477123 0.484123
0.439945 0.451367 0.454226
0.449038 0.456320 0.459179
0.458131 0.461272 0.464131
0.467224 0.466224 0.469084
0.476318 0.471177 0.474036
0.485411 0.476129 0.478988
0.494504 0.481082 0.483941
0.503598 0.486034 0.488893
0.512691 0.490987 0.493846
0.449667 0.465231 0.463949
0.458761 0.470183 0.468901
0.467854 0.475136 0.473854
0.476947 0.480088 0.478806
0.486040 0.485040 0.483759
0.495134 0.489993 0.488711
0.504227 0.494945 0.493664
0.513320 0.499898 0.498616
0.522414 0.504850 0.503569
0.459390 0.479094 0.473672
0.468483 0.484047 0.478624
0.477577 0.488999 0.483577
0.486670 0.493952 0.488529
0.495763 0.498904 0.493481
0.504856 0.503856 0.498434
0.513950 0.508809 0.503386
0.523043 0.513761 0.508339
0.532136 0.518714 0.513291
0.469113 0.492958 0.483394
0.478206 0.497910 0.488347
0.487299 0.502863 0.493299
0.496393 0.507815 0.498252
0.505486 0.512768 0.503204
0.514579 0.517720 0.508157
0.523672 0.522672 0.513109
0.532766 0.527625 0.518062
0.541859 0.532577 0.523014
0.478835 0.506821 0.493117
0.487929 0.511774 0.498070
0.497022 0.516726 0.503022
0.506115 0.521679 0.507974
0.515209 0.526631 0.512927
0.524302 0.531584 0.517879
0.533395 0.536536 0.522832
0.542488 0.541488 0.527784
0.551582 0.546441 0.532737
0.488558 0.520685 0.502840
0.497651 0.525637 0.507792
0.506745 0.530590 0.512745
0.515838 0.535542 0.517697
0.524931 0.540495 0.522650
0.534025 0.545447 0.527602
0.543118 0.550400 0.532554
0.552211 0.555352 0.537507
0.561304 0.560304 0.542459
0.412665 0.411665 0.431087
0.421758 0.416617 0.436040
0.430851 0.421570 0.440992
0.439945 0.426522 0.445945
0.449038 0.431474 0.450897
0.458131 0.436427 0.455849
0.467224 0.441379 0.460802
0.476318 0.446332 0.465754
0.485411 0.451284 0.470707
0.422387 0.425528 0.440810
0.431481 0.430481 0.445762
0.440574 0.435433 0.450715
0.449667 0.440386 0.455667
0.458761 0.445338 0.460620
0.467854 0.450290 0.465572
0.476947 0.455243 0.470525
0.486040 0.460195 0.475477
0.495134 0.465148 0.480430
0.432110 0.439392 0.450533
0.441203 0.444344 0.455485
0.450297 0.449297 0.460438
0.459390 0.454249 0.465390
0.468483 0.459202 0.470342
0.477577 0.464154 0.475295
0.486670 0.469106 0.480247
0.495763 0.474059 0.485200
0.504856 0.479011 0.490152
0.441833 0.453255 0.460255
0.450926 0.458208 0.465208
0.460019 0.463160 0.470160
0.469113 0.468113 0.475113
0.478206 0.473065 0.480065
0.487299 0.478018 0.485018
0.496393 0.482970 0.489970
0.505486 0.487922 0.494922
0.514579 0.492875 0.499875
0.451555 0.467119 0.469978
0.460649 0.472071 0.474930
0.469742 0.477024 0.479883
0.478835 0.481976 0.484835
0.487929 0.486929 0.489788
0.497022 0.491881 0.494740
0.506115 0.496834 0.499693
0.515209 0.501786 0.504645
0.524302 0.506738 0.509598
0.461278 0.480982 0.479701
0.470371 0.485935 0.484653
0.479465 0.490887 0.489606
0.488558 0.495840 0.494558
0.497651 0.500792 0.499511
0.506745 0.505745 0.504463
0.515838 0.510697 0.509415
0.524931 0.515650 0.514368
0.534025 0.520602 0.519320
0.471001 0.494846 0.489423
0.480094 0.499798 0.494376
0.489187 0.504751 0.499328
0.498281 0.509703 0.504281
0.507374 0.514656 0.509233
0.516467 0.519608 0.514186
0.525561 0.524561 0.519138
0.534654 0.529513 0.524091
0.543747 0.534466 0.529043
0.480724 0.508710 0.499146
0.489817 0.513662 0.504099
0.498910 0.518614 0.509051
0.508003 0.523567 0.514003
0.517097 0.528519 0.518956
0.526190 0.533472 0.523908
0.535283 0.538424 0.528861
0.544377 0.543377 0.533813
0.553470 0.548329 0.538766
0.490446 0.522573 0.508869
0.499540 0.527526 0.513821
0.508633 0.532478 0.518774
0.517726 0.537430 0.523726
0.526819 0.542383 0.528679
0.535913 0.547335 0.533631
0.545006 0.552288 0.538584
0.554099 0.557240 0.543536
0.563193 0.562193 0.548488
0.414553 0.413553 0.437116
0.423646 0.418505 0.442069
0.432739 0.423458 0.447021
0.441833 0.428410 0.451974
0.450926 0.433363 0.456926
0.460019 0.438315 0.461879
0.469113 0.443268 0.466831
0.478206 0.448220 0.471783
0.487299 0.453172 0.476736
0.424276 0.427416 0.446839
0.433369 0.432369 0.451791
0.442462 0.437321 0.456744
0.451555 0.442274 0.461696
0.460649 0.447226 0.466649
0.469742 0.452179 0.471601
0.478835 0.457131 0.476554
0.487929 0.462084 0.481506
0.497022 0.467036 0.486459
0.433998 0.441280 0.456562
0.443092 0.446232 0.461514
0.452185 0.451185 0.466467
0.461278 0.456137 0.471419
0.470371 0.461090 0.476371
0.479465 0.466042 0.481324
0.488558 0.470995 0.486276
0.497651 0.475947 0.491229
0.506745 0.480900 0.496181
0.443721 0.455144 0.466284
0.452814 0.460096 0.471237
0.461908 0.465048 0.476189
0.471001 0.470001 0.481142
0.480094 0.474953 0.486094
0.489187 0.479906 0.491047
0.498281 0.484858 0.495999
0.507374 0.489811 0.500952
0.516467 0.494763 0.505904
0.453444 0.469007 0.476007
0.462537 0.473960 0.480960
0.471630 0.478912 0.485912
0.480724 0.483864 0.490864
0.489817 0.488817 0.495817
0.498910 0.493769 0.500769
0.508003 0.498722 0.505722
0.517097 0.503674 0.510674
0.526190 0.508627 0.515627
0.463166 0.482871 0.485730
0.472260 0.487823 0.490682
0.481353 0.492776 0.495635
0.490446 0.497728 0.500587
0.499540 0.502680 0.505540
0.508633 0.507633 0.510492
0.517726 0.512585 0.515444
0.526819 0.517538 0.520397
0.535913 0.522490 0.525349
0.472889 0.496734 0.495452
0.481982 0.501687 0.500405
0.491076 0.506639 0.505357
0.500169 0.511592 0.510310
0.509262 0.516544 0.515262
0.518356 0.521496 0.520215
0.527449 0.526449 0.525167
0.536542 0.531401 0.530120
0.545635 0.536354 0.535072
0.482612 0.510598 0.505175
0.491705 0.515550 0.510128
0.500798 0.520503 0.515080
0.509892 0.525455 0.520033
0.518985 0.530408 0.524985
0.528078 0.535360 0.529937
0.537172 0.540312 0.534890
0.546265 0.545265 0.539842
0.555358 0.550217 0.544795
0.492335 0.524461 0.514898
0.501428 0.529414 0.519850
0.510521 0.534366 0.524803
0.519614 0.539319 0.529755
0.528708 0.544271 0.534708
0.537801 0.549224 0.539660
0.546894 0.554176 0.544613
0.555988 0.559128 0.549565
0.565081 0.564081 0.554517
0.416441 0.415441 0.443145
0.425534 0.420394 0.448098
0.434628 0.425346 0.453050
0.443721 0.430298 0.458003
0.452814 0.435251 0.462955
0.461908 0.440203 0.467908
0.471001 0.445156 0.472860
0.480094 0.450108 0.477812
0.489187 0.455061 0.482765
0.426164 0.429305 0.452868
0.435257 0.434257 0.457821
0.444350 0.439210 0.462773
0.453444 0.444162 0.467725
0.462537 0.449114 0.472678
0.471630 0.454067 0.477630
0.480724 0.459019 0.482583
0.489817 0.463972 0.487535
0.498910 0.468924 0.492488
0.435887 0.443168 0.462591
0.444980 0.448121 0.467543
0.454073 0.453073 0.472496
0.463166 0.458026 0.477448
0.472260 0.462978 0.482401
0.481353 0.467930 0.487353
0.490446 0.472883 0.492305
0.499540 0.477835 0.497258
0.508633 0.482788 0.502210
0.445609 0.457032 0.472313
0.454703 0.461984 0.477266
0.463796 0.466937 0.482218
0.472889 0.471889 0.487171
0.481982 0.476842 0.492123
0.491076 0.481794 0.497076
0.500169 0.486746 0.502028
0.509262 0.491699 0.506981
0.518356 0.496651 0.511933
0.455332 0.470895 0.482036
0.464425 0.475848 0.486989
0.473519 0.480800 0.491941
0.482612 0.485753 0.496894
0.491705 0.490705 0.501846
0.500798 0.495658 0.506798
0.509892 0.500610 0.511751
0.518985 0.505562 0.516703
0.528078 0.510515 0.521656
0.465055 0.484759 0.491759
0.474148 0.489711 0.496711
0.483241 0.494664 0.501664
0.492335 0.499616 0.506616
0.501428 0.504569 0.511569
0.510521 0.509521 0.516521
0.519614 0.514474 0.521474
0.528708 0.519426 0.526426
0.537801 0.524378 0.531378
0.474777 0.498622 0.501482
0.483871 0.503575 0.506434
0.492964 0.508527 0.511386
0.502057 0.513480 0.516339
0.511151 0.518432 0.521291
0.520244 0.523385 0.526244
0.529337 0.528337 0.531196
0.538430 0.533290 0.536149
0.547524 0.538242 0.541101
0.484500 0.512486 0.511204
0.493593 0.517438 0.516157
0.502687 0.522391 0.521109
0.511780 0.527343 0.526062
0.520873 0.532296 0.531014
0.529967 0.537248 0.535967
0.539060 0.542201 0.540919
0.548153 0.547153 0.545871
0.557246 0.552106 0.550824
0.494223 0.526350 0.520927
0.503316 0.531302 0.525879
0.512409 0.536254 0.530832
0.521503 0.541207 0.535784
0.530596 0.546159 0.540737
0.539689 0.551112 0.545689
0.548783 0.556064 0.550642
0.557876 0.561017 0.555594
0.566969 0.565969 0.560547
0.418329 0.417329 0.449174
0.427423 0.422282 0.454127
0.436516 0.427234 0.459079
0.445609 0.432187 0.464032
0.454703 0.437139 0.468984
0.463796 0.442092 0.473937
0.472889 0.447044 0.478889
0.481982 0.451996 0.483842
0.491076 0.456949 0.488794
0.428052 0.431193 0.458897
0.437145 0.436145 0.463850
0.446239 0.441098 0.468802
0.455332 0.446050 0.473754
0.464425 0.451003 0.478707
0.473519 0.455955 0.483659
0.482612 0.460908 0.488612
0.491705 0.465860 0.493564
0.500798 0.470812 0.498517
0.437775 0.445056 0.468620
0.446868 0.450009 0.473572
0.455961 0.454961 0.478525
0.465055 0.459914 0.483477
0.474148 0.464866 0.488430
0.483241 0.469819 0.493382
0.492335 0.474771 0.498335
0.501428 0.479724 0.503287
0.510521 0.484676 0.508239
0.447497 0.458920 0.478343
0.456591 0.463872 0.483295
0.465684 0.468825 0.488247
0.474777 0.473777 0.493200
0.483871 0.478730 0.498152
0.492964 0.483682 0.503105
0.502057 0.488635 0.508057
0.511151 0.493587 0.513010
0.520244 0.498540 0.517962
0.457220 0.472784 0.488065
0.466313 0.477736 0.493018
0.475407 0.482688 0.497970
0.484500 0.487641 0.502923
0.493593 0.492593 0.507875
0.502687 0.497546 0.512827
0.511780 0.502498 0.517780
0.520873 0.507451 0.522732
0.529967 0.512403 0.527685
0.466943 0.486647 0.497788
0.476036 0.491600 0.502740
0.485129 0.496552 0.507693
0.494223 0.501504 0.512645
0.503316 0.506457 0.517598
0.512409 0.511409 0.522550
0.521503 0.516362 0.527503
0.530596 0.521314 0.532455
0.539689 0.526267 0.537408
0.476666 0.500511 0.507511
0.485759 0.505463 0.512463
0.494852 0.510416 0.517416
0.503945 0.515368 0.522368
0.513039 0.520320 0.527320
0.522132 0.525273 0.532273
0.531225 0.530225 0.537225
0.540319 0.535178 0.542178
0.549412 0.540130 0.547130
0.486388 0.514374 0.517233
0.495482 0.519327 0.522186
0.504575 0.524279 0.527138
0.513668 0.529232 0.532091
0.522761 0.534184 0.537043
0.531855 0.539136 0.541996
0.540948 0.544089 0.546948
0.550041 0.549041 0.551900
0.559135 0.553994 0.556853
0.496111 0.528238 0.526956
0.505204 0.533190 0.531908
0.514298 0.538143 0.536861
0.523391 0.543095 0.541813
0.532484 0.548048 0.546766
0.541577 0.553000 0.551718
0.550671 0.557952 0.556671
0.559764 0.562905 0.561623
0.568857 0.567857 0.566576
0.420218 0.419218 0.455203
0.429311 0.424170 0.460156
0.438404 0.429122 0.465108
0.447497 0.434075 0.470061
0.456591 0.439027 0.475013
0.465684 0.443980 0.479966
0.474777 0.448932 0.484918
0.483871 0.453885 0.489871
0.492964 0.458837 0.494823
0.429940 0.433081 0.464926
0.439034 0.438034 0.469879
0.448127 0.442986 0.474831
0.457220 0.447938 0.479784
0.466313 0.452891 0.484736
0.475407 0.457843 0.489688
0.484500 0.462796 0.494641
0.493593 0.467748 0.499593
0.502687 0.472701 0.504546
0.439663 0.446945 0.474649
0.448756 0.451897 0.479601
0.457850 0.456850 0.484554
0.466943 0.461802 0.489506
0.476036 0.466754 0.494459
0.485129 0.471707 0.499411
0.494223 0.476659 0.504364
0.503316 0.481612 0.509316
0.512409 0.486564 0.514268
0.449386 0.460808 0.484372
0.458479 0.465761 0.489324
0.467572 0.470713 0.494276
0.476666 0.475666 0.499229
0.485759 0.480618 0.504181
0.494852 0.485570 0.509134
0.503945 0.490523 0.514086
0.513039 0.495475 0.519039
0.522132 0.500428 0.523991
0.459108 0.474672 0.494094
0.468202 0.479624 0.499047
0.477295 0.484577 0.503999
0.486388 0.489529 0.508952
0.495482 0.494482 0.513904
0.504575 0.499434 0.518857
0.513668 0.504386 0.523809
0.522761 0.509339 0.528761
0.531855 0.514291 0.533714
0.468831 0.488535 0.503817
0.477924 0.493488 0.508769
0.487018 0.498440 0.513722
0.496111 0.503393 0.518674
0.505204 0.508345 0.523627
0.514298 0.513298 0.528579
0.523391 0.518250 0.533532
0.532484 0.523202 0.538484
0.541577 0.528155 0.543437
0.478554 0.502399 0.513540
0.487647 0.507351 0.518492
0.496740 0.512304 0.523445
0.505834 0.517256 0.528397
0.514927 0.522209 0.533350
0.524020 0.527161 0.538302
0.533114 0.532114 0.543254
0.542207 0.537066 0.548207
0.551300 0.542018 0.553159
0.488276 0.516262 0.523262
0.497370 0.521215 0.528215
0.506463 0.526167 0.533167
0.515556 0.531120 0.538120
0.524650 0.536072 0.543072
0.533743 0.541025 0.548025
0.542836 0.545977 0.552977
0.551930 0.550930 0.557930
0.561023 0.555882 0.562882
0.497999 0.530126 0.532985
0.507092 0.535078 0.537938
0.516186 0.540031 0.542890
0.525279 0.544983 0.547842
0.534372 0.549936 0.552795
0.543466 0.554888 0.557747
0.552559 0.559841 0.562700
0.561652 0.564793 0.567652
0.570746 0.569746 0.572605
0.422106 0.421106 0.461233
0.431199 0.426058 0.466185
0.440292 0.431011 0.471137
0.449386 0.435963 0.476090
0.458479 0.440916 0.481042
0.467572 0.445868 0.485995
0.476666 0.450821 0.490947
0.485759 0.455773 0.495900
0.494852 0.460725 0.500852
0.431829 0.434969 0.470955
0.440922 0.439922 0.475908
0.450015 0.444874 0.480860
0.459108 0.449827 0.485813
0.468202 0.454779 0.490765
0.477295 0.459732 0.495718
0.486388 0.464684 0.500670
0.495482 0.469636 0.505622
0.504575 0.474589 0.510575
0.441551 0.448833 0.480678
0.450645 0.453785 0.485630
0.459738 0.458738 0.490583
0.468831 0.463690 0.495535
0.477924 0.468643 0.500488
0.487018 0.473595 0.505440
0.496111 0.478548 0.510393
0.505204 0.483500 0.515345
0.514298 0.488452 0.520298
0.451274 0.462696 0.490401
0.460367 0.467649 0.495353
0.469460 0.472601 0.500306
0.478554 0.477554 0.505258
0.487647 0.482506 0.510210
0.496740 0.487459 0.515163
0.505834 0.492411 0.520115
0.514927 0.497364 0.525068
0.524020 0.502316 0.530020
0.460997 0.476560 0.500123
0.470090 0.481512 0.505076
0.479183 0.486465 0.510028
0.488276 0.491417 0.514981
0.497370 0.496370 0.519933
0.506463 0.501322 0.524886
0.515556 0.506275 0.529838
0.524650 0.511227 0.534791
0.533743 0.516180 0.539743
0.470719 0.490424 0.509846
0.479813 0.495376 0.514799
0.488906 0.500328 0.519751
0.497999 0.505281 0.524703
0.507092 0.510233 0.529656
0.516186 0.515186 0.534608
0.525279 0.520138 0.539561
0.534372 0.525091 0.544513
0.543466 0.530043 0.549466
0.480442 0.504287 0.519569
0.489535 0.509240 0.524521
0.498629 0.514192 0.529474
0.507722 0.519144 0.534426
0.516815 0.524097 0.539379
0.525908 0.529049 0.544331
0.535002 0.534002 0.549283
0.544095 0.538954 0.554236
0.553188 0.543907 0.559188
0.490165 0.518151 0.529291
0.499258 0.523103 0.534244
0.508351 0.528056 0.539196
0.517445 0.533008 0.544149
0.526538 0.537960 0.549101
0.535631 0.542913 0.554054
0.544724 0.547865 0.559006
0.553818 0.552818 0.563959
0.562911 0.557770 0.568911
0.499887 0.532014 0.539014
0.508981 0.536967 0.543967
0.518074 0.541919 0.548919
0.527167 0.546872 0.553872
0.536261 0.551824 0.558824
0.545354 0.556776 0.563776
0.554447 0.561729 0.568729
0.563540 0.566681 0.573681
0.572634 0.571634 0.578634
