shared/src/main/assets/luts/mv_natural_pop.cube
TITLE "DALUR Natural Pop"
LUT_3D_SIZE 17
DOMAIN_MIN 0.0 0.0 0.0
DOMAIN_MAX 1.0 1.0 1.0
0.474800 0.471000 0.465200
0.476233 0.472045 0.466245
0.477666 0.473089 0.467289
0.479099 0.474134 0.468334
0.480532 0.475179 0.469379
0.481965 0.476224 0.470424
0.483398 0.477268 0.471468
0.484831 0.478313 0.472513
0.486263 0.479358 0.473558
0.487696 0.480402 0.474602
0.489129 0.481447 0.475647
0.490562 0.482492 0.476692
0.491995 0.483537 0.477737
0.493428 0.484581 0.478781
0.494861 0.485626 0.479826
0.496294 0.486671 0.480871
0.497727 0.487715 0.481915
0.476851 0.473439 0.467251
0.478284 0.474484 0.468296
0.479717 0.475529 0.469340
0.481150 0.476573 0.470385
0.482583 0.477618 0.471430
0.484016 0.478663 0.472475
0.485449 0.479707 0.473519
0.486882 0.480752 0.474564
0.488314 0.481797 0.475609
0.489747 0.482842 0.476653
0.491180 0.483886 0.477698
0.492613 0.484931 0.478743
0.494046 0.485976 0.479788
0.495479 0.487020 0.480832
0.496912 0.488065 0.481877
0.498345 0.489110 0.482922
0.499778 0.490155 0.483966
0.478902 0.475878 0.469302
0.480335 0.476923 0.470347
0.481768 0.477968 0.471391
0.483201 0.479013 0.472436
0.484634 0.480057 0.473481
0.486067 0.481102 0.474526
0.487500 0.482147 0.475570
0.488933 0.483191 0.476615
0.490365 0.484236 0.477660
0.491798 0.485281 0.478704
0.493231 0.486326 0.479749
0.494664 0.487370 0.480794
0.496097 0.488415 0.481839
0.497530 0.489460 0.482883
0.498963 0.490504 0.483928
0.500396 0.491549 0.484973
0.501829 0.492594 0.486017
0.480953 0.478318 0.471353
0.482386 0.479362 0.472398
0.483819 0.480407 0.473442
0.485252 0.481452 0.474487
0.486685 0.482496 0.475532
0.488118 0.483541 0.476577
0.489551 0.484586 0.477621
0.490984 0.485631 0.478666
0.492416 0.486675 0.479711
0.493849 0.487720 0.480755
0.495282 0.488765 0.481800
0.496715 0.489809 0.482845
0.498148 0.490854 0.483890
0.499581 0.491899 0.484934
0.501014 0.492944 0.485979
0.502447 0.493988 0.487024
0.503880 0.495033 0.488068
0.483004 0.480757 0.473404
0.484437 0.481802 0.474449
0.485870 0.482846 0.475493
0.487303 0.483891 0.476538
0.488736 0.484936 0.477583
0.490169 0.485980 0.478628
0.491602 0.487025 0.479672
0.493035 0.488070 0.480717
0.494467 0.489115 0.481762
0.495900 0.490159 0.482806
0.497333 0.491204 0.483851
0.498766 0.492249 0.484896
0.500199 0.493293 0.485940
0.501632 0.494338 0.486985
0.503065 0.495383 0.488030
0.504498 0.496428 0.489075
0.505931 0.497472 0.490119
0.485055 0.483196 0.475455
0.486488 0.484241 0.476500
0.487921 0.485285 0.477544
0.489354 0.486330 0.478589
0.490787 0.487375 0.479634
0.492220 0.488420 0.480679
0.493653 0.489464 0.481723
0.495085 0.490509 0.482768
0.496518 0.491554 0.483813
0.497951 0.492598 0.484857
0.499384 0.493643 0.485902
0.500817 0.494688 0.486947
0.502250 0.495733 0.487991
0.503683 0.496777 0.489036
0.505116 0.497822 0.490081
0.506549 0.498867 0.491126
0.507982 0.499911 0.492170
0.487106 0.485635 0.477506
0.488539 0.486680 0.478551
0.489972 0.487725 0.479595
0.491405 0.488769 0.480640
0.492838 0.489814 0.481685
0.494271 0.490859 0.482729
0.495704 0.491904 0.483774
0.497136 0.492948 0.484819
0.498569 0.493993 0.485864
0.500002 0.495038 0.486908
0.501435 0.496082 0.487953
0.502868 0.497127 0.488998
0.504301 0.498172 0.490042
0.505734 0.499217 0.491087
0.507167 0.500261 0.492132
0.508600 0.501306 0.493177
0.510033 0.502351 0.494221
0.489157 0.488074 0.479557
0.490590 0.489119 0.480602
0.492023 0.490164 0.481646
0.493456 0.491209 0.482691
0.494889 0.492253 0.483736
0.496322 0.493298 0.484780
0.497755 0.494343 0.485825
0.499187 0.495387 0.486870
0.500620 0.496432 0.487915
0.502053 0.497477 0.488959
0.503486 0.498522 0.490004
0.504919 0.499566 0.491049
0.506352 0.500611 0.492093
0.507785 0.501656 0.493138
0.509218 0.502700 0.494183
0.510651 0.503745 0.495228
0.512084 0.504790 0.496272
0.491208 0.490514 0.481608
0.492641 0.491558 0.482653
0.494074 0.492603 0.483697
0.495507 0.493648 0.484742
0.496940 0.494693 0.485787
0.498373 0.495737 0.486831
0.499806 0.496782 0.487876
0.501238 0.497827 0.488921
0.502671 0.498871 0.489966
0.504104 0.499916 0.491010
0.505537 0.500961 0.492055
0.506970 0.502006 0.493100
0.508403 0.503050 0.494144
0.509836 0.504095 0.495189
0.511269 0.505140 0.496234
0.512702 0.506184 0.497279
0.514135 0.507229 0.498323
0.493259 0.492953 0.483659
0.494692 0.493998 0.484704
0.496125 0.495042 0.485748
0.497558 0.496087 0.486793
0.498991 0.497132 0.487838
0.500424 0.498176 0.488882
0.501857 0.499221 0.489927
0.503289 0.500266 0.490972
0.504722 0.501311 0.492017
0.506155 0.502355 0.493061
0.507588 0.503400 0.494106
0.509021 0.504445 0.495151
0.510454 0.505489 0.496195
0.511887 0.506534 0.497240
0.513320 0.507579 0.498285
0.514753 0.508624 0.499330
0.516186 0.509668 0.500374
0.495310 0.495392 0.485710
0.496743 0.496437 0.486755
0.498176 0.497482 0.487799
0.499609 0.498526 0.488844
0.501042 0.499571 0.489889
0.502475 0.500616 0.490933
0.503908 0.501660 0.491978
0.505340 0.502705 0.493023
0.506773 0.503750 0.494068
0.508206 0.504795 0.495112
0.509639 0.505839 0.496157
0.511072 0.506884 0.497202
0.512505 0.507929 0.498246
0.513938 0.508973 0.499291
0.515371 0.510018 0.500336
0.516804 0.511063 0.501381
0.518237 0.512108 0.502425
0.497361 0.497831 0.487761
0.498794 0.498876 0.488806
0.500227 0.499921 0.489850
0.501660 0.500965 0.490895
0.503093 0.502010 0.491940
0.504526 0.503055 0.492984
0.505958 0.504100 0.494029
0.507391 0.505144 0.495074
0.508824 0.506189 0.496119
0.510257 0.507234 0.497163
0.511690 0.508278 0.498208
0.513123 0.509323 0.499253
0.514556 0.510368 0.500297
0.515989 0.511413 0.501342
0.517422 0.512457 0.502387
0.518855 0.513502 0.503432
0.520288 0.514547 0.504476
0.499412 0.500271 0.489812
0.500845 0.501315 0.490857
0.502278 0.502360 0.491901
0.503711 0.503405 0.492946
0.505144 0.504449 0.493991
0.506577 0.505494 0.495035
0.508009 0.506539 0.496080
0.509442 0.507584 0.497125
0.510875 0.508628 0.498170
0.512308 0.509673 0.499214
0.513741 0.510718 0.500259
0.515174 0.511762 0.501304
0.516607 0.512807 0.502348
0.518040 0.513852 0.503393
0.519473 0.514897 0.504438
0.520906 0.515941 0.505483
0.522339 0.516986 0.506527
0.501463 0.502710 0.491863
0.502896 0.503754 0.492908
0.504329 0.504799 0.493952
0.505762 0.505844 0.494997
0.507195 0.506889 0.496042
0.508628 0.507933 0.497086
0.510060 0.508978 0.498131
0.511493 0.510023 0.499176
0.512926 0.511067 0.500221
0.514359 0.512112 0.501265
0.515792 0.513157 0.502310
0.517225 0.514202 0.503355
0.518658 0.515246 0.504399
0.520091 0.516291 0.505444
0.521524 0.517336 0.506489
0.522957 0.518380 0.507534
0.524390 0.519425 0.508578
0.503514 0.505149 0.493914
0.504947 0.506194 0.494959
0.506380 0.507238 0.496003
0.507813 0.508283 0.497048
0.509246 0.509328 0.498093
0.510679 0.510373 0.499137
0.512111 0.511417 0.500182
0.513544 0.512462 0.501227
0.514977 0.513507 0.502272
0.516410 0.514551 0.503316
0.517843 0.515596 0.504361
0.519276 0.516641 0.505406
0.520709 0.517686 0.506450
0.522142 0.518730 0.507495
0.523575 0.519775 0.508540
0.525008 0.520820 0.509585
0.526441 0.521864 0.510629
0.505565 0.507588 0.495965
0.506998 0.508633 0.497010
0.508431 0.509678 0.498054
0.509864 0.510722 0.499099
0.511297 0.511767 0.500144
0.512730 0.512812 0.501188
0.514162 0.513856 0.502233
0.515595 0.514901 0.503278
0.517028 0.515946 0.504323
0.518461 0.516991 0.505367
0.519894 0.518035 0.506412
0.521327 0.519080 0.507457
0.522760 0.520125 0.508501
0.524193 0.521169 0.509546
0.525626 0.522214 0.510591
0.527059 0.523259 0.511636
0.528492 0.524304 0.512680
0.507616 0.510027 0.498016
0.509049 0.511072 0.499061
0.510482 0.512117 0.500105
0.511915 0.513162 0.501150
0.513348 0.514206 0.502195
0.514781 0.515251 0.503239
0.516213 0.516296 0.504284
0.517646 0.517340 0.505329
0.519079 0.518385 0.506374
0.520512 0.519430 0.507418
0.521945 0.520475 0.508463
0.523378 0.521519 0.509508
0.524811 0.522564 0.510552
0.526244 0.523609 0.511597
0.527677 0.524653 0.512642
0.529110 0.525698 0.513687
0.530543 0.526743 0.514731
0.475198 0.471398 0.465987
0.476631 0.472443 0.467031
0.478064 0.473488 0.468076
0.479497 0.474532 0.469121
0.480930 0.475577 0.470165
0.482363 0.476622 0.471210
0.483796 0.477667 0.472255
0.485229 0.478711 0.473300
0.486662 0.479756 0.474344
0.488095 0.480801 0.475389
0.489528 0.481845 0.476434
0.490961 0.482890 0.477478
0.492394 0.483935 0.478523
0.493826 0.484980 0.479568
0.495259 0.486024 0.480613
0.496692 0.487069 0.481657
0.498125 0.488114 0.482702
0.477249 0.473838 0.468038
0.478682 0.474882 0.469082
0.480115 0.475927 0.470127
0.481548 0.476972 0.471172
0.482981 0.478016 0.472216
0.484414 0.479061 0.473261
0.485847 0.480106 0.474306
0.487280 0.481151 0.475351
0.488713 0.482195 0.476395
0.490146 0.483240 0.477440
0.491579 0.484285 0.478485
0.493012 0.485329 0.479529
0.494445 0.486374 0.480574
0.495877 0.487419 0.481619
0.497310 0.488463 0.482663
0.498743 0.489508 0.483708
0.500176 0.490553 0.484753
0.479300 0.476277 0.470089
0.480733 0.477321 0.471133
0.482166 0.478366 0.472178
0.483599 0.479411 0.473223
0.485032 0.480456 0.474267
0.486465 0.481500 0.475312
0.487898 0.482545 0.476357
0.489331 0.483590 0.477402
0.490764 0.484634 0.478446
0.492197 0.485679 0.479491
0.493630 0.486724 0.480536
0.495063 0.487769 0.481580
0.496496 0.488813 0.482625
0.497928 0.489858 0.483670
0.499361 0.490903 0.484714
0.500794 0.491947 0.485759
0.502227 0.492992 0.486804
0.481351 0.478716 0.472140
0.482784 0.479761 0.473184
0.484217 0.480805 0.474229
0.485650 0.481850 0.475274
0.487083 0.482895 0.476318
0.488516 0.483940 0.477363
0.489949 0.484984 0.478408
0.491382 0.486029 0.479452
0.492815 0.487074 0.480497
0.494248 0.488118 0.481542
0.495681 0.489163 0.482587
0.497114 0.490208 0.483631
0.498547 0.491252 0.484676
0.499979 0.492297 0.485721
0.501412 0.493342 0.486765
0.502845 0.494387 0.487810
0.504278 0.495431 0.488855
0.483402 0.481155 0.474190
0.484835 0.482200 0.475235
0.486268 0.483245 0.476280
0.487701 0.484289 0.477325
0.489134 0.485334 0.478369
0.490567 0.486379 0.479414
0.492000 0.487423 0.480459
0.493433 0.488468 0.481503
0.494866 0.489513 0.482548
0.496299 0.490558 0.483593
0.497732 0.491602 0.484638
0.499165 0.492647 0.485682
0.500598 0.493692 0.486727
0.502030 0.494736 0.487772
0.503463 0.495781 0.488816
0.504896 0.496826 0.489861
0.506329 0.497871 0.490906
0.485453 0.483594 0.476241
0.486886 0.484639 0.477286
0.488319 0.485684 0.478331
0.489752 0.486729 0.479376
0.491185 0.487773 0.480420
0.492618 0.488818 0.481465
0.494051 0.489863 0.482510
0.495484 0.490907 0.483554
0.496917 0.491952 0.484599
0.498350 0.492997 0.485644
0.499783 0.494042 0.486689
0.501216 0.495086 0.487733
0.502648 0.496131 0.488778
0.504081 0.497176 0.489823
0.505514 0.498220 0.490867
0.506947 0.499265 0.491912
0.508380 0.500310 0.492957
0.487504 0.486034 0.478292
0.488937 0.487078 0.479337
0.490370 0.488123 0.480382
0.491803 0.489168 0.481427
0.493236 0.490212 0.482471
0.494669 0.491257 0.483516
0.496102 0.492302 0.484561
0.497535 0.493347 0.485605
0.498968 0.494391 0.486650
0.500401 0.495436 0.487695
0.501834 0.496481 0.488740
0.503267 0.497525 0.489784
0.504699 0.498570 0.490829
0.506132 0.499615 0.491874
0.507565 0.500660 0.492918
0.508998 0.501704 0.493963
0.510431 0.502749 0.495008
0.489555 0.488473 0.480343
0.490988 0.489518 0.481388
0.492421 0.490562 0.482433
0.493854 0.491607 0.483478
0.495287 0.492652 0.484522
0.496720 0.493696 0.485567
0.498153 0.494741 0.486612
0.499586 0.495786 0.487656
0.501019 0.496831 0.488701
0.502452 0.497875 0.489746
0.503885 0.498920 0.490791
0.505318 0.499965 0.491835
0.506750 0.501009 0.492880
0.508183 0.502054 0.493925
0.509616 0.503099 0.494969
0.511049 0.504143 0.496014
0.512482 0.505188 0.497059
0.491606 0.490912 0.482394
0.493039 0.491957 0.483439
0.494472 0.493001 0.484484
0.495905 0.494046 0.485529
0.497338 0.495091 0.486573
0.498771 0.496136 0.487618
0.500204 0.497180 0.488663
0.501637 0.498225 0.489707
0.503070 0.499270 0.490752
0.504503 0.500314 0.491797
0.505936 0.501359 0.492842
0.507369 0.502404 0.493886
0.508801 0.503449 0.494931
0.510234 0.504493 0.495976
0.511667 0.505538 0.497020
0.513100 0.506583 0.498065
0.514533 0.507627 0.499110
0.493657 0.493351 0.484445
0.495090 0.494396 0.485490
0.496523 0.495441 0.486535
0.497956 0.496485 0.487580
0.499389 0.497530 0.488624
0.500822 0.498575 0.489669
0.502255 0.499620 0.490714
0.503688 0.500664 0.491758
0.505121 0.501709 0.492803
0.506554 0.502754 0.493848
0.507987 0.503798 0.494893
0.509420 0.504843 0.495937
0.510852 0.505888 0.496982
0.512285 0.506932 0.498027
0.513718 0.507977 0.499071
0.515151 0.509022 0.500116
0.516584 0.510067 0.501161
0.495708 0.495790 0.486496
0.497141 0.496835 0.487541
0.498574 0.497880 0.488586
0.500007 0.498925 0.489631
0.501440 0.499969 0.490675
0.502873 0.501014 0.491720
0.504306 0.502059 0.492765
0.505739 0.503103 0.493809
0.507172 0.504148 0.494854
0.508605 0.505193 0.495899
0.510038 0.506238 0.496944
0.511471 0.507282 0.497988
0.512903 0.508327 0.499033
0.514336 0.509372 0.500078
0.515769 0.510416 0.501122
0.517202 0.511461 0.502167
0.518635 0.512506 0.503212
0.497759 0.498230 0.488547
0.499192 0.499274 0.489592
0.500625 0.500319 0.490637
0.502058 0.501364 0.491682
0.503491 0.502409 0.492726
0.504924 0.503453 0.493771
0.506357 0.504498 0.494816
0.507790 0.505543 0.495860
0.509223 0.506587 0.496905
0.510656 0.507632 0.497950
0.512089 0.508677 0.498995
0.513521 0.509721 0.500039
0.514954 0.510766 0.501084
0.516387 0.511811 0.502129
0.517820 0.512856 0.503173
0.519253 0.513900 0.504218
0.520686 0.514945 0.505263
0.499810 0.500669 0.490598
0.501243 0.501714 0.491643
0.502676 0.502758 0.492688
0.504109 0.503803 0.493733
0.505542 0.504848 0.494777
0.506975 0.505892 0.495822
0.508408 0.506937 0.496867
0.509841 0.507982 0.497911
0.511274 0.509027 0.498956
0.512707 0.510071 0.500001
0.514140 0.511116 0.501046
0.515572 0.512161 0.502090
0.517005 0.513205 0.503135
0.518438 0.514250 0.504180
0.519871 0.515295 0.505224
0.521304 0.516340 0.506269
0.522737 0.517384 0.507314
0.501861 0.503108 0.492649
0.503294 0.504153 0.493694
0.504727 0.505198 0.494739
0.506160 0.506242 0.495784
0.507593 0.507287 0.496828
0.509026 0.508332 0.497873
0.510459 0.509376 0.498918
0.511892 0.510421 0.499962
0.513325 0.511466 0.501007
0.514758 0.512511 0.502052
0.516191 0.513555 0.503097
0.517623 0.514600 0.504141
0.519056 0.515645 0.505186
0.520489 0.516689 0.506231
0.521922 0.517734 0.507275
0.523355 0.518779 0.508320
0.524788 0.519823 0.509365
0.503912 0.505547 0.494700
0.505345 0.506592 0.495745
0.506778 0.507637 0.496790
0.508211 0.508681 0.497835
0.509644 0.509726 0.498879
0.511077 0.510771 0.499924
0.512510 0.511816 0.500969
0.513943 0.512860 0.502013
0.515376 0.513905 0.503058
0.516809 0.514950 0.504103
0.518242 0.515994 0.505148
0.519674 0.517039 0.506192
0.521107 0.518084 0.507237
0.522540 0.519129 0.508282
0.523973 0.520173 0.509326
0.525406 0.521218 0.510371
0.526839 0.522263 0.511416
0.505963 0.507987 0.496751
0.507396 0.509031 0.497796
0.508829 0.510076 0.498841
0.510262 0.511121 0.499886
0.511695 0.512165 0.500930
0.513128 0.513210 0.501975
0.514561 0.514255 0.503020
0.515994 0.515300 0.504064
0.517427 0.516344 0.505109
0.518860 0.517389 0.506154
0.520293 0.518434 0.507198
0.521725 0.519478 0.508243
0.523158 0.520523 0.509288
0.524591 0.521568 0.510333
0.526024 0.522612 0.511377
0.527457 0.523657 0.512422
0.528890 0.524702 0.513467
0.508014 0.510426 0.498802
0.509447 0.511470 0.499847
0.510880 0.512515 0.500892
0.512313 0.513560 0.501937
0.513746 0.514605 0.502981
0.515179 0.515649 0.504026
0.516612 0.516694 0.505071
0.518045 0.517739 0.506115
0.519478 0.518783 0.507160
0.520911 0.519828 0.508205
0.522344 0.520873 0.509249
0.523776 0.521918 0.510294
0.525209 0.522962 0.511339
0.526642 0.524007 0.512384
0.528075 0.525052 0.513428
0.529508 0.526096 0.514473
0.530941 0.527141 0.515518
0.475597 0.471797 0.466773
0.477030 0.472841 0.467818
0.478463 0.473886 0.468863
0.479895 0.474931 0.469907
0.481328 0.475975 0.470952
0.482761 0.477020 0.471997
0.484194 0.478065 0.473041
0.485627 0.479110 0.474086
0.487060 0.480154 0.475131
0.488493 0.481199 0.476175
0.489926 0.482244 0.477220
0.491359 0.483288 0.478265
0.492792 0.484333 0.479310
0.494225 0.485378 0.480354
0.495658 0.486423 0.481399
0.497091 0.487467 0.482444
0.498524 0.488512 0.483488
0.477648 0.474236 0.468824
0.479081 0.475281 0.469869
0.480513 0.476325 0.470913
0.481946 0.477370 0.471958
0.483379 0.478415 0.473003
0.484812 0.479459 0.474048
0.486245 0.480504 0.475092
0.487678 0.481549 0.476137
0.489111 0.482594 0.477182
0.490544 0.483638 0.478226
0.491977 0.484683 0.479271
0.493410 0.485728 0.480316
0.494843 0.486772 0.481361
0.496276 0.487817 0.482405
0.497709 0.488862 0.483450
0.499142 0.489907 0.484495
0.500575 0.490951 0.485539
0.479699 0.476675 0.470875
0.481132 0.477720 0.471920
0.482564 0.478764 0.472964
0.483997 0.479809 0.474009
0.485430 0.480854 0.475054
0.486863 0.481899 0.476099
0.488296 0.482943 0.477143
0.489729 0.483988 0.478188
0.491162 0.485033 0.479233
0.492595 0.486077 0.480277
0.494028 0.487122 0.481322
0.495461 0.488167 0.482367
0.496894 0.489212 0.483412
0.498327 0.490256 0.484456
0.499760 0.491301 0.485501
0.501193 0.492346 0.486546
0.502626 0.493390 0.487590
0.481750 0.479114 0.472926
0.483183 0.480159 0.473971
0.484615 0.481204 0.475015
0.486048 0.482248 0.476060
0.487481 0.483293 0.477105
0.488914 0.484338 0.478150
0.490347 0.485383 0.479194
0.491780 0.486427 0.480239
0.493213 0.487472 0.481284
0.494646 0.488517 0.482328
0.496079 0.489561 0.483373
0.497512 0.490606 0.484418
0.498945 0.491651 0.485463
0.500378 0.492696 0.486507
0.501811 0.493740 0.487552
0.503244 0.494785 0.488597
0.504677 0.495830 0.489641
0.483801 0.481553 0.474977
0.485234 0.482598 0.476022
0.486666 0.483643 0.477066
0.488099 0.484688 0.478111
0.489532 0.485732 0.479156
0.490965 0.486777 0.480201
0.492398 0.487822 0.481245
0.493831 0.488866 0.482290
0.495264 0.489911 0.483335
0.496697 0.490956 0.484379
0.498130 0.492001 0.485424
0.499563 0.493045 0.486469
0.500996 0.494090 0.487514
0.502429 0.495135 0.488558
0.503862 0.496179 0.489603
0.505295 0.497224 0.490648
0.506728 0.498269 0.491692
0.485852 0.483993 0.477028
0.487285 0.485037 0.478073
0.488717 0.486082 0.479117
0.490150 0.487127 0.480162
0.491583 0.488172 0.481207
0.493016 0.489216 0.482252
0.494449 0.490261 0.483296
0.495882 0.491306 0.484341
0.497315 0.492350 0.485386
0.498748 0.493395 0.486430
0.500181 0.494440 0.487475
0.501614 0.495485 0.488520
0.503047 0.496529 0.489565
0.504480 0.497574 0.490609
0.505913 0.498619 0.491654
0.507346 0.499663 0.492699
0.508779 0.500708 0.493743
0.487903 0.486432 0.479079
0.489336 0.487477 0.480124
0.490768 0.488521 0.481168
0.492201 0.489566 0.482213
0.493634 0.490611 0.483258
0.495067 0.491655 0.484303
0.496500 0.492700 0.485347
0.497933 0.493745 0.486392
0.499366 0.494790 0.487437
0.500799 0.495834 0.488481
0.502232 0.496879 0.489526
0.503665 0.497924 0.490571
0.505098 0.498968 0.491616
0.506531 0.500013 0.492660
0.507964 0.501058 0.493705
0.509397 0.502103 0.494750
0.510830 0.503147 0.495794
0.489954 0.488871 0.481130
0.491386 0.489916 0.482175
0.492819 0.490961 0.483219
0.494252 0.492005 0.484264
0.495685 0.493050 0.485309
0.497118 0.494095 0.486354
0.498551 0.495139 0.487398
0.499984 0.496184 0.488443
0.501417 0.497229 0.489488
0.502850 0.498274 0.490532
0.504283 0.499318 0.491577
0.505716 0.500363 0.492622
0.507149 0.501408 0.493667
0.508582 0.502452 0.494711
0.510015 0.503497 0.495756
0.511448 0.504542 0.496801
0.512881 0.505587 0.497845
0.492005 0.491310 0.483181
0.493437 0.492355 0.484226
0.494870 0.493400 0.485270
0.496303 0.494444 0.486315
0.497736 0.495489 0.487360
0.499169 0.496534 0.488405
0.500602 0.497579 0.489449
0.502035 0.498623 0.490494
0.503468 0.499668 0.491539
0.504901 0.500713 0.492583
0.506334 0.501757 0.493628
0.507767 0.502802 0.494673
0.509200 0.503847 0.495718
0.510633 0.504892 0.496762
0.512066 0.505936 0.497807
0.513499 0.506981 0.498852
0.514932 0.508026 0.499896
0.494056 0.493750 0.485232
0.495488 0.494794 0.486277
0.496921 0.495839 0.487321
0.498354 0.496884 0.488366
0.499787 0.497928 0.489411
0.501220 0.498973 0.490456
0.502653 0.500018 0.491500
0.504086 0.501063 0.492545
0.505519 0.502107 0.493590
0.506952 0.503152 0.494634
0.508385 0.504197 0.495679
0.509818 0.505241 0.496724
0.511251 0.506286 0.497769
0.512684 0.507331 0.498813
0.514117 0.508376 0.499858
0.515550 0.509420 0.500903
0.516983 0.510465 0.501947
0.496107 0.496189 0.487283
0.497539 0.497233 0.488328
0.498972 0.498278 0.489372
0.500405 0.499323 0.490417
0.501838 0.500368 0.491462
0.503271 0.501412 0.492507
0.504704 0.502457 0.493551
0.506137 0.503502 0.494596
0.507570 0.504546 0.495641
0.509003 0.505591 0.496685
0.510436 0.506636 0.497730
0.511869 0.507681 0.498775
0.513302 0.508725 0.499820
0.514735 0.509770 0.500864
0.516168 0.510815 0.501909
0.517601 0.511859 0.502954
0.519034 0.512904 0.503998
0.498158 0.498628 0.489334
0.499590 0.499673 0.490379
0.501023 0.500717 0.491423
0.502456 0.501762 0.492468
0.503889 0.502807 0.493513
0.505322 0.503852 0.494558
0.506755 0.504896 0.495602
0.508188 0.505941 0.496647
0.509621 0.506986 0.497692
0.511054 0.508030 0.498736
0.512487 0.509075 0.499781
0.513920 0.510120 0.500826
0.515353 0.511165 0.501871
0.516786 0.512209 0.502915
0.518219 0.513254 0.503960
0.519652 0.514299 0.505005
0.521084 0.515343 0.506049
0.500209 0.501067 0.491385
0.501641 0.502112 0.492430
0.503074 0.503157 0.493474
0.504507 0.504201 0.494519
0.505940 0.505246 0.495564
0.507373 0.506291 0.496609
0.508806 0.507335 0.497653
0.510239 0.508380 0.498698
0.511672 0.509425 0.499743
0.513105 0.510470 0.500787
0.514538 0.511514 0.501832
0.515971 0.512559 0.502877
0.517404 0.513604 0.503921
0.518837 0.514648 0.504966
0.520270 0.515693 0.506011
0.521703 0.516738 0.507056
0.523135 0.517783 0.508100
0.502259 0.503506 0.493436
0.503692 0.504551 0.494481
0.505125 0.505596 0.495525
0.506558 0.506641 0.496570
0.507991 0.507685 0.497615
0.509424 0.508730 0.498660
0.510857 0.509775 0.499704
0.512290 0.510819 0.500749
0.513723 0.511864 0.501794
0.515156 0.512909 0.502838
0.516589 0.513954 0.503883
0.518022 0.514998 0.504928
0.519455 0.516043 0.505972
0.520888 0.517088 0.507017
0.522321 0.518132 0.508062
0.523754 0.519177 0.509107
0.525186 0.520222 0.510151
0.504310 0.505946 0.495487
0.505743 0.506990 0.496532
0.507176 0.508035 0.497576
0.508609 0.509080 0.498621
0.510042 0.510124 0.499666
0.511475 0.511169 0.500710
0.512908 0.512214 0.501755
0.514341 0.513259 0.502800
0.515774 0.514303 0.503845
0.517207 0.515348 0.504889
0.518640 0.516393 0.505934
0.520073 0.517437 0.506979
0.521506 0.518482 0.508023
0.522939 0.519527 0.509068
0.524372 0.520572 0.510113
0.525805 0.521616 0.511158
0.527237 0.522661 0.512202
0.506361 0.508385 0.497538
0.507794 0.509430 0.498583
0.509227 0.510474 0.499627
0.510660 0.511519 0.500672
0.512093 0.512564 0.501717
0.513526 0.513608 0.502761
0.514959 0.514653 0.503806
0.516392 0.515698 0.504851
0.517825 0.516743 0.505896
0.519258 0.517787 0.506940
0.520691 0.518832 0.507985
0.522124 0.519877 0.509030
0.523557 0.520921 0.510074
0.524990 0.521966 0.511119
0.526423 0.523011 0.512164
0.527856 0.524056 0.513209
0.529288 0.525100 0.514253
0.508412 0.510824 0.499589
0.509845 0.511869 0.500634
0.511278 0.512913 0.501678
0.512711 0.513958 0.502723
0.514144 0.515003 0.503768
0.515577 0.516048 0.504812
0.517010 0.517092 0.505857
0.518443 0.518137 0.506902
0.519876 0.519182 0.507947
0.521309 0.520226 0.508991
0.522742 0.521271 0.510036
0.524175 0.522316 0.511081
0.525608 0.523361 0.512125
0.527041 0.524405 0.513170
0.528474 0.525450 0.514215
0.529907 0.526495 0.515260
0.531339 0.527539 0.516304
0.475995 0.472195 0.467560
0.477428 0.473240 0.468604
0.478861 0.474284 0.469649
0.480294 0.475329 0.470694
0.481727 0.476374 0.471738
0.483160 0.477419 0.472783
0.484593 0.478463 0.473828
0.486026 0.479508 0.474873
0.487458 0.480553 0.475917
0.488891 0.481597 0.476962
0.490324 0.482642 0.478007
0.491757 0.483687 0.479051
0.493190 0.484731 0.480096
0.494623 0.485776 0.481141
0.496056 0.486821 0.482186
0.497489 0.487866 0.483230
0.498922 0.488910 0.484275
0.478046 0.474634 0.469611
