shared/src/main/assets/luts/mv_natural_pop.cube
TITLE "DALUR Natural Pop"
LUT_3D_SIZE 5
DOMAIN_MIN 0.0 0.0 0.0
DOMAIN_MAX 1.0 1.0 1.0
0.474800 0.471000 0.465200
0.480532 0.475179 0.469379
0.486263 0.479358 0.473558
0.491995 0.483537 0.477737
0.497727 0.487715 0.481915
0.483004 0.480757 0.473404
0.488736 0.484936 0.477583
0.494467 0.489115 0.481762
0.500199 0.493293 0.485940
0.505931 0.497472 0.490119
0.491208 0.490514 0.481608
0.496940 0.494693 0.485787
0.502671 0.498871 0.489966
0.508403 0.503050 0.494144
0.514135 0.507229 0.498323
0.499412 0.500271 0.489812
0.505144 0.504449 0.493991
0.510875 0.508628 0.498170
0.516607 0.512807 0.502348
0.522339 0.516986 0.506527
0.507616 0.510027 0.498016
0.513348 0.514206 0.502195
0.519079 0.518385 0.506374
0.524811 0.522564 0.510552
0.530543 0.526743 0.514731
0.476393 0.472593 0.468346
0.482125 0.476772 0.472525
0.487857 0.480951 0.476704
0.493589 0.485130 0.480883
0.499320 0.489309 0.485062
0.484597 0.482350 0.476550
0.490329 0.486529 0.480729
0.496061 0.490708 0.484908
0.501792 0.494887 0.489087
0.507524 0.499066 0.493266
0.492801 0.492107 0.484754
0.498533 0.496286 0.488933
0.504265 0.500465 0.493112
0.509996 0.504644 0.497291
0.515728 0.508822 0.501469
0.501005 0.501864 0.492958
0.506737 0.506043 0.497137
0.512469 0.510222 0.501316
0.518200 0.514400 0.505495
0.523932 0.518579 0.509673
0.509209 0.511621 0.501162
0.514941 0.515800 0.505341
0.520673 0.519978 0.509520
0.526404 0.524157 0.513699
0.532136 0.528336 0.517877
0.477987 0.474187 0.471492
0.483718 0.478365 0.475671
0.489450 0.482544 0.479850
0.495182 0.486723 0.484029
0.500914 0.490902 0.488208
0.486191 0.483943 0.479696
0.491922 0.488122 0.483875
0.497654 0.492301 0.488054
0.503386 0.496480 0.492233
0.509117 0.500659 0.496412
0.494394 0.493700 0.487900
0.500126 0.497879 0.492079
0.505858 0.502058 0.496258
0.511590 0.506237 0.500437
0.517321 0.510416 0.504616
0.502598 0.503457 0.496104
0.508330 0.507636 0.500283
0.514062 0.511815 0.504462
0.519794 0.515994 0.508641
0.525525 0.520172 0.512820
0.510802 0.513214 0.504308
0.516534 0.517393 0.508487
0.522266 0.521572 0.512666
0.527998 0.525751 0.516845
0.533729 0.529929 0.521024
0.479580 0.475780 0.474639
0.485312 0.479959 0.478817
0.491043 0.484138 0.482996
0.496775 0.488316 0.487175
0.502507 0.492495 0.491354
0.487784 0.485537 0.482842
0.493516 0.489716 0.487021
0.499247 0.493894 0.491200
0.504979 0.498073 0.495379
0.510711 0.502252 0.499558
0.495988 0.495294 0.491046
0.501719 0.499472 0.495225
0.507451 0.503651 0.499404
0.513183 0.507830 0.503583
0.518915 0.512009 0.507762
0.504192 0.505050 0.499250
0.509923 0.509229 0.503429
0.515655 0.513408 0.507608
0.521387 0.517587 0.511787
0.527119 0.521766 0.515966
0.512396 0.514807 0.507454
0.518127 0.518986 0.511633
0.523859 0.523165 0.515812
0.529591 0.527344 0.519991
0.535323 0.531523 0.524170
0.481173 0.477373 0.477785
0.486905 0.481552 0.481964
0.492637 0.485731 0.486142
0.498368 0.489910 0.490321
0.504100 0.494088 0.494500
0.489377 0.487130 0.485989
0.495109 0.491309 0.490167
0.500841 0.495488 0.494346
0.506572 0.499666 0.498525
0.512304 0.503845 0.502704
0.497581 0.496887 0.494193
0.503313 0.501066 0.498371
0.509044 0.505244 0.502550
0.514776 0.509423 0.506729
0.520508 0.513602 0.510908
0.505785 0.506644 0.502397
0.511517 0.510823 0.506575
0.517248 0.515001 0.510754
0.522980 0.519180 0.514933
0.528712 0.523359 0.519112
0.513989 0.516401 0.510601
0.519721 0.520579 0.514779
0.525452 0.524758 0.518958
0.531184 0.528937 0.523137
0.536916 0.533116 0.527316
