shared/src/main/assets/luts/mv_natural_pop.cube
TITLE "DALUR Natural Pop"
LUT_3D_SIZE 9
DOMAIN_MIN 0.0 0.0 0.0
DOMAIN_MAX 1.0 1.0 1.0
0.474800 0.471000 0.465200
0.477666 0.473089 0.467289
0.480532 0.475179 0.469379
0.483398 0.477268 0.471468
0.486263 0.479358 0.473558
0.489129 0.481447 0.475647
0.491995 0.483537 0.477737
0.494861 0.485626 0.479826
0.497727 0.487715 0.481915
0.478902 0.475878 0.469302
0.481768 0.477968 0.471391
0.484634 0.480057 0.473481
0.487500 0.482147 0.475570
0.490365 0.484236 0.477660
0.493231 0.486326 0.479749
0.496097 0.488415 0.481839
0.498963 0.490504 0.483928
0.501829 0.492594 0.486017
0.483004 0.480757 0.473404
0.485870 0.482846 0.475493
0.488736 0.484936 0.477583
0.491602 0.487025 0.479672
0.494467 0.489115 0.481762
0.497333 0.491204 0.483851
0.500199 0.493293 0.485940
0.503065 0.495383 0.488030
0.505931 0.497472 0.490119
0.487106 0.485635 0.477506
0.489972 0.487725 0.479595
0.492838 0.489814 0.481685
0.495704 0.491904 0.483774
0.498569 0.493993 0.485864
0.501435 0.496082 0.487953
0.504301 0.498172 0.490042
0.507167 0.500261 0.492132
0.510033 0.502351 0.494221
0.491208 0.490514 0.481608
0.494074 0.492603 0.483697
0.496940 0.494693 0.485787
0.499806 0.496782 0.487876
0.502671 0.498871 0.489966
0.505537 0.500961 0.492055
0.508403 0.503050 0.494144
0.511269 0.505140 0.496234
0.514135 0.507229 0.498323
0.495310 0.495392 0.485710
0.498176 0.497482 0.487799
0.501042 0.499571 0.489889
0.503908 0.501660 0.491978
0.506773 0.503750 0.494068
0.509639 0.505839 0.496157
0.512505 0.507929 0.498246
0.515371 0.510018 0.500336
0.518237 0.512108 0.502425
0.499412 0.500271 0.489812
0.502278 0.502360 0.491901
0.505144 0.504449 0.493991
0.508009 0.506539 0.496080
0.510875 0.508628 0.498170
0.513741 0.510718 0.500259
0.516607 0.512807 0.502348
0.519473 0.514897 0.504438
0.522339 0.516986 0.506527
0.503514 0.505149 0.493914
0.506380 0.507238 0.496003
0.509246 0.509328 0.498093
0.512111 0.511417 0.500182
0.514977 0.513507 0.502272
0.517843 0.515596 0.504361
0.520709 0.517686 0.506450
0.523575 0.519775 0.508540
0.526441 0.521864 0.510629
0.507616 0.510027 0.498016
0.510482 0.512117 0.500105
0.513348 0.514206 0.502195
0.516213 0.516296 0.504284
0.519079 0.518385 0.506374
0.521945 0.520475 0.508463
0.524811 0.522564 0.510552
0.527677 0.524653 0.512642
0.530543 0.526743 0.514731
0.475597 0.471797 0.466773
0.478463 0.473886 0.468863
0.481328 0.475975 0.470952
0.484194 0.478065 0.473041
0.487060 0.480154 0.475131
0.489926 0.482244 0.477220
0.492792 0.484333 0.479310
0.495658 0.486423 0.481399
0.498524 0.488512 0.483488
0.479699 0.476675 0.470875
0.482564 0.478764 0.472964
0.485430 0.480854 0.475054
0.488296 0.482943 0.477143
0.491162 0.485033 0.479233
0.494028 0.487122 0.481322
0.496894 0.489212 0.483412
0.499760 0.491301 0.485501
0.502626 0.493390 0.487590
0.483801 0.481553 0.474977
0.486666 0.483643 0.477066
0.489532 0.485732 0.479156
0.492398 0.487822 0.481245
0.495264 0.489911 0.483335
0.498130 0.492001 0.485424
0.500996 0.494090 0.487514
0.503862 0.496179 0.489603
0.506728 0.498269 0.491692
0.487903 0.486432 0.479079
0.490768 0.488521 0.481168
0.493634 0.490611 0.483258
0.496500 0.492700 0.485347
0.499366 0.494790 0.487437
0.502232 0.496879 0.489526
0.505098 0.498968 0.491616
0.507964 0.501058 0.493705
0.510830 0.503147 0.495794
0.492005 0.491310 0.483181
0.494870 0.493400 0.485270
0.497736 0.495489 0.487360
0.500602 0.497579 0.489449
0.503468 0.499668 0.491539
0.506334 0.501757 0.493628
0.509200 0.503847 0.495718
0.512066 0.505936 0.497807
0.514932 0.508026 0.499896
0.496107 0.496189 0.487283
0.498972 0.498278 0.489372
0.501838 0.500368 0.491462
0.504704 0.502457 0.493551
0.507570 0.504546 0.495641
0.510436 0.506636 0.497730
0.513302 0.508725 0.499820
0.516168 0.510815 0.501909
0.519034 0.512904 0.503998
0.500209 0.501067 0.491385
0.503074 0.503157 0.493474
0.505940 0.505246 0.495564
0.508806 0.507335 0.497653
0.511672 0.509425 0.499743
0.514538 0.511514 0.501832
0.517404 0.513604 0.503921
0.520270 0.515693 0.506011
0.523135 0.517783 0.508100
0.504310 0.505946 0.495487
0.507176 0.508035 0.497576
0.510042 0.510124 0.499666
0.512908 0.512214 0.501755
0.515774 0.514303 0.503845
0.518640 0.516393 0.505934
0.521506 0.518482 0.508023
0.524372 0.520572 0.510113
0.527237 0.522661 0.512202
0.508412 0.510824 0.499589
0.511278 0.512913 0.501678
0.514144 0.515003 0.503768
0.517010 0.517092 0.505857
0.519876 0.519182 0.507947
0.522742 0.521271 0.510036
0.525608 0.523361 0.512125
0.528474 0.525450 0.514215
0.531339 0.527539 0.516304
0.476393 0.472593 0.468346
0.479259 0.474683 0.470436
0.482125 0.476772 0.472525
0.484991 0.478862 0.474614
0.487857 0.480951 0.476704
0.490723 0.483040 0.478793
0.493589 0.485130 0.480883
0.496454 0.487219 0.482972
0.499320 0.489309 0.485062
0.480495 0.477472 0.472448
0.483361 0.479561 0.474538
0.486227 0.481651 0.476627
0.489093 0.483740 0.478716
0.491959 0.485829 0.480806
0.494825 0.487919 0.482895
0.497690 0.490008 0.484985
0.500556 0.492098 0.487074
0.503422 0.494187 0.489164
0.484597 0.482350 0.476550
0.487463 0.484440 0.478640
0.490329 0.486529 0.480729
0.493195 0.488618 0.482818
0.496061 0.490708 0.484908
0.498927 0.492797 0.486997
0.501792 0.494887 0.489087
0.504658 0.496976 0.491176
0.507524 0.499066 0.493266
0.488699 0.487229 0.480652
0.491565 0.489318 0.482742
0.494431 0.491407 0.484831
0.497297 0.493497 0.486920
0.500163 0.495586 0.489010
0.503029 0.497676 0.491099
0.505894 0.499765 0.493189
0.508760 0.501855 0.495278
0.511626 0.503944 0.497367
0.492801 0.492107 0.484754
0.495667 0.494196 0.486844
0.498533 0.496286 0.488933
0.501399 0.498375 0.491022
0.504265 0.500465 0.493112
0.507131 0.502554 0.495201
0.509996 0.504644 0.497291
0.512862 0.506733 0.499380
0.515728 0.508822 0.501469
0.496903 0.496985 0.488856
0.499769 0.499075 0.490945
0.502635 0.501164 0.493035
0.505501 0.503254 0.495124
0.508367 0.505343 0.497214
0.511233 0.507433 0.499303
0.514098 0.509522 0.501393
0.516964 0.511611 0.503482
0.519830 0.513701 0.505571
0.501005 0.501864 0.492958
0.503871 0.503953 0.495047
0.506737 0.506043 0.497137
0.509603 0.508132 0.499226
0.512469 0.510222 0.501316
0.515335 0.512311 0.503405
0.518200 0.514400 0.505495
0.521066 0.516490 0.507584
0.523932 0.518579 0.509673
0.505107 0.506742 0.497060
0.507973 0.508832 0.499149
0.510839 0.510921 0.501239
0.513705 0.513011 0.503328
0.516571 0.515100 0.505418
0.519436 0.517189 0.507507
0.522302 0.519279 0.509597
0.525168 0.521368 0.511686
0.528034 0.523458 0.513775
0.509209 0.511621 0.501162
0.512075 0.513710 0.503251
0.514941 0.515800 0.505341
0.517807 0.517889 0.507430
0.520673 0.519978 0.509520
0.523538 0.522068 0.511609
0.526404 0.524157 0.513699
0.529270 0.526247 0.515788
0.532136 0.528336 0.517877
0.477190 0.473390 0.469919
0.480056 0.475479 0.472009
0.482922 0.477569 0.474098
0.485788 0.479658 0.476188
0.488653 0.481748 0.478277
0.491519 0.483837 0.480366
0.494385 0.485926 0.482456
0.497251 0.488016 0.484545
0.500117 0.490105 0.486635
0.481292 0.478268 0.474021
0.484158 0.480358 0.476111
0.487024 0.482447 0.478200
0.489890 0.484537 0.480290
0.492755 0.486626 0.482379
0.495621 0.488715 0.484468
0.498487 0.490805 0.486558
0.501353 0.492894 0.488647
0.504219 0.494984 0.490737
0.485394 0.483147 0.478123
0.488260 0.485236 0.480213
0.491126 0.487326 0.482302
0.493991 0.489415 0.484391
0.496857 0.491504 0.486481
0.499723 0.493594 0.488570
0.502589 0.495683 0.490660
0.505455 0.497773 0.492749
0.508321 0.499862 0.494839
0.489496 0.488025 0.482225
0.492362 0.490115 0.484315
0.495228 0.492204 0.486404
0.498093 0.494293 0.488493
0.500959 0.496383 0.490583
0.503825 0.498472 0.492672
0.506691 0.500562 0.494762
0.509557 0.502651 0.496851
0.512423 0.504741 0.498941
0.493598 0.492904 0.486327
0.496464 0.494993 0.488417
0.499330 0.497082 0.490506
0.502195 0.499172 0.492595
0.505061 0.501261 0.494685
0.507927 0.503351 0.496774
0.510793 0.505440 0.498864
0.513659 0.507530 0.500953
0.516525 0.509619 0.503043
0.497700 0.497782 0.490429
0.500566 0.499871 0.492519
0.503432 0.501961 0.494608
0.506297 0.504050 0.496697
0.509163 0.506140 0.498787
0.512029 0.508229 0.500876
0.514895 0.510319 0.502966
0.517761 0.512408 0.505055
0.520627 0.514497 0.507145
0.501802 0.502660 0.494531
0.504668 0.504750 0.496621
0.507534 0.506839 0.498710
0.510399 0.508929 0.500799
0.513265 0.511018 0.502889
0.516131 0.513108 0.504978
0.518997 0.515197 0.507068
0.521863 0.517286 0.509157
0.524729 0.519376 0.511247
0.505904 0.507539 0.498633
0.508770 0.509628 0.500723
0.511636 0.511718 0.502812
0.514501 0.513807 0.504901
0.517367 0.515897 0.506991
0.520233 0.517986 0.509080
0.523099 0.520075 0.511170
0.525965 0.522165 0.513259
0.528831 0.524254 0.515348
0.510006 0.512417 0.502735
0.512872 0.514507 0.504825
0.515737 0.516596 0.506914
0.518603 0.518686 0.509003
0.521469 0.520775 0.511093
0.524335 0.522864 0.513182
0.527201 0.524954 0.515272
0.530067 0.527043 0.517361
0.532933 0.529133 0.519450
0.477987 0.474187 0.471492
0.480852 0.476276 0.473582
0.483718 0.478365 0.475671
0.486584 0.480455 0.477761
0.489450 0.482544 0.479850
0.492316 0.484634 0.481939
0.495182 0.486723 0.484029
0.498048 0.488813 0.486118
0.500914 0.490902 0.488208
0.482089 0.479065 0.475594
0.484954 0.481154 0.477684
0.487820 0.483244 0.479773
0.490686 0.485333 0.481863
0.493552 0.487423 0.483952
0.496418 0.489512 0.486041
0.499284 0.491602 0.488131
0.502150 0.493691 0.490220
0.505016 0.495780 0.492310
0.486191 0.483943 0.479696
0.489056 0.486033 0.481786
0.491922 0.488122 0.483875
0.494788 0.490212 0.485965
0.497654 0.492301 0.488054
0.500520 0.494391 0.490143
0.503386 0.496480 0.492233
0.506252 0.498569 0.494322
0.509117 0.500659 0.496412
0.490292 0.488822 0.483798
0.493158 0.490911 0.485888
0.496024 0.493001 0.487977
0.498890 0.495090 0.490067
0.501756 0.497180 0.492156
0.504622 0.499269 0.494245
0.507488 0.501358 0.496335
0.510354 0.503448 0.498424
0.513219 0.505537 0.500514
0.494394 0.493700 0.487900
0.497260 0.495790 0.489990
0.500126 0.497879 0.492079
0.502992 0.499969 0.494169
0.505858 0.502058 0.496258
0.508724 0.504147 0.498347
0.511590 0.506237 0.500437
0.514456 0.508326 0.502526
0.517321 0.510416 0.504616
0.498496 0.498579 0.492002
0.501362 0.500668 0.494092
0.504228 0.502758 0.496181
0.507094 0.504847 0.498271
0.509960 0.506936 0.500360
0.512826 0.509026 0.502449
0.515692 0.511115 0.504539
0.518558 0.513205 0.506628
0.521423 0.515294 0.508718
0.502598 0.503457 0.496104
0.505464 0.505547 0.498194
0.508330 0.507636 0.500283
0.511196 0.509725 0.502372
0.514062 0.511815 0.504462
0.516928 0.513904 0.506551
0.519794 0.515994 0.508641
0.522660 0.518083 0.510730
0.525525 0.520172 0.512820
0.506700 0.508336 0.500206
0.509566 0.510425 0.502296
0.512432 0.512514 0.504385
0.515298 0.514604 0.506474
0.518164 0.516693 0.508564
0.521030 0.518783 0.510653
0.523896 0.520872 0.512743
0.526761 0.522961 0.514832
0.529627 0.525051 0.516922
0.510802 0.513214 0.504308
0.513668 0.515303 0.506398
0.516534 0.517393 0.508487
0.519400 0.519482 0.510576
0.522266 0.521572 0.512666
0.525132 0.523661 0.514755
0.527998 0.525751 0.516845
0.530863 0.527840 0.518934
0.533729 0.529929 0.521024
0.478783 0.474983 0.473065
0.481649 0.477073 0.475155
0.484515 0.479162 0.477244
0.487381 0.481251 0.479334
0.490247 0.483341 0.481423
0.493113 0.485430 0.483513
0.495978 0.487520 0.485602
0.498844 0.489609 0.487691
0.501710 0.491699 0.489781
0.482885 0.479862 0.477167
0.485751 0.481951 0.479257
0.488617 0.484040 0.481346
0.491483 0.486130 0.483436
0.494349 0.488219 0.485525
0.497215 0.490309 0.487615
0.500080 0.492398 0.489704
0.502946 0.494488 0.491793
0.505812 0.496577 0.493883
0.486987 0.484740 0.481269
0.489853 0.486829 0.483359
0.492719 0.488919 0.485448
0.495585 0.491008 0.487538
0.498451 0.493098 0.489627
0.501316 0.495187 0.491716
0.504182 0.497277 0.493806
0.507048 0.499366 0.495895
0.509914 0.501455 0.497985
0.491089 0.489618 0.485371
0.493955 0.491708 0.487461
0.496821 0.493797 0.489550
0.499687 0.495887 0.491640
0.502553 0.497976 0.493729
0.505418 0.500066 0.495818
0.508284 0.502155 0.497908
0.511150 0.504244 0.499997
0.514016 0.506334 0.502087
0.495191 0.494497 0.489473
0.498057 0.496586 0.491563
0.500923 0.498676 0.493652
0.503789 0.500765 0.495742
0.506655 0.502855 0.497831
0.509520 0.504944 0.499920
0.512386 0.507033 0.502010
0.515252 0.509123 0.504099
0.518118 0.511212 0.506189
0.499293 0.499375 0.493575
0.502159 0.501465 0.495665
0.505025 0.503554 0.497754
0.507891 0.505644 0.499844
0.510757 0.507733 0.501933
0.513622 0.509822 0.504022
0.516488 0.511912 0.506112
0.519354 0.514001 0.508201
0.522220 0.516091 0.510291
0.503395 0.504254 0.497677
0.506261 0.506343 0.499767
0.509127 0.508433 0.501856
0.511993 0.510522 0.503946
0.514859 0.512611 0.506035
0.517724 0.514701 0.508124
0.520590 0.516790 0.510214
0.523456 0.518880 0.512303
0.526322 0.520969 0.514393
0.507497 0.509132 0.501779
0.510363 0.511222 0.503869
0.513229 0.513311 0.505958
0.516095 0.515400 0.508048
0.518961 0.517490 0.510137
0.521826 0.519579 0.512226
0.524692 0.521669 0.514316
0.527558 0.523758 0.516405
0.530424 0.525848 0.518495
0.511599 0.514011 0.505881
0.514465 0.516100 0.507971
0.517331 0.518189 0.510060
0.520197 0.520279 0.512150
0.523062 0.522368 0.514239
0.525928 0.524458 0.516328
0.528794 0.526547 0.518418
0.531660 0.528637 0.520507
0.534526 0.530726 0.522597
0.479580 0.475780 0.474639
0.482446 0.477869 0.476728
0.485312 0.479959 0.478817
0.488177 0.482048 0.480907
0.491043 0.484138 0.482996
0.493909 0.486227 0.485086
0.496775 0.488316 0.487175
0.499641 0.490406 0.489264
0.502507 0.492495 0.491354
0.483682 0.480658 0.478740
0.486548 0.482748 0.480830
0.489414 0.484837 0.482919
0.492279 0.486927 0.485009
0.495145 0.489016 0.487098
0.498011 0.491105 0.489188
0.500877 0.493195 0.491277
0.503743 0.495284 0.493366
0.506609 0.497374 0.495456
0.487784 0.485537 0.482842
0.490650 0.487626 0.484932
0.493516 0.489716 0.487021
0.496381 0.491805 0.489111
0.499247 0.493894 0.491200
0.502113 0.495984 0.493290
0.504979 0.498073 0.495379
0.507845 0.500163 0.497468
0.510711 0.502252 0.499558
0.491886 0.490415 0.486944
0.494752 0.492505 0.489034
0.497617 0.494594 0.491123
0.500483 0.496683 0.493213
0.503349 0.498773 0.495302
0.506215 0.500862 0.497392
0.509081 0.502952 0.499481
0.511947 0.505041 0.501570
0.514813 0.507130 0.503660
0.495988 0.495294 0.491046
0.498854 0.497383 0.493136
0.501719 0.499472 0.495225
0.504585 0.501562 0.497315
0.507451 0.503651 0.499404
0.510317 0.505741 0.501494
0.513183 0.507830 0.503583
0.516049 0.509919 0.505672
0.518915 0.512009 0.507762
0.500090 0.500172 0.495148
0.502956 0.502261 0.497238
0.505821 0.504351 0.499327
0.508687 0.506440 0.501417
0.511553 0.508530 0.503506
0.514419 0.510619 0.505596
0.517285 0.512708 0.507685
0.520151 0.514798 0.509774
0.523017 0.516887 0.511864
0.504192 0.505050 0.499250
0.507058 0.507140 0.501340
0.509923 0.509229 0.503429
0.512789 0.511319 0.505519
0.515655 0.513408 0.507608
0.518521 0.515497 0.509697
0.521387 0.517587 0.511787
0.524253 0.519676 0.513876
0.527119 0.521766 0.515966
0.508294 0.509929 0.503352
0.511160 0.512018 0.505442
0.514025 0.514108 0.507531
0.516891 0.516197 0.509621
0.519757 0.518287 0.511710
0.522623 0.520376 0.513799
0.525489 0.522465 0.515889
0.528355 0.524555 0.517978
0.531221 0.526644 0.520068
0.512396 0.514807 0.507454
0.515262 0.516897 0.509544
0.518127 0.518986 0.511633
0.520993 0.521076 0.513723
0.523859 0.523165 0.515812
0.526725 0.525254 0.517901
0.529591 0.527344 0.519991
0.532457 0.529433 0.522080
0.535323 0.531523 0.524170
0.480376 0.476576 0.476212
0.483242 0.478666 0.478301
0.486108 0.480755 0.480390
0.488974 0.482845 0.482480
0.491840 0.484934 0.484569
0.494706 0.487024 0.486659
0.497572 0.489113 0.488748
0.500438 0.491202 0.490838
0.503303 0.493292 0.492927
0.484478 0.481455 0.480314
0.487344 0.483544 0.482403
0.490210 0.485634 0.484492
0.493076 0.487723 0.486582
0.495942 0.489813 0.488671
0.498808 0.491902 0.490761
0.501674 0.493991 0.492850
0.504540 0.496081 0.494940
0.507405 0.498170 0.497029
0.488580 0.486333 0.484416
0.491446 0.488423 0.486505
0.494312 0.490512 0.488594
0.497178 0.492602 0.490684
0.500044 0.494691 0.492773
0.502910 0.496780 0.494863
0.505776 0.498870 0.496952
0.508642 0.500959 0.499042
0.511507 0.503049 0.501131
0.492682 0.491212 0.488518
0.495548 0.493301 0.490607
0.498414 0.495391 0.492696
0.501280 0.497480 0.494786
0.504146 0.499569 0.496875
0.507012 0.501659 0.498965
0.509878 0.503748 0.501054
0.512743 0.505838 0.503143
0.515609 0.507927 0.505233
0.496784 0.496090 0.492620
0.499650 0.498180 0.494709
0.502516 0.500269 0.496798
0.505382 0.502358 0.498888
0.508248 0.504448 0.500977
0.511114 0.506537 0.503067
0.513980 0.508627 0.505156
0.516845 0.510716 0.507245
0.519711 0.512806 0.509335
0.500886 0.500969 0.496721
0.503752 0.503058 0.498811
0.506618 0.505147 0.500900
0.509484 0.507237 0.502990
0.512350 0.509326 0.505079
0.515216 0.511416 0.507169
0.518082 0.513505 0.509258
0.520947 0.515595 0.511347
0.523813 0.517684 0.513437
0.504988 0.505847 0.500823
0.507854 0.507936 0.502913
0.510720 0.510026 0.505002
0.513586 0.512115 0.507092
0.516452 0.514205 0.509181
0.519318 0.516294 0.511271
0.522184 0.518384 0.513360
0.525049 0.520473 0.515449
0.527915 0.522562 0.517539
0.509090 0.510725 0.504925
0.511956 0.512815 0.507015
0.514822 0.514904 0.509104
0.517688 0.516994 0.511194
0.520554 0.519083 0.513283
0.523420 0.521173 0.515373
0.526286 0.523262 0.517462
0.529151 0.525351 0.519551
0.532017 0.527441 0.521641
0.513192 0.515604 0.509027
0.516058 0.517693 0.511117
0.518924 0.519783 0.513206
0.521790 0.521872 0.515296
0.524656 0.523962 0.517385
0.527522 0.526051 0.519475
0.530388 0.528140 0.521564
0.533253 0.530230 0.523653
0.536119 0.532319 0.525743
0.481173 0.477373 0.477785
0.484039 0.479463 0.479874
0.486905 0.481552 0.481964
0.489771 0.483641 0.484053
0.492637 0.485731 0.486142
0.495502 0.487820 0.488232
0.498368 0.489910 0.490321
0.501234 0.491999 0.492411
0.504100 0.494088 0.494500
0.485275 0.482252 0.481887
0.488141 0.484341 0.483976
0.491007 0.486430 0.486066
0.493873 0.488520 0.488155
0.496739 0.490609 0.490244
0.499604 0.492699 0.492334
0.502470 0.494788 0.494423
0.505336 0.496877 0.496513
0.508202 0.498967 0.498602
0.489377 0.487130 0.485989
0.492243 0.489219 0.488078
0.495109 0.491309 0.490167
0.497975 0.493398 0.492257
0.500841 0.495488 0.494346
0.503706 0.497577 0.496436
0.506572 0.499666 0.498525
0.509438 0.501756 0.500615
0.512304 0.503845 0.502704
0.493479 0.492008 0.490091
0.496345 0.494098 0.492180
0.499211 0.496187 0.494269
0.502077 0.498277 0.496359
0.504943 0.500366 0.498448
0.507808 0.502455 0.500538
0.510674 0.504545 0.502627
0.513540 0.506634 0.504717
0.516406 0.508724 0.506806
0.497581 0.496887 0.494193
0.500447 0.498976 0.496282
0.503313 0.501066 0.498371
0.506179 0.503155 0.500461
0.509044 0.505244 0.502550
0.511910 0.507334 0.504640
0.514776 0.509423 0.506729
0.517642 0.511513 0.508819
0.520508 0.513602 0.510908
0.501683 0.501765 0.498295
0.504549 0.503855 0.500384
0.507415 0.505944 0.502473
0.510281 0.508033 0.504563
0.513146 0.510123 0.506652
0.516012 0.512212 0.508742
0.518878 0.514302 0.510831
0.521744 0.516391 0.512921
0.524610 0.518481 0.515010
0.505785 0.506644 0.502397
0.508651 0.508733 0.504486
0.511517 0.510823 0.506575
0.514383 0.512912 0.508665
0.517248 0.515001 0.510754
0.520114 0.517091 0.512844
0.522980 0.519180 0.514933
0.525846 0.521270 0.517023
0.528712 0.523359 0.519112
0.509887 0.511522 0.506499
0.512753 0.513612 0.508588
0.515619 0.515701 0.510677
0.518485 0.517790 0.512767
0.521350 0.519880 0.514856
0.524216 0.521969 0.516946
0.527082 0.524059 0.519035
0.529948 0.526148 0.521124
0.532814 0.528237 0.523214
0.513989 0.516401 0.510601
0.516855 0.518490 0.512690
0.519721 0.520579 0.514779
0.522587 0.522669 0.516869
0.525452 0.524758 0.518958
0.528318 0.526848 0.521048
0.531184 0.528937 0.523137
0.534050 0.531026 0.525226
0.536916 0.533116 0.527316
