shared/src/main/assets/luts/mv_pastel_nostalgia.cube
TITLE "DALUR Pastel Nostalgia"
LUT_3D_SIZE 9
DOMAIN_MIN 0.0 0.0 0.0
DOMAIN_MAX 1.0 1.0 1.0
0.494800 0.488000 0.485200
0.495601 0.488801 0.486001
0.496402 0.489602 0.486802
0.497203 0.490403 0.487603
0.498005 0.491205 0.488405
0.498806 0.492006 0.489206
0.499607 0.492807 0.490007
0.500408 0.493608 0.490808
0.501209 0.494409 0.491609
0.496373 0.489573 0.486773
0.497174 0.490374 0.487574
0.497975 0.491175 0.488375
0.498776 0.491976 0.489176
0.499577 0.492777 0.489977
0.500379 0.493579 0.490779
0.501180 0.494380 0.491580
0.501981 0.495181 0.492381
0.502782 0.495982 0.493182
0.497946 0.491146 0.488346
0.498747 0.491947 0.489147
0.499548 0.492748 0.489948
0.500349 0.493549 0.490749
0.501150 0.494350 0.491550
0.501951 0.495151 0.492351
0.502753 0.495953 0.493153
0.503554 0.496754 0.493954
0.504355 0.497555 0.494755
0.499518 0.492718 0.489918
0.500320 0.493520 0.490720
0.501121 0.494321 0.491521
0.501922 0.495122 0.492322
0.502723 0.495923 0.493123
0.503524 0.496724 0.493924
0.504325 0.497525 0.494725
0.505127 0.498327 0.495527
0.505928 0.499128 0.496328
0.501091 0.494291 0.491491
0.501892 0.495092 0.492292
0.502694 0.495894 0.493094
0.503495 0.496695 0.493895
0.504296 0.497496 0.494696
0.505097 0.498297 0.495497
0.505898 0.499098 0.496298
0.506699 0.499899 0.497099
0.507501 0.500701 0.497901
0.502664 0.495864 0.493064
0.503465 0.496665 0.493865
0.504266 0.497466 0.494666
0.505068 0.498268 0.495468
0.505869 0.499069 0.496269
0.506670 0.499870 0.497070
0.507471 0.500671 0.497871
0.508272 0.501472 0.498672
0.509073 0.502273 0.499473
0.504237 0.497437 0.494637
0.505038 0.498238 0.495438
0.505839 0.499039 0.496239
0.506640 0.499840 0.497040
0.507442 0.500642 0.497842
0.508243 0.501443 0.498643
0.509044 0.502244 0.499444
0.509845 0.503045 0.500245
0.510646 0.503846 0.501046
0.505810 0.499010 0.496210
0.506611 0.499811 0.497011
0.507412 0.500612 0.497812
0.508213 0.501413 0.498613
0.509014 0.502214 0.499414
0.509816 0.503016 0.500216
0.510617 0.503817 0.501017
0.511418 0.504618 0.501818
0.512219 0.505419 0.502619
0.507383 0.500583 0.497783
0.508184 0.501384 0.498584
0.508985 0.502185 0.499385
0.509786 0.502986 0.500186
0.510587 0.503787 0.500987
0.511388 0.504588 0.501788
0.512190 0.505390 0.502590
0.512991 0.506191 0.503391
0.513792 0.506992 0.504192
0.495105 0.488305 0.485505
0.495907 0.489107 0.486307
0.496708 0.489908 0.487108
0.497509 0.490709 0.487909
0.498310 0.491510 0.488710
0.499111 0.492311 0.489511
0.499912 0.493112 0.490312
0.500714 0.493914 0.491114
0.501515 0.494715 0.491915
0.496678 0.489878 0.487078
0.497479 0.490679 0.487879
0.498281 0.491481 0.488681
0.499082 0.492282 0.489482
0.499883 0.493083 0.490283
0.500684 0.493884 0.491084
0.501485 0.494685 0.491885
0.502286 0.495486 0.492686
0.503087 0.496287 0.493487
0.498251 0.491451 0.488651
0.499052 0.492252 0.489452
0.499853 0.493053 0.490253
0.500655 0.493855 0.491055
0.501456 0.494656 0.491856
0.502257 0.495457 0.492657
0.503058 0.496258 0.493458
0.503859 0.497059 0.494259
0.504660 0.497860 0.495060
0.499824 0.493024 0.490224
0.500625 0.493825 0.491025
0.501426 0.494626 0.491826
0.502227 0.495427 0.492627
0.503029 0.496229 0.493429
0.503830 0.497030 0.494230
0.504631 0.497831 0.495031
0.505432 0.498632 0.495832
0.506233 0.499433 0.496633
0.501397 0.494597 0.491797
0.502198 0.495398 0.492598
0.502999 0.496199 0.493399
0.503800 0.497000 0.494200
0.504601 0.497801 0.495001
0.505403 0.498603 0.495803
0.506204 0.499404 0.496604
0.507005 0.500205 0.497405
0.507806 0.501006 0.498206
0.502970 0.496170 0.493370
0.503771 0.496971 0.494171
0.504572 0.497772 0.494972
0.505373 0.498573 0.495773
0.506174 0.499374 0.496574
0.506975 0.500175 0.497375
0.507776 0.500976 0.498176
0.508578 0.501778 0.498978
0.509379 0.502579 0.499779
0.504542 0.497742 0.494942
0.505344 0.498544 0.495744
0.506145 0.499345 0.496545
0.506946 0.500146 0.497346
0.507747 0.500947 0.498147
0.508548 0.501748 0.498948
0.509349 0.502549 0.499749
0.510150 0.503350 0.500550
0.510952 0.504152 0.501352
0.506115 0.499315 0.496515
0.506916 0.500116 0.497316
0.507718 0.500918 0.498118
0.508519 0.501719 0.498919
0.509320 0.502520 0.499720
0.510121 0.503321 0.500521
0.510922 0.504122 0.501322
0.511723 0.504923 0.502123
0.512524 0.505724 0.502924
0.507688 0.500888 0.498088
0.508489 0.501689 0.498889
0.509290 0.502490 0.499690
0.510092 0.503292 0.500492
0.510893 0.504093 0.501293
0.511694 0.504894 0.502094
0.512495 0.505695 0.502895
0.513296 0.506496 0.503696
0.514097 0.507297 0.504497
0.495411 0.488611 0.485811
0.496212 0.489412 0.486612
0.497013 0.490213 0.487413
0.497814 0.491014 0.488214
0.498616 0.491816 0.489016
0.499417 0.492617 0.489817
0.500218 0.493418 0.490618
0.501019 0.494219 0.491419
0.501820 0.495020 0.492220
0.496984 0.490184 0.487384
0.497785 0.490985 0.488185
0.498586 0.491786 0.488986
0.499387 0.492587 0.489787
0.500188 0.493388 0.490588
0.500989 0.494189 0.491389
0.501791 0.494991 0.492191
0.502592 0.495792 0.492992
0.503393 0.496593 0.493793
0.498557 0.491757 0.488957
0.499358 0.492558 0.489758
0.500159 0.493359 0.490559
0.500960 0.494160 0.491360
0.501761 0.494961 0.492161
0.502562 0.495762 0.492962
0.503363 0.496563 0.493763
0.504165 0.497365 0.494565
0.504966 0.498166 0.495366
0.500129 0.493329 0.490529
0.500931 0.494131 0.491331
0.501732 0.494932 0.492132
0.502533 0.495733 0.492933
0.503334 0.496534 0.493734
0.504135 0.497335 0.494535
0.504936 0.498136 0.495336
0.505737 0.498937 0.496137
0.506539 0.499739 0.496939
0.501702 0.494902 0.492102
0.502503 0.495703 0.492903
0.503305 0.496505 0.493705
0.504106 0.497306 0.494506
0.504907 0.498107 0.495307
0.505708 0.498908 0.496108
0.506509 0.499709 0.496909
0.507310 0.500510 0.497710
0.508111 0.501311 0.498511
0.503275 0.496475 0.493675
0.504076 0.497276 0.494476
0.504877 0.498077 0.495277
0.505679 0.498879 0.496079
0.506480 0.499680 0.496880
0.507281 0.500481 0.497681
0.508082 0.501282 0.498482
0.508883 0.502083 0.499283
0.509684 0.502884 0.500084
0.504848 0.498048 0.495248
0.505649 0.498849 0.496049
0.506450 0.499650 0.496850
0.507251 0.500451 0.497651
0.508052 0.501252 0.498452
0.508854 0.502054 0.499254
0.509655 0.502855 0.500055
0.510456 0.503656 0.500856
0.511257 0.504457 0.501657
0.506421 0.499621 0.496821
0.507222 0.500422 0.497622
0.508023 0.501223 0.498423
0.508824 0.502024 0.499224
0.509625 0.502825 0.500025
0.510426 0.503626 0.500826
0.511228 0.504428 0.501628
0.512029 0.505229 0.502429
0.512830 0.506030 0.503230
0.507994 0.501194 0.498394
0.508795 0.501995 0.499195
0.509596 0.502796 0.499996
0.510397 0.503597 0.500797
0.511198 0.504398 0.501598
0.511999 0.505199 0.502399
0.512800 0.506000 0.503200
0.513602 0.506802 0.504002
0.514403 0.507603 0.504803
0.495716 0.488916 0.486116
0.496518 0.489718 0.486918
0.497319 0.490519 0.487719
0.498120 0.491320 0.488520
0.498921 0.492121 0.489321
0.499722 0.492922 0.490122
0.500523 0.493723 0.490923
0.501324 0.494524 0.491724
0.502126 0.495326 0.492526
0.497289 0.490489 0.487689
0.498090 0.491290 0.488490
0.498891 0.492091 0.489291
0.499693 0.492893 0.490093
0.500494 0.493694 0.490894
0.501295 0.494495 0.491695
0.502096 0.495296 0.492496
0.502897 0.496097 0.493297
0.503698 0.496898 0.494098
0.498862 0.492062 0.489262
0.499663 0.492863 0.490063
0.500464 0.493664 0.490864
0.501265 0.494465 0.491665
0.502067 0.495267 0.492467
0.502868 0.496068 0.493268
0.503669 0.496869 0.494069
0.504470 0.497670 0.494870
0.505271 0.498471 0.495671
0.500435 0.493635 0.490835
0.501236 0.494436 0.491636
0.502037 0.495237 0.492437
0.502838 0.496038 0.493238
0.503639 0.496839 0.494039
0.504441 0.497641 0.494841
0.505242 0.498442 0.495642
0.506043 0.499243 0.496443
0.506844 0.500044 0.497244
0.502008 0.495208 0.492408
0.502809 0.496009 0.493209
0.503610 0.496810 0.494010
0.504411 0.497611 0.494811
0.505212 0.498412 0.495612
0.506013 0.499213 0.496413
0.506815 0.500015 0.497215
0.507616 0.500816 0.498016
0.508417 0.501617 0.498817
0.503581 0.496781 0.493981
0.504382 0.497582 0.494782
0.505183 0.498383 0.495583
0.505984 0.499184 0.496384
0.506785 0.499985 0.497185
0.507586 0.500786 0.497986
0.508387 0.501587 0.498787
0.509189 0.502389 0.499589
0.509990 0.503190 0.500390
0.505153 0.498353 0.495553
0.505954 0.499154 0.496354
0.506756 0.499956 0.497156
0.507557 0.500757 0.497957
0.508358 0.501558 0.498758
0.509159 0.502359 0.499559
0.509960 0.503160 0.500360
0.510761 0.503961 0.501161
0.511563 0.504763 0.501963
0.506726 0.499926 0.497126
0.507527 0.500727 0.497927
0.508328 0.501528 0.498728
0.509130 0.502330 0.499530
0.509931 0.503131 0.500331
0.510732 0.503932 0.501132
0.511533 0.504733 0.501933
0.512334 0.505534 0.502734
0.513135 0.506335 0.503535
0.508299 0.501499 0.498699
0.509100 0.502300 0.499500
0.509901 0.503101 0.500301
0.510702 0.503902 0.501102
0.511504 0.504704 0.501904
0.512305 0.505505 0.502705
0.513106 0.506306 0.503506
0.513907 0.507107 0.504307
0.514708 0.507908 0.505108
0.496022 0.489222 0.486422
0.496823 0.490023 0.487223
0.497624 0.490824 0.488024
0.498425 0.491625 0.488825
0.499226 0.492426 0.489626
0.500028 0.493228 0.490428
0.500829 0.494029 0.491229
0.501630 0.494830 0.492030
0.502431 0.495631 0.492831
0.497595 0.490795 0.487995
0.498396 0.491596 0.488796
0.499197 0.492397 0.489597
0.499998 0.493198 0.490398
0.500799 0.493999 0.491199
0.501600 0.494800 0.492000
0.502402 0.495602 0.492802
0.503203 0.496403 0.493603
0.504004 0.497204 0.494404
0.499167 0.492367 0.489567
0.499969 0.493169 0.490369
0.500770 0.493970 0.491170
0.501571 0.494771 0.491971
0.502372 0.495572 0.492772
0.503173 0.496373 0.493573
0.503974 0.497174 0.494374
0.504776 0.497976 0.495176
0.505577 0.498777 0.495977
0.500740 0.493940 0.491140
0.501541 0.494741 0.491941
0.502343 0.495543 0.492743
0.503144 0.496344 0.493544
0.503945 0.497145 0.494345
0.504746 0.497946 0.495146
0.505547 0.498747 0.495947
0.506348 0.499548 0.496748
0.507150 0.500350 0.497550
0.502313 0.495513 0.492713
0.503114 0.496314 0.493514
0.503915 0.497115 0.494315
0.504717 0.497917 0.495117
0.505518 0.498718 0.495918
0.506319 0.499519 0.496719
0.507120 0.500320 0.497520
0.507921 0.501121 0.498321
0.508722 0.501922 0.499122
0.503886 0.497086 0.494286
0.504687 0.497887 0.495087
0.505488 0.498688 0.495888
0.506289 0.499489 0.496689
0.507091 0.500291 0.497491
0.507892 0.501092 0.498292
0.508693 0.501893 0.499093
0.509494 0.502694 0.499894
0.510295 0.503495 0.500695
0.505459 0.498659 0.495859
0.506260 0.499460 0.496660
0.507061 0.500261 0.497461
0.507862 0.501062 0.498262
0.508663 0.501863 0.499063
0.509465 0.502665 0.499865
0.510266 0.503466 0.500666
0.511067 0.504267 0.501467
0.511868 0.505068 0.502268
0.507032 0.500232 0.497432
0.507833 0.501033 0.498233
0.508634 0.501834 0.499034
0.509435 0.502635 0.499835
0.510236 0.503436 0.500636
0.511037 0.504237 0.501437
0.511839 0.505039 0.502239
0.512640 0.505840 0.503040
0.513441 0.506641 0.503841
0.508604 0.501804 0.499004
0.509406 0.502606 0.499806
0.510207 0.503407 0.500607
0.511008 0.504208 0.501408
0.511809 0.505009 0.502209
0.512610 0.505810 0.503010
0.513411 0.506611 0.503811
0.514212 0.507412 0.504612
0.515014 0.508214 0.505414
0.496327 0.489527 0.486727
0.497128 0.490328 0.487528
0.497930 0.491130 0.488330
0.498731 0.491931 0.489131
0.499532 0.492732 0.489932
0.500333 0.493533 0.490733
0.501134 0.494334 0.491534
0.501935 0.495135 0.492335
0.502736 0.495936 0.493136
0.497900 0.491100 0.488300
0.498701 0.491901 0.489101
0.499502 0.492702 0.489902
0.500304 0.493504 0.490704
0.501105 0.494305 0.491505
0.501906 0.495106 0.492306
0.502707 0.495907 0.493107
0.503508 0.496708 0.493908
0.504309 0.497509 0.494709
0.499473 0.492673 0.489873
0.500274 0.493474 0.490674
0.501075 0.494275 0.491475
0.501876 0.495076 0.492276
0.502678 0.495878 0.493078
0.503479 0.496679 0.493879
0.504280 0.497480 0.494680
0.505081 0.498281 0.495481
0.505882 0.499082 0.496282
0.501046 0.494246 0.491446
0.501847 0.495047 0.492247
0.502648 0.495848 0.493048
0.503449 0.496649 0.493849
0.504250 0.497450 0.494650
0.505052 0.498252 0.495452
0.505853 0.499053 0.496253
0.506654 0.499854 0.497054
0.507455 0.500655 0.497855
0.502619 0.495819 0.493019
0.503420 0.496620 0.493820
0.504221 0.497421 0.494621
0.505022 0.498222 0.495422
0.505823 0.499023 0.496223
0.506624 0.499824 0.497024
0.507425 0.500625 0.497825
0.508227 0.501427 0.498627
0.509028 0.502228 0.499428
0.504191 0.497391 0.494591
0.504993 0.498193 0.495393
0.505794 0.498994 0.496194
0.506595 0.499795 0.496995
0.507396 0.500596 0.497796
0.508197 0.501397 0.498597
0.508998 0.502198 0.499398
0.509799 0.502999 0.500199
0.510601 0.503801 0.501001
0.505764 0.498964 0.496164
0.506565 0.499765 0.496965
0.507367 0.500567 0.497767
0.508168 0.501368 0.498568
0.508969 0.502169 0.499369
0.509770 0.502970 0.500170
0.510571 0.503771 0.500971
0.511372 0.504572 0.501772
0.512173 0.505373 0.502573
0.507337 0.500537 0.497737
0.508138 0.501338 0.498538
0.508939 0.502139 0.499339
0.509741 0.502941 0.500141
0.510542 0.503742 0.500942
0.511343 0.504543 0.501743
0.512144 0.505344 0.502544
0.512945 0.506145 0.503345
0.513746 0.506946 0.504146
0.508910 0.502110 0.499310
0.509711 0.502911 0.500111
0.510512 0.503712 0.500912
0.511313 0.504513 0.501713
0.512115 0.505315 0.502515
0.512916 0.506116 0.503316
0.513717 0.506917 0.504117
0.514518 0.507718 0.504918
0.515319 0.508519 0.505719
0.496633 0.489833 0.487033
0.497434 0.490634 0.487834
0.498235 0.491435 0.488635
0.499036 0.492236 0.489436
0.499837 0.493037 0.490237
0.500638 0.493838 0.491038
0.501440 0.494640 0.491840
0.502241 0.495441 0.492641
0.503042 0.496242 0.493442
0.498206 0.491406 0.488606
0.499007 0.492207 0.489407
0.499808 0.493008 0.490208
0.500609 0.493809 0.491009
0.501410 0.494610 0.491810
0.502211 0.495411 0.492611
0.503012 0.496212 0.493412
0.503814 0.497014 0.494214
0.504615 0.497815 0.495015
0.499778 0.492978 0.490178
0.500580 0.493780 0.490980
0.501381 0.494581 0.491781
0.502182 0.495382 0.492582
0.502983 0.496183 0.493383
0.503784 0.496984 0.494184
0.504585 0.497785 0.494985
0.505386 0.498586 0.495786
0.506188 0.499388 0.496588
0.501351 0.494551 0.491751
0.502152 0.495352 0.492552
0.502954 0.496154 0.493354
0.503755 0.496955 0.494155
0.504556 0.497756 0.494956
0.505357 0.498557 0.495757
0.506158 0.499358 0.496558
0.506959 0.500159 0.497359
0.507760 0.500960 0.498160
0.502924 0.496124 0.493324
0.503725 0.496925 0.494125
0.504526 0.497726 0.494926
0.505327 0.498527 0.495727
0.506129 0.499329 0.496529
0.506930 0.500130 0.497330
0.507731 0.500931 0.498131
0.508532 0.501732 0.498932
0.509333 0.502533 0.499733
0.504497 0.497697 0.494897
0.505298 0.498498 0.495698
0.506099 0.499299 0.496499
0.506900 0.500100 0.497300
0.507701 0.500901 0.498101
0.508503 0.501703 0.498903
0.509304 0.502504 0.499704
0.510105 0.503305 0.500505
0.510906 0.504106 0.501306
0.506070 0.499270 0.496470
0.506871 0.500071 0.497271
0.507672 0.500872 0.498072
0.508473 0.501673 0.498873
0.509274 0.502474 0.499674
0.510075 0.503275 0.500475
0.510877 0.504077 0.501277
0.511678 0.504878 0.502078
0.512479 0.505679 0.502879
0.507643 0.500843 0.498043
0.508444 0.501644 0.498844
0.509245 0.502445 0.499645
0.510046 0.503246 0.500446
0.510847 0.504047 0.501247
0.511648 0.504848 0.502048
0.512449 0.505649 0.502849
0.513251 0.506451 0.503651
0.514052 0.507252 0.504452
0.509215 0.502415 0.499615
0.510017 0.503217 0.500417
0.510818 0.504018 0.501218
0.511619 0.504819 0.502019
0.512420 0.505620 0.502820
0.513221 0.506421 0.503621
0.514022 0.507222 0.504422
0.514823 0.508023 0.505223
0.515625 0.508825 0.506025
0.496938 0.490138 0.487338
0.497739 0.490939 0.488139
0.498540 0.491740 0.488940
0.499342 0.492542 0.489742
0.500143 0.493343 0.490543
0.500944 0.494144 0.491344
0.501745 0.494945 0.492145
0.502546 0.495746 0.492946
0.503347 0.496547 0.493747
0.498511 0.491711 0.488911
0.499312 0.492512 0.489712
0.500113 0.493313 0.490513
0.500914 0.494114 0.491314
0.501716 0.494916 0.492116
0.502517 0.495717 0.492917
0.503318 0.496518 0.493718
0.504119 0.497319 0.494519
0.504920 0.498120 0.495320
0.500084 0.493284 0.490484
0.500885 0.494085 0.491285
0.501686 0.494886 0.492086
0.502487 0.495687 0.492887
0.503288 0.496488 0.493688
0.504090 0.497290 0.494490
0.504891 0.498091 0.495291
0.505692 0.498892 0.496092
0.506493 0.499693 0.496893
0.501657 0.494857 0.492057
0.502458 0.495658 0.492858
0.503259 0.496459 0.493659
0.504060 0.497260 0.494460
0.504861 0.498061 0.495261
0.505662 0.498862 0.496062
0.506464 0.499664 0.496864
0.507265 0.500465 0.497665
0.508066 0.501266 0.498466
0.503229 0.496429 0.493629
0.504031 0.497231 0.494431
0.504832 0.498032 0.495232
0.505633 0.498833 0.496033
0.506434 0.499634 0.496834
0.507235 0.500435 0.497635
0.508036 0.501236 0.498436
0.508838 0.502038 0.499238
0.509639 0.502839 0.500039
0.504802 0.498002 0.495202
0.505603 0.498803 0.496003
0.506405 0.499605 0.496805
0.507206 0.500406 0.497606
0.508007 0.501207 0.498407
0.508808 0.502008 0.499208
0.509609 0.502809 0.500009
0.510410 0.503610 0.500810
0.511212 0.504412 0.501612
0.506375 0.499575 0.496775
0.507176 0.500376 0.497576
0.507977 0.501177 0.498377
0.508779 0.501979 0.499179
0.509580 0.502780 0.499980
0.510381 0.503581 0.500781
0.511182 0.504382 0.501582
0.511983 0.505183 0.502383
0.512784 0.505984 0.503184
0.507948 0.501148 0.498348
0.508749 0.501949 0.499149
0.509550 0.502750 0.499950
0.510351 0.503551 0.500751
0.511153 0.504353 0.501553
0.511954 0.505154 0.502354
0.512755 0.505955 0.503155
0.513556 0.506756 0.503956
0.514357 0.507557 0.504757
0.509521 0.502721 0.499921
0.510322 0.503522 0.500722
0.511123 0.504323 0.501523
0.511924 0.505124 0.502324
0.512725 0.505925 0.503125
0.513527 0.506727 0.503927
0.514328 0.507528 0.504728
0.515129 0.508329 0.505529
0.515930 0.509130 0.506330
0.497244 0.490444 0.487644
0.498045 0.491245 0.488445
0.498846 0.492046 0.489246
0.499647 0.492847 0.490047
0.500448 0.493648 0.490848
0.501249 0.494449 0.491649
0.502051 0.495251 0.492451
0.502852 0.496052 0.493252
0.503653 0.496853 0.494053
0.498816 0.492016 0.489216
0.499618 0.492818 0.490018
0.500419 0.493619 0.490819
0.501220 0.494420 0.491620
0.502021 0.495221 0.492421
0.502822 0.496022 0.493222
0.503623 0.496823 0.494023
0.504425 0.497625 0.494825
0.505226 0.498426 0.495626
0.500389 0.493589 0.490789
0.501190 0.494390 0.491590
0.501992 0.495192 0.492392
0.502793 0.495993 0.493193
0.503594 0.496794 0.493994
0.504395 0.497595 0.494795
0.505196 0.498396 0.495596
0.505997 0.499197 0.496397
0.506799 0.499999 0.497199
0.501962 0.495162 0.492362
0.502763 0.495963 0.493163
0.503564 0.496764 0.493964
0.504366 0.497566 0.494766
0.505167 0.498367 0.495567
0.505968 0.499168 0.496368
0.506769 0.499969 0.497169
0.507570 0.500770 0.497970
0.508371 0.501571 0.498771
0.503535 0.496735 0.493935
0.504336 0.497536 0.494736
0.505137 0.498337 0.495537
0.505938 0.499138 0.496338
0.506740 0.499940 0.497140
0.507541 0.500741 0.497941
0.508342 0.501542 0.498742
0.509143 0.502343 0.499543
0.509944 0.503144 0.500344
0.505108 0.498308 0.495508
0.505909 0.499109 0.496309
0.506710 0.499910 0.497110
0.507511 0.500711 0.497911
0.508312 0.501512 0.498712
0.509114 0.502314 0.499514
0.509915 0.503115 0.500315
0.510716 0.503916 0.501116
0.511517 0.504717 0.501917
0.506681 0.499881 0.497081
0.507482 0.500682 0.497882
0.508283 0.501483 0.498683
0.509084 0.502284 0.499484
0.509885 0.503085 0.500285
0.510686 0.503886 0.501086
0.511488 0.504688 0.501888
0.512289 0.505489 0.502689
0.513090 0.506290 0.503490
0.508253 0.501453 0.498653
0.509055 0.502255 0.499455
0.509856 0.503056 0.500256
0.510657 0.503857 0.501057
0.511458 0.504658 0.501858
0.512259 0.505459 0.502659
0.513060 0.506260 0.503460
0.513861 0.507061 0.504261
0.514663 0.507863 0.505063
0.509826 0.503026 0.500226
0.510627 0.503827 0.501027
0.511429 0.504629 0.501829
0.512230 0.505430 0.502630
0.513031 0.506231 0.503431
0.513832 0.507032 0.504232
0.514633 0.507833 0.505033
0.515434 0.508634 0.505834
0.516235 0.509435 0.506635
