shared/src/main/assets/luts/mv_pastel_nostalgia.cube
TITLE "DALUR Pastel Nostalgia"
LUT_3D_SIZE 17
DOMAIN_MIN 0.0 0.0 0.0
DOMAIN_MAX 1.0 1.0 1.0
0.494800 0.488000 0.485200
0.495201 0.488401 0.485601
0.495601 0.488801 0.486001
0.496002 0.489202 0.486402
0.496402 0.489602 0.486802
0.496803 0.490003 0.487203
0.497203 0.490403 0.487603
0.497604 0.490804 0.488004
0.498005 0.491205 0.488405
0.498405 0.491605 0.488805
0.498806 0.492006 0.489206
0.499206 0.492406 0.489606
0.499607 0.492807 0.490007
0.500007 0.493207 0.490407
0.500408 0.493608 0.490808
0.500809 0.494009 0.491209
0.501209 0.494409 0.491609
0.495586 0.488786 0.485986
0.495987 0.489187 0.486387
0.496388 0.489588 0.486788
0.496788 0.489988 0.487188
0.497189 0.490389 0.487589
0.497589 0.490789 0.487989
0.497990 0.491190 0.488390
0.498390 0.491590 0.488790
0.498791 0.491991 0.489191
0.499192 0.492392 0.489592
0.499592 0.492792 0.489992
0.499993 0.493193 0.490393
0.500393 0.493593 0.490793
0.500794 0.493994 0.491194
0.501194 0.494394 0.491594
0.501595 0.494795 0.491995
0.501996 0.495196 0.492396
0.496373 0.489573 0.486773
0.496773 0.489973 0.487173
0.497174 0.490374 0.487574
0.497575 0.490775 0.487975
0.497975 0.491175 0.488375
0.498376 0.491576 0.488776
0.498776 0.491976 0.489176
0.499177 0.492377 0.489577
0.499577 0.492777 0.489977
0.499978 0.493178 0.490378
0.500379 0.493579 0.490779
0.500779 0.493979 0.491179
0.501180 0.494380 0.491580
0.501580 0.494780 0.491980
0.501981 0.495181 0.492381
0.502381 0.495581 0.492781
0.502782 0.495982 0.493182
0.497159 0.490359 0.487559
0.497560 0.490760 0.487960
0.497960 0.491160 0.488360
0.498361 0.491561 0.488761
0.498762 0.491962 0.489162
0.499162 0.492362 0.489562
0.499563 0.492763 0.489963
0.499963 0.493163 0.490363
0.500364 0.493564 0.490764
0.500764 0.493964 0.491164
0.501165 0.494365 0.491565
0.501566 0.494766 0.491966
0.501966 0.495166 0.492366
0.502367 0.495567 0.492767
0.502767 0.495967 0.493167
0.503168 0.496368 0.493568
0.503568 0.496768 0.493968
0.497946 0.491146 0.488346
0.498346 0.491546 0.488746
0.498747 0.491947 0.489147
0.499147 0.492347 0.489547
0.499548 0.492748 0.489948
0.499949 0.493149 0.490349
0.500349 0.493549 0.490749
0.500750 0.493950 0.491150
0.501150 0.494350 0.491550
0.501551 0.494751 0.491951
0.501951 0.495151 0.492351
0.502352 0.495552 0.492752
0.502753 0.495953 0.493153
0.503153 0.496353 0.493553
0.503554 0.496754 0.493954
0.503954 0.497154 0.494354
0.504355 0.497555 0.494755
0.498732 0.491932 0.489132
0.499133 0.492333 0.489533
0.499533 0.492733 0.489933
0.499934 0.493134 0.490334
0.500334 0.493534 0.490734
0.500735 0.493935 0.491135
0.501136 0.494336 0.491536
0.501536 0.494736 0.491936
0.501937 0.495137 0.492337
0.502337 0.495537 0.492737
0.502738 0.495938 0.493138
0.503138 0.496338 0.493538
0.503539 0.496739 0.493939
0.503940 0.497140 0.494340
0.504340 0.497540 0.494740
0.504741 0.497941 0.495141
0.505141 0.498341 0.495541
0.499518 0.492718 0.489918
0.499919 0.493119 0.490319
0.500320 0.493520 0.490720
0.500720 0.493920 0.491120
0.501121 0.494321 0.491521
0.501521 0.494721 0.491921
0.501922 0.495122 0.492322
0.502323 0.495523 0.492723
0.502723 0.495923 0.493123
0.503124 0.496324 0.493524
0.503524 0.496724 0.493924
0.503925 0.497125 0.494325
0.504325 0.497525 0.494725
0.504726 0.497926 0.495126
0.505127 0.498327 0.495527
0.505527 0.498727 0.495927
0.505928 0.499128 0.496328
0.500305 0.493505 0.490705
0.500705 0.493905 0.491105
0.501106 0.494306 0.491506
0.501507 0.494707 0.491907
0.501907 0.495107 0.492307
0.502308 0.495508 0.492708
0.502708 0.495908 0.493108
0.503109 0.496309 0.493509
0.503509 0.496709 0.493909
0.503910 0.497110 0.494310
0.504311 0.497511 0.494711
0.504711 0.497911 0.495111
0.505112 0.498312 0.495512
0.505512 0.498712 0.495912
0.505913 0.499113 0.496313
0.506314 0.499514 0.496714
0.506714 0.499914 0.497114
0.501091 0.494291 0.491491
0.501492 0.494692 0.491892
0.501892 0.495092 0.492292
0.502293 0.495493 0.492693
0.502694 0.495894 0.493094
0.503094 0.496294 0.493494
0.503495 0.496695 0.493895
0.503895 0.497095 0.494295
0.504296 0.497496 0.494696
0.504696 0.497896 0.495096
0.505097 0.498297 0.495497
0.505498 0.498698 0.495898
0.505898 0.499098 0.496298
0.506299 0.499499 0.496699
0.506699 0.499899 0.497099
0.507100 0.500300 0.497500
0.507501 0.500701 0.497901
0.501878 0.495078 0.492278
0.502278 0.495478 0.492678
0.502679 0.495879 0.493079
0.503079 0.496279 0.493479
0.503480 0.496680 0.493880
0.503881 0.497081 0.494281
0.504281 0.497481 0.494681
0.504682 0.497882 0.495082
0.505082 0.498282 0.495482
0.505483 0.498683 0.495883
0.505883 0.499083 0.496283
0.506284 0.499484 0.496684
0.506685 0.499885 0.497085
0.507085 0.500285 0.497485
0.507486 0.500686 0.497886
0.507886 0.501086 0.498286
0.508287 0.501487 0.498687
0.502664 0.495864 0.493064
0.503065 0.496265 0.493465
0.503465 0.496665 0.493865
0.503866 0.497066 0.494266
0.504266 0.497466 0.494666
0.504667 0.497867 0.495067
0.505068 0.498268 0.495468
0.505468 0.498668 0.495868
0.505869 0.499069 0.496269
0.506269 0.499469 0.496669
0.506670 0.499870 0.497070
0.507070 0.500270 0.497470
0.507471 0.500671 0.497871
0.507872 0.501072 0.498272
0.508272 0.501472 0.498672
0.508673 0.501873 0.499073
0.509073 0.502273 0.499473
0.503451 0.496651 0.493851
0.503851 0.497051 0.494251
0.504252 0.497452 0.494652
0.504652 0.497852 0.495052
0.505053 0.498253 0.495453
0.505453 0.498653 0.495853
0.505854 0.499054 0.496254
0.506255 0.499455 0.496655
0.506655 0.499855 0.497055
0.507056 0.500256 0.497456
0.507456 0.500656 0.497856
0.507857 0.501057 0.498257
0.508257 0.501457 0.498657
0.508658 0.501858 0.499058
0.509059 0.502259 0.499459
0.509459 0.502659 0.499859
0.509860 0.503060 0.500260
0.504237 0.497437 0.494637
0.504638 0.497838 0.495038
0.505038 0.498238 0.495438
0.505439 0.498639 0.495839
0.505839 0.499039 0.496239
0.506240 0.499440 0.496640
0.506640 0.499840 0.497040
0.507041 0.500241 0.497441
0.507442 0.500642 0.497842
0.507842 0.501042 0.498242
0.508243 0.501443 0.498643
0.508643 0.501843 0.499043
0.509044 0.502244 0.499444
0.509444 0.502644 0.499844
0.509845 0.503045 0.500245
0.510246 0.503446 0.500646
0.510646 0.503846 0.501046
0.505023 0.498223 0.495423
0.505424 0.498624 0.495824
0.505825 0.499025 0.496225
0.506225 0.499425 0.496625
0.506626 0.499826 0.497026
0.507026 0.500226 0.497426
0.507427 0.500627 0.497827
0.507827 0.501027 0.498227
0.508228 0.501428 0.498628
0.508629 0.501829 0.499029
0.509029 0.502229 0.499429
0.509430 0.502630 0.499830
0.509830 0.503030 0.500230
0.510231 0.503431 0.500631
0.510631 0.503831 0.501031
0.511032 0.504232 0.501432
0.511433 0.504633 0.501833
0.505810 0.499010 0.496210
0.506210 0.499410 0.496610
0.506611 0.499811 0.497011
0.507012 0.500212 0.497412
0.507412 0.500612 0.497812
0.507813 0.501013 0.498213
0.508213 0.501413 0.498613
0.508614 0.501814 0.499014
0.509014 0.502214 0.499414
0.509415 0.502615 0.499815
0.509816 0.503016 0.500216
0.510216 0.503416 0.500616
0.510617 0.503817 0.501017
0.511017 0.504217 0.501417
0.511418 0.504618 0.501818
0.511818 0.505018 0.502218
0.512219 0.505419 0.502619
0.506596 0.499796 0.496996
0.506997 0.500197 0.497397
0.507397 0.500597 0.497797
0.507798 0.500998 0.498198
0.508199 0.501399 0.498599
0.508599 0.501799 0.498999
0.509000 0.502200 0.499400
0.509400 0.502600 0.499800
0.509801 0.503001 0.500201
0.510201 0.503401 0.500601
0.510602 0.503802 0.501002
0.511003 0.504203 0.501403
0.511403 0.504603 0.501803
0.511804 0.505004 0.502204
0.512204 0.505404 0.502604
0.512605 0.505805 0.503005
0.513005 0.506205 0.503405
0.507383 0.500583 0.497783
0.507783 0.500983 0.498183
0.508184 0.501384 0.498584
0.508584 0.501784 0.498984
0.508985 0.502185 0.499385
0.509385 0.502585 0.499785
0.509786 0.502986 0.500186
0.510187 0.503387 0.500587
0.510587 0.503787 0.500987
0.510988 0.504188 0.501388
0.511388 0.504588 0.501788
0.511789 0.504989 0.502189
0.512190 0.505390 0.502590
0.512590 0.505790 0.502990
0.512991 0.506191 0.503391
0.513391 0.506591 0.503791
0.513792 0.506992 0.504192
0.494953 0.488153 0.485353
0.495353 0.488553 0.485753
0.495754 0.488954 0.486154
0.496154 0.489354 0.486554
0.496555 0.489755 0.486955
0.496956 0.490156 0.487356
0.497356 0.490556 0.487756
0.497757 0.490957 0.488157
0.498157 0.491357 0.488557
0.498558 0.491758 0.488958
0.498958 0.492158 0.489358
0.499359 0.492559 0.489759
0.499760 0.492960 0.490160
0.500160 0.493360 0.490560
0.500561 0.493761 0.490961
0.500961 0.494161 0.491361
0.501362 0.494562 0.491762
0.495739 0.488939 0.486139
0.496140 0.489340 0.486540
0.496540 0.489740 0.486940
0.496941 0.490141 0.487341
0.497341 0.490541 0.487741
0.497742 0.490942 0.488142
0.498143 0.491343 0.488543
0.498543 0.491743 0.488943
0.498944 0.492144 0.489344
0.499344 0.492544 0.489744
0.499745 0.492945 0.490145
0.500145 0.493345 0.490545
0.500546 0.493746 0.490946
0.500947 0.494147 0.491347
0.501347 0.494547 0.491747
0.501748 0.494948 0.492148
0.502148 0.495348 0.492548
0.496526 0.489726 0.486926
0.496926 0.490126 0.487326
0.497327 0.490527 0.487727
0.497727 0.490927 0.488127
0.498128 0.491328 0.488528
0.498528 0.491728 0.488928
0.498929 0.492129 0.489329
0.499330 0.492530 0.489730
0.499730 0.492930 0.490130
0.500131 0.493331 0.490531
0.500531 0.493731 0.490931
0.500932 0.494132 0.491332
0.501332 0.494532 0.491732
0.501733 0.494933 0.492133
0.502134 0.495334 0.492534
0.502534 0.495734 0.492934
0.502935 0.496135 0.493335
0.497312 0.490512 0.487712
0.497713 0.490913 0.488113
0.498113 0.491313 0.488513
0.498514 0.491714 0.488914
0.498914 0.492114 0.489314
0.499315 0.492515 0.489715
0.499715 0.492915 0.490115
0.500116 0.493316 0.490516
0.500517 0.493717 0.490917
0.500917 0.494117 0.491317
0.501318 0.494518 0.491718
0.501718 0.494918 0.492118
0.502119 0.495319 0.492519
0.502519 0.495719 0.492919
0.502920 0.496120 0.493320
0.503321 0.496521 0.493721
0.503721 0.496921 0.494121
0.498098 0.491298 0.488498
0.498499 0.491699 0.488899
0.498900 0.492100 0.489300
0.499300 0.492500 0.489700
0.499701 0.492901 0.490101
0.500101 0.493301 0.490501
0.500502 0.493702 0.490902
0.500902 0.494102 0.491302
0.501303 0.494503 0.491703
0.501704 0.494904 0.492104
0.502104 0.495304 0.492504
0.502505 0.495705 0.492905
0.502905 0.496105 0.493305
0.503306 0.496506 0.493706
0.503706 0.496906 0.494106
0.504107 0.497307 0.494507
0.504508 0.497708 0.494908
0.498885 0.492085 0.489285
0.499285 0.492485 0.489685
0.499686 0.492886 0.490086
0.500087 0.493287 0.490487
0.500487 0.493687 0.490887
0.500888 0.494088 0.491288
0.501288 0.494488 0.491688
0.501689 0.494889 0.492089
0.502089 0.495289 0.492489
0.502490 0.495690 0.492890
0.502891 0.496091 0.493291
0.503291 0.496491 0.493691
0.503692 0.496892 0.494092
0.504092 0.497292 0.494492
0.504493 0.497693 0.494893
0.504893 0.498093 0.495293
0.505294 0.498494 0.495694
0.499671 0.492871 0.490071
0.500072 0.493272 0.490472
0.500472 0.493672 0.490872
0.500873 0.494073 0.491273
0.501274 0.494474 0.491674
0.501674 0.494874 0.492074
0.502075 0.495275 0.492475
0.502475 0.495675 0.492875
0.502876 0.496076 0.493276
0.503276 0.496476 0.493676
0.503677 0.496877 0.494077
0.504078 0.497278 0.494478
0.504478 0.497678 0.494878
0.504879 0.498079 0.495279
0.505279 0.498479 0.495679
0.505680 0.498880 0.496080
0.506080 0.499280 0.496480
0.500458 0.493658 0.490858
0.500858 0.494058 0.491258
0.501259 0.494459 0.491659
0.501659 0.494859 0.492059
0.502060 0.495260 0.492460
0.502461 0.495661 0.492861
0.502861 0.496061 0.493261
0.503262 0.496462 0.493662
0.503662 0.496862 0.494062
0.504063 0.497263 0.494463
0.504463 0.497663 0.494863
0.504864 0.498064 0.495264
0.505265 0.498465 0.495665
0.505665 0.498865 0.496065
0.506066 0.499266 0.496466
0.506466 0.499666 0.496866
0.506867 0.500067 0.497267
0.501244 0.494444 0.491644
0.501645 0.494845 0.492045
0.502045 0.495245 0.492445
0.502446 0.495646 0.492846
0.502846 0.496046 0.493246
0.503247 0.496447 0.493647
0.503647 0.496847 0.494047
0.504048 0.497248 0.494448
0.504449 0.497649 0.494849
0.504849 0.498049 0.495249
0.505250 0.498450 0.495650
0.505650 0.498850 0.496050
0.506051 0.499251 0.496451
0.506452 0.499652 0.496852
0.506852 0.500052 0.497252
0.507253 0.500453 0.497653
0.507653 0.500853 0.498053
0.502030 0.495230 0.492430
0.502431 0.495631 0.492831
0.502832 0.496032 0.493232
0.503232 0.496432 0.493632
0.503633 0.496833 0.494033
0.504033 0.497233 0.494433
0.504434 0.497634 0.494834
0.504834 0.498034 0.495234
0.505235 0.498435 0.495635
0.505636 0.498836 0.496036
0.506036 0.499236 0.496436
0.506437 0.499637 0.496837
0.506837 0.500037 0.497237
0.507238 0.500438 0.497638
0.507639 0.500839 0.498039
0.508039 0.501239 0.498439
0.508440 0.501640 0.498840
0.502817 0.496017 0.493217
0.503217 0.496417 0.493617
0.503618 0.496818 0.494018
0.504019 0.497219 0.494419
0.504419 0.497619 0.494819
0.504820 0.498020 0.495220
0.505220 0.498420 0.495620
0.505621 0.498821 0.496021
0.506021 0.499221 0.496421
0.506422 0.499622 0.496822
0.506823 0.500023 0.497223
0.507223 0.500423 0.497623
0.507624 0.500824 0.498024
0.508024 0.501224 0.498424
0.508425 0.501625 0.498825
0.508825 0.502025 0.499225
0.509226 0.502426 0.499626
0.503603 0.496803 0.494003
0.504004 0.497204 0.494404
0.504404 0.497604 0.494804
0.504805 0.498005 0.495205
0.505206 0.498406 0.495606
0.505606 0.498806 0.496006
0.506007 0.499207 0.496407
0.506407 0.499607 0.496807
0.506808 0.500008 0.497208
0.507208 0.500408 0.497608
0.507609 0.500809 0.498009
0.508010 0.501210 0.498410
0.508410 0.501610 0.498810
0.508811 0.502011 0.499211
0.509211 0.502411 0.499611
0.509612 0.502812 0.500012
0.510012 0.503212 0.500412
0.504390 0.497590 0.494790
0.504790 0.497990 0.495190
0.505191 0.498391 0.495591
0.505591 0.498791 0.495991
0.505992 0.499192 0.496392
0.506393 0.499593 0.496793
0.506793 0.499993 0.497193
0.507194 0.500394 0.497594
0.507594 0.500794 0.497994
0.507995 0.501195 0.498395
0.508395 0.501595 0.498795
0.508796 0.501996 0.499196
0.509197 0.502397 0.499597
0.509597 0.502797 0.499997
0.509998 0.503198 0.500398
0.510398 0.503598 0.500798
0.510799 0.503999 0.501199
0.505176 0.498376 0.495576
0.505577 0.498777 0.495977
0.505977 0.499177 0.496377
0.506378 0.499578 0.496778
0.506778 0.499978 0.497178
0.507179 0.500379 0.497579
0.507580 0.500780 0.497980
0.507980 0.501180 0.498380
0.508381 0.501581 0.498781
0.508781 0.501981 0.499181
0.509182 0.502382 0.499582
0.509582 0.502782 0.499982
0.509983 0.503183 0.500383
0.510384 0.503584 0.500784
0.510784 0.503984 0.501184
0.511185 0.504385 0.501585
0.511585 0.504785 0.501985
0.505963 0.499163 0.496363
0.506363 0.499563 0.496763
0.506764 0.499964 0.497164
0.507164 0.500364 0.497564
0.507565 0.500765 0.497965
0.507965 0.501165 0.498365
0.508366 0.501566 0.498766
0.508767 0.501967 0.499167
0.509167 0.502367 0.499567
0.509568 0.502768 0.499968
0.509968 0.503168 0.500368
0.510369 0.503569 0.500769
0.510769 0.503969 0.501169
0.511170 0.504370 0.501570
0.511571 0.504771 0.501971
0.511971 0.505171 0.502371
0.512372 0.505572 0.502772
0.506749 0.499949 0.497149
0.507150 0.500350 0.497550
0.507550 0.500750 0.497950
0.507951 0.501151 0.498351
0.508351 0.501551 0.498751
0.508752 0.501952 0.499152
0.509152 0.502352 0.499552
0.509553 0.502753 0.499953
0.509954 0.503154 0.500354
0.510354 0.503554 0.500754
0.510755 0.503955 0.501155
0.511155 0.504355 0.501555
0.511556 0.504756 0.501956
0.511956 0.505156 0.502356
0.512357 0.505557 0.502757
0.512758 0.505958 0.503158
0.513158 0.506358 0.503558
0.507535 0.500735 0.497935
0.507936 0.501136 0.498336
0.508336 0.501536 0.498736
0.508737 0.501937 0.499137
0.509138 0.502338 0.499538
0.509538 0.502738 0.499938
0.509939 0.503139 0.500339
0.510339 0.503539 0.500739
0.510740 0.503940 0.501140
0.511141 0.504341 0.501541
0.511541 0.504741 0.501941
0.511942 0.505142 0.502342
0.512342 0.505542 0.502742
0.512743 0.505943 0.503143
0.513143 0.506343 0.503543
0.513544 0.506744 0.503944
0.513945 0.507145 0.504345
0.495105 0.488305 0.485505
0.495506 0.488706 0.485906
0.495907 0.489107 0.486307
0.496307 0.489507 0.486707
0.496708 0.489908 0.487108
0.497108 0.490308 0.487508
0.497509 0.490709 0.487909
0.497909 0.491109 0.488309
0.498310 0.491510 0.488710
0.498711 0.491911 0.489111
0.499111 0.492311 0.489511
0.499512 0.492712 0.489912
0.499912 0.493112 0.490312
0.500313 0.493513 0.490713
0.500714 0.493914 0.491114
0.501114 0.494314 0.491514
0.501515 0.494715 0.491915
0.495892 0.489092 0.486292
0.496292 0.489492 0.486692
0.496693 0.489893 0.487093
0.497094 0.490294 0.487494
0.497494 0.490694 0.487894
0.497895 0.491095 0.488295
0.498295 0.491495 0.488695
0.498696 0.491896 0.489096
0.499096 0.492296 0.489496
0.499497 0.492697 0.489897
0.499898 0.493098 0.490298
0.500298 0.493498 0.490698
0.500699 0.493899 0.491099
0.501099 0.494299 0.491499
0.501500 0.494700 0.491900
0.501900 0.495100 0.492300
0.502301 0.495501 0.492701
0.496678 0.489878 0.487078
0.497079 0.490279 0.487479
0.497479 0.490679 0.487879
0.497880 0.491080 0.488280
0.498281 0.491481 0.488681
0.498681 0.491881 0.489081
0.499082 0.492282 0.489482
0.499482 0.492682 0.489882
0.499883 0.493083 0.490283
0.500283 0.493483 0.490683
0.500684 0.493884 0.491084
0.501085 0.494285 0.491485
0.501485 0.494685 0.491885
0.501886 0.495086 0.492286
0.502286 0.495486 0.492686
0.502687 0.495887 0.493087
0.503087 0.496287 0.493487
0.497465 0.490665 0.487865
0.497865 0.491065 0.488265
0.498266 0.491466 0.488666
0.498666 0.491866 0.489066
0.499067 0.492267 0.489467
0.499468 0.492668 0.489868
0.499868 0.493068 0.490268
0.500269 0.493469 0.490669
0.500669 0.493869 0.491069
0.501070 0.494270 0.491470
0.501470 0.494670 0.491870
0.501871 0.495071 0.492271
0.502272 0.495472 0.492672
0.502672 0.495872 0.493072
0.503073 0.496273 0.493473
0.503473 0.496673 0.493873
0.503874 0.497074 0.494274
0.498251 0.491451 0.488651
0.498652 0.491852 0.489052
0.499052 0.492252 0.489452
0.499453 0.492653 0.489853
0.499853 0.493053 0.490253
0.500254 0.493454 0.490654
0.500655 0.493855 0.491055
0.501055 0.494255 0.491455
0.501456 0.494656 0.491856
0.501856 0.495056 0.492256
0.502257 0.495457 0.492657
0.502657 0.495857 0.493057
0.503058 0.496258 0.493458
0.503459 0.496659 0.493859
0.503859 0.497059 0.494259
0.504260 0.497460 0.494660
0.504660 0.497860 0.495060
0.499038 0.492238 0.489438
0.499438 0.492638 0.489838
0.499839 0.493039 0.490239
0.500239 0.493439 0.490639
0.500640 0.493840 0.491040
0.501040 0.494240 0.491440
0.501441 0.494641 0.491841
0.501842 0.495042 0.492242
0.502242 0.495442 0.492642
0.502643 0.495843 0.493043
0.503043 0.496243 0.493443
0.503444 0.496644 0.493844
0.503844 0.497044 0.494244
0.504245 0.497445 0.494645
0.504646 0.497846 0.495046
0.505046 0.498246 0.495446
0.505447 0.498647 0.495847
0.499824 0.493024 0.490224
0.500225 0.493425 0.490625
0.500625 0.493825 0.491025
0.501026 0.494226 0.491426
0.501426 0.494626 0.491826
0.501827 0.495027 0.492227
0.502227 0.495427 0.492627
0.502628 0.495828 0.493028
0.503029 0.496229 0.493429
0.503429 0.496629 0.493829
0.503830 0.497030 0.494230
0.504230 0.497430 0.494630
0.504631 0.497831 0.495031
0.505031 0.498231 0.495431
0.505432 0.498632 0.495832
0.505833 0.499033 0.496233
0.506233 0.499433 0.496633
0.500610 0.493810 0.491010
0.501011 0.494211 0.491411
0.501412 0.494612 0.491812
0.501812 0.495012 0.492212
0.502213 0.495413 0.492613
0.502613 0.495813 0.493013
0.503014 0.496214 0.493414
0.503414 0.496614 0.493814
0.503815 0.497015 0.494215
0.504216 0.497416 0.494616
0.504616 0.497816 0.495016
0.505017 0.498217 0.495417
0.505417 0.498617 0.495817
0.505818 0.499018 0.496218
0.506218 0.499418 0.496618
0.506619 0.499819 0.497019
0.507020 0.500220 0.497420
0.501397 0.494597 0.491797
0.501797 0.494997 0.492197
0.502198 0.495398 0.492598
0.502598 0.495798 0.492998
0.502999 0.496199 0.493399
0.503400 0.496600 0.493800
0.503800 0.497000 0.494200
0.504201 0.497401 0.494601
0.504601 0.497801 0.495001
0.505002 0.498202 0.495402
0.505403 0.498603 0.495803
0.505803 0.499003 0.496203
0.506204 0.499404 0.496604
0.506604 0.499804 0.497004
0.507005 0.500205 0.497405
0.507405 0.500605 0.497805
0.507806 0.501006 0.498206
0.502183 0.495383 0.492583
0.502584 0.495784 0.492984
0.502984 0.496184 0.493384
0.503385 0.496585 0.493785
0.503785 0.496985 0.494185
0.504186 0.497386 0.494586
0.504587 0.497787 0.494987
0.504987 0.498187 0.495387
0.505388 0.498588 0.495788
0.505788 0.498988 0.496188
0.506189 0.499389 0.496589
0.506590 0.499790 0.496990
0.506990 0.500190 0.497390
0.507391 0.500591 0.497791
0.507791 0.500991 0.498191
0.508192 0.501392 0.498592
0.508592 0.501792 0.498992
0.502970 0.496170 0.493370
0.503370 0.496570 0.493770
0.503771 0.496971 0.494171
0.504171 0.497371 0.494571
0.504572 0.497772 0.494972
0.504972 0.498172 0.495372
0.505373 0.498573 0.495773
0.505774 0.498974 0.496174
0.506174 0.499374 0.496574
0.506575 0.499775 0.496975
0.506975 0.500175 0.497375
0.507376 0.500576 0.497776
0.507776 0.500976 0.498176
0.508177 0.501377 0.498577
0.508578 0.501778 0.498978
0.508978 0.502178 0.499378
0.509379 0.502579 0.499779
0.503756 0.496956 0.494156
0.504157 0.497357 0.494557
0.504557 0.497757 0.494957
0.504958 0.498158 0.495358
0.505358 0.498558 0.495758
0.505759 0.498959 0.496159
0.506159 0.499359 0.496559
0.506560 0.499760 0.496960
0.506961 0.500161 0.497361
0.507361 0.500561 0.497761
0.507762 0.500962 0.498162
0.508162 0.501362 0.498562
0.508563 0.501763 0.498963
0.508963 0.502163 0.499363
0.509364 0.502564 0.499764
0.509765 0.502965 0.500165
0.510165 0.503365 0.500565
0.504542 0.497742 0.494942
0.504943 0.498143 0.495343
0.505344 0.498544 0.495744
0.505744 0.498944 0.496144
0.506145 0.499345 0.496545
0.506545 0.499745 0.496945
0.506946 0.500146 0.497346
0.507346 0.500546 0.497746
0.507747 0.500947 0.498147
0.508148 0.501348 0.498548
0.508548 0.501748 0.498948
0.508949 0.502149 0.499349
0.509349 0.502549 0.499749
0.509750 0.502950 0.500150
0.510150 0.503350 0.500550
0.510551 0.503751 0.500951
0.510952 0.504152 0.501352
0.505329 0.498529 0.495729
0.505729 0.498929 0.496129
0.506130 0.499330 0.496530
0.506531 0.499731 0.496931
0.506931 0.500131 0.497331
0.507332 0.500532 0.497732
0.507732 0.500932 0.498132
0.508133 0.501333 0.498533
0.508533 0.501733 0.498933
0.508934 0.502134 0.499334
0.509335 0.502535 0.499735
0.509735 0.502935 0.500135
0.510136 0.503336 0.500536
0.510536 0.503736 0.500936
0.510937 0.504137 0.501337
0.511337 0.504537 0.501737
0.511738 0.504938 0.502138
0.506115 0.499315 0.496515
0.506516 0.499716 0.496916
0.506916 0.500116 0.497316
0.507317 0.500517 0.497717
0.507718 0.500918 0.498118
0.508118 0.501318 0.498518
0.508519 0.501719 0.498919
0.508919 0.502119 0.499319
0.509320 0.502520 0.499720
0.509720 0.502920 0.500120
0.510121 0.503321 0.500521
0.510522 0.503722 0.500922
0.510922 0.504122 0.501322
0.511323 0.504523 0.501723
0.511723 0.504923 0.502123
0.512124 0.505324 0.502524
0.512524 0.505724 0.502924
0.506902 0.500102 0.497302
0.507302 0.500502 0.497702
0.507703 0.500903 0.498103
0.508103 0.501303 0.498503
0.508504 0.501704 0.498904
0.508905 0.502105 0.499305
0.509305 0.502505 0.499705
0.509706 0.502906 0.500106
0.510106 0.503306 0.500506
0.510507 0.503707 0.500907
0.510907 0.504107 0.501307
0.511308 0.504508 0.501708
0.511709 0.504909 0.502109
0.512109 0.505309 0.502509
0.512510 0.505710 0.502910
0.512910 0.506110 0.503310
0.513311 0.506511 0.503711
0.507688 0.500888 0.498088
0.508089 0.501289 0.498489
0.508489 0.501689 0.498889
0.508890 0.502090 0.499290
0.509290 0.502490 0.499690
0.509691 0.502891 0.500091
0.510092 0.503292 0.500492
0.510492 0.503692 0.500892
0.510893 0.504093 0.501293
0.511293 0.504493 0.501693
0.511694 0.504894 0.502094
0.512094 0.505294 0.502494
0.512495 0.505695 0.502895
0.512896 0.506096 0.503296
0.513296 0.506496 0.503696
0.513697 0.506897 0.504097
0.514097 0.507297 0.504497
0.495258 0.488458 0.485658
0.495659 0.488859 0.486059
0.496059 0.489259 0.486459
0.496460 0.489660 0.486860
0.496860 0.490060 0.487260
0.497261 0.490461 0.487661
0.497662 0.490862 0.488062
0.498062 0.491262 0.488462
0.498463 0.491663 0.488863
0.498863 0.492063 0.489263
0.499264 0.492464 0.489664
0.499665 0.492865 0.490065
0.500065 0.493265 0.490465
0.500466 0.493666 0.490866
0.500866 0.494066 0.491266
0.501267 0.494467 0.491667
0.501667 0.494867 0.492067
0.496045 0.489245 0.486445
