shared/src/main/assets/luts/mv_pale_drama.cube
TITLE "DALUR Pale Drama"
LUT_3D_SIZE 5
DOMAIN_MIN 0.0 0.0 0.0
DOMAIN_MAX 1.0 1.0 1.0
0.472800 0.480000 0.487200
0.473718 0.484024 0.491224
0.474637 0.488048 0.495248
0.475555 0.492072 0.499272
0.476473 0.496096 0.503296
0.480700 0.484794 0.495100
0.481618 0.488818 0.499124
0.482537 0.492842 0.503148
0.483455 0.496867 0.507172
0.484373 0.500891 0.511196
0.488600 0.489589 0.503000
0.489518 0.493613 0.507024
0.490437 0.497637 0.511048
0.491355 0.501661 0.515072
0.492273 0.505685 0.519097
0.496500 0.494383 0.510900
0.497419 0.498407 0.514924
0.498337 0.502431 0.518948
0.499255 0.506455 0.522973
0.500173 0.510479 0.526997
0.504400 0.499177 0.518800
0.505319 0.503201 0.522825
0.506237 0.507225 0.526849
0.507155 0.511249 0.530873
0.508074 0.515274 0.534897
0.474334 0.481534 0.485628
0.475253 0.485558 0.489653
0.476171 0.489582 0.493677
0.477089 0.493606 0.497701
0.478007 0.497631 0.501725
0.482234 0.486329 0.493529
0.483153 0.490353 0.497553
0.484071 0.494377 0.501577
0.484989 0.498401 0.505601
0.485907 0.502425 0.509625
0.490134 0.491123 0.501429
0.491053 0.495147 0.505453
0.491971 0.499171 0.509477
0.492889 0.503195 0.513501
0.493808 0.507219 0.517525
0.498035 0.495917 0.509329
0.498953 0.499941 0.513353
0.499871 0.503965 0.517377
0.500789 0.507989 0.521401
0.501708 0.512013 0.525425
0.505935 0.500712 0.517229
0.506853 0.504736 0.521253
0.507771 0.508760 0.525277
0.508690 0.512784 0.529301
0.509608 0.516808 0.533325
0.475869 0.483069 0.484057
0.476787 0.487093 0.488081
0.477705 0.491117 0.492105
0.478623 0.495141 0.496129
0.479542 0.499165 0.500153
0.483769 0.487863 0.491957
0.484687 0.491887 0.495981
0.485605 0.495911 0.500005
0.486523 0.499935 0.504029
0.487442 0.503959 0.508053
0.491669 0.492657 0.499857
0.492587 0.496681 0.503881
0.493505 0.500705 0.507905
0.494424 0.504729 0.511929
0.495342 0.508753 0.515953
0.499569 0.497451 0.507757
0.500487 0.501476 0.511781
0.501405 0.505500 0.515805
0.502324 0.509524 0.519829
0.503242 0.513548 0.523854
0.507469 0.502246 0.515657
0.508387 0.506270 0.519681
0.509306 0.510294 0.523706
0.510224 0.514318 0.527730
0.511142 0.518342 0.531754
0.477403 0.484603 0.482485
0.478321 0.488627 0.486509
0.479239 0.492651 0.490534
0.480158 0.496675 0.494558
0.481076 0.500699 0.498582
0.485303 0.489397 0.490386
0.486221 0.493421 0.494410
0.487139 0.497445 0.498434
0.488058 0.501469 0.502458
0.488976 0.505493 0.506482
0.493203 0.494191 0.498286
0.494121 0.498215 0.502310
0.495040 0.502240 0.506334
0.495958 0.506264 0.510358
0.496876 0.510288 0.514382
0.501103 0.498986 0.506186
0.502021 0.503010 0.510210
0.502940 0.507034 0.514234
0.503858 0.511058 0.518258
0.504776 0.515082 0.522282
0.509003 0.503780 0.514086
0.509921 0.507804 0.518110
0.510840 0.511828 0.522134
0.511758 0.515852 0.526158
0.512676 0.519876 0.530182
0.478937 0.486137 0.480914
0.479855 0.490161 0.484938
0.480774 0.494185 0.488962
0.481692 0.498209 0.492986
0.482610 0.502233 0.497010
0.486837 0.490931 0.488814
0.487755 0.494955 0.492838
0.488674 0.498980 0.496862
0.489592 0.503004 0.500886
0.490510 0.507028 0.504910
0.494737 0.495726 0.496714
0.495656 0.499750 0.500738
0.496574 0.503774 0.504762
0.497492 0.507798 0.508786
0.498410 0.511822 0.512810
0.502637 0.500520 0.504614
0.503556 0.504544 0.508638
0.504474 0.508568 0.512662
0.505392 0.512592 0.516686
0.506310 0.516616 0.520710
0.510537 0.505314 0.512514
0.511456 0.509338 0.516538
0.512374 0.513362 0.520562
0.513292 0.517387 0.524587
0.514211 0.521411 0.528611
