shared/src/main/assets/luts/mv_pale_drama.cube
TITLE "DALUR Pale Drama"
LUT_3D_SIZE 9
DOMAIN_MIN 0.0 0.0 0.0
DOMAIN_MAX 1.0 1.0 1.0
0.472800 0.480000 0.487200
0.473259 0.482012 0.489212
0.473718 0.484024 0.491224
0.474177 0.486036 0.493236
0.474637 0.488048 0.495248
0.475096 0.490060 0.497260
0.475555 0.492072 0.499272
0.476014 0.494084 0.501284
0.476473 0.496096 0.503296
0.476750 0.482397 0.491150
0.477209 0.484409 0.493162
0.477668 0.486421 0.495174
0.478127 0.488433 0.497186
0.478587 0.490445 0.499198
0.479046 0.492457 0.501210
0.479505 0.494469 0.503222
0.479964 0.496481 0.505234
0.480423 0.498493 0.507246
0.480700 0.484794 0.495100
0.481159 0.486806 0.497112
0.481618 0.488818 0.499124
0.482078 0.490830 0.501136
0.482537 0.492842 0.503148
0.482996 0.494854 0.505160
0.483455 0.496867 0.507172
0.483914 0.498879 0.509184
0.484373 0.500891 0.511196
0.484650 0.487191 0.499050
0.485109 0.489204 0.501062
0.485568 0.491216 0.503074
0.486028 0.493228 0.505086
0.486487 0.495240 0.507098
0.486946 0.497252 0.509110
0.487405 0.499264 0.511122
0.487864 0.501276 0.513134
0.488323 0.503288 0.515146
0.488600 0.489589 0.503000
0.489059 0.491601 0.505012
0.489518 0.493613 0.507024
0.489978 0.495625 0.509036
0.490437 0.497637 0.511048
0.490896 0.499649 0.513060
0.491355 0.501661 0.515072
0.491814 0.503673 0.517084
0.492273 0.505685 0.519097
0.492550 0.491986 0.506950
0.493009 0.493998 0.508962
0.493469 0.496010 0.510974
0.493928 0.498022 0.512986
0.494387 0.500034 0.514998
0.494846 0.502046 0.517010
0.495305 0.504058 0.519022
0.495764 0.506070 0.521035
0.496223 0.508082 0.523047
0.496500 0.494383 0.510900
0.496959 0.496395 0.512912
0.497419 0.498407 0.514924
0.497878 0.500419 0.516936
0.498337 0.502431 0.518948
0.498796 0.504443 0.520961
0.499255 0.506455 0.522973
0.499714 0.508467 0.524985
0.500173 0.510479 0.526997
0.500450 0.496780 0.514850
0.500910 0.498792 0.516862
0.501369 0.500804 0.518874
0.501828 0.502816 0.520886
0.502287 0.504828 0.522899
0.502746 0.506840 0.524911
0.503205 0.508852 0.526923
0.503664 0.510864 0.528935
0.504123 0.512876 0.530947
0.504400 0.499177 0.518800
0.504860 0.501189 0.520812
0.505319 0.503201 0.522825
0.505778 0.505213 0.524837
0.506237 0.507225 0.526849
0.506696 0.509237 0.528861
0.507155 0.511249 0.530873
0.507614 0.513262 0.532885
0.508074 0.515274 0.534897
0.473567 0.480767 0.486414
0.474026 0.482779 0.488426
0.474485 0.484791 0.490438
0.474945 0.486803 0.492450
0.475404 0.488815 0.494462
0.475863 0.490827 0.496474
0.476322 0.492839 0.498486
0.476781 0.494851 0.500498
0.477240 0.496863 0.502511
0.477517 0.483164 0.490364
0.477976 0.485176 0.492376
0.478435 0.487188 0.494388
0.478895 0.489200 0.496400
0.479354 0.491212 0.498412
0.479813 0.493224 0.500424
0.480272 0.495237 0.502437
0.480731 0.497249 0.504449
0.481190 0.499261 0.506461
0.481467 0.485561 0.494314
0.481926 0.487573 0.496326
0.482386 0.489586 0.498338
0.482845 0.491598 0.500350
0.483304 0.493610 0.502362
0.483763 0.495622 0.504375
0.484222 0.497634 0.506387
0.484681 0.499646 0.508399
0.485140 0.501658 0.510411
0.485417 0.487959 0.498264
0.485876 0.489971 0.500276
0.486336 0.491983 0.502288
0.486795 0.493995 0.504301
0.487254 0.496007 0.506313
0.487713 0.498019 0.508325
0.488172 0.500031 0.510337
0.488631 0.502043 0.512349
0.489090 0.504055 0.514361
0.489367 0.490356 0.502214
0.489826 0.492368 0.504226
0.490286 0.494380 0.506239
0.490745 0.496392 0.508251
0.491204 0.498404 0.510263
0.491663 0.500416 0.512275
0.492122 0.502428 0.514287
0.492581 0.504440 0.516299
0.493040 0.506452 0.518311
0.493317 0.492753 0.506165
0.493777 0.494765 0.508177
0.494236 0.496777 0.510189
0.494695 0.498789 0.512201
0.495154 0.500801 0.514213
0.495613 0.502813 0.516225
0.496072 0.504825 0.518237
0.496531 0.506837 0.520249
0.496991 0.508849 0.522261
0.497267 0.495150 0.510115
0.497727 0.497162 0.512127
0.498186 0.499174 0.514139
0.498645 0.501186 0.516151
0.499104 0.503198 0.518163
0.499563 0.505210 0.520175
0.500022 0.507222 0.522187
0.500481 0.509234 0.524199
0.500941 0.511246 0.526211
0.501218 0.497547 0.514065
0.501677 0.499559 0.516077
0.502136 0.501571 0.518089
0.502595 0.503583 0.520101
0.503054 0.505595 0.522113
0.503513 0.507607 0.524125
0.503972 0.509619 0.526137
0.504431 0.511631 0.528149
0.504891 0.513644 0.530161
0.505168 0.499944 0.518015
0.505627 0.501956 0.520027
0.506086 0.503968 0.522039
0.506545 0.505980 0.524051
0.507004 0.507993 0.526063
0.507463 0.510005 0.528075
0.507922 0.512017 0.530087
0.508382 0.514029 0.532099
0.508841 0.516041 0.534111
0.474334 0.481534 0.485628
0.474793 0.483546 0.487641
0.475253 0.485558 0.489653
0.475712 0.487570 0.491665
0.476171 0.489582 0.493677
0.476630 0.491594 0.495689
0.477089 0.493606 0.497701
0.477548 0.495619 0.499713
0.478007 0.497631 0.501725
0.478284 0.483931 0.489579
0.478743 0.485943 0.491591
0.479203 0.487955 0.493603
0.479662 0.489968 0.495615
0.480121 0.491980 0.497627
0.480580 0.493992 0.499639
0.481039 0.496004 0.501651
0.481498 0.498016 0.503663
0.481957 0.500028 0.505675
0.482234 0.486329 0.493529
0.482694 0.488341 0.495541
0.483153 0.490353 0.497553
0.483612 0.492365 0.499565
0.484071 0.494377 0.501577
0.484530 0.496389 0.503589
0.484989 0.498401 0.505601
0.485448 0.500413 0.507613
0.485907 0.502425 0.509625
0.486184 0.488726 0.497479
0.486644 0.490738 0.499491
0.487103 0.492750 0.501503
0.487562 0.494762 0.503515
0.488021 0.496774 0.505527
0.488480 0.498786 0.507539
0.488939 0.500798 0.509551
0.489398 0.502810 0.511563
0.489858 0.504822 0.513575
0.490134 0.491123 0.501429
0.490594 0.493135 0.503441
0.491053 0.495147 0.505453
0.491512 0.497159 0.507465
0.491971 0.499171 0.509477
0.492430 0.501183 0.511489
0.492889 0.503195 0.513501
0.493348 0.505207 0.515513
0.493808 0.507219 0.517525
0.494085 0.493520 0.505379
0.494544 0.495532 0.507391
0.495003 0.497544 0.509403
0.495462 0.499556 0.511415
0.495921 0.501568 0.513427
0.496380 0.503580 0.515439
0.496839 0.505592 0.517451
0.497299 0.507604 0.519463
0.497758 0.509616 0.521475
0.498035 0.495917 0.509329
0.498494 0.497929 0.511341
0.498953 0.499941 0.513353
0.499412 0.501953 0.515365
0.499871 0.503965 0.517377
0.500330 0.505977 0.519389
0.500789 0.507989 0.521401
0.501249 0.510001 0.523413
0.501708 0.512013 0.525425
0.501985 0.498314 0.513279
0.502444 0.500326 0.515291
0.502903 0.502338 0.517303
0.503362 0.504350 0.519315
0.503821 0.506363 0.521327
0.504280 0.508375 0.523339
0.504739 0.510387 0.525351
0.505199 0.512399 0.527363
0.505658 0.514411 0.529375
0.505935 0.500712 0.517229
0.506394 0.502724 0.519241
0.506853 0.504736 0.521253
0.507312 0.506748 0.523265
0.507771 0.508760 0.525277
0.508230 0.510772 0.527289
0.508690 0.512784 0.529301
0.509149 0.514796 0.531313
0.509608 0.516808 0.533325
0.475101 0.482301 0.484843
0.475561 0.484313 0.486855
0.476020 0.486325 0.488867
0.476479 0.488338 0.490879
0.476938 0.490350 0.492891
0.477397 0.492362 0.494903
0.477856 0.494374 0.496915
0.478315 0.496386 0.498927
0.478775 0.498398 0.500939
0.479051 0.484699 0.488793
0.479511 0.486711 0.490805
0.479970 0.488723 0.492817
0.480429 0.490735 0.494829
0.480888 0.492747 0.496841
0.481347 0.494759 0.498853
0.481806 0.496771 0.500865
0.482265 0.498783 0.502877
0.482725 0.500795 0.504889
0.483002 0.487096 0.492743
0.483461 0.489108 0.494755
0.483920 0.491120 0.496767
0.484379 0.493132 0.498779
0.484838 0.495144 0.500791
0.485297 0.497156 0.502803
0.485756 0.499168 0.504815
0.486215 0.501180 0.506827
0.486675 0.503192 0.508839
0.486952 0.489493 0.496693
0.487411 0.491505 0.498705
0.487870 0.493517 0.500717
0.488329 0.495529 0.502729
0.488788 0.497541 0.504741
0.489247 0.499553 0.506753
0.489706 0.501565 0.508765
0.490166 0.503577 0.510777
0.490625 0.505589 0.512789
0.490902 0.491890 0.500643
0.491361 0.493902 0.502655
0.491820 0.495914 0.504667
0.492279 0.497926 0.506679
0.492738 0.499938 0.508691
0.493197 0.501950 0.510703
0.493656 0.503962 0.512715
0.494116 0.505974 0.514727
0.494575 0.507986 0.516739
0.494852 0.494287 0.504593
0.495311 0.496299 0.506605
0.495770 0.498311 0.508617
0.496229 0.500323 0.510629
0.496688 0.502335 0.512641
0.497147 0.504347 0.514653
0.497607 0.506359 0.516665
0.498066 0.508371 0.518677
0.498525 0.510383 0.520689
0.498802 0.496684 0.508543
0.499261 0.498696 0.510555
0.499720 0.500708 0.512567
0.500179 0.502720 0.514579
0.500638 0.504732 0.516591
0.501097 0.506745 0.518603
0.501557 0.508757 0.520615
0.502016 0.510769 0.522627
0.502475 0.512781 0.524639
0.502752 0.499081 0.512493
0.503211 0.501094 0.514505
0.503670 0.503106 0.516517
0.504129 0.505118 0.518529
0.504588 0.507130 0.520541
0.505047 0.509142 0.522553
0.505507 0.511154 0.524565
0.505966 0.513166 0.526577
0.506425 0.515178 0.528589
0.506702 0.501479 0.516443
0.507161 0.503491 0.518455
0.507620 0.505503 0.520467
0.508079 0.507515 0.522479
0.508538 0.509527 0.524491
0.508998 0.511539 0.526503
0.509457 0.513551 0.528515
0.509916 0.515563 0.530527
0.510375 0.517575 0.532539
0.475869 0.483069 0.484057
0.476328 0.485081 0.486069
0.476787 0.487093 0.488081
0.477246 0.489105 0.490093
0.477705 0.491117 0.492105
0.478164 0.493129 0.494117
0.478623 0.495141 0.496129
0.479083 0.497153 0.498141
0.479542 0.499165 0.500153
0.479819 0.485466 0.488007
0.480278 0.487478 0.490019
0.480737 0.489490 0.492031
0.481196 0.491502 0.494043
0.481655 0.493514 0.496055
0.482114 0.495526 0.498067
0.482573 0.497538 0.500079
0.483033 0.499550 0.502091
0.483492 0.501562 0.504103
0.483769 0.487863 0.491957
0.484228 0.489875 0.493969
0.484687 0.491887 0.495981
0.485146 0.493899 0.497993
0.485605 0.495911 0.500005
0.486064 0.497923 0.502017
0.486523 0.499935 0.504029
0.486983 0.501947 0.506041
0.487442 0.503959 0.508053
0.487719 0.490260 0.495907
0.488178 0.492272 0.497919
0.488637 0.494284 0.499931
0.489096 0.496296 0.501943
0.489555 0.498308 0.503955
0.490014 0.500320 0.505967
0.490474 0.502332 0.507979
0.490933 0.504344 0.509991
0.491392 0.506356 0.512003
0.491669 0.492657 0.499857
0.492128 0.494669 0.501869
0.492587 0.496681 0.503881
0.493046 0.498693 0.505893
0.493505 0.500705 0.507905
0.493964 0.502717 0.509917
0.494424 0.504729 0.511929
0.494883 0.506741 0.513941
0.495342 0.508753 0.515953
0.495619 0.495054 0.503807
0.496078 0.497066 0.505819
0.496537 0.499078 0.507831
0.496996 0.501090 0.509843
0.497455 0.503102 0.511855
0.497914 0.505114 0.513867
0.498374 0.507127 0.515879
0.498833 0.509139 0.517891
0.499292 0.511151 0.519904
0.499569 0.497451 0.507757
0.500028 0.499463 0.509769
0.500487 0.501476 0.511781
0.500946 0.503488 0.513793
0.501405 0.505500 0.515805
0.501865 0.507512 0.517817
0.502324 0.509524 0.519829
0.502783 0.511536 0.521842
0.503242 0.513548 0.523854
0.503519 0.499849 0.511707
0.503978 0.501861 0.513719
0.504437 0.503873 0.515731
0.504896 0.505885 0.517743
0.505355 0.507897 0.519755
0.505815 0.509909 0.521767
0.506274 0.511921 0.523780
0.506733 0.513933 0.525792
0.507192 0.515945 0.527804
0.507469 0.502246 0.515657
0.507928 0.504258 0.517669
0.508387 0.506270 0.519681
0.508846 0.508282 0.521693
0.509306 0.510294 0.523706
0.509765 0.512306 0.525718
0.510224 0.514318 0.527730
0.510683 0.516330 0.529742
0.511142 0.518342 0.531754
0.476636 0.483836 0.483271
0.477095 0.485848 0.485283
0.477554 0.487860 0.487295
0.478013 0.489872 0.489307
0.478472 0.491884 0.491319
0.478931 0.493896 0.493331
0.479390 0.495908 0.495343
0.479850 0.497920 0.497355
0.480309 0.499932 0.499367
0.480586 0.486233 0.487221
0.481045 0.488245 0.489233
0.481504 0.490257 0.491245
0.481963 0.492269 0.493257
0.482422 0.494281 0.495269
0.482881 0.496293 0.497281
0.483341 0.498305 0.499293
0.483800 0.500317 0.501305
0.484259 0.502329 0.503318
0.484536 0.488630 0.491171
0.484995 0.490642 0.493183
0.485454 0.492654 0.495195
0.485913 0.494666 0.497207
0.486372 0.496678 0.499219
0.486831 0.498690 0.501231
0.487291 0.500702 0.503244
0.487750 0.502714 0.505256
0.488209 0.504726 0.507268
0.488486 0.491027 0.495121
0.488945 0.493039 0.497133
0.489404 0.495051 0.499145
0.489863 0.497063 0.501157
0.490322 0.499075 0.503169
0.490782 0.501087 0.505182
0.491241 0.503099 0.507194
0.491700 0.505111 0.509206
0.492159 0.507123 0.511218
0.492436 0.493424 0.499071
0.492895 0.495436 0.501083
0.493354 0.497448 0.503095
0.493813 0.499460 0.505107
0.494272 0.501472 0.507120
0.494732 0.503484 0.509132
0.495191 0.505497 0.511144
0.495650 0.507509 0.513156
0.496109 0.509521 0.515168
0.496386 0.495821 0.503021
0.496845 0.497833 0.505033
0.497304 0.499846 0.507046
0.497763 0.501858 0.509058
0.498222 0.503870 0.511070
0.498682 0.505882 0.513082
0.499141 0.507894 0.515094
0.499600 0.509906 0.517106
0.500059 0.511918 0.519118
0.500336 0.498219 0.506971
0.500795 0.500231 0.508984
0.501254 0.502243 0.510996
0.501713 0.504255 0.513008
0.502173 0.506267 0.515020
0.502632 0.508279 0.517032
0.503091 0.510291 0.519044
0.503550 0.512303 0.521056
0.504009 0.514315 0.523068
0.504286 0.500616 0.510922
0.504745 0.502628 0.512934
0.505204 0.504640 0.514946
0.505663 0.506652 0.516958
0.506123 0.508664 0.518970
0.506582 0.510676 0.520982
0.507041 0.512688 0.522994
0.507500 0.514700 0.525006
0.507959 0.516712 0.527018
0.508236 0.503013 0.514872
0.508695 0.505025 0.516884
0.509154 0.507037 0.518896
0.509614 0.509049 0.520908
0.510073 0.511061 0.522920
0.510532 0.513073 0.524932
0.510991 0.515085 0.526944
0.511450 0.517097 0.528956
0.511909 0.519109 0.530968
0.477403 0.484603 0.482485
0.477862 0.486615 0.484497
0.478321 0.488627 0.486509
0.478780 0.490639 0.488522
0.479239 0.492651 0.490534
0.479698 0.494663 0.492546
0.480158 0.496675 0.494558
0.480617 0.498687 0.496570
0.481076 0.500699 0.498582
0.481353 0.487000 0.486435
0.481812 0.489012 0.488447
0.482271 0.491024 0.490460
0.482730 0.493036 0.492472
0.483189 0.495048 0.494484
0.483649 0.497060 0.496496
0.484108 0.499072 0.498508
0.484567 0.501084 0.500520
0.485026 0.503096 0.502532
0.485303 0.489397 0.490386
0.485762 0.491409 0.492398
0.486221 0.493421 0.494410
0.486680 0.495433 0.496422
0.487139 0.497445 0.498434
0.487599 0.499457 0.500446
0.488058 0.501469 0.502458
0.488517 0.503481 0.504470
0.488976 0.505493 0.506482
0.489253 0.491794 0.494336
0.489712 0.493806 0.496348
0.490171 0.495818 0.498360
0.490630 0.497830 0.500372
0.491090 0.499842 0.502384
0.491549 0.501854 0.504396
0.492008 0.503866 0.506408
0.492467 0.505879 0.508420
0.492926 0.507891 0.510432
0.493203 0.494191 0.498286
0.493662 0.496203 0.500298
0.494121 0.498215 0.502310
0.494580 0.500228 0.504322
0.495040 0.502240 0.506334
0.495499 0.504252 0.508346
0.495958 0.506264 0.510358
0.496417 0.508276 0.512370
0.496876 0.510288 0.514382
0.497153 0.496589 0.502236
0.497612 0.498601 0.504248
0.498071 0.500613 0.506260
0.498530 0.502625 0.508272
0.498990 0.504637 0.510284
0.499449 0.506649 0.512296
0.499908 0.508661 0.514308
0.500367 0.510673 0.516320
0.500826 0.512685 0.518332
0.501103 0.498986 0.506186
0.501562 0.500998 0.508198
0.502021 0.503010 0.510210
0.502481 0.505022 0.512222
0.502940 0.507034 0.514234
0.503399 0.509046 0.516246
0.503858 0.511058 0.518258
0.504317 0.513070 0.520270
0.504776 0.515082 0.522282
0.505053 0.501383 0.510136
0.505512 0.503395 0.512148
0.505971 0.505407 0.514160
0.506431 0.507419 0.516172
0.506890 0.509431 0.518184
0.507349 0.511443 0.520196
0.507808 0.513455 0.522208
0.508267 0.515467 0.524220
0.508726 0.517479 0.526232
0.509003 0.503780 0.514086
0.509462 0.505792 0.516098
0.509921 0.507804 0.518110
0.510381 0.509816 0.520122
0.510840 0.511828 0.522134
0.511299 0.513840 0.524146
0.511758 0.515852 0.526158
0.512217 0.517864 0.528170
0.512676 0.519876 0.530182
0.478170 0.485370 0.481700
0.478629 0.487382 0.483712
0.479088 0.489394 0.485724
0.479547 0.491406 0.487736
0.480006 0.493418 0.489748
0.480466 0.495430 0.491760
0.480925 0.497442 0.493772
0.481384 0.499454 0.495784
0.481843 0.501466 0.497796
0.482120 0.487767 0.485650
0.482579 0.489779 0.487662
0.483038 0.491791 0.489674
0.483497 0.493803 0.491686
0.483957 0.495815 0.493698
0.484416 0.497827 0.495710
0.484875 0.499839 0.497722
0.485334 0.501851 0.499734
0.485793 0.503863 0.501746
0.486070 0.490164 0.489600
0.486529 0.492176 0.491612
0.486988 0.494188 0.493624
0.487447 0.496200 0.495636
0.487907 0.498212 0.497648
0.488366 0.500224 0.499660
0.488825 0.502236 0.501672
0.489284 0.504248 0.503684
0.489743 0.506261 0.505696
0.490020 0.492561 0.493550
0.490479 0.494573 0.495562
0.490938 0.496585 0.497574
0.491397 0.498597 0.499586
0.491857 0.500610 0.501598
0.492316 0.502622 0.503610
0.492775 0.504634 0.505622
0.493234 0.506646 0.507634
0.493693 0.508658 0.509646
0.493970 0.494959 0.497500
0.494429 0.496971 0.499512
0.494888 0.498983 0.501524
0.495348 0.500995 0.503536
0.495807 0.503007 0.505548
0.496266 0.505019 0.507560
0.496725 0.507031 0.509572
0.497184 0.509043 0.511584
0.497643 0.511055 0.513596
0.497920 0.497356 0.501450
0.498379 0.499368 0.503462
0.498838 0.501380 0.505474
0.499298 0.503392 0.507486
0.499757 0.505404 0.509498
0.500216 0.507416 0.511510
0.500675 0.509428 0.513522
0.501134 0.511440 0.515534
0.501593 0.513452 0.517546
0.501870 0.499753 0.505400
0.502329 0.501765 0.507412
0.502789 0.503777 0.509424
0.503248 0.505789 0.511436
0.503707 0.507801 0.513448
0.504166 0.509813 0.515460
0.504625 0.511825 0.517472
0.505084 0.513837 0.519484
0.505543 0.515849 0.521496
0.505820 0.502150 0.509350
0.506279 0.504162 0.511362
0.506739 0.506174 0.513374
0.507198 0.508186 0.515386
0.507657 0.510198 0.517398
0.508116 0.512210 0.519410
0.508575 0.514222 0.521422
0.509034 0.516234 0.523434
0.509493 0.518246 0.525446
0.509770 0.504547 0.513300
0.510229 0.506559 0.515312
0.510689 0.508571 0.517324
0.511148 0.510583 0.519336
0.511607 0.512595 0.521348
0.512066 0.514607 0.523360
0.512525 0.516619 0.525372
0.512984 0.518631 0.527384
0.513443 0.520643 0.529396
0.478937 0.486137 0.480914
0.479396 0.488149 0.482926
0.479855 0.490161 0.484938
0.480314 0.492173 0.486950
0.480774 0.494185 0.488962
0.481233 0.496197 0.490974
0.481692 0.498209 0.492986
0.482151 0.500221 0.494998
0.482610 0.502233 0.497010
0.482887 0.488534 0.484864
0.483346 0.490546 0.486876
0.483805 0.492558 0.488888
0.484265 0.494570 0.490900
0.484724 0.496582 0.492912
0.485183 0.498594 0.494924
0.485642 0.500606 0.496936
0.486101 0.502618 0.498948
0.486560 0.504631 0.500960
0.486837 0.490931 0.488814
0.487296 0.492943 0.490826
0.487755 0.494955 0.492838
0.488215 0.496967 0.494850
0.488674 0.498980 0.496862
0.489133 0.500992 0.498874
0.489592 0.503004 0.500886
0.490051 0.505016 0.502898
0.490510 0.507028 0.504910
0.490787 0.493329 0.492764
0.491246 0.495341 0.494776
0.491705 0.497353 0.496788
0.492165 0.499365 0.498800
0.492624 0.501377 0.500812
0.493083 0.503389 0.502824
0.493542 0.505401 0.504836
0.494001 0.507413 0.506848
0.494460 0.509425 0.508860
0.494737 0.495726 0.496714
0.495196 0.497738 0.498726
0.495656 0.499750 0.500738
0.496115 0.501762 0.502750
0.496574 0.503774 0.504762
0.497033 0.505786 0.506774
0.497492 0.507798 0.508786
0.497951 0.509810 0.510798
0.498410 0.511822 0.512810
0.498687 0.498123 0.500664
0.499146 0.500135 0.502676
0.499606 0.502147 0.504688
0.500065 0.504159 0.506700
0.500524 0.506171 0.508712
0.500983 0.508183 0.510724
0.501442 0.510195 0.512736
0.501901 0.512207 0.514748
0.502360 0.514219 0.516760
0.502637 0.500520 0.504614
0.503097 0.502532 0.506626
0.503556 0.504544 0.508638
0.504015 0.506556 0.510650
0.504474 0.508568 0.512662
0.504933 0.510580 0.514674
0.505392 0.512592 0.516686
0.505851 0.514604 0.518698
0.506310 0.516616 0.520710
0.506587 0.502917 0.508564
0.507047 0.504929 0.510576
0.507506 0.506941 0.512588
0.507965 0.508953 0.514600
0.508424 0.510965 0.516612
0.508883 0.512977 0.518624
0.509342 0.514989 0.520636
0.509801 0.517001 0.522649
0.510261 0.519013 0.524661
0.510537 0.505314 0.512514
0.510997 0.507326 0.514526
0.511456 0.509338 0.516538
0.511915 0.511350 0.518550
0.512374 0.513362 0.520562
0.512833 0.515374 0.522574
0.513292 0.517387 0.524587
0.513751 0.519399 0.526599
0.514211 0.521411 0.528611
