shared/src/main/assets/luts/mv_pastel_nostalgia.cube
TITLE "DALUR Pastel Nostalgia"
LUT_3D_SIZE 5
DOMAIN_MIN 0.0 0.0 0.0
DOMAIN_MAX 1.0 1.0 1.0
0.494800 0.488000 0.485200
0.496402 0.489602 0.486802
0.498005 0.491205 0.488405
0.499607 0.492807 0.490007
0.501209 0.494409 0.491609
0.497946 0.491146 0.488346
0.499548 0.492748 0.489948
0.501150 0.494350 0.491550
0.502753 0.495953 0.493153
0.504355 0.497555 0.494755
0.501091 0.494291 0.491491
0.502694 0.495894 0.493094
0.504296 0.497496 0.494696
0.505898 0.499098 0.496298
0.507501 0.500701 0.497901
0.504237 0.497437 0.494637
0.505839 0.499039 0.496239
0.507442 0.500642 0.497842
0.509044 0.502244 0.499444
0.510646 0.503846 0.501046
0.507383 0.500583 0.497783
0.508985 0.502185 0.499385
0.510587 0.503787 0.500987
0.512190 0.505390 0.502590
0.513792 0.506992 0.504192
0.495411 0.488611 0.485811
0.497013 0.490213 0.487413
0.498616 0.491816 0.489016
0.500218 0.493418 0.490618
0.501820 0.495020 0.492220
0.498557 0.491757 0.488957
0.500159 0.493359 0.490559
0.501761 0.494961 0.492161
0.503363 0.496563 0.493763
0.504966 0.498166 0.495366
0.501702 0.494902 0.492102
0.503305 0.496505 0.493705
0.504907 0.498107 0.495307
0.506509 0.499709 0.496909
0.508111 0.501311 0.498511
0.504848 0.498048 0.495248
0.506450 0.499650 0.496850
0.508052 0.501252 0.498452
0.509655 0.502855 0.500055
0.511257 0.504457 0.501657
0.507994 0.501194 0.498394
0.509596 0.502796 0.499996
0.511198 0.504398 0.501598
0.512800 0.506000 0.503200
0.514403 0.507603 0.504803
0.496022 0.489222 0.486422
0.497624 0.490824 0.488024
0.499226 0.492426 0.489626
0.500829 0.494029 0.491229
0.502431 0.495631 0.492831
0.499167 0.492367 0.489567
0.500770 0.493970 0.491170
0.502372 0.495572 0.492772
0.503974 0.497174 0.494374
0.505577 0.498777 0.495977
0.502313 0.495513 0.492713
0.503915 0.497115 0.494315
0.505518 0.498718 0.495918
0.507120 0.500320 0.497520
0.508722 0.501922 0.499122
0.505459 0.498659 0.495859
0.507061 0.500261 0.497461
0.508663 0.501863 0.499063
0.510266 0.503466 0.500666
0.511868 0.505068 0.502268
0.508604 0.501804 0.499004
0.510207 0.503407 0.500607
0.511809 0.505009 0.502209
0.513411 0.506611 0.503811
0.515014 0.508214 0.505414
0.496633 0.489833 0.487033
0.498235 0.491435 0.488635
0.499837 0.493037 0.490237
0.501440 0.494640 0.491840
0.503042 0.496242 0.493442
0.499778 0.492978 0.490178
0.501381 0.494581 0.491781
0.502983 0.496183 0.493383
0.504585 0.497785 0.494985
0.506188 0.499388 0.496588
0.502924 0.496124 0.493324
0.504526 0.497726 0.494926
0.506129 0.499329 0.496529
0.507731 0.500931 0.498131
0.509333 0.502533 0.499733
0.506070 0.499270 0.496470
0.507672 0.500872 0.498072
0.509274 0.502474 0.499674
0.510877 0.504077 0.501277
0.512479 0.505679 0.502879
0.509215 0.502415 0.499615
0.510818 0.504018 0.501218
0.512420 0.505620 0.502820
0.514022 0.507222 0.504422
0.515625 0.508825 0.506025
0.497244 0.490444 0.487644
0.498846 0.492046 0.489246
0.500448 0.493648 0.490848
0.502051 0.495251 0.492451
0.503653 0.496853 0.494053
0.500389 0.493589 0.490789
0.501992 0.495192 0.492392
0.503594 0.496794 0.493994
0.505196 0.498396 0.495596
0.506799 0.499999 0.497199
0.503535 0.496735 0.493935
0.505137 0.498337 0.495537
0.506740 0.499940 0.497140
0.508342 0.501542 0.498742
0.509944 0.503144 0.500344
0.506681 0.499881 0.497081
0.508283 0.501483 0.498683
0.509885 0.503085 0.500285
0.511488 0.504688 0.501888
0.513090 0.506290 0.503490
0.509826 0.503026 0.500226
0.511429 0.504629 0.501829
0.513031 0.506231 0.503431
0.514633 0.507833 0.505033
0.516235 0.509435 0.506635
