shared/src/main/assets/luts/mv_pencil_pop.cube
TITLE "DALUR Pencil Pop"
LUT_3D_SIZE 17
DOMAIN_MIN 0.0 0.0 0.0
DOMAIN_MAX 1.0 1.0 1.0
0.416000 0.425000 0.434000
0.415500 0.429353 0.438353
0.415000 0.433706 0.442706
0.414500 0.438059 0.447059
0.414001 0.442412 0.451412
0.413501 0.446765 0.455765
0.413001 0.451118 0.460118
0.412501 0.455471 0.464471
0.412001 0.459824 0.468824
0.411501 0.464177 0.473177
0.411002 0.468530 0.477530
0.410502 0.472883 0.481883
0.410002 0.477236 0.486236
0.409502 0.481589 0.490589
0.409002 0.485942 0.494942
0.408502 0.490294 0.499294
0.408003 0.494647 0.503647
0.424546 0.428693 0.442546
0.424046 0.433046 0.446899
0.423546 0.437399 0.451252
0.423046 0.441752 0.455605
0.422546 0.446105 0.459958
0.422047 0.450458 0.464311
0.421547 0.454811 0.468664
0.421047 0.459164 0.473017
0.420547 0.463517 0.477370
0.420047 0.467870 0.481722
0.419547 0.472223 0.486075
0.419048 0.476576 0.490428
0.418548 0.480929 0.494781
0.418048 0.485282 0.499134
0.417548 0.489635 0.503487
0.417048 0.493987 0.507840
0.416548 0.498340 0.512193
0.433092 0.432386 0.451092
0.432592 0.436739 0.455445
0.432092 0.441092 0.459798
0.431592 0.445445 0.464150
0.431092 0.449798 0.468503
0.430592 0.454151 0.472856
0.430093 0.458504 0.477209
0.429593 0.462857 0.481562
0.429093 0.467210 0.485915
0.428593 0.471563 0.490268
0.428093 0.475916 0.494621
0.427593 0.480269 0.498974
0.427094 0.484622 0.503327
0.426594 0.488975 0.507680
0.426094 0.493327 0.512033
0.425594 0.497680 0.516386
0.425094 0.502033 0.520739
0.441637 0.436079 0.459637
0.441138 0.440432 0.463990
0.440638 0.444785 0.468343
0.440138 0.449138 0.472696
0.439638 0.453491 0.477049
0.439138 0.457844 0.481402
0.438638 0.462197 0.485755
0.438138 0.466550 0.490108
0.437639 0.470903 0.494461
0.437139 0.475256 0.498814
0.436639 0.479609 0.503167
0.436139 0.483962 0.507520
0.435639 0.488315 0.511873
0.435139 0.492668 0.516226
0.434640 0.497020 0.520579
0.434140 0.501373 0.524932
0.433640 0.505726 0.529285
0.450183 0.439772 0.468183
0.449683 0.444125 0.472536
0.449183 0.448478 0.476889
0.448684 0.452831 0.481242
0.448184 0.457184 0.485595
0.447684 0.461537 0.489948
0.447184 0.465890 0.494301
0.446684 0.470243 0.498654
0.446184 0.474596 0.503007
0.445685 0.478949 0.507360
0.445185 0.483302 0.511713
0.444685 0.487655 0.516066
0.444185 0.492008 0.520419
0.443685 0.496360 0.524772
0.443185 0.500713 0.529125
0.442686 0.505066 0.533478
0.442186 0.509419 0.537831
0.458729 0.443465 0.476729
0.458229 0.447818 0.481082
0.457729 0.452171 0.485435
0.457229 0.456524 0.489788
0.456730 0.460877 0.494141
0.456230 0.465230 0.498494
0.455730 0.469583 0.502847
0.455230 0.473936 0.507200
0.454730 0.478289 0.511553
0.454230 0.482642 0.515906
0.453731 0.486995 0.520259
0.453231 0.491348 0.524612
0.452731 0.495701 0.528965
0.452231 0.500053 0.533317
0.451731 0.504406 0.537670
0.451231 0.508759 0.542023
0.450732 0.513112 0.546376
0.467275 0.447158 0.485275
0.466775 0.451511 0.489628
0.466275 0.455864 0.493981
0.465775 0.460217 0.498334
0.465275 0.464570 0.502687
0.464776 0.468923 0.507040
0.464276 0.473276 0.511393
0.463776 0.477629 0.515745
0.463276 0.481982 0.520098
0.462776 0.486335 0.524451
0.462276 0.490688 0.528804
0.461777 0.495041 0.533157
0.461277 0.499393 0.537510
0.460777 0.503746 0.541863
0.460277 0.508099 0.546216
0.459777 0.512452 0.550569
0.459277 0.516805 0.554922
0.475821 0.450851 0.493821
0.475321 0.455204 0.498173
0.474821 0.459557 0.502526
0.474321 0.463910 0.506879
0.473821 0.468263 0.511232
0.473321 0.472616 0.515585
0.472821 0.476969 0.519938
0.472322 0.481322 0.524291
0.471822 0.485675 0.528644
0.471322 0.490028 0.532997
0.470822 0.494381 0.537350
0.470322 0.498734 0.541703
0.469822 0.503086 0.546056
0.469323 0.507439 0.550409
0.468823 0.511792 0.554762
0.468323 0.516145 0.559115
0.467823 0.520498 0.563468
0.484366 0.454544 0.502366
0.483866 0.458897 0.506719
0.483367 0.463250 0.511072
0.482867 0.467603 0.515425
0.482367 0.471956 0.519778
0.481867 0.476309 0.524131
0.481367 0.480662 0.528484
0.480867 0.485015 0.532837
0.480368 0.489368 0.537190
0.479868 0.493721 0.541543
0.479368 0.498074 0.545896
0.478868 0.502426 0.550249
0.478368 0.506779 0.554602
0.477868 0.511132 0.558955
0.477369 0.515485 0.563308
0.476869 0.519838 0.567661
0.476369 0.524191 0.572014
0.492912 0.458237 0.510912
0.492412 0.462590 0.515265
0.491912 0.466943 0.519618
0.491413 0.471296 0.523971
0.490913 0.475649 0.528324
0.490413 0.480002 0.532677
0.489913 0.484355 0.537030
0.489413 0.488708 0.541383
0.488913 0.493061 0.545736
0.488414 0.497414 0.550089
0.487914 0.501767 0.554442
0.487414 0.506119 0.558795
0.486914 0.510472 0.563148
0.486414 0.514825 0.567501
0.485914 0.519178 0.571854
0.485415 0.523531 0.576207
0.484915 0.527884 0.580560
0.501458 0.461930 0.519458
0.500958 0.466283 0.523811
0.500458 0.470636 0.528164
0.499958 0.474989 0.532517
0.499459 0.479342 0.536870
0.498959 0.483695 0.541223
0.498459 0.488048 0.545576
0.497959 0.492401 0.549929
0.497459 0.496754 0.554282
0.496959 0.501107 0.558635
0.496459 0.505459 0.562988
0.495960 0.509812 0.567341
0.495460 0.514165 0.571693
0.494960 0.518518 0.576046
0.494460 0.522871 0.580399
0.493960 0.527224 0.584752
0.493460 0.531577 0.589105
0.510004 0.465623 0.528004
0.509504 0.469976 0.532357
0.509004 0.474329 0.536710
0.508504 0.478682 0.541063
0.508004 0.483035 0.545416
0.507504 0.487388 0.549769
0.507005 0.491741 0.554121
0.506505 0.496094 0.558474
0.506005 0.500447 0.562827
0.505505 0.504800 0.567180
0.505005 0.509152 0.571533
0.504505 0.513505 0.575886
0.504006 0.517858 0.580239
0.503506 0.522211 0.584592
0.503006 0.526564 0.588945
0.502506 0.530917 0.593298
0.502006 0.535270 0.597651
0.518549 0.469316 0.536549
0.518050 0.473669 0.540902
0.517550 0.478022 0.545255
0.517050 0.482375 0.549608
0.516550 0.486728 0.553961
0.516050 0.491081 0.558314
0.515550 0.495434 0.562667
0.515051 0.499787 0.567020
0.514551 0.504140 0.571373
0.514051 0.508492 0.575726
0.513551 0.512845 0.580079
0.513051 0.517198 0.584432
0.512551 0.521551 0.588785
0.512052 0.525904 0.593138
0.511552 0.530257 0.597491
0.511052 0.534610 0.601844
0.510552 0.538963 0.606197
0.527095 0.473009 0.545095
0.526595 0.477362 0.549448
0.526096 0.481715 0.553801
0.525596 0.486068 0.558154
0.525096 0.490421 0.562507
0.524596 0.494774 0.566860
0.524096 0.499127 0.571213
0.523596 0.503480 0.575566
0.523097 0.507833 0.579919
0.522597 0.512185 0.584272
0.522097 0.516538 0.588625
0.521597 0.520891 0.592978
0.521097 0.525244 0.597331
0.520597 0.529597 0.601684
0.520098 0.533950 0.606037
0.519598 0.538303 0.610390
0.519098 0.542656 0.614743
0.535641 0.476702 0.553641
0.535141 0.481055 0.557994
0.534641 0.485408 0.562347
0.534142 0.489761 0.566700
0.533642 0.494114 0.571053
0.533142 0.498467 0.575406
0.532642 0.502820 0.579759
0.532142 0.507173 0.584112
0.531642 0.511526 0.588465
0.531142 0.515878 0.592818
0.530643 0.520231 0.597171
0.530143 0.524584 0.601524
0.529643 0.528937 0.605877
0.529143 0.533290 0.610230
0.528643 0.537643 0.614583
0.528143 0.541996 0.618936
0.527644 0.546349 0.623288
0.544187 0.480395 0.562187
0.543687 0.484748 0.566540
0.543187 0.489101 0.570893
0.542687 0.493454 0.575246
0.542187 0.497807 0.579599
0.541688 0.502160 0.583952
0.541188 0.506513 0.588305
0.540688 0.510866 0.592658
0.540188 0.515218 0.597011
0.539688 0.519571 0.601364
0.539188 0.523924 0.605716
0.538689 0.528277 0.610069
0.538189 0.532630 0.614422
0.537689 0.536983 0.618775
0.537189 0.541336 0.623128
0.536689 0.545689 0.627481
0.536189 0.550042 0.631834
0.552733 0.484088 0.570733
0.552233 0.488441 0.575086
0.551733 0.492794 0.579439
0.551233 0.497147 0.583792
0.550733 0.501500 0.588144
0.550233 0.505853 0.592497
0.549734 0.510206 0.596850
0.549234 0.514559 0.601203
0.548734 0.518911 0.605556
0.548234 0.523264 0.609909
0.547734 0.527617 0.614262
0.547234 0.531970 0.618615
0.546735 0.536323 0.622968
0.546235 0.540676 0.627321
0.545735 0.545029 0.631674
0.545235 0.549382 0.636027
0.544735 0.553735 0.640380
0.417660 0.426660 0.430807
0.417160 0.431013 0.435160
0.416660 0.435366 0.439513
0.416160 0.439719 0.443866
0.415660 0.444072 0.448219
0.415160 0.448424 0.452572
0.414661 0.452777 0.456925
0.414161 0.457130 0.461278
0.413661 0.461483 0.465631
0.413161 0.465836 0.469984
0.412661 0.470189 0.474337
0.412161 0.474542 0.478689
0.411662 0.478895 0.483042
0.411162 0.483248 0.487395
0.410662 0.487601 0.491748
0.410162 0.491954 0.496101
0.409662 0.496307 0.500454
0.426205 0.430353 0.439353
0.425706 0.434706 0.443706
0.425206 0.439059 0.448059
0.424706 0.443412 0.452412
0.424206 0.447765 0.456765
0.423706 0.452117 0.461117
0.423206 0.456470 0.465470
0.422707 0.460823 0.469823
0.422207 0.465176 0.474176
0.421707 0.469529 0.478529
0.421207 0.473882 0.482882
0.420707 0.478235 0.487235
0.420207 0.482588 0.491588
0.419708 0.486941 0.495941
0.419208 0.491294 0.500294
0.418708 0.495647 0.504647
0.418208 0.500000 0.509000
0.434751 0.434046 0.447898
0.434251 0.438399 0.452251
0.433752 0.442752 0.456604
0.433252 0.447105 0.460957
0.432752 0.451457 0.465310
0.432252 0.455810 0.469663
0.431752 0.460163 0.474016
0.431252 0.464516 0.478369
0.430753 0.468869 0.482722
0.430253 0.473222 0.487075
0.429753 0.477575 0.491428
0.429253 0.481928 0.495781
0.428753 0.486281 0.500134
0.428253 0.490634 0.504487
0.427753 0.494987 0.508840
0.427254 0.499340 0.513193
0.426754 0.503693 0.517546
0.443297 0.437739 0.456444
0.442797 0.442092 0.460797
0.442297 0.446445 0.465150
0.441798 0.450798 0.469503
0.441298 0.455150 0.473856
0.440798 0.459503 0.478209
0.440298 0.463856 0.482562
0.439798 0.468209 0.486915
0.439298 0.472562 0.491268
0.438798 0.476915 0.495621
0.438299 0.481268 0.499974
0.437799 0.485621 0.504327
0.437299 0.489974 0.508680
0.436799 0.494327 0.513033
0.436299 0.498680 0.517386
0.435799 0.503033 0.521739
0.435300 0.507386 0.526092
0.451843 0.441432 0.464990
0.451343 0.445785 0.469343
0.450843 0.450138 0.473696
0.450343 0.454490 0.478049
0.449843 0.458843 0.482402
0.449344 0.463196 0.486755
0.448844 0.467549 0.491108
0.448344 0.471902 0.495461
0.447844 0.476255 0.499814
0.447344 0.480608 0.504167
0.446844 0.484961 0.508520
0.446345 0.489314 0.512873
0.445845 0.493667 0.517226
0.445345 0.498020 0.521579
0.444845 0.502373 0.525932
0.444345 0.506726 0.530284
0.443845 0.511079 0.534637
0.460389 0.445125 0.473536
0.459889 0.449478 0.477889
0.459389 0.453831 0.482242
0.458889 0.458183 0.486595
0.458389 0.462536 0.490948
0.457889 0.466889 0.495301
0.457390 0.471242 0.499654
0.456890 0.475595 0.504007
0.456390 0.479948 0.508360
0.455890 0.484301 0.512712
0.455390 0.488654 0.517065
0.454890 0.493007 0.521418
0.454391 0.497360 0.525771
0.453891 0.501713 0.530124
0.453391 0.506066 0.534477
0.452891 0.510419 0.538830
0.452391 0.514772 0.543183
0.468934 0.448818 0.482082
0.468435 0.453171 0.486435
0.467935 0.457523 0.490788
0.467435 0.461876 0.495140
0.466935 0.466229 0.499493
0.466435 0.470582 0.503846
0.465935 0.474935 0.508199
0.465436 0.479288 0.512552
0.464936 0.483641 0.516905
0.464436 0.487994 0.521258
0.463936 0.492347 0.525611
0.463436 0.496700 0.529964
0.462936 0.501053 0.534317
0.462436 0.505406 0.538670
0.461937 0.509759 0.543023
0.461437 0.514112 0.547376
0.460937 0.518465 0.551729
0.477480 0.452511 0.490627
0.476980 0.456864 0.494980
0.476481 0.461216 0.499333
0.475981 0.465569 0.503686
0.475481 0.469922 0.508039
0.474981 0.474275 0.512392
0.474481 0.478628 0.516745
0.473981 0.482981 0.521098
0.473481 0.487334 0.525451
0.472982 0.491687 0.529804
0.472482 0.496040 0.534157
0.471982 0.500393 0.538510
0.471482 0.504746 0.542863
0.470982 0.509099 0.547216
0.470482 0.513452 0.551569
0.469983 0.517805 0.555922
0.469483 0.522158 0.560275
0.486026 0.456204 0.499173
0.485526 0.460556 0.503526
0.485026 0.464909 0.507879
0.484526 0.469262 0.512232
0.484027 0.473615 0.516585
0.483527 0.477968 0.520938
0.483027 0.482321 0.525291
0.482527 0.486674 0.529644
0.482027 0.491027 0.533997
0.481527 0.495380 0.538350
0.481028 0.499733 0.542703
0.480528 0.504086 0.547056
0.480028 0.508439 0.551409
0.479528 0.512792 0.555762
0.479028 0.517145 0.560115
0.478528 0.521498 0.564468
0.478029 0.525851 0.568821
0.494572 0.459897 0.507719
0.494072 0.464249 0.512072
0.493572 0.468602 0.516425
0.493072 0.472955 0.520778
0.492572 0.477308 0.525131
0.492073 0.481661 0.529484
0.491573 0.486014 0.533837
0.491073 0.490367 0.538190
0.490573 0.494720 0.542543
0.490073 0.499073 0.546896
0.489573 0.503426 0.551249
0.489074 0.507779 0.555602
0.488574 0.512132 0.559955
0.488074 0.516485 0.564308
0.487574 0.520838 0.568660
0.487074 0.525191 0.573013
0.486574 0.529544 0.577366
0.503118 0.463590 0.516265
0.502618 0.467942 0.520618
0.502118 0.472295 0.524971
0.501618 0.476648 0.529324
0.501118 0.481001 0.533677
0.500618 0.485354 0.538030
0.500119 0.489707 0.542383
0.499619 0.494060 0.546735
0.499119 0.498413 0.551088
0.498619 0.502766 0.555441
0.498119 0.507119 0.559794
0.497619 0.511472 0.564147
0.497119 0.515825 0.568500
0.496620 0.520178 0.572853
0.496120 0.524531 0.577206
0.495620 0.528884 0.581559
0.495120 0.533237 0.585912
0.511663 0.467282 0.524811
0.511163 0.471635 0.529163
0.510664 0.475988 0.533516
0.510164 0.480341 0.537869
0.509664 0.484694 0.542222
0.509164 0.489047 0.546575
0.508664 0.493400 0.550928
0.508164 0.497753 0.555281
0.507665 0.502106 0.559634
0.507165 0.506459 0.563987
0.506665 0.510812 0.568340
0.506165 0.515165 0.572693
0.505665 0.519518 0.577046
0.505165 0.523871 0.581399
0.504666 0.528224 0.585752
0.504166 0.532577 0.590105
0.503666 0.536930 0.594458
0.520209 0.470975 0.533356
0.519709 0.475328 0.537709
0.519209 0.479681 0.542062
0.518710 0.484034 0.546415
0.518210 0.488387 0.550768
0.517710 0.492740 0.555121
0.517210 0.497093 0.559474
0.516710 0.501446 0.563827
0.516210 0.505799 0.568180
0.515711 0.510152 0.572533
0.515211 0.514505 0.576886
0.514711 0.518858 0.581239
0.514211 0.523211 0.585592
0.513711 0.527564 0.589945
0.513211 0.531917 0.594298
0.512712 0.536270 0.598651
0.512212 0.540623 0.603004
0.528755 0.474668 0.541902
0.528255 0.479021 0.546255
0.527755 0.483374 0.550608
0.527255 0.487727 0.554961
0.526756 0.492080 0.559314
0.526256 0.496433 0.563667
0.525756 0.500786 0.568020
0.525256 0.505139 0.572373
0.524756 0.509492 0.576726
0.524256 0.513845 0.581079
0.523757 0.518198 0.585432
0.523257 0.522551 0.589785
0.522757 0.526904 0.594138
0.522257 0.531257 0.598491
0.521757 0.535610 0.602844
0.521257 0.539963 0.607197
0.520757 0.544316 0.611550
0.537301 0.478361 0.550448
0.536801 0.482714 0.554801
0.536301 0.487067 0.559154
0.535801 0.491420 0.563507
0.535301 0.495773 0.567860
0.534802 0.500126 0.572213
0.534302 0.504479 0.576566
0.533802 0.508832 0.580919
0.533302 0.513185 0.585272
0.532802 0.517538 0.589625
0.532302 0.521891 0.593978
0.531802 0.526244 0.598331
0.531303 0.530597 0.602683
0.530803 0.534950 0.607036
0.530303 0.539303 0.611389
0.529803 0.543656 0.615742
0.529303 0.548009 0.620095
0.545846 0.482054 0.558994
0.545347 0.486407 0.563347
0.544847 0.490760 0.567700
0.544347 0.495113 0.572053
0.543847 0.499466 0.576406
0.543347 0.503819 0.580759
0.542847 0.508172 0.585111
0.542348 0.512525 0.589464
0.541848 0.516878 0.593817
0.541348 0.521231 0.598170
0.540848 0.525584 0.602523
0.540348 0.529937 0.606876
0.539848 0.534290 0.611229
0.539349 0.538643 0.615582
0.538849 0.542996 0.619935
0.538349 0.547349 0.624288
0.537849 0.551702 0.628641
0.554392 0.485747 0.567539
0.553892 0.490100 0.571892
0.553393 0.494453 0.576245
0.552893 0.498806 0.580598
0.552393 0.503159 0.584951
0.551893 0.507512 0.589304
0.551393 0.511865 0.593657
0.550893 0.516218 0.598010
0.550394 0.520571 0.602363
0.549894 0.524924 0.606716
0.549394 0.529277 0.611069
0.548894 0.533630 0.615422
0.548394 0.537983 0.619775
0.547894 0.542336 0.624128
0.547395 0.546689 0.628481
0.546895 0.551042 0.632834
0.546395 0.555395 0.637187
0.419319 0.428319 0.427614
0.418819 0.432672 0.431967
0.418320 0.437025 0.436320
0.417820 0.441378 0.440673
0.417320 0.445731 0.445026
0.416820 0.450084 0.449379
0.416320 0.454437 0.453732
0.415820 0.458790 0.458084
0.415321 0.463143 0.462437
0.414821 0.467496 0.466790
0.414321 0.471849 0.471143
0.413821 0.476202 0.475496
0.413321 0.480555 0.479849
0.412821 0.484908 0.484202
0.412322 0.489261 0.488555
0.411822 0.493614 0.492908
0.411322 0.497967 0.497261
0.427865 0.432012 0.436159
0.427365 0.436365 0.440512
0.426865 0.440718 0.444865
0.426366 0.445071 0.449218
0.425866 0.449424 0.453571
0.425366 0.453777 0.457924
0.424866 0.458130 0.462277
0.424366 0.462483 0.466630
0.423866 0.466836 0.470983
0.423367 0.471189 0.475336
0.422867 0.475542 0.479689
0.422367 0.479895 0.484042
0.421867 0.484248 0.488395
0.421367 0.488601 0.492748
0.420867 0.492954 0.497101
0.420368 0.497307 0.501454
0.419868 0.501660 0.505807
0.436411 0.435705 0.444705
0.435911 0.440058 0.449058
0.435411 0.444411 0.453411
0.434911 0.448764 0.457764
0.434412 0.453117 0.462117
0.433912 0.457470 0.466470
0.433412 0.461823 0.470823
0.432912 0.466176 0.475176
0.432412 0.470529 0.479529
0.431912 0.474882 0.483882
0.431413 0.479235 0.488235
0.430913 0.483588 0.492588
0.430413 0.487941 0.496941
0.429913 0.492294 0.501294
0.429413 0.496647 0.505647
0.428913 0.501000 0.510000
0.428413 0.505353 0.514353
0.444957 0.439398 0.453251
0.444457 0.443751 0.457604
0.443957 0.448104 0.461957
0.443457 0.452457 0.466310
0.442957 0.456810 0.470663
0.442457 0.461163 0.475016
0.441958 0.465516 0.479369
0.441458 0.469869 0.483722
0.440958 0.474222 0.488075
0.440458 0.478575 0.492428
0.439958 0.482928 0.496781
0.439458 0.487281 0.501134
0.438959 0.491634 0.505487
0.438459 0.495987 0.509840
0.437959 0.500340 0.514193
0.437459 0.504693 0.518546
0.436959 0.509046 0.522899
0.453502 0.443091 0.461797
0.453003 0.447444 0.466150
0.452503 0.451797 0.470503
0.452003 0.456150 0.474856
0.451503 0.460503 0.479209
0.451003 0.464856 0.483562
0.450503 0.469209 0.487915
0.450004 0.473562 0.492268
0.449504 0.477915 0.496621
0.449004 0.482268 0.500974
0.448504 0.486621 0.505327
0.448004 0.490974 0.509679
0.447504 0.495327 0.514032
0.447005 0.499680 0.518385
0.446505 0.504033 0.522738
0.446005 0.508386 0.527091
0.445505 0.512739 0.531444
0.462048 0.446784 0.470343
0.461548 0.451137 0.474696
0.461049 0.455490 0.479049
0.460549 0.459843 0.483402
0.460049 0.464196 0.487755
0.459549 0.468549 0.492107
0.459049 0.472902 0.496460
0.458549 0.477255 0.500813
0.458050 0.481608 0.505166
0.457550 0.485961 0.509519
0.457050 0.490314 0.513872
0.456550 0.494667 0.518225
0.456050 0.499020 0.522578
0.455550 0.503373 0.526931
0.455051 0.507726 0.531284
0.454551 0.512079 0.535637
0.454051 0.516432 0.539990
0.470594 0.450477 0.478888
0.470094 0.454830 0.483241
0.469594 0.459183 0.487594
0.469095 0.463536 0.491947
0.468595 0.467889 0.496300
0.468095 0.472242 0.500653
0.467595 0.476595 0.505006
0.467095 0.480948 0.509359
0.466595 0.485301 0.513712
0.466095 0.489654 0.518065
0.465596 0.494007 0.522418
0.465096 0.498360 0.526771
0.464596 0.502713 0.531124
0.464096 0.507066 0.535477
0.463596 0.511419 0.539830
0.463096 0.515772 0.544183
0.462597 0.520125 0.548536
0.479140 0.454170 0.487434
0.478640 0.458523 0.491787
0.478140 0.462876 0.496140
0.477640 0.467229 0.500493
0.477140 0.471582 0.504846
0.476641 0.475935 0.509199
0.476141 0.480288 0.513552
0.475641 0.484641 0.517905
0.475141 0.488994 0.522258
0.474641 0.493347 0.526611
0.474141 0.497700 0.530964
0.473642 0.502053 0.535317
0.473142 0.506406 0.539670
0.472642 0.510759 0.544023
0.472142 0.515112 0.548376
0.471642 0.519465 0.552729
0.471142 0.523818 0.557082
0.487686 0.457863 0.495980
0.487186 0.462216 0.500333
0.486686 0.466569 0.504686
0.486186 0.470922 0.509039
0.485686 0.475275 0.513392
0.485186 0.479628 0.517745
0.484687 0.483981 0.522098
0.484187 0.488334 0.526451
0.483687 0.492687 0.530804
0.483187 0.497040 0.535157
0.482687 0.501393 0.539510
0.482187 0.505746 0.543863
0.481688 0.510099 0.548216
0.481188 0.514452 0.552569
0.480688 0.518805 0.556922
0.480188 0.523158 0.561274
0.479688 0.527511 0.565627
0.496231 0.461556 0.504526
0.495732 0.465909 0.508879
0.495232 0.470262 0.513232
0.494732 0.474615 0.517585
0.494232 0.478968 0.521938
0.493732 0.483321 0.526291
0.493232 0.487674 0.530644
0.492733 0.492027 0.534997
0.492233 0.496380 0.539350
0.491733 0.500733 0.543702
0.491233 0.505086 0.548055
0.490733 0.509439 0.552408
0.490233 0.513792 0.556761
0.489734 0.518145 0.561114
0.489234 0.522498 0.565467
0.488734 0.526851 0.569820
0.488234 0.531204 0.574173
0.504777 0.465249 0.513072
0.504277 0.469602 0.517425
0.503778 0.473955 0.521778
0.503278 0.478308 0.526130
0.502778 0.482661 0.530483
0.502278 0.487014 0.534836
0.501778 0.491367 0.539189
0.501278 0.495720 0.543542
0.500778 0.500073 0.547895
0.500279 0.504426 0.552248
0.499779 0.508779 0.556601
0.499279 0.513132 0.560954
0.498779 0.517485 0.565307
0.498279 0.521838 0.569660
0.497779 0.526191 0.574013
0.497280 0.530544 0.578366
0.496780 0.534897 0.582719
0.513323 0.468942 0.521617
0.512823 0.473295 0.525970
0.512323 0.477648 0.530323
0.511823 0.482001 0.534676
0.511324 0.486354 0.539029
0.510824 0.490707 0.543382
0.510324 0.495060 0.547735
0.509824 0.499413 0.552088
0.509324 0.503766 0.556441
0.508824 0.508119 0.560794
0.508325 0.512472 0.565147
0.507825 0.516825 0.569500
0.507325 0.521178 0.573853
0.506825 0.525531 0.578206
0.506325 0.529884 0.582559
0.505825 0.534237 0.586912
0.505326 0.538590 0.591265
0.521869 0.472635 0.530163
0.521369 0.476988 0.534516
0.520869 0.481341 0.538869
0.520369 0.485694 0.543222
0.519869 0.490047 0.547575
0.519370 0.494400 0.551928
0.518870 0.498753 0.556281
0.518370 0.503106 0.560634
0.517870 0.507459 0.564987
0.517370 0.511812 0.569340
0.516870 0.516165 0.573693
0.516371 0.520518 0.578046
0.515871 0.524871 0.582399
0.515371 0.529224 0.586752
0.514871 0.533577 0.591105
0.514371 0.537930 0.595458
0.513871 0.542283 0.599811
0.530415 0.476328 0.538709
0.529915 0.480681 0.543062
0.529415 0.485034 0.547415
0.528915 0.489387 0.551768
0.528415 0.493740 0.556121
0.527915 0.498093 0.560474
0.527416 0.502446 0.564827
0.526916 0.506799 0.569180
0.526416 0.511152 0.573533
0.525916 0.515505 0.577886
0.525416 0.519858 0.582239
0.524916 0.524211 0.586592
0.524417 0.528564 0.590945
0.523917 0.532917 0.595298
0.523417 0.537270 0.599650
0.522917 0.541623 0.604003
0.522417 0.545976 0.608356
0.538960 0.480021 0.547255
0.538461 0.484374 0.551608
0.537961 0.488727 0.555961
0.537461 0.493080 0.560314
0.536961 0.497433 0.564667
0.536461 0.501786 0.569020
0.535961 0.506139 0.573373
0.535461 0.510492 0.577726
0.534962 0.514845 0.582078
0.534462 0.519198 0.586431
0.533962 0.523551 0.590784
0.533462 0.527904 0.595137
0.532962 0.532257 0.599490
0.532462 0.536610 0.603843
0.531963 0.540963 0.608196
0.531463 0.545316 0.612549
0.530963 0.549669 0.616902
0.547506 0.483714 0.555801
0.547006 0.488067 0.560154
0.546506 0.492420 0.564506
0.546007 0.496773 0.568859
0.545507 0.501126 0.573212
0.545007 0.505479 0.577565
0.544507 0.509832 0.581918
0.544007 0.514185 0.586271
0.543507 0.518538 0.590624
0.543008 0.522891 0.594977
0.542508 0.527244 0.599330
0.542008 0.531597 0.603683
0.541508 0.535950 0.608036
0.541008 0.540303 0.612389
0.540508 0.544656 0.616742
0.540009 0.549009 0.621095
0.539509 0.553362 0.625448
0.556052 0.487407 0.564346
0.555552 0.491760 0.568699
0.555052 0.496113 0.573052
0.554552 0.500466 0.577405
0.554053 0.504819 0.581758
0.553553 0.509172 0.586111
0.553053 0.513525 0.590464
0.552553 0.517878 0.594817
0.552053 0.522231 0.599170
0.551553 0.526584 0.603523
0.551054 0.530937 0.607876
0.550554 0.535290 0.612229
0.550054 0.539643 0.616582
0.549554 0.543996 0.620935
0.549054 0.548349 0.625288
0.548554 0.552702 0.629641
0.548055 0.557055 0.633994
0.420979 0.429979 0.424421
0.420479 0.434332 0.428774
0.419979 0.438685 0.433126
0.419479 0.443038 0.437479
0.418980 0.447391 0.441832
0.418480 0.451744 0.446185
0.417980 0.456097 0.450538
0.417480 0.460450 0.454891
0.416980 0.464803 0.459244
0.416480 0.469156 0.463597
0.415981 0.473509 0.467950
0.415481 0.477862 0.472303
0.414981 0.482215 0.476656
0.414481 0.486568 0.481009
0.413981 0.490920 0.485362
0.413481 0.495273 0.489715
0.412982 0.499626 0.494068
0.429525 0.433672 0.432966
