shared/src/main/assets/luts/mv_pale_drama.cube
TITLE "DALUR Pale Drama"
LUT_3D_SIZE 17
DOMAIN_MIN 0.0 0.0 0.0
DOMAIN_MAX 1.0 1.0 1.0
0.472800 0.480000 0.487200
0.473030 0.481006 0.488206
0.473259 0.482012 0.489212
0.473489 0.483018 0.490218
0.473718 0.484024 0.491224
0.473948 0.485030 0.492230
0.474177 0.486036 0.493236
0.474407 0.487042 0.494242
0.474637 0.488048 0.495248
0.474866 0.489054 0.496254
0.475096 0.490060 0.497260
0.475325 0.491066 0.498266
0.475555 0.492072 0.499272
0.475784 0.493078 0.500278
0.476014 0.494084 0.501284
0.476244 0.495090 0.502290
0.476473 0.496096 0.503296
0.474775 0.481199 0.489175
0.475005 0.482205 0.490181
0.475234 0.483211 0.491187
0.475464 0.484217 0.492193
0.475693 0.485223 0.493199
0.475923 0.486229 0.494205
0.476152 0.487235 0.495211
0.476382 0.488241 0.496217
0.476612 0.489247 0.497223
0.476841 0.490253 0.498229
0.477071 0.491259 0.499235
0.477300 0.492265 0.500241
0.477530 0.493271 0.501247
0.477759 0.494277 0.502253
0.477989 0.495283 0.503259
0.478219 0.496289 0.504265
0.478448 0.497295 0.505271
0.476750 0.482397 0.491150
0.476980 0.483403 0.492156
0.477209 0.484409 0.493162
0.477439 0.485415 0.494168
0.477668 0.486421 0.495174
0.477898 0.487427 0.496180
0.478127 0.488433 0.497186
0.478357 0.489439 0.498192
0.478587 0.490445 0.499198
0.478816 0.491451 0.500204
0.479046 0.492457 0.501210
0.479275 0.493463 0.502216
0.479505 0.494469 0.503222
0.479734 0.495475 0.504228
0.479964 0.496481 0.505234
0.480194 0.497487 0.506240
0.480423 0.498493 0.507246
0.478725 0.483596 0.493125
0.478955 0.484602 0.494131
0.479184 0.485608 0.495137
0.479414 0.486614 0.496143
0.479643 0.487620 0.497149
0.479873 0.488626 0.498155
0.480102 0.489632 0.499161
0.480332 0.490638 0.500167
0.480562 0.491644 0.501173
0.480791 0.492650 0.502179
0.481021 0.493656 0.503185
0.481250 0.494662 0.504191
0.481480 0.495668 0.505197
0.481709 0.496674 0.506203
0.481939 0.497680 0.507209
0.482169 0.498686 0.508215
0.482398 0.499692 0.509221
0.480700 0.484794 0.495100
0.480930 0.485800 0.496106
0.481159 0.486806 0.497112
0.481389 0.487812 0.498118
0.481618 0.488818 0.499124
0.481848 0.489824 0.500130
0.482078 0.490830 0.501136
0.482307 0.491836 0.502142
0.482537 0.492842 0.503148
0.482766 0.493848 0.504154
0.482996 0.494854 0.505160
0.483225 0.495861 0.506166
0.483455 0.496867 0.507172
0.483685 0.497873 0.508178
0.483914 0.498879 0.509184
0.484144 0.499885 0.510190
0.484373 0.500891 0.511196
0.482675 0.485993 0.497075
0.482905 0.486999 0.498081
0.483134 0.488005 0.499087
0.483364 0.489011 0.500093
0.483593 0.490017 0.501099
0.483823 0.491023 0.502105
0.484053 0.492029 0.503111
0.484282 0.493035 0.504117
0.484512 0.494041 0.505123
0.484741 0.495047 0.506129
0.484971 0.496053 0.507135
0.485200 0.497059 0.508141
0.485430 0.498065 0.509147
0.485660 0.499071 0.510153
0.485889 0.500077 0.511159
0.486119 0.501083 0.512165
0.486348 0.502089 0.513171
0.484650 0.487191 0.499050
0.484880 0.488197 0.500056
0.485109 0.489204 0.501062
0.485339 0.490210 0.502068
0.485568 0.491216 0.503074
0.485798 0.492222 0.504080
0.486028 0.493228 0.505086
0.486257 0.494234 0.506092
0.486487 0.495240 0.507098
0.486716 0.496246 0.508104
0.486946 0.497252 0.509110
0.487175 0.498258 0.510116
0.487405 0.499264 0.511122
0.487635 0.500270 0.512128
0.487864 0.501276 0.513134
0.488094 0.502282 0.514140
0.488323 0.503288 0.515146
0.486625 0.488390 0.501025
0.486855 0.489396 0.502031
0.487084 0.490402 0.503037
0.487314 0.491408 0.504043
0.487543 0.492414 0.505049
0.487773 0.493420 0.506055
0.488003 0.494426 0.507061
0.488232 0.495432 0.508067
0.488462 0.496438 0.509073
0.488691 0.497444 0.510079
0.488921 0.498450 0.511085
0.489150 0.499456 0.512091
0.489380 0.500462 0.513097
0.489610 0.501468 0.514103
0.489839 0.502474 0.515109
0.490069 0.503480 0.516115
0.490298 0.504486 0.517121
0.488600 0.489589 0.503000
0.488830 0.490595 0.504006
0.489059 0.491601 0.505012
0.489289 0.492607 0.506018
0.489518 0.493613 0.507024
0.489748 0.494619 0.508030
0.489978 0.495625 0.509036
0.490207 0.496631 0.510042
0.490437 0.497637 0.511048
0.490666 0.498643 0.512054
0.490896 0.499649 0.513060
0.491125 0.500655 0.514066
0.491355 0.501661 0.515072
0.491585 0.502667 0.516078
0.491814 0.503673 0.517084
0.492044 0.504679 0.518090
0.492273 0.505685 0.519097
0.490575 0.490787 0.504975
0.490805 0.491793 0.505981
0.491034 0.492799 0.506987
0.491264 0.493805 0.507993
0.491494 0.494811 0.508999
0.491723 0.495817 0.510005
0.491953 0.496823 0.511011
0.492182 0.497829 0.512017
0.492412 0.498835 0.513023
0.492641 0.499841 0.514029
0.492871 0.500847 0.515035
0.493101 0.501853 0.516041
0.493330 0.502859 0.517047
0.493560 0.503865 0.518053
0.493789 0.504871 0.519060
0.494019 0.505877 0.520066
0.494248 0.506884 0.521072
0.492550 0.491986 0.506950
0.492780 0.492992 0.507956
0.493009 0.493998 0.508962
0.493239 0.495004 0.509968
0.493469 0.496010 0.510974
0.493698 0.497016 0.511980
0.493928 0.498022 0.512986
0.494157 0.499028 0.513992
0.494387 0.500034 0.514998
0.494616 0.501040 0.516004
0.494846 0.502046 0.517010
0.495076 0.503052 0.518016
0.495305 0.504058 0.519022
0.495535 0.505064 0.520029
0.495764 0.506070 0.521035
0.495994 0.507076 0.522041
0.496223 0.508082 0.523047
0.494525 0.493184 0.508925
0.494755 0.494190 0.509931
0.494984 0.495196 0.510937
0.495214 0.496202 0.511943
0.495444 0.497208 0.512949
0.495673 0.498214 0.513955
0.495903 0.499220 0.514961
0.496132 0.500226 0.515967
0.496362 0.501233 0.516973
0.496591 0.502239 0.517979
0.496821 0.503245 0.518985
0.497051 0.504251 0.519991
0.497280 0.505257 0.520998
0.497510 0.506263 0.522004
0.497739 0.507269 0.523010
0.497969 0.508275 0.524016
0.498198 0.509281 0.525022
0.496500 0.494383 0.510900
0.496730 0.495389 0.511906
0.496959 0.496395 0.512912
0.497189 0.497401 0.513918
0.497419 0.498407 0.514924
0.497648 0.499413 0.515930
0.497878 0.500419 0.516936
0.498107 0.501425 0.517942
0.498337 0.502431 0.518948
0.498566 0.503437 0.519954
0.498796 0.504443 0.520961
0.499026 0.505449 0.521967
0.499255 0.506455 0.522973
0.499485 0.507461 0.523979
0.499714 0.508467 0.524985
0.499944 0.509473 0.525991
0.500173 0.510479 0.526997
0.498475 0.495582 0.512875
0.498705 0.496588 0.513881
0.498934 0.497594 0.514887
0.499164 0.498600 0.515893
0.499394 0.499606 0.516899
0.499623 0.500612 0.517905
0.499853 0.501618 0.518911
0.500082 0.502624 0.519917
0.500312 0.503630 0.520923
0.500541 0.504636 0.521930
0.500771 0.505642 0.522936
0.501001 0.506648 0.523942
0.501230 0.507654 0.524948
0.501460 0.508660 0.525954
0.501689 0.509666 0.526960
0.501919 0.510672 0.527966
0.502148 0.511678 0.528972
0.500450 0.496780 0.514850
0.500680 0.497786 0.515856
0.500910 0.498792 0.516862
0.501139 0.499798 0.517868
0.501369 0.500804 0.518874
0.501598 0.501810 0.519880
0.501828 0.502816 0.520886
0.502057 0.503822 0.521893
0.502287 0.504828 0.522899
0.502517 0.505834 0.523905
0.502746 0.506840 0.524911
0.502976 0.507846 0.525917
0.503205 0.508852 0.526923
0.503435 0.509858 0.527929
0.503664 0.510864 0.528935
0.503894 0.511870 0.529941
0.504123 0.512876 0.530947
0.502425 0.497979 0.516825
0.502655 0.498985 0.517831
0.502885 0.499991 0.518837
0.503114 0.500997 0.519843
0.503344 0.502003 0.520849
0.503573 0.503009 0.521855
0.503803 0.504015 0.522862
0.504032 0.505021 0.523868
0.504262 0.506027 0.524874
0.504492 0.507033 0.525880
0.504721 0.508039 0.526886
0.504951 0.509045 0.527892
0.505180 0.510051 0.528898
0.505410 0.511057 0.529904
0.505639 0.512063 0.530910
0.505869 0.513069 0.531916
0.506099 0.514075 0.532922
0.504400 0.499177 0.518800
0.504630 0.500183 0.519806
0.504860 0.501189 0.520812
0.505089 0.502195 0.521818
0.505319 0.503201 0.522825
0.505548 0.504207 0.523831
0.505778 0.505213 0.524837
0.506007 0.506219 0.525843
0.506237 0.507225 0.526849
0.506467 0.508231 0.527855
0.506696 0.509237 0.528861
0.506926 0.510243 0.529867
0.507155 0.511249 0.530873
0.507385 0.512255 0.531879
0.507614 0.513262 0.532885
0.507844 0.514268 0.533891
0.508074 0.515274 0.534897
0.473184 0.480384 0.486807
0.473413 0.481390 0.487813
0.473643 0.482396 0.488819
0.473872 0.483402 0.489825
0.474102 0.484408 0.490831
0.474331 0.485414 0.491837
0.474561 0.486420 0.492843
0.474791 0.487426 0.493849
0.475020 0.488432 0.494855
0.475250 0.489438 0.495861
0.475479 0.490444 0.496867
0.475709 0.491450 0.497873
0.475938 0.492456 0.498879
0.476168 0.493462 0.499885
0.476398 0.494468 0.500891
0.476627 0.495474 0.501897
0.476857 0.496480 0.502903
0.475159 0.481582 0.488782
0.475388 0.482588 0.489788
0.475618 0.483594 0.490794
0.475847 0.484600 0.491800
0.476077 0.485606 0.492806
0.476306 0.486612 0.493812
0.476536 0.487618 0.494818
0.476766 0.488624 0.495824
0.476995 0.489630 0.496830
0.477225 0.490636 0.497836
0.477454 0.491642 0.498842
0.477684 0.492648 0.499848
0.477913 0.493654 0.500854
0.478143 0.494660 0.501860
0.478373 0.495666 0.502866
0.478602 0.496672 0.503872
0.478832 0.497678 0.504878
0.477134 0.482781 0.490757
0.477363 0.483787 0.491763
0.477593 0.484793 0.492769
0.477822 0.485799 0.493775
0.478052 0.486805 0.494781
0.478281 0.487811 0.495787
0.478511 0.488817 0.496793
0.478741 0.489823 0.497799
0.478970 0.490829 0.498805
0.479200 0.491835 0.499811
0.479429 0.492841 0.500817
0.479659 0.493847 0.501823
0.479888 0.494853 0.502829
0.480118 0.495859 0.503835
0.480348 0.496865 0.504841
0.480577 0.497871 0.505847
0.480807 0.498877 0.506853
0.479109 0.483979 0.492732
0.479338 0.484985 0.493738
0.479568 0.485991 0.494744
0.479797 0.486997 0.495750
0.480027 0.488003 0.496756
0.480256 0.489009 0.497762
0.480486 0.490015 0.498768
0.480716 0.491021 0.499774
0.480945 0.492027 0.500780
0.481175 0.493033 0.501786
0.481404 0.494039 0.502792
0.481634 0.495046 0.503798
0.481863 0.496052 0.504804
0.482093 0.497058 0.505810
0.482323 0.498064 0.506816
0.482552 0.499070 0.507822
0.482782 0.500076 0.508828
0.481084 0.485178 0.494707
0.481313 0.486184 0.495713
0.481543 0.487190 0.496719
0.481772 0.488196 0.497725
0.482002 0.489202 0.498731
0.482232 0.490208 0.499737
0.482461 0.491214 0.500743
0.482691 0.492220 0.501749
0.482920 0.493226 0.502755
0.483150 0.494232 0.503761
0.483379 0.495238 0.504767
0.483609 0.496244 0.505773
0.483839 0.497250 0.506779
0.484068 0.498256 0.507785
0.484298 0.499262 0.508791
0.484527 0.500268 0.509798
0.484757 0.501274 0.510804
0.483059 0.486376 0.496682
0.483288 0.487382 0.497688
0.483518 0.488388 0.498694
0.483747 0.489395 0.499700
0.483977 0.490401 0.500706
0.484207 0.491407 0.501712
0.484436 0.492413 0.502718
0.484666 0.493419 0.503724
0.484895 0.494425 0.504730
0.485125 0.495431 0.505736
0.485354 0.496437 0.506742
0.485584 0.497443 0.507748
0.485814 0.498449 0.508754
0.486043 0.499455 0.509760
0.486273 0.500461 0.510767
0.486502 0.501467 0.511773
0.486732 0.502473 0.512779
0.485034 0.487575 0.498657
0.485263 0.488581 0.499663
0.485493 0.489587 0.500669
0.485722 0.490593 0.501675
0.485952 0.491599 0.502681
0.486182 0.492605 0.503687
0.486411 0.493611 0.504693
0.486641 0.494617 0.505699
0.486870 0.495623 0.506705
0.487100 0.496629 0.507711
0.487329 0.497635 0.508717
0.487559 0.498641 0.509723
0.487789 0.499647 0.510730
0.488018 0.500653 0.511736
0.488248 0.501659 0.512742
0.488477 0.502665 0.513748
0.488707 0.503671 0.514754
0.487009 0.488774 0.500632
0.487238 0.489780 0.501638
0.487468 0.490786 0.502644
0.487697 0.491792 0.503650
0.487927 0.492798 0.504656
0.488157 0.493804 0.505662
0.488386 0.494810 0.506668
0.488616 0.495816 0.507674
0.488845 0.496822 0.508680
0.489075 0.497828 0.509686
0.489304 0.498834 0.510692
0.489534 0.499840 0.511699
0.489764 0.500846 0.512705
0.489993 0.501852 0.513711
0.490223 0.502858 0.514717
0.490452 0.503864 0.515723
0.490682 0.504870 0.516729
0.488984 0.489972 0.502607
0.489213 0.490978 0.503613
0.489443 0.491984 0.504619
0.489672 0.492990 0.505625
0.489902 0.493996 0.506631
0.490132 0.495002 0.507637
0.490361 0.496008 0.508643
0.490591 0.497014 0.509649
0.490820 0.498020 0.510655
0.491050 0.499026 0.511661
0.491279 0.500032 0.512668
0.491509 0.501038 0.513674
0.491739 0.502044 0.514680
0.491968 0.503050 0.515686
0.492198 0.504056 0.516692
0.492427 0.505062 0.517698
0.492657 0.506068 0.518704
0.490959 0.491171 0.504582
0.491188 0.492177 0.505588
0.491418 0.493183 0.506594
0.491648 0.494189 0.507600
0.491877 0.495195 0.508606
0.492107 0.496201 0.509612
0.492336 0.497207 0.510618
0.492566 0.498213 0.511624
0.492795 0.499219 0.512631
0.493025 0.500225 0.513637
0.493255 0.501231 0.514643
0.493484 0.502237 0.515649
0.493714 0.503243 0.516655
0.493943 0.504249 0.517661
0.494173 0.505255 0.518667
0.494402 0.506261 0.519673
0.494632 0.507267 0.520679
0.492934 0.492369 0.506557
0.493163 0.493375 0.507563
0.493393 0.494381 0.508569
0.493623 0.495387 0.509575
0.493852 0.496393 0.510581
0.494082 0.497399 0.511587
0.494311 0.498405 0.512593
0.494541 0.499411 0.513600
0.494770 0.500417 0.514606
0.495000 0.501424 0.515612
0.495230 0.502430 0.516618
0.495459 0.503436 0.517624
0.495689 0.504442 0.518630
0.495918 0.505448 0.519636
0.496148 0.506454 0.520642
0.496377 0.507460 0.521648
0.496607 0.508466 0.522654
0.494909 0.493568 0.508532
0.495138 0.494574 0.509538
0.495368 0.495580 0.510544
0.495598 0.496586 0.511550
0.495827 0.497592 0.512556
0.496057 0.498598 0.513563
0.496286 0.499604 0.514569
0.496516 0.500610 0.515575
0.496745 0.501616 0.516581
0.496975 0.502622 0.517587
0.497205 0.503628 0.518593
0.497434 0.504634 0.519599
0.497664 0.505640 0.520605
0.497893 0.506646 0.521611
0.498123 0.507652 0.522617
0.498352 0.508658 0.523623
0.498582 0.509664 0.524629
0.496884 0.494767 0.510507
0.497113 0.495773 0.511513
0.497343 0.496779 0.512519
0.497573 0.497785 0.513525
0.497802 0.498791 0.514532
0.498032 0.499797 0.515538
0.498261 0.500803 0.516544
0.498491 0.501809 0.517550
0.498720 0.502815 0.518556
0.498950 0.503821 0.519562
0.499180 0.504827 0.520568
0.499409 0.505833 0.521574
0.499639 0.506839 0.522580
0.499868 0.507845 0.523586
0.500098 0.508851 0.524592
0.500327 0.509857 0.525598
0.500557 0.510863 0.526604
0.498859 0.495965 0.512482
0.499088 0.496971 0.513488
0.499318 0.497977 0.514495
0.499548 0.498983 0.515501
0.499777 0.499989 0.516507
0.500007 0.500995 0.517513
0.500236 0.502001 0.518519
0.500466 0.503007 0.519525
0.500695 0.504013 0.520531
0.500925 0.505019 0.521537
0.501155 0.506025 0.522543
0.501384 0.507031 0.523549
0.501614 0.508037 0.524555
0.501843 0.509043 0.525561
0.502073 0.510049 0.526567
0.502302 0.511055 0.527573
0.502532 0.512061 0.528579
0.500834 0.497164 0.514457
0.501064 0.498170 0.515464
0.501293 0.499176 0.516470
0.501523 0.500182 0.517476
0.501752 0.501188 0.518482
0.501982 0.502194 0.519488
0.502211 0.503200 0.520494
0.502441 0.504206 0.521500
0.502670 0.505212 0.522506
0.502900 0.506218 0.523512
0.503130 0.507224 0.524518
0.503359 0.508230 0.525524
0.503589 0.509236 0.526530
0.503818 0.510242 0.527536
0.504048 0.511248 0.528542
0.504277 0.512254 0.529548
0.504507 0.513260 0.530554
0.502809 0.498362 0.516433
0.503039 0.499368 0.517439
0.503268 0.500374 0.518445
0.503498 0.501380 0.519451
0.503727 0.502386 0.520457
0.503957 0.503392 0.521463
0.504186 0.504398 0.522469
0.504416 0.505404 0.523475
0.504646 0.506410 0.524481
0.504875 0.507416 0.525487
0.505105 0.508422 0.526493
0.505334 0.509428 0.527499
0.505564 0.510434 0.528505
0.505793 0.511440 0.529511
0.506023 0.512446 0.530517
0.506253 0.513453 0.531523
0.506482 0.514459 0.532529
0.504784 0.499561 0.518408
0.505014 0.500567 0.519414
0.505243 0.501573 0.520420
0.505473 0.502579 0.521426
0.505702 0.503585 0.522432
0.505932 0.504591 0.523438
0.506161 0.505597 0.524444
0.506391 0.506603 0.525450
0.506621 0.507609 0.526456
0.506850 0.508615 0.527462
0.507080 0.509621 0.528468
0.507309 0.510627 0.529474
0.507539 0.511633 0.530480
0.507768 0.512639 0.531486
0.507998 0.513645 0.532492
0.508228 0.514651 0.533498
0.508457 0.515657 0.534504
0.473567 0.480767 0.486414
0.473797 0.481773 0.487420
0.474026 0.482779 0.488426
0.474256 0.483785 0.489432
0.474485 0.484791 0.490438
0.474715 0.485797 0.491444
0.474945 0.486803 0.492450
0.475174 0.487809 0.493456
0.475404 0.488815 0.494462
0.475633 0.489821 0.495468
0.475863 0.490827 0.496474
0.476092 0.491833 0.497480
0.476322 0.492839 0.498486
0.476552 0.493845 0.499492
0.476781 0.494851 0.500498
0.477011 0.495857 0.501505
0.477240 0.496863 0.502511
0.475542 0.481966 0.488389
0.475772 0.482972 0.489395
0.476001 0.483978 0.490401
0.476231 0.484984 0.491407
0.476460 0.485990 0.492413
0.476690 0.486996 0.493419
0.476920 0.488002 0.494425
0.477149 0.489008 0.495431
0.477379 0.490014 0.496437
0.477608 0.491020 0.497443
0.477838 0.492026 0.498449
0.478067 0.493032 0.499455
0.478297 0.494038 0.500461
0.478527 0.495044 0.501468
0.478756 0.496050 0.502474
0.478986 0.497056 0.503480
0.479215 0.498062 0.504486
0.477517 0.483164 0.490364
0.477747 0.484170 0.491370
0.477976 0.485176 0.492376
0.478206 0.486182 0.493382
0.478435 0.487188 0.494388
0.478665 0.488194 0.495394
0.478895 0.489200 0.496400
0.479124 0.490206 0.497406
0.479354 0.491212 0.498412
0.479583 0.492218 0.499418
0.479813 0.493224 0.500424
0.480042 0.494230 0.501430
0.480272 0.495237 0.502437
0.480502 0.496243 0.503443
0.480731 0.497249 0.504449
0.480961 0.498255 0.505455
0.481190 0.499261 0.506461
0.479492 0.484363 0.492339
0.479722 0.485369 0.493345
0.479951 0.486375 0.494351
0.480181 0.487381 0.495357
0.480410 0.488387 0.496363
0.480640 0.489393 0.497369
0.480870 0.490399 0.498375
0.481099 0.491405 0.499381
0.481329 0.492411 0.500387
0.481558 0.493417 0.501393
0.481788 0.494423 0.502400
0.482017 0.495429 0.503406
0.482247 0.496435 0.504412
0.482477 0.497441 0.505418
0.482706 0.498447 0.506424
0.482936 0.499453 0.507430
0.483165 0.500459 0.508436
0.481467 0.485561 0.494314
0.481697 0.486567 0.495320
0.481926 0.487573 0.496326
0.482156 0.488579 0.497332
0.482386 0.489586 0.498338
0.482615 0.490592 0.499344
0.482845 0.491598 0.500350
0.483074 0.492604 0.501356
0.483304 0.493610 0.502362
0.483533 0.494616 0.503369
0.483763 0.495622 0.504375
0.483993 0.496628 0.505381
0.484222 0.497634 0.506387
0.484452 0.498640 0.507393
0.484681 0.499646 0.508399
0.484911 0.500652 0.509405
0.485140 0.501658 0.510411
0.483442 0.486760 0.496289
0.483672 0.487766 0.497295
0.483901 0.488772 0.498301
0.484131 0.489778 0.499307
0.484361 0.490784 0.500313
0.484590 0.491790 0.501319
0.484820 0.492796 0.502325
0.485049 0.493802 0.503331
0.485279 0.494808 0.504338
0.485508 0.495814 0.505344
0.485738 0.496820 0.506350
0.485968 0.497826 0.507356
0.486197 0.498832 0.508362
0.486427 0.499838 0.509368
0.486656 0.500844 0.510374
0.486886 0.501850 0.511380
0.487115 0.502856 0.512386
0.485417 0.487959 0.498264
0.485647 0.488965 0.499270
0.485876 0.489971 0.500276
0.486106 0.490977 0.501282
0.486336 0.491983 0.502288
0.486565 0.492989 0.503294
0.486795 0.493995 0.504301
0.487024 0.495001 0.505307
0.487254 0.496007 0.506313
0.487483 0.497013 0.507319
0.487713 0.498019 0.508325
0.487943 0.499025 0.509331
0.488172 0.500031 0.510337
0.488402 0.501037 0.511343
0.488631 0.502043 0.512349
0.488861 0.503049 0.513355
0.489090 0.504055 0.514361
0.487392 0.489157 0.500239
0.487622 0.490163 0.501245
0.487851 0.491169 0.502251
0.488081 0.492175 0.503257
0.488311 0.493181 0.504263
0.488540 0.494187 0.505270
0.488770 0.495193 0.506276
0.488999 0.496199 0.507282
0.489229 0.497205 0.508288
0.489458 0.498211 0.509294
0.489688 0.499217 0.510300
0.489918 0.500223 0.511306
0.490147 0.501229 0.512312
0.490377 0.502235 0.513318
0.490606 0.503241 0.514324
0.490836 0.504247 0.515330
0.491065 0.505253 0.516336
0.489367 0.490356 0.502214
0.489597 0.491362 0.503220
0.489826 0.492368 0.504226
0.490056 0.493374 0.505233
0.490286 0.494380 0.506239
0.490515 0.495386 0.507245
0.490745 0.496392 0.508251
0.490974 0.497398 0.509257
0.491204 0.498404 0.510263
0.491433 0.499410 0.511269
0.491663 0.500416 0.512275
0.491893 0.501422 0.513281
0.492122 0.502428 0.514287
0.492352 0.503434 0.515293
0.492581 0.504440 0.516299
0.492811 0.505446 0.517305
0.493040 0.506452 0.518311
0.491342 0.491554 0.504189
0.491572 0.492560 0.505195
0.491802 0.493566 0.506202
0.492031 0.494572 0.507208
0.492261 0.495578 0.508214
0.492490 0.496584 0.509220
0.492720 0.497590 0.510226
0.492949 0.498596 0.511232
0.493179 0.499602 0.512238
0.493409 0.500609 0.513244
0.493638 0.501615 0.514250
0.493868 0.502621 0.515256
0.494097 0.503627 0.516262
0.494327 0.504633 0.517268
0.494556 0.505639 0.518274
0.494786 0.506645 0.519280
0.495015 0.507651 0.520286
0.493317 0.492753 0.506165
0.493547 0.493759 0.507171
0.493777 0.494765 0.508177
0.494006 0.495771 0.509183
0.494236 0.496777 0.510189
0.494465 0.497783 0.511195
0.494695 0.498789 0.512201
0.494924 0.499795 0.513207
0.495154 0.500801 0.514213
0.495384 0.501807 0.515219
0.495613 0.502813 0.516225
0.495843 0.503819 0.517231
0.496072 0.504825 0.518237
0.496302 0.505831 0.519243
0.496531 0.506837 0.520249
0.496761 0.507843 0.521255
0.496991 0.508849 0.522261
0.495292 0.493951 0.508140
0.495522 0.494958 0.509146
0.495752 0.495964 0.510152
0.495981 0.496970 0.511158
0.496211 0.497976 0.512164
0.496440 0.498982 0.513170
0.496670 0.499988 0.514176
0.496899 0.500994 0.515182
0.497129 0.502000 0.516188
0.497359 0.503006 0.517194
0.497588 0.504012 0.518200
0.497818 0.505018 0.519206
0.498047 0.506024 0.520212
0.498277 0.507030 0.521218
0.498506 0.508036 0.522224
0.498736 0.509042 0.523230
0.498966 0.510048 0.524236
0.497267 0.495150 0.510115
0.497497 0.496156 0.511121
0.497727 0.497162 0.512127
0.497956 0.498168 0.513133
0.498186 0.499174 0.514139
0.498415 0.500180 0.515145
0.498645 0.501186 0.516151
0.498874 0.502192 0.517157
0.499104 0.503198 0.518163
0.499334 0.504204 0.519169
0.499563 0.505210 0.520175
0.499793 0.506216 0.521181
0.500022 0.507222 0.522187
0.500252 0.508228 0.523193
0.500481 0.509234 0.524199
0.500711 0.510240 0.525205
0.500941 0.511246 0.526211
0.499242 0.496349 0.512090
0.499472 0.497355 0.513096
0.499702 0.498361 0.514102
0.499931 0.499367 0.515108
0.500161 0.500373 0.516114
0.500390 0.501379 0.517120
0.500620 0.502385 0.518126
0.500849 0.503391 0.519132
0.501079 0.504397 0.520138
0.501309 0.505403 0.521144
0.501538 0.506409 0.522150
0.501768 0.507415 0.523156
0.501997 0.508421 0.524162
0.502227 0.509427 0.525168
0.502456 0.510433 0.526174
0.502686 0.511439 0.527180
0.502916 0.512445 0.528186
0.501218 0.497547 0.514065
0.501447 0.498553 0.515071
0.501677 0.499559 0.516077
0.501906 0.500565 0.517083
0.502136 0.501571 0.518089
0.502365 0.502577 0.519095
0.502595 0.503583 0.520101
0.502824 0.504589 0.521107
0.503054 0.505595 0.522113
0.503284 0.506601 0.523119
0.503513 0.507607 0.524125
0.503743 0.508613 0.525131
0.503972 0.509619 0.526137
0.504202 0.510625 0.527143
0.504431 0.511631 0.528149
0.504661 0.512638 0.529155
0.504891 0.513644 0.530161
0.503193 0.498746 0.516040
0.503422 0.499752 0.517046
0.503652 0.500758 0.518052
0.503881 0.501764 0.519058
0.504111 0.502770 0.520064
0.504340 0.503776 0.521070
0.504570 0.504782 0.522076
0.504800 0.505788 0.523082
0.505029 0.506794 0.524088
0.505259 0.507800 0.525094
0.505488 0.508806 0.526100
0.505718 0.509812 0.527106
0.505947 0.510818 0.528112
0.506177 0.511824 0.529118
0.506407 0.512830 0.530124
0.506636 0.513836 0.531130
0.506866 0.514842 0.532136
0.505168 0.499944 0.518015
0.505397 0.500950 0.519021
0.505627 0.501956 0.520027
0.505856 0.502962 0.521033
0.506086 0.503968 0.522039
0.506315 0.504974 0.523045
0.506545 0.505980 0.524051
0.506775 0.506987 0.525057
0.507004 0.507993 0.526063
0.507234 0.508999 0.527069
0.507463 0.510005 0.528075
0.507693 0.511011 0.529081
0.507922 0.512017 0.530087
0.508152 0.513023 0.531093
0.508382 0.514029 0.532099
0.508611 0.515035 0.533105
0.508841 0.516041 0.534111
0.473951 0.481151 0.486021
0.474180 0.482157 0.487027
0.474410 0.483163 0.488033
0.474639 0.484169 0.489039
0.474869 0.485175 0.490045
0.475099 0.486181 0.491051
0.475328 0.487187 0.492057
0.475558 0.488193 0.493063
0.475787 0.489199 0.494070
0.476017 0.490205 0.495076
0.476246 0.491211 0.496082
0.476476 0.492217 0.497088
0.476706 0.493223 0.498094
0.476935 0.494229 0.499100
0.477165 0.495235 0.500106
0.477394 0.496241 0.501112
0.477624 0.497247 0.502118
0.475926 0.482349 0.487996
