shared/src/main/assets/luts/mv_pencil_pop.cube
TITLE "DALUR Pencil Pop"
LUT_3D_SIZE 5
DOMAIN_MIN 0.0 0.0 0.0
DOMAIN_MAX 1.0 1.0 1.0
0.416000 0.425000 0.434000
0.414001 0.442412 0.451412
0.412001 0.459824 0.468824
0.410002 0.477236 0.486236
0.408003 0.494647 0.503647
0.450183 0.439772 0.468183
0.448184 0.457184 0.485595
0.446184 0.474596 0.503007
0.444185 0.492008 0.520419
0.442186 0.509419 0.537831
0.484366 0.454544 0.502366
0.482367 0.471956 0.519778
0.480368 0.489368 0.537190
0.478368 0.506779 0.554602
0.476369 0.524191 0.572014
0.518549 0.469316 0.536549
0.516550 0.486728 0.553961
0.514551 0.504140 0.571373
0.512551 0.521551 0.588785
0.510552 0.538963 0.606197
0.552733 0.484088 0.570733
0.550733 0.501500 0.588144
0.548734 0.518911 0.605556
0.546735 0.536323 0.622968
0.544735 0.553735 0.640380
0.422639 0.431639 0.421227
0.420639 0.449050 0.438639
0.418640 0.466462 0.456051
0.416641 0.483874 0.473463
0.414641 0.501286 0.490875
0.456822 0.446411 0.455411
0.454822 0.463822 0.472822
0.452823 0.481234 0.490234
0.450824 0.498646 0.507646
0.448824 0.516058 0.525058
0.491005 0.461183 0.489594
0.489006 0.478594 0.507006
0.487006 0.496006 0.524417
0.485007 0.513418 0.541829
0.483008 0.530830 0.559241
0.525188 0.475954 0.523777
0.523189 0.493366 0.541189
0.521189 0.510778 0.558601
0.519190 0.528190 0.576012
0.517191 0.545602 0.593424
0.559371 0.490726 0.557960
0.557372 0.508138 0.575372
0.555373 0.525550 0.592784
0.553373 0.542962 0.610196
0.551374 0.560374 0.627607
0.429277 0.438277 0.408455
0.427278 0.455689 0.425867
0.425279 0.473101 0.443279
0.423279 0.490513 0.460690
0.421280 0.507925 0.478102
0.463460 0.453049 0.442638
0.461461 0.470461 0.460050
0.459462 0.487873 0.477462
0.457462 0.505285 0.494874
0.455463 0.522697 0.512285
0.497644 0.467821 0.476821
0.495644 0.485233 0.494233
0.493645 0.502645 0.511645
0.491646 0.520057 0.529057
0.489646 0.537469 0.546469
0.531827 0.482593 0.511004
0.529827 0.500005 0.528416
0.527828 0.517417 0.545828
0.525829 0.534829 0.563240
0.523829 0.552241 0.580652
0.566010 0.497365 0.545187
0.564011 0.514777 0.562599
0.562011 0.532189 0.580011
0.560012 0.549601 0.597423
0.558012 0.567012 0.614835
0.435916 0.444916 0.395682
0.433917 0.462328 0.413094
0.431917 0.479740 0.430506
0.429918 0.497151 0.447918
0.427918 0.514563 0.465330
0.470099 0.459688 0.429865
0.468100 0.477100 0.447277
0.466100 0.494512 0.464689
0.464101 0.511923 0.482101
0.462102 0.529335 0.499513
0.504282 0.474460 0.464049
0.502283 0.491872 0.481460
0.500284 0.509284 0.498872
0.498284 0.526695 0.516284
0.496285 0.544107 0.533696
0.538465 0.489232 0.498232
0.536466 0.506644 0.515644
0.534467 0.524055 0.533055
0.532467 0.541467 0.550467
0.530468 0.558879 0.567879
0.572649 0.504004 0.532415
0.570649 0.521416 0.549827
0.568650 0.538827 0.567239
0.566650 0.556239 0.584650
0.564651 0.573651 0.602062
0.442555 0.451555 0.382910
0.440555 0.468966 0.400322
0.438556 0.486378 0.417733
0.436556 0.503790 0.435145
0.434557 0.521202 0.452557
0.476738 0.466326 0.417093
0.474738 0.483738 0.434505
0.472739 0.501150 0.451917
0.470740 0.518562 0.469328
0.468740 0.535974 0.486740
0.510921 0.481098 0.451276
0.508921 0.498510 0.468688
0.506922 0.515922 0.486100
0.504923 0.533334 0.503512
0.502923 0.550746 0.520923
0.545104 0.495870 0.485459
0.543105 0.513282 0.502871
0.541105 0.530694 0.520283
0.539106 0.548106 0.537695
0.537107 0.565518 0.555107
0.579287 0.510642 0.519642
0.577288 0.528054 0.537054
0.575288 0.545466 0.554466
0.573289 0.562878 0.571878
0.571290 0.580290 0.589290
