shared/src/main/assets/luts/mv_pencil_pop.cube
TITLE "DALUR Pencil Pop"
LUT_3D_SIZE 9
DOMAIN_MIN 0.0 0.0 0.0
DOMAIN_MAX 1.0 1.0 1.0
0.416000 0.425000 0.434000
0.415000 0.433706 0.442706
0.414001 0.442412 0.451412
0.413001 0.451118 0.460118
0.412001 0.459824 0.468824
0.411002 0.468530 0.477530
0.410002 0.477236 0.486236
0.409002 0.485942 0.494942
0.408003 0.494647 0.503647
0.433092 0.432386 0.451092
0.432092 0.441092 0.459798
0.431092 0.449798 0.468503
0.430093 0.458504 0.477209
0.429093 0.467210 0.485915
0.428093 0.475916 0.494621
0.427094 0.484622 0.503327
0.426094 0.493327 0.512033
0.425094 0.502033 0.520739
0.450183 0.439772 0.468183
0.449183 0.448478 0.476889
0.448184 0.457184 0.485595
0.447184 0.465890 0.494301
0.446184 0.474596 0.503007
0.445185 0.483302 0.511713
0.444185 0.492008 0.520419
0.443185 0.500713 0.529125
0.442186 0.509419 0.537831
0.467275 0.447158 0.485275
0.466275 0.455864 0.493981
0.465275 0.464570 0.502687
0.464276 0.473276 0.511393
0.463276 0.481982 0.520098
0.462276 0.490688 0.528804
0.461277 0.499393 0.537510
0.460277 0.508099 0.546216
0.459277 0.516805 0.554922
0.484366 0.454544 0.502366
0.483367 0.463250 0.511072
0.482367 0.471956 0.519778
0.481367 0.480662 0.528484
0.480368 0.489368 0.537190
0.479368 0.498074 0.545896
0.478368 0.506779 0.554602
0.477369 0.515485 0.563308
0.476369 0.524191 0.572014
0.501458 0.461930 0.519458
0.500458 0.470636 0.528164
0.499459 0.479342 0.536870
0.498459 0.488048 0.545576
0.497459 0.496754 0.554282
0.496459 0.505459 0.562988
0.495460 0.514165 0.571693
0.494460 0.522871 0.580399
0.493460 0.531577 0.589105
0.518549 0.469316 0.536549
0.517550 0.478022 0.545255
0.516550 0.486728 0.553961
0.515550 0.495434 0.562667
0.514551 0.504140 0.571373
0.513551 0.512845 0.580079
0.512551 0.521551 0.588785
0.511552 0.530257 0.597491
0.510552 0.538963 0.606197
0.535641 0.476702 0.553641
0.534641 0.485408 0.562347
0.533642 0.494114 0.571053
0.532642 0.502820 0.579759
0.531642 0.511526 0.588465
0.530643 0.520231 0.597171
0.529643 0.528937 0.605877
0.528643 0.537643 0.614583
0.527644 0.546349 0.623288
0.552733 0.484088 0.570733
0.551733 0.492794 0.579439
0.550733 0.501500 0.588144
0.549734 0.510206 0.596850
0.548734 0.518911 0.605556
0.547734 0.527617 0.614262
0.546735 0.536323 0.622968
0.545735 0.545029 0.631674
0.544735 0.553735 0.640380
0.419319 0.428319 0.427614
0.418320 0.437025 0.436320
0.417320 0.445731 0.445026
0.416320 0.454437 0.453732
0.415321 0.463143 0.462437
0.414321 0.471849 0.471143
0.413321 0.480555 0.479849
0.412322 0.489261 0.488555
0.411322 0.497967 0.497261
0.436411 0.435705 0.444705
0.435411 0.444411 0.453411
0.434412 0.453117 0.462117
0.433412 0.461823 0.470823
0.432412 0.470529 0.479529
0.431413 0.479235 0.488235
0.430413 0.487941 0.496941
0.429413 0.496647 0.505647
0.428413 0.505353 0.514353
0.453502 0.443091 0.461797
0.452503 0.451797 0.470503
0.451503 0.460503 0.479209
0.450503 0.469209 0.487915
0.449504 0.477915 0.496621
0.448504 0.486621 0.505327
0.447504 0.495327 0.514032
0.446505 0.504033 0.522738
0.445505 0.512739 0.531444
0.470594 0.450477 0.478888
0.469594 0.459183 0.487594
0.468595 0.467889 0.496300
0.467595 0.476595 0.505006
0.466595 0.485301 0.513712
0.465596 0.494007 0.522418
0.464596 0.502713 0.531124
0.463596 0.511419 0.539830
0.462597 0.520125 0.548536
0.487686 0.457863 0.495980
0.486686 0.466569 0.504686
0.485686 0.475275 0.513392
0.484687 0.483981 0.522098
0.483687 0.492687 0.530804
0.482687 0.501393 0.539510
0.481688 0.510099 0.548216
0.480688 0.518805 0.556922
0.479688 0.527511 0.565627
0.504777 0.465249 0.513072
0.503778 0.473955 0.521778
0.502778 0.482661 0.530483
0.501778 0.491367 0.539189
0.500778 0.500073 0.547895
0.499779 0.508779 0.556601
0.498779 0.517485 0.565307
0.497779 0.526191 0.574013
0.496780 0.534897 0.582719
0.521869 0.472635 0.530163
0.520869 0.481341 0.538869
0.519869 0.490047 0.547575
0.518870 0.498753 0.556281
0.517870 0.507459 0.564987
0.516870 0.516165 0.573693
0.515871 0.524871 0.582399
0.514871 0.533577 0.591105
0.513871 0.542283 0.599811
0.538960 0.480021 0.547255
0.537961 0.488727 0.555961
0.536961 0.497433 0.564667
0.535961 0.506139 0.573373
0.534962 0.514845 0.582078
0.533962 0.523551 0.590784
0.532962 0.532257 0.599490
0.531963 0.540963 0.608196
0.530963 0.549669 0.616902
0.556052 0.487407 0.564346
0.555052 0.496113 0.573052
0.554053 0.504819 0.581758
0.553053 0.513525 0.590464
0.552053 0.522231 0.599170
0.551054 0.530937 0.607876
0.550054 0.539643 0.616582
0.549054 0.548349 0.625288
0.548055 0.557055 0.633994
0.422639 0.431639 0.421227
0.421639 0.440345 0.429933
0.420639 0.449050 0.438639
0.419640 0.457756 0.447345
0.418640 0.466462 0.456051
0.417640 0.475168 0.464757
0.416641 0.483874 0.473463
0.415641 0.492580 0.482169
0.414641 0.501286 0.490875
0.439730 0.439025 0.438319
0.438731 0.447731 0.447025
0.437731 0.456436 0.455731
0.436731 0.465142 0.464437
0.435732 0.473848 0.473143
0.434732 0.482554 0.481849
0.433732 0.491260 0.490555
0.432732 0.499966 0.499261
0.431733 0.508672 0.507966
0.456822 0.446411 0.455411
0.455822 0.455117 0.464117
0.454822 0.463822 0.472822
0.453823 0.472528 0.481528
0.452823 0.481234 0.490234
0.451823 0.489940 0.498940
0.450824 0.498646 0.507646
0.449824 0.507352 0.516352
0.448824 0.516058 0.525058
0.473913 0.453797 0.472502
0.472914 0.462502 0.481208
0.471914 0.471208 0.489914
0.470914 0.479914 0.498620
0.469915 0.488620 0.507326
0.468915 0.497326 0.516032
0.467915 0.506032 0.524738
0.466916 0.514738 0.533444
0.465916 0.523444 0.542150
0.491005 0.461183 0.489594
0.490005 0.469888 0.498300
0.489006 0.478594 0.507006
0.488006 0.487300 0.515712
0.487006 0.496006 0.524417
0.486007 0.504712 0.533123
0.485007 0.513418 0.541829
0.484007 0.522124 0.550535
0.483008 0.530830 0.559241
0.508097 0.468568 0.506685
0.507097 0.477274 0.515391
0.506097 0.485980 0.524097
0.505097 0.494686 0.532803
0.504098 0.503392 0.541509
0.503098 0.512098 0.550215
0.502098 0.520804 0.558921
0.501099 0.529510 0.567627
0.500099 0.538216 0.576333
0.525188 0.475954 0.523777
0.524188 0.484660 0.532483
0.523189 0.493366 0.541189
0.522189 0.502072 0.549895
0.521189 0.510778 0.558601
0.520190 0.519484 0.567307
0.519190 0.528190 0.576012
0.518190 0.536896 0.584718
0.517191 0.545602 0.593424
0.542280 0.483340 0.540868
0.541280 0.492046 0.549574
0.540280 0.500752 0.558280
0.539281 0.509458 0.566986
0.538281 0.518164 0.575692
0.537281 0.526870 0.584398
0.536282 0.535576 0.593104
0.535282 0.544282 0.601810
0.534282 0.552988 0.610516
0.559371 0.490726 0.557960
0.558372 0.499432 0.566666
0.557372 0.508138 0.575372
0.556372 0.516844 0.584078
0.555373 0.525550 0.592784
0.554373 0.534256 0.601490
0.553373 0.542962 0.610196
0.552374 0.551668 0.618902
0.551374 0.560374 0.627607
0.425958 0.434958 0.414841
0.424958 0.443664 0.423547
0.423959 0.452370 0.432253
0.422959 0.461076 0.440959
0.421959 0.469782 0.449665
0.420960 0.478488 0.458371
0.419960 0.487194 0.467077
0.418960 0.495899 0.475783
0.417961 0.504605 0.484489
0.443050 0.442344 0.431933
0.442050 0.451050 0.440639
0.441050 0.459756 0.449345
0.440050 0.468462 0.458050
0.439051 0.477168 0.466756
0.438051 0.485874 0.475462
0.437051 0.494580 0.484168
0.436052 0.503285 0.492874
0.435052 0.511991 0.501580
0.460141 0.449730 0.449024
0.459141 0.458436 0.457730
0.458142 0.467142 0.466436
0.457142 0.475848 0.475142
0.456142 0.484554 0.483848
0.455143 0.493260 0.492554
0.454143 0.501965 0.501260
0.453143 0.510671 0.509966
0.452144 0.519377 0.518672
0.477233 0.457116 0.466116
0.476233 0.465822 0.474822
0.475233 0.474528 0.483528
0.474234 0.483234 0.492234
0.473234 0.491940 0.500940
0.472234 0.500646 0.509646
0.471235 0.509351 0.518351
0.470235 0.518057 0.527057
0.469235 0.526763 0.535763
0.494324 0.464502 0.483207
0.493325 0.473208 0.491913
0.492325 0.481914 0.500619
0.491325 0.490620 0.509325
0.490326 0.499326 0.518031
0.489326 0.508031 0.526737
0.488326 0.516737 0.535443
0.487327 0.525443 0.544149
0.486327 0.534149 0.552855
0.511416 0.471888 0.500299
0.510416 0.480594 0.509005
0.509416 0.489300 0.517711
0.508417 0.498006 0.526417
0.507417 0.506712 0.535123
0.506417 0.515417 0.543829
0.505418 0.524123 0.552535
0.504418 0.532829 0.561241
0.503418 0.541535 0.569946
0.528507 0.479274 0.517391
0.527508 0.487980 0.526097
0.526508 0.496686 0.534802
0.525508 0.505392 0.543508
0.524509 0.514097 0.552214
0.523509 0.522803 0.560920
0.522509 0.531509 0.569626
0.521510 0.540215 0.578332
0.520510 0.548921 0.587038
0.545599 0.486660 0.534482
0.544599 0.495366 0.543188
0.543600 0.504072 0.551894
0.542600 0.512778 0.560600
0.541600 0.521483 0.569306
0.540601 0.530189 0.578012
0.539601 0.538895 0.586718
0.538601 0.547601 0.595424
0.537602 0.556307 0.604130
0.562691 0.494046 0.551574
0.561691 0.502752 0.560280
0.560691 0.511458 0.568986
0.559692 0.520163 0.577692
0.558692 0.528869 0.586397
0.557692 0.537575 0.595103
0.556693 0.546281 0.603809
0.555693 0.554987 0.612515
0.554693 0.563693 0.621221
0.429277 0.438277 0.408455
0.428278 0.446983 0.417161
0.427278 0.455689 0.425867
0.426278 0.464395 0.434573
0.425279 0.473101 0.443279
0.424279 0.481807 0.451984
0.423279 0.490513 0.460690
0.422280 0.499219 0.469396
0.421280 0.507925 0.478102
0.446369 0.445663 0.425546
0.445369 0.454369 0.434252
0.444369 0.463075 0.442958
0.443370 0.471781 0.451664
0.442370 0.480487 0.460370
0.441370 0.489193 0.469076
0.440371 0.497899 0.477782
0.439371 0.506605 0.486488
0.438371 0.515311 0.495194
0.463460 0.453049 0.442638
0.462461 0.461755 0.451344
0.461461 0.470461 0.460050
0.460461 0.479167 0.468756
0.459462 0.487873 0.477462
0.458462 0.496579 0.486168
0.457462 0.505285 0.494874
0.456463 0.513991 0.503580
0.455463 0.522697 0.512285
0.480552 0.460435 0.459730
0.479552 0.469141 0.468435
0.478553 0.477847 0.477141
0.477553 0.486553 0.485847
0.476553 0.495259 0.494553
0.475554 0.503965 0.503259
0.474554 0.512671 0.511965
0.473554 0.521377 0.520671
0.472555 0.530083 0.529377
0.497644 0.467821 0.476821
0.496644 0.476527 0.485527
0.495644 0.485233 0.494233
0.494645 0.493939 0.502939
0.493645 0.502645 0.511645
0.492645 0.511351 0.520351
0.491646 0.520057 0.529057
0.490646 0.528763 0.537763
0.489646 0.537469 0.546469
0.514735 0.475207 0.493913
0.513735 0.483913 0.502619
0.512736 0.492619 0.511325
0.511736 0.501325 0.520031
0.510736 0.510031 0.528736
0.509737 0.518737 0.537442
0.508737 0.527443 0.546148
0.507737 0.536149 0.554854
0.506738 0.544855 0.563560
0.531827 0.482593 0.511004
0.530827 0.491299 0.519710
0.529827 0.500005 0.528416
0.528828 0.508711 0.537122
0.527828 0.517417 0.545828
0.526828 0.526123 0.554534
0.525829 0.534829 0.563240
0.524829 0.543535 0.571946
0.523829 0.552241 0.580652
0.548918 0.489979 0.528096
0.547919 0.498685 0.536802
0.546919 0.507391 0.545508
0.545919 0.516097 0.554214
0.544920 0.524803 0.562920
0.543920 0.533509 0.571626
0.542920 0.542215 0.580331
0.541921 0.550921 0.589037
0.540921 0.559626 0.597743
0.566010 0.497365 0.545187
0.565010 0.506071 0.553893
0.564011 0.514777 0.562599
0.563011 0.523483 0.571305
0.562011 0.532189 0.580011
0.561011 0.540895 0.588717
0.560012 0.549601 0.597423
0.559012 0.558307 0.606129
0.558012 0.567012 0.614835
0.432597 0.441597 0.402069
0.431597 0.450303 0.410774
0.430597 0.459008 0.419480
0.429598 0.467714 0.428186
0.428598 0.476420 0.436892
0.427598 0.485126 0.445598
0.426599 0.493832 0.454304
0.425599 0.502538 0.463010
0.424599 0.511244 0.471716
0.449688 0.448983 0.419160
0.448688 0.457688 0.427866
0.447689 0.466394 0.436572
0.446689 0.475100 0.445278
0.445689 0.483806 0.453984
0.444690 0.492512 0.462690
0.443690 0.501218 0.471396
0.442690 0.509924 0.480102
0.441691 0.518630 0.488808
0.466780 0.456369 0.436252
0.465780 0.465074 0.444958
0.464780 0.473780 0.453664
0.463781 0.482486 0.462369
0.462781 0.491192 0.471075
0.461781 0.499898 0.479781
0.460782 0.508604 0.488487
0.459782 0.517310 0.497193
0.458782 0.526016 0.505899
0.483871 0.463754 0.453343
0.482872 0.472460 0.462049
0.481872 0.481166 0.470755
0.480872 0.489872 0.479461
0.479873 0.498578 0.488167
0.478873 0.507284 0.496873
0.477873 0.515990 0.505579
0.476874 0.524696 0.514285
0.475874 0.533402 0.522991
0.500963 0.471140 0.470435
0.499963 0.479846 0.479141
0.498964 0.488552 0.487847
0.497964 0.497258 0.496553
0.496964 0.505964 0.505259
0.495965 0.514670 0.513965
0.494965 0.523376 0.522670
0.493965 0.532082 0.531376
0.492965 0.540788 0.540082
0.518054 0.478526 0.487526
0.517055 0.487232 0.496232
0.516055 0.495938 0.504938
0.515055 0.504644 0.513644
0.514056 0.513350 0.522350
0.513056 0.522056 0.531056
0.512056 0.530762 0.539762
0.511057 0.539468 0.548468
0.510057 0.548174 0.557174
0.535146 0.485912 0.504618
0.534146 0.494618 0.513324
0.533147 0.503324 0.522030
0.532147 0.512030 0.530736
0.531147 0.520736 0.539442
0.530148 0.529442 0.548148
0.529148 0.538148 0.556854
0.528148 0.546854 0.565560
0.527149 0.555560 0.574265
0.552238 0.493298 0.521710
0.551238 0.502004 0.530416
0.550238 0.510710 0.539121
0.549239 0.519416 0.547827
0.548239 0.528122 0.556533
0.547239 0.536828 0.565239
0.546240 0.545534 0.573945
0.545240 0.554240 0.582651
0.544240 0.562946 0.591357
0.569329 0.500684 0.538801
0.568330 0.509390 0.547507
0.567330 0.518096 0.556213
0.566330 0.526802 0.564919
0.565330 0.535508 0.573625
0.564331 0.544214 0.582331
0.563331 0.552920 0.591037
0.562331 0.561626 0.599743
0.561332 0.570332 0.608449
0.435916 0.444916 0.395682
0.434916 0.453622 0.404388
0.433917 0.462328 0.413094
0.432917 0.471034 0.421800
0.431917 0.479740 0.430506
0.430918 0.488446 0.439212
0.429918 0.497151 0.447918
0.428918 0.505857 0.456624
0.427918 0.514563 0.465330
0.453007 0.452302 0.412774
0.452008 0.461008 0.421480
0.451008 0.469714 0.430186
0.450008 0.478420 0.438892
0.449009 0.487126 0.447598
0.448009 0.495832 0.456303
0.447009 0.504537 0.465009
0.446010 0.513243 0.473715
0.445010 0.521949 0.482421
0.470099 0.459688 0.429865
0.469099 0.468394 0.438571
0.468100 0.477100 0.447277
0.467100 0.485806 0.455983
0.466100 0.494512 0.464689
0.465101 0.503218 0.473395
0.464101 0.511923 0.482101
0.463101 0.520629 0.490807
0.462102 0.529335 0.499513
0.487191 0.467074 0.446957
0.486191 0.475780 0.455663
0.485191 0.484486 0.464369
0.484192 0.493192 0.473075
0.483192 0.501898 0.481781
0.482192 0.510603 0.490487
0.481193 0.519309 0.499193
0.480193 0.528015 0.507899
0.479193 0.536721 0.516604
0.504282 0.474460 0.464049
0.503283 0.483166 0.472754
0.502283 0.491872 0.481460
0.501283 0.500578 0.490166
0.500284 0.509284 0.498872
0.499284 0.517989 0.507578
0.498284 0.526695 0.516284
0.497284 0.535401 0.524990
0.496285 0.544107 0.533696
0.521374 0.481846 0.481140
0.520374 0.490552 0.489846
0.519374 0.499258 0.498552
0.518375 0.507964 0.507258
0.517375 0.516669 0.515964
0.516375 0.525375 0.524670
0.515376 0.534081 0.533376
0.514376 0.542787 0.542082
0.513376 0.551493 0.550788
0.538465 0.489232 0.498232
0.537466 0.497938 0.506938
0.536466 0.506644 0.515644
0.535466 0.515350 0.524350
0.534467 0.524055 0.533055
0.533467 0.532761 0.541761
0.532467 0.541467 0.550467
0.531468 0.550173 0.559173
0.530468 0.558879 0.567879
0.555557 0.496618 0.515323
0.554557 0.505324 0.524029
0.553558 0.514030 0.532735
0.552558 0.522735 0.541441
0.551558 0.531441 0.550147
0.550559 0.540147 0.558853
0.549559 0.548853 0.567559
0.548559 0.557559 0.576265
0.547560 0.566265 0.584971
0.572649 0.504004 0.532415
0.571649 0.512710 0.541121
0.570649 0.521416 0.549827
0.569649 0.530121 0.558533
0.568650 0.538827 0.567239
0.567650 0.547533 0.575945
0.566650 0.556239 0.584650
0.565651 0.564945 0.593356
0.564651 0.573651 0.602062
0.439235 0.448235 0.389296
0.438236 0.456941 0.398002
0.437236 0.465647 0.406708
0.436236 0.474353 0.415414
0.435237 0.483059 0.424120
0.434237 0.491765 0.432826
0.433237 0.500471 0.441532
0.432237 0.509177 0.450237
0.431238 0.517883 0.458943
0.456327 0.455621 0.406388
0.455327 0.464327 0.415093
0.454327 0.473033 0.423799
0.453328 0.481739 0.432505
0.452328 0.490445 0.441211
0.451328 0.499151 0.449917
0.450329 0.507857 0.458623
0.449329 0.516563 0.467329
0.448329 0.525269 0.476035
0.473418 0.463007 0.423479
0.472419 0.471713 0.432185
0.471419 0.480419 0.440891
0.470419 0.489125 0.449597
0.469420 0.497831 0.458303
0.468420 0.506537 0.467009
0.467420 0.515243 0.475715
0.466421 0.523949 0.484421
0.465421 0.532655 0.493127
0.490510 0.470393 0.440571
0.489510 0.479099 0.449277
0.488511 0.487805 0.457983
0.487511 0.496511 0.466688
0.486511 0.505217 0.475394
0.485512 0.513923 0.484100
0.484512 0.522629 0.492806
0.483512 0.531335 0.501512
0.482513 0.540041 0.510218
0.507602 0.477779 0.457662
0.506602 0.486485 0.466368
0.505602 0.495191 0.475074
0.504603 0.503897 0.483780
0.503603 0.512603 0.492486
0.502603 0.521309 0.501192
0.501603 0.530015 0.509898
0.500604 0.538721 0.518604
0.499604 0.547427 0.527310
0.524693 0.485165 0.474754
0.523693 0.493871 0.483460
0.522694 0.502577 0.492166
0.521694 0.511283 0.500872
0.520694 0.519989 0.509578
0.519695 0.528695 0.518284
0.518695 0.537401 0.526989
0.517695 0.546107 0.535695
0.516696 0.554813 0.544401
0.541785 0.492551 0.491845
0.540785 0.501257 0.500551
0.539785 0.509963 0.509257
0.538786 0.518669 0.517963
0.537786 0.527375 0.526669
0.536786 0.536081 0.535375
0.535787 0.544787 0.544081
0.534787 0.553493 0.552787
0.533787 0.562198 0.561493
0.558876 0.499937 0.508937
0.557877 0.508643 0.517643
0.556877 0.517349 0.526349
0.555877 0.526055 0.535055
0.554878 0.534761 0.543761
0.553878 0.543467 0.552467
0.552878 0.552173 0.561173
0.551879 0.560879 0.569879
0.550879 0.569584 0.578584
0.575968 0.507323 0.526029
0.574968 0.516029 0.534735
0.573968 0.524735 0.543440
0.572969 0.533441 0.552146
0.571969 0.542147 0.560852
0.570969 0.550853 0.569558
0.569970 0.559559 0.578264
0.568970 0.568264 0.586970
0.567970 0.576970 0.595676
0.442555 0.451555 0.382910
0.441555 0.460260 0.391616
0.440555 0.468966 0.400322
0.439556 0.477672 0.409027
0.438556 0.486378 0.417733
0.437556 0.495084 0.426439
0.436556 0.503790 0.435145
0.435557 0.512496 0.443851
0.434557 0.521202 0.452557
0.459646 0.458941 0.400001
0.458646 0.467646 0.408707
0.457647 0.476352 0.417413
0.456647 0.485058 0.426119
0.455647 0.493764 0.434825
0.454648 0.502470 0.443531
0.453648 0.511176 0.452237
0.452648 0.519882 0.460943
0.451649 0.528588 0.469649
0.476738 0.466326 0.417093
0.475738 0.475032 0.425799
0.474738 0.483738 0.434505
0.473739 0.492444 0.443211
0.472739 0.501150 0.451917
0.471739 0.509856 0.460622
0.470740 0.518562 0.469328
0.469740 0.527268 0.478034
0.468740 0.535974 0.486740
0.493829 0.473712 0.434184
0.492830 0.482418 0.442890
0.491830 0.491124 0.451596
0.490830 0.499830 0.460302
0.489831 0.508536 0.469008
0.488831 0.517242 0.477714
0.487831 0.525948 0.486420
0.486832 0.534654 0.495126
0.485832 0.543360 0.503832
0.510921 0.481098 0.451276
0.509921 0.489804 0.459982
0.508921 0.498510 0.468688
0.507922 0.507216 0.477394
0.506922 0.515922 0.486100
0.505922 0.524628 0.494806
0.504923 0.533334 0.503512
0.503923 0.542040 0.512218
0.502923 0.550746 0.520923
0.528012 0.488484 0.468368
0.527013 0.497190 0.477073
0.526013 0.505896 0.485779
0.525013 0.514602 0.494485
0.524014 0.523308 0.503191
0.523014 0.532014 0.511897
0.522014 0.540720 0.520603
0.521015 0.549426 0.529309
0.520015 0.558132 0.538015
0.545104 0.495870 0.485459
0.544104 0.504576 0.494165
0.543105 0.513282 0.502871
0.542105 0.521988 0.511577
0.541105 0.530694 0.520283
0.540106 0.539400 0.528989
0.539106 0.548106 0.537695
0.538106 0.556812 0.546401
0.537107 0.565518 0.555107
0.562196 0.503256 0.502551
0.561196 0.511962 0.511257
0.560196 0.520668 0.519963
0.559197 0.529374 0.528669
0.558197 0.538080 0.537374
0.557197 0.546786 0.546080
0.556198 0.555492 0.554786
0.555198 0.564198 0.563492
0.554198 0.572904 0.572198
0.579287 0.510642 0.519642
0.578287 0.519348 0.528348
0.577288 0.528054 0.537054
0.576288 0.536760 0.545760
0.575288 0.545466 0.554466
0.574289 0.554172 0.563172
0.573289 0.562878 0.571878
0.572289 0.571584 0.580584
0.571290 0.580290 0.589290
