shared/src/main/assets/luts/mv_retro_pop.cube
TITLE "DALUR Retro Pop"
LUT_3D_SIZE 9
DOMAIN_MIN 0.0 0.0 0.0
DOMAIN_MAX 1.0 1.0 1.0
0.456000 0.447500 0.444000
0.462729 0.450265 0.446765
0.469458 0.453031 0.449531
0.476188 0.455796 0.452296
0.482917 0.458562 0.455062
0.489646 0.461327 0.457827
0.496375 0.464093 0.460593
0.503105 0.466858 0.463358
0.509834 0.469623 0.466123
0.461429 0.456893 0.449429
0.468158 0.459658 0.452195
0.474888 0.462424 0.454960
0.481617 0.465189 0.457725
0.488346 0.467955 0.460491
0.495075 0.470720 0.463256
0.501805 0.473485 0.466022
0.508534 0.476251 0.468787
0.515263 0.479016 0.471552
0.466858 0.466286 0.454858
0.473587 0.469051 0.457624
0.480317 0.471817 0.460389
0.487046 0.474582 0.463154
0.493775 0.477348 0.465920
0.500504 0.480113 0.468685
0.507234 0.482878 0.471451
0.513963 0.485644 0.474216
0.520692 0.488409 0.476982
0.472287 0.475679 0.460287
0.479017 0.478444 0.463053
0.485746 0.481210 0.465818
0.492475 0.483975 0.468584
0.499204 0.486740 0.471349
0.505934 0.489506 0.474114
0.512663 0.492271 0.476880
0.519392 0.495037 0.479645
0.526121 0.497802 0.482411
0.477716 0.485072 0.465716
0.484446 0.487837 0.468482
0.491175 0.490603 0.471247
0.497904 0.493368 0.474013
0.504633 0.496133 0.476778
0.511363 0.498899 0.479544
0.518092 0.501664 0.482309
0.524821 0.504430 0.485074
0.531550 0.507195 0.487840
0.483146 0.494465 0.471146
0.489875 0.497230 0.473911
0.496604 0.499995 0.476676
0.503333 0.502761 0.479442
0.510063 0.505526 0.482207
0.516792 0.508292 0.484973
0.523521 0.511057 0.487738
0.530250 0.513823 0.490504
0.536979 0.516588 0.493269
0.488575 0.503858 0.476575
0.495304 0.506623 0.479340
0.502033 0.509388 0.482106
0.508762 0.512154 0.484871
0.515492 0.514919 0.487636
0.522221 0.517685 0.490402
0.528950 0.520450 0.493167
0.535679 0.523216 0.495933
0.542409 0.525981 0.498698
0.494004 0.513250 0.482004
0.500733 0.516016 0.484769
0.507462 0.518781 0.487535
0.514191 0.521547 0.490300
0.520921 0.524312 0.493065
0.527650 0.527078 0.495831
0.534379 0.529843 0.498596
0.541108 0.532608 0.501362
0.547838 0.535374 0.504127
0.499433 0.522643 0.487433
0.506162 0.525409 0.490198
0.512891 0.528174 0.492964
0.519621 0.530940 0.495729
0.526350 0.533705 0.498495
0.533079 0.536471 0.501260
0.539808 0.539236 0.504025
0.546538 0.542001 0.506791
0.553267 0.544767 0.509556
0.457054 0.448554 0.449018
0.463784 0.451320 0.451784
0.470513 0.454085 0.454549
0.477242 0.456851 0.457314
0.483971 0.459616 0.460080
0.490701 0.462381 0.462845
0.497430 0.465147 0.465611
0.504159 0.467912 0.468376
0.510888 0.470678 0.471142
0.462483 0.457947 0.454447
0.469213 0.460713 0.457213
0.475942 0.463478 0.459978
0.482671 0.466244 0.462744
0.489400 0.469009 0.465509
0.496130 0.471774 0.468274
0.502859 0.474540 0.471040
0.509588 0.477305 0.473805
0.516317 0.480071 0.476571
0.467913 0.467340 0.459876
0.474642 0.470106 0.462642
0.481371 0.472871 0.465407
0.488100 0.475636 0.468173
0.494830 0.478402 0.470938
0.501559 0.481167 0.473704
0.508288 0.483933 0.476469
0.515017 0.486698 0.479234
0.521747 0.489464 0.482000
0.473342 0.476733 0.465306
0.480071 0.479499 0.468071
0.486800 0.482264 0.470836
0.493529 0.485029 0.473602
0.500259 0.487795 0.476367
0.506988 0.490560 0.479133
0.513717 0.493326 0.481898
0.520446 0.496091 0.484663
0.527176 0.498857 0.487429
0.478771 0.486126 0.470735
0.485500 0.488892 0.473500
0.492229 0.491657 0.476265
0.498959 0.494422 0.479031
0.505688 0.497188 0.481796
0.512417 0.499953 0.484562
0.519146 0.502719 0.487327
0.525875 0.505484 0.490093
0.532605 0.508249 0.492858
0.484200 0.495519 0.476164
0.490929 0.498284 0.478929
0.497658 0.501050 0.481695
0.504388 0.503815 0.484460
0.511117 0.506581 0.487225
0.517846 0.509346 0.489991
0.524575 0.512112 0.492756
0.531305 0.514877 0.495522
0.538034 0.517642 0.498287
0.489629 0.504912 0.481593
0.496358 0.507677 0.484358
0.503088 0.510443 0.487124
0.509817 0.513208 0.489889
0.516546 0.515974 0.492655
0.523275 0.518739 0.495420
0.530004 0.521504 0.498185
0.536734 0.524270 0.500951
0.543463 0.527035 0.503716
0.495058 0.514305 0.487022
0.501787 0.517070 0.489787
0.508517 0.519836 0.492553
0.515246 0.522601 0.495318
0.521975 0.525367 0.498084
0.528704 0.528132 0.500849
0.535434 0.530897 0.503614
0.542163 0.533663 0.506380
0.548892 0.536428 0.509145
0.500487 0.523698 0.492451
0.507216 0.526463 0.495216
0.513946 0.529229 0.497982
0.520675 0.531994 0.500747
0.527404 0.534759 0.503513
0.534133 0.537525 0.506278
0.540863 0.540290 0.509044
0.547592 0.543056 0.511809
0.554321 0.545821 0.514574
0.458109 0.449609 0.454036
0.464838 0.452374 0.456802
0.471567 0.455140 0.459567
0.478296 0.457905 0.462333
0.485026 0.460670 0.465098
0.491755 0.463436 0.467864
0.498484 0.466201 0.470629
0.505213 0.468967 0.473394
0.511943 0.471732 0.476160
0.463538 0.459002 0.459465
0.470267 0.461767 0.462231
0.476996 0.464533 0.464996
0.483726 0.467298 0.467762
0.490455 0.470063 0.470527
0.497184 0.472829 0.473293
0.503913 0.475594 0.476058
0.510643 0.478360 0.478823
0.517372 0.481125 0.481589
0.468967 0.468395 0.464895
0.475696 0.471160 0.467660
0.482425 0.473925 0.470425
0.489155 0.476691 0.473191
0.495884 0.479456 0.475956
0.502613 0.482222 0.478722
0.509342 0.484987 0.481487
0.516072 0.487753 0.484253
0.522801 0.490518 0.487018
0.474396 0.477788 0.470324
0.481125 0.480553 0.473089
0.487855 0.483318 0.475855
0.494584 0.486084 0.478620
0.501313 0.488849 0.481385
0.508042 0.491615 0.484151
0.514772 0.494380 0.486916
0.521501 0.497145 0.489682
0.528230 0.499911 0.492447
0.479825 0.487180 0.475753
0.486554 0.489946 0.478518
0.493284 0.492711 0.481284
0.500013 0.495477 0.484049
0.506742 0.498242 0.486815
0.513471 0.501008 0.489580
0.520201 0.503773 0.492345
0.526930 0.506538 0.495111
0.533659 0.509304 0.497876
0.485254 0.496573 0.481182
0.491984 0.499339 0.483947
0.498713 0.502104 0.486713
0.505442 0.504870 0.489478
0.512171 0.507635 0.492244
0.518901 0.510401 0.495009
0.525630 0.513166 0.497774
0.532359 0.515931 0.500540
0.539088 0.518697 0.503305
0.490683 0.505966 0.486611
0.497413 0.508732 0.489376
0.504142 0.511497 0.492142
0.510871 0.514263 0.494907
0.517600 0.517028 0.497673
0.524330 0.519793 0.500438
0.531059 0.522559 0.503204
0.537788 0.525324 0.505969
0.544517 0.528090 0.508734
0.496113 0.515359 0.492040
0.502842 0.518125 0.494806
0.509571 0.520890 0.497571
0.516300 0.523656 0.500336
0.523029 0.526421 0.503102
0.529759 0.529186 0.505867
0.536488 0.531952 0.508633
0.543217 0.534717 0.511398
0.549946 0.537483 0.514164
0.501542 0.524752 0.497469
0.508271 0.527518 0.500235
0.515000 0.530283 0.503000
0.521729 0.533048 0.505766
0.528459 0.535814 0.508531
0.535188 0.538579 0.511296
0.541917 0.541345 0.514062
0.548646 0.544110 0.516827
0.555376 0.546876 0.519593
0.459163 0.450663 0.459055
0.465892 0.453429 0.461820
0.472622 0.456194 0.464585
0.479351 0.458959 0.467351
0.486080 0.461725 0.470116
0.492809 0.464490 0.472882
0.499539 0.467256 0.475647
0.506268 0.470021 0.478413
0.512997 0.472787 0.481178
0.464592 0.460056 0.464484
0.471321 0.462821 0.467249
0.478051 0.465587 0.470015
0.484780 0.468352 0.472780
0.491509 0.471118 0.475545
0.498238 0.473883 0.478311
0.504968 0.476649 0.481076
0.511697 0.479414 0.483842
0.518426 0.482179 0.486607
0.470021 0.469449 0.469913
0.476751 0.472214 0.472678
0.483480 0.474980 0.475444
0.490209 0.477745 0.478209
0.496938 0.480511 0.480974
0.503668 0.483276 0.483740
0.510397 0.486042 0.486505
0.517126 0.488807 0.489271
0.523855 0.491572 0.492036
0.475450 0.478842 0.475342
0.482180 0.481607 0.478107
0.488909 0.484373 0.480873
0.495638 0.487138 0.483638
0.502367 0.489904 0.486404
0.509097 0.492669 0.489169
0.515826 0.495434 0.491934
0.522555 0.498200 0.494700
0.529284 0.500965 0.497465
0.480880 0.488235 0.480771
0.487609 0.491000 0.483536
0.494338 0.493766 0.486302
0.501067 0.496531 0.489067
0.507797 0.499297 0.491833
0.514526 0.502062 0.494598
0.521255 0.504827 0.497364
0.527984 0.507593 0.500129
0.534713 0.510358 0.502894
0.486309 0.497628 0.486200
0.493038 0.500393 0.488966
0.499767 0.503159 0.491731
0.506496 0.505924 0.494496
0.513226 0.508689 0.497262
0.519955 0.511455 0.500027
0.526684 0.514220 0.502793
0.533413 0.516986 0.505558
0.540143 0.519751 0.508324
0.491738 0.507021 0.491629
0.498467 0.509786 0.494395
0.505196 0.512552 0.497160
0.511926 0.515317 0.499926
0.518655 0.518082 0.502691
0.525384 0.520848 0.505456
0.532113 0.523613 0.508222
0.538842 0.526379 0.510987
0.545572 0.529144 0.513753
0.497167 0.516414 0.497058
0.503896 0.519179 0.499824
0.510625 0.521944 0.502589
0.517355 0.524710 0.505355
0.524084 0.527475 0.508120
0.530813 0.530241 0.510885
0.537542 0.533006 0.513651
0.544272 0.535772 0.516416
0.551001 0.538537 0.519182
0.502596 0.525807 0.502487
0.509325 0.528572 0.505253
0.516054 0.531337 0.508018
0.522784 0.534103 0.510784
0.529513 0.536868 0.513549
0.536242 0.539634 0.516315
0.542971 0.542399 0.519080
0.549701 0.545165 0.521845
0.556430 0.547930 0.524611
0.460218 0.451718 0.464073
0.466947 0.454483 0.466838
0.473676 0.457248 0.469604
0.480405 0.460014 0.472369
0.487134 0.462779 0.475134
0.493864 0.465545 0.477900
0.500593 0.468310 0.480665
0.507322 0.471075 0.483431
0.514051 0.473841 0.486196
0.465647 0.461110 0.469502
0.472376 0.463876 0.472267
0.479105 0.466641 0.475033
0.485834 0.469407 0.477798
0.492564 0.472172 0.480564
0.499293 0.474938 0.483329
0.506022 0.477703 0.486094
0.512751 0.480468 0.488860
0.519481 0.483234 0.491625
0.471076 0.470503 0.474931
0.477805 0.473269 0.477696
0.484534 0.476034 0.480462
0.491263 0.478800 0.483227
0.497993 0.481565 0.485993
0.504722 0.484330 0.488758
0.511451 0.487096 0.491524
0.518180 0.489861 0.494289
0.524910 0.492627 0.497054
0.476505 0.479896 0.480360
0.483234 0.482662 0.483126
0.489963 0.485427 0.485891
0.496693 0.488193 0.488656
0.503422 0.490958 0.491422
0.510151 0.493723 0.494187
0.516880 0.496489 0.496953
0.523610 0.499254 0.499718
0.530339 0.502020 0.502483
0.481934 0.489289 0.485789
0.488663 0.492055 0.488555
0.495392 0.494820 0.491320
0.502122 0.497585 0.494085
0.508851 0.500351 0.496851
0.515580 0.503116 0.499616
0.522309 0.505882 0.502382
0.529039 0.508647 0.505147
0.535768 0.511413 0.507913
0.487363 0.498682 0.491218
0.494092 0.501448 0.493984
0.500822 0.504213 0.496749
0.507551 0.506978 0.499515
0.514280 0.509744 0.502280
0.521009 0.512509 0.505045
0.527738 0.515275 0.507811
0.534468 0.518040 0.510576
0.541197 0.520806 0.513342
0.492792 0.508075 0.496647
0.499521 0.510840 0.499413
0.506251 0.513606 0.502178
0.512980 0.516371 0.504944
0.519709 0.519137 0.507709
0.526438 0.521902 0.510475
0.533168 0.524668 0.513240
0.539897 0.527433 0.516005
0.546626 0.530198 0.518771
0.498221 0.517468 0.502077
0.504951 0.520233 0.504842
0.511680 0.522999 0.507607
0.518409 0.525764 0.510373
0.525138 0.528530 0.513138
0.531867 0.531295 0.515904
0.538597 0.534061 0.518669
0.545326 0.536826 0.521434
0.552055 0.539591 0.524200
0.503650 0.526861 0.507506
0.510380 0.529626 0.510271
0.517109 0.532392 0.513036
0.523838 0.535157 0.515802
0.530567 0.537923 0.518567
0.537297 0.540688 0.521333
0.544026 0.543453 0.524098
0.550755 0.546219 0.526864
0.557484 0.548984 0.529629
0.461272 0.452772 0.469091
0.468001 0.455537 0.471856
0.474730 0.458303 0.474622
0.481460 0.461068 0.477387
0.488189 0.463834 0.480153
0.494918 0.466599 0.482918
0.501647 0.469364 0.485684
0.508377 0.472130 0.488449
0.515106 0.474895 0.491214
0.466701 0.462165 0.474520
0.473430 0.464930 0.477285
0.480159 0.467696 0.480051
0.486889 0.470461 0.482816
0.493618 0.473226 0.485582
0.500347 0.475992 0.488347
0.507076 0.478757 0.491113
0.513806 0.481523 0.493878
0.520535 0.484288 0.496643
0.472130 0.471558 0.479949
0.478859 0.474323 0.482715
0.485589 0.477089 0.485480
0.492318 0.479854 0.488245
0.499047 0.482619 0.491011
0.505776 0.485385 0.493776
0.512506 0.488150 0.496542
0.519235 0.490916 0.499307
0.525964 0.493681 0.502073
0.477559 0.480951 0.485378
0.484288 0.483716 0.488144
0.491018 0.486482 0.490909
0.497747 0.489247 0.493675
0.504476 0.492012 0.496440
0.511205 0.494778 0.499205
0.517935 0.497543 0.501971
0.524664 0.500309 0.504736
0.531393 0.503074 0.507502
0.482988 0.490344 0.490807
0.489718 0.493109 0.493573
0.496447 0.495874 0.496338
0.503176 0.498640 0.499104
0.509905 0.501405 0.501869
0.516635 0.504171 0.504635
0.523364 0.506936 0.507400
0.530093 0.509702 0.510165
0.536822 0.512467 0.512931
0.488417 0.499737 0.496237
0.495147 0.502502 0.499002
0.501876 0.505267 0.501767
0.508605 0.508033 0.504533
0.515334 0.510798 0.507298
0.522064 0.513564 0.510064
0.528793 0.516329 0.512829
0.535522 0.519094 0.515594
0.542251 0.521860 0.518360
0.493847 0.509129 0.501666
0.500576 0.511895 0.504431
0.507305 0.514660 0.507196
0.514034 0.517426 0.509962
0.520763 0.520191 0.512727
0.527493 0.522957 0.515493
0.534222 0.525722 0.518258
0.540951 0.528487 0.521024
0.547680 0.531253 0.523789
0.499276 0.518522 0.507095
0.506005 0.521288 0.509860
0.512734 0.524053 0.512626
0.519463 0.526819 0.515391
0.526193 0.529584 0.518156
0.532922 0.532349 0.520922
0.539651 0.535115 0.523687
0.546380 0.537880 0.526453
0.553110 0.540646 0.529218
0.504705 0.527915 0.512524
0.511434 0.530681 0.515289
0.518163 0.533446 0.518055
0.524892 0.536212 0.520820
0.531622 0.538977 0.523586
0.538351 0.541742 0.526351
0.545080 0.544508 0.529116
0.551809 0.547273 0.531882
0.558539 0.550039 0.534647
0.462326 0.453826 0.474109
0.469055 0.456592 0.476875
0.475785 0.459357 0.479640
0.482514 0.462123 0.482405
0.489243 0.464888 0.485171
0.495972 0.467653 0.487936
0.502702 0.470419 0.490702
0.509431 0.473184 0.493467
0.516160 0.475950 0.496233
0.467755 0.463219 0.479538
0.474485 0.465985 0.482304
0.481214 0.468750 0.485069
0.487943 0.471515 0.487835
0.494672 0.474281 0.490600
0.501402 0.477046 0.493365
0.508131 0.479812 0.496131
0.514860 0.482577 0.498896
0.521589 0.485343 0.501662
0.473184 0.472612 0.484967
0.479914 0.475378 0.487733
0.486643 0.478143 0.490498
0.493372 0.480908 0.493264
0.500101 0.483674 0.496029
0.506831 0.486439 0.498794
0.513560 0.489205 0.501560
0.520289 0.491970 0.504325
0.527018 0.494735 0.507091
0.478614 0.482005 0.490396
0.485343 0.484770 0.493162
0.492072 0.487536 0.495927
0.498801 0.490301 0.498693
0.505531 0.493067 0.501458
0.512260 0.495832 0.504224
0.518989 0.498598 0.506989
0.525718 0.501363 0.509754
0.532448 0.504128 0.512520
0.484043 0.491398 0.495826
0.490772 0.494163 0.498591
0.497501 0.496929 0.501356
0.504230 0.499694 0.504122
0.510960 0.502460 0.506887
0.517689 0.505225 0.509653
0.524418 0.507990 0.512418
0.531147 0.510756 0.515184
0.537877 0.513521 0.517949
0.489472 0.500791 0.501255
0.496201 0.503556 0.504020
0.502930 0.506322 0.506786
0.509660 0.509087 0.509551
0.516389 0.511853 0.512316
0.523118 0.514618 0.515082
0.529847 0.517383 0.517847
0.536576 0.520149 0.520613
0.543306 0.522914 0.523378
0.494901 0.510184 0.506684
0.501630 0.512949 0.509449
0.508359 0.515715 0.512215
0.515089 0.518480 0.514980
0.521818 0.521246 0.517746
0.528547 0.524011 0.520511
0.535276 0.526776 0.523276
0.542006 0.529542 0.526042
0.548735 0.532307 0.528807
0.500330 0.519577 0.512113
0.507059 0.522342 0.514878
0.513788 0.525108 0.517644
0.520518 0.527873 0.520409
0.527247 0.530638 0.523175
0.533976 0.533404 0.525940
0.540705 0.536169 0.528705
0.547435 0.538935 0.531471
0.554164 0.541700 0.534236
0.505759 0.528970 0.517542
0.512488 0.531735 0.520307
0.519218 0.534501 0.523073
0.525947 0.537266 0.525838
0.532676 0.540031 0.528604
0.539405 0.542797 0.531369
0.546135 0.545562 0.534135
0.552864 0.548328 0.536900
0.559593 0.551093 0.539665
0.463381 0.454881 0.479127
0.470110 0.457646 0.481893
0.476839 0.460411 0.484658
0.483568 0.463177 0.487424
0.490298 0.465942 0.490189
0.497027 0.468708 0.492954
0.503756 0.471473 0.495720
0.510485 0.474239 0.498485
0.517215 0.477004 0.501251
0.468810 0.464274 0.484556
0.475539 0.467039 0.487322
0.482268 0.469804 0.490087
0.488997 0.472570 0.492853
0.495727 0.475335 0.495618
0.502456 0.478101 0.498384
0.509185 0.480866 0.501149
0.515914 0.483632 0.503914
0.522644 0.486397 0.506680
0.474239 0.473666 0.489986
0.480968 0.476432 0.492751
0.487697 0.479197 0.495516
0.494427 0.481963 0.498282
0.501156 0.484728 0.501047
0.507885 0.487494 0.503813
0.514614 0.490259 0.506578
0.521344 0.493024 0.509344
0.528073 0.495790 0.512109
0.479668 0.483059 0.495415
0.486397 0.485825 0.498180
0.493126 0.488590 0.500946
0.499856 0.491356 0.503711
0.506585 0.494121 0.506476
0.513314 0.496887 0.509242
0.520043 0.499652 0.512007
0.526773 0.502417 0.514773
0.533502 0.505183 0.517538
0.485097 0.492452 0.500844
0.491826 0.495218 0.503609
0.498556 0.497983 0.506375
0.505285 0.500749 0.509140
0.512014 0.503514 0.511905
0.518743 0.506279 0.514671
0.525473 0.509045 0.517436
0.532202 0.511810 0.520202
0.538931 0.514576 0.522967
0.490526 0.501845 0.506273
0.497255 0.504611 0.509038
0.503985 0.507376 0.511804
0.510714 0.510142 0.514569
0.517443 0.512907 0.517335
0.524172 0.515672 0.520100
0.530902 0.518438 0.522865
0.537631 0.521203 0.525631
0.544360 0.523969 0.528396
0.495955 0.511238 0.511702
0.502685 0.514004 0.514467
0.509414 0.516769 0.517233
0.516143 0.519534 0.519998
0.522872 0.522300 0.522764
0.529601 0.525065 0.525529
0.536331 0.527831 0.528295
0.543060 0.530596 0.531060
0.549789 0.533362 0.533825
0.501384 0.520631 0.517131
0.508114 0.523397 0.519897
0.514843 0.526162 0.522662
0.521572 0.528927 0.525427
0.528301 0.531693 0.528193
0.535031 0.534458 0.530958
0.541760 0.537224 0.533724
0.548489 0.539989 0.536489
0.555218 0.542755 0.539255
0.506813 0.530024 0.522560
0.513543 0.532789 0.525326
0.520272 0.535555 0.528091
0.527001 0.538320 0.530856
0.533730 0.541086 0.533622
0.540460 0.543851 0.536387
0.547189 0.546617 0.539153
0.553918 0.549382 0.541918
0.560647 0.552147 0.544684
0.464435 0.455935 0.484146
0.471164 0.458700 0.486911
0.477893 0.461466 0.489676
0.484623 0.464231 0.492442
0.491352 0.466997 0.495207
0.498081 0.469762 0.497973
0.504810 0.472528 0.500738
0.511540 0.475293 0.503504
0.518269 0.478058 0.506269
0.469864 0.465328 0.489575
0.476593 0.468093 0.492340
0.483323 0.470859 0.495106
0.490052 0.473624 0.497871
0.496781 0.476390 0.500636
0.503510 0.479155 0.503402
0.510240 0.481920 0.506167
0.516969 0.484686 0.508933
0.523698 0.487451 0.511698
0.475293 0.474721 0.495004
0.482022 0.477486 0.497769
0.488752 0.480252 0.500535
0.495481 0.483017 0.503300
0.502210 0.485783 0.506065
0.508939 0.488548 0.508831
0.515669 0.491313 0.511596
0.522398 0.494079 0.514362
0.529127 0.496844 0.517127
0.480722 0.484114 0.500433
0.487452 0.486879 0.503198
0.494181 0.489645 0.505964
0.500910 0.492410 0.508729
0.507639 0.495175 0.511495
0.514369 0.497941 0.514260
0.521098 0.500706 0.517025
0.527827 0.503472 0.519791
0.534556 0.506237 0.522556
0.486151 0.493507 0.505862
0.492881 0.496272 0.508627
0.499610 0.499038 0.511393
0.506339 0.501803 0.514158
0.513068 0.504568 0.516924
0.519798 0.507334 0.519689
0.526527 0.510099 0.522455
0.533256 0.512865 0.525220
0.539985 0.515630 0.527985
0.491581 0.502900 0.511291
0.498310 0.505665 0.514057
0.505039 0.508430 0.516822
0.511768 0.511196 0.519587
0.518498 0.513961 0.522353
0.525227 0.516727 0.525118
0.531956 0.519492 0.527884
0.538685 0.522258 0.530649
0.545414 0.525023 0.533414
0.497010 0.512293 0.516720
0.503739 0.515058 0.519486
0.510468 0.517823 0.522251
0.517197 0.520589 0.525016
0.523927 0.523354 0.527782
0.530656 0.526120 0.530547
0.537385 0.528885 0.533313
0.544114 0.531651 0.536078
0.550844 0.534416 0.538844
0.502439 0.521685 0.522149
0.509168 0.524451 0.524915
0.515897 0.527216 0.527680
0.522626 0.529982 0.530446
0.529356 0.532747 0.533211
0.536085 0.535513 0.535976
0.542814 0.538278 0.538742
0.549543 0.541043 0.541507
0.556273 0.543809 0.544273
0.507868 0.531078 0.527578
0.514597 0.533844 0.530344
0.521326 0.536609 0.533109
0.528056 0.539375 0.535875
0.534785 0.542140 0.538640
0.541514 0.544906 0.541406
0.548243 0.547671 0.544171
0.554973 0.550436 0.546936
0.561702 0.553202 0.549702
