shared/src/main/assets/luts/mv_retro_pop.cube
TITLE "DALUR Retro Pop"
LUT_3D_SIZE 17
DOMAIN_MIN 0.0 0.0 0.0
DOMAIN_MAX 1.0 1.0 1.0
0.456000 0.447500 0.444000
0.459365 0.448883 0.445383
0.462729 0.450265 0.446765
0.466094 0.451648 0.448148
0.469458 0.453031 0.449531
0.472823 0.454414 0.450914
0.476188 0.455796 0.452296
0.479552 0.457179 0.453679
0.482917 0.458562 0.455062
0.486282 0.459944 0.456444
0.489646 0.461327 0.457827
0.493011 0.462710 0.459210
0.496375 0.464093 0.460593
0.499740 0.465475 0.461975
0.503105 0.466858 0.463358
0.506469 0.468241 0.464741
0.509834 0.469623 0.466123
0.458715 0.452196 0.446715
0.462079 0.453579 0.448097
0.465444 0.454962 0.449480
0.468808 0.456345 0.450863
0.472173 0.457727 0.452245
0.475538 0.459110 0.453628
0.478902 0.460493 0.455011
0.482267 0.461875 0.456394
0.485632 0.463258 0.457776
0.488996 0.464641 0.459159
0.492361 0.466024 0.460542
0.495725 0.467406 0.461924
0.499090 0.468789 0.463307
0.502455 0.470172 0.464690
0.505819 0.471554 0.466073
0.509184 0.472937 0.467455
0.512548 0.474320 0.468838
0.461429 0.456893 0.449429
0.464794 0.458276 0.450812
0.468158 0.459658 0.452195
0.471523 0.461041 0.453577
0.474888 0.462424 0.454960
0.478252 0.463806 0.456343
0.481617 0.465189 0.457725
0.484981 0.466572 0.459108
0.488346 0.467955 0.460491
0.491711 0.469337 0.461874
0.495075 0.470720 0.463256
0.498440 0.472103 0.464639
0.501805 0.473485 0.466022
0.505169 0.474868 0.467404
0.508534 0.476251 0.468787
0.511898 0.477634 0.470170
0.515263 0.479016 0.471552
0.464144 0.461589 0.452144
0.467508 0.462972 0.453526
0.470873 0.464355 0.454909
0.474238 0.465738 0.456292
0.477602 0.467120 0.457675
0.480967 0.468503 0.459057
0.484331 0.469886 0.460440
0.487696 0.471268 0.461823
0.491061 0.472651 0.463205
0.494425 0.474034 0.464588
0.497790 0.475417 0.465971
0.501154 0.476799 0.467353
0.504519 0.478182 0.468736
0.507884 0.479565 0.470119
0.511248 0.480947 0.471502
0.514613 0.482330 0.472884
0.517978 0.483713 0.474267
0.466858 0.466286 0.454858
0.470223 0.467669 0.456241
0.473587 0.469051 0.457624
0.476952 0.470434 0.459006
0.480317 0.471817 0.460389
0.483681 0.473199 0.461772
0.487046 0.474582 0.463154
0.490411 0.475965 0.464537
0.493775 0.477348 0.465920
0.497140 0.478730 0.467303
0.500504 0.480113 0.468685
0.503869 0.481496 0.470068
0.507234 0.482878 0.471451
0.510598 0.484261 0.472833
0.513963 0.485644 0.474216
0.517328 0.487027 0.475599
0.520692 0.488409 0.476982
0.469573 0.470982 0.457573
0.472937 0.472365 0.458955
0.476302 0.473748 0.460338
0.479667 0.475130 0.461721
0.483031 0.476513 0.463104
0.486396 0.477896 0.464486
0.489760 0.479279 0.465869
0.493125 0.480661 0.467252
0.496490 0.482044 0.468634
0.499854 0.483427 0.470017
0.503219 0.484809 0.471400
0.506584 0.486192 0.472783
0.509948 0.487575 0.474165
0.513313 0.488958 0.475548
0.516677 0.490340 0.476931
0.520042 0.491723 0.478313
0.523407 0.493106 0.479696
0.472287 0.475679 0.460287
0.475652 0.477061 0.461670
0.479017 0.478444 0.463053
0.482381 0.479827 0.464435
0.485746 0.481210 0.465818
0.489110 0.482592 0.467201
0.492475 0.483975 0.468584
0.495840 0.485358 0.469966
0.499204 0.486740 0.471349
0.502569 0.488123 0.472732
0.505934 0.489506 0.474114
0.509298 0.490889 0.475497
0.512663 0.492271 0.476880
0.516027 0.493654 0.478263
0.519392 0.495037 0.479645
0.522757 0.496419 0.481028
0.526121 0.497802 0.482411
0.475002 0.480375 0.463002
0.478367 0.481758 0.464385
0.481731 0.483141 0.465767
0.485096 0.484523 0.467150
0.488460 0.485906 0.468533
0.491825 0.487289 0.469915
0.495190 0.488672 0.471298
0.498554 0.490054 0.472681
0.501919 0.491437 0.474064
0.505283 0.492820 0.475446
0.508648 0.494202 0.476829
0.512013 0.495585 0.478212
0.515377 0.496968 0.479594
0.518742 0.498350 0.480977
0.522107 0.499733 0.482360
0.525471 0.501116 0.483743
0.528836 0.502499 0.485125
0.477716 0.485072 0.465716
0.481081 0.486454 0.467099
0.484446 0.487837 0.468482
0.487810 0.489220 0.469865
0.491175 0.490603 0.471247
0.494540 0.491985 0.472630
0.497904 0.493368 0.474013
0.501269 0.494751 0.475395
0.504633 0.496133 0.476778
0.507998 0.497516 0.478161
0.511363 0.498899 0.479544
0.514727 0.500282 0.480926
0.518092 0.501664 0.482309
0.521457 0.503047 0.483692
0.524821 0.504430 0.485074
0.528186 0.505812 0.486457
0.531550 0.507195 0.487840
0.480431 0.489768 0.468431
0.483796 0.491151 0.469814
0.487160 0.492534 0.471196
0.490525 0.493916 0.472579
0.493889 0.495299 0.473962
0.497254 0.496682 0.475345
0.500619 0.498064 0.476727
0.503983 0.499447 0.478110
0.507348 0.500830 0.479493
0.510713 0.502213 0.480875
0.514077 0.503595 0.482258
0.517442 0.504978 0.483641
0.520806 0.506361 0.485024
0.524171 0.507743 0.486406
0.527536 0.509126 0.487789
0.530900 0.510509 0.489172
0.534265 0.511892 0.490554
0.483146 0.494465 0.471146
0.486510 0.495847 0.472528
0.489875 0.497230 0.473911
0.493239 0.498613 0.475294
0.496604 0.499995 0.476676
0.499969 0.501378 0.478059
0.503333 0.502761 0.479442
0.506698 0.504144 0.480825
0.510063 0.505526 0.482207
0.513427 0.506909 0.483590
0.516792 0.508292 0.484973
0.520156 0.509674 0.486355
0.523521 0.511057 0.487738
0.526886 0.512440 0.489121
0.530250 0.513823 0.490504
0.533615 0.515205 0.491886
0.536979 0.516588 0.493269
0.485860 0.499161 0.473860
0.489225 0.500544 0.475243
0.492589 0.501927 0.476626
0.495954 0.503309 0.478008
0.499319 0.504692 0.479391
0.502683 0.506075 0.480774
0.506048 0.507457 0.482156
0.509412 0.508840 0.483539
0.512777 0.510223 0.484922
0.516142 0.511606 0.486305
0.519506 0.512988 0.487687
0.522871 0.514371 0.489070
0.526236 0.515754 0.490453
0.529600 0.517136 0.491835
0.532965 0.518519 0.493218
0.536329 0.519902 0.494601
0.539694 0.521284 0.495983
0.488575 0.503858 0.476575
0.491939 0.505240 0.477957
0.495304 0.506623 0.479340
0.498669 0.508006 0.480723
0.502033 0.509388 0.482106
0.505398 0.510771 0.483488
0.508762 0.512154 0.484871
0.512127 0.513537 0.486254
0.515492 0.514919 0.487636
0.518856 0.516302 0.489019
0.522221 0.517685 0.490402
0.525585 0.519067 0.491784
0.528950 0.520450 0.493167
0.532315 0.521833 0.494550
0.535679 0.523216 0.495933
0.539044 0.524598 0.497315
0.542409 0.525981 0.498698
0.491289 0.508554 0.479289
0.494654 0.509937 0.480672
0.498018 0.511319 0.482055
0.501383 0.512702 0.483437
0.504748 0.514085 0.484820
0.508112 0.515468 0.486203
0.511477 0.516850 0.487585
0.514842 0.518233 0.488968
0.518206 0.519616 0.490351
0.521571 0.520998 0.491734
0.524935 0.522381 0.493116
0.528300 0.523764 0.494499
0.531665 0.525147 0.495882
0.535029 0.526529 0.497264
0.538394 0.527912 0.498647
0.541759 0.529295 0.500030
0.545123 0.530677 0.501413
0.494004 0.513250 0.482004
0.497368 0.514633 0.483386
0.500733 0.516016 0.484769
0.504098 0.517399 0.486152
0.507462 0.518781 0.487535
0.510827 0.520164 0.488917
0.514191 0.521547 0.490300
0.517556 0.522929 0.491683
0.520921 0.524312 0.493065
0.524285 0.525695 0.494448
0.527650 0.527078 0.495831
0.531015 0.528460 0.497214
0.534379 0.529843 0.498596
0.537744 0.531226 0.499979
0.541108 0.532608 0.501362
0.544473 0.533991 0.502744
0.547838 0.535374 0.504127
0.496718 0.517947 0.484718
0.500083 0.519330 0.486101
0.503448 0.520712 0.487484
0.506812 0.522095 0.488866
0.510177 0.523478 0.490249
0.513541 0.524861 0.491632
0.516906 0.526243 0.493015
0.520271 0.527626 0.494397
0.523635 0.529009 0.495780
0.527000 0.530391 0.497163
0.530365 0.531774 0.498545
0.533729 0.533157 0.499928
0.537094 0.534539 0.501311
0.540458 0.535922 0.502694
0.543823 0.537305 0.504076
0.547188 0.538688 0.505459
0.550552 0.540070 0.506842
0.499433 0.522643 0.487433
0.502797 0.524026 0.488816
0.506162 0.525409 0.490198
0.509527 0.526792 0.491581
0.512891 0.528174 0.492964
0.516256 0.529557 0.494346
0.519621 0.530940 0.495729
0.522985 0.532322 0.497112
0.526350 0.533705 0.498495
0.529714 0.535088 0.499877
0.533079 0.536471 0.501260
0.536444 0.537853 0.502643
0.539808 0.539236 0.504025
0.543173 0.540619 0.505408
0.546538 0.542001 0.506791
0.549902 0.543384 0.508174
0.553267 0.544767 0.509556
0.456527 0.448027 0.446509
0.459892 0.449410 0.447892
0.463256 0.450793 0.449275
0.466621 0.452175 0.450657
0.469986 0.453558 0.452040
0.473350 0.454941 0.453423
0.476715 0.456323 0.454805
0.480080 0.457706 0.456188
0.483444 0.459089 0.457571
0.486809 0.460472 0.458954
0.490173 0.461854 0.460336
0.493538 0.463237 0.461719
0.496903 0.464620 0.463102
0.500267 0.466002 0.464484
0.503632 0.467385 0.465867
0.506996 0.468768 0.467250
0.510361 0.470151 0.468632
0.459242 0.452724 0.449224
0.462606 0.454106 0.450606
0.465971 0.455489 0.451989
0.469336 0.456872 0.453372
0.472700 0.458254 0.454754
0.476065 0.459637 0.456137
0.479429 0.461020 0.457520
0.482794 0.462403 0.458903
0.486159 0.463785 0.460285
0.489523 0.465168 0.461668
0.492888 0.466551 0.463051
0.496253 0.467933 0.464433
0.499617 0.469316 0.465816
0.502982 0.470699 0.467199
0.506346 0.472082 0.468582
0.509711 0.473464 0.469964
0.513076 0.474847 0.471347
0.461956 0.457420 0.451938
0.465321 0.458803 0.453321
0.468686 0.460186 0.454704
0.472050 0.461568 0.456086
0.475415 0.462951 0.457469
0.478779 0.464334 0.458852
0.482144 0.465716 0.460234
0.485509 0.467099 0.461617
0.488873 0.468482 0.463000
0.492238 0.469865 0.464383
0.495603 0.471247 0.465765
0.498967 0.472630 0.467148
0.502332 0.474013 0.468531
0.505696 0.475395 0.469913
0.509061 0.476778 0.471296
0.512426 0.478161 0.472679
0.515790 0.479544 0.474062
0.464671 0.462117 0.454653
0.468035 0.463499 0.456035
0.471400 0.464882 0.457418
0.474765 0.466265 0.458801
0.478129 0.467647 0.460184
0.481494 0.469030 0.461566
0.484859 0.470413 0.462949
0.488223 0.471796 0.464332
0.491588 0.473178 0.465714
0.494952 0.474561 0.467097
0.498317 0.475944 0.468480
0.501682 0.477326 0.469863
0.505046 0.478709 0.471245
0.508411 0.480092 0.472628
0.511776 0.481475 0.474011
0.515140 0.482857 0.475393
0.518505 0.484240 0.476776
0.467385 0.466813 0.457367
0.470750 0.468196 0.458750
0.474115 0.469578 0.460133
0.477479 0.470961 0.461515
0.480844 0.472344 0.462898
0.484209 0.473727 0.464281
0.487573 0.475109 0.465664
0.490938 0.476492 0.467046
0.494302 0.477875 0.468429
0.497667 0.479257 0.469812
0.501032 0.480640 0.471194
0.504396 0.482023 0.472577
0.507761 0.483406 0.473960
0.511125 0.484788 0.475343
0.514490 0.486171 0.476725
0.517855 0.487554 0.478108
0.521219 0.488936 0.479491
0.470100 0.471510 0.460082
0.473465 0.472892 0.461465
0.476829 0.474275 0.462847
0.480194 0.475658 0.464230
0.483558 0.477040 0.465613
0.486923 0.478423 0.466995
0.490288 0.479806 0.468378
0.493652 0.481188 0.469761
0.497017 0.482571 0.471144
0.500382 0.483954 0.472526
0.503746 0.485337 0.473909
0.507111 0.486719 0.475292
0.510475 0.488102 0.476674
0.513840 0.489485 0.478057
0.517205 0.490867 0.479440
0.520569 0.492250 0.480823
0.523934 0.493633 0.482205
0.472815 0.476206 0.462796
0.476179 0.477589 0.464179
0.479544 0.478971 0.465562
0.482908 0.480354 0.466945
0.486273 0.481737 0.468327
0.489638 0.483120 0.469710
0.493002 0.484502 0.471093
0.496367 0.485885 0.472475
0.499731 0.487268 0.473858
0.503096 0.488650 0.475241
0.506461 0.490033 0.476624
0.509825 0.491416 0.478006
0.513190 0.492799 0.479389
0.516555 0.494181 0.480772
0.519919 0.495564 0.482154
0.523284 0.496947 0.483537
0.526648 0.498329 0.484920
0.475529 0.480902 0.465511
0.478894 0.482285 0.466894
0.482258 0.483668 0.468276
0.485623 0.485051 0.469659
0.488988 0.486433 0.471042
0.492352 0.487816 0.472425
0.495717 0.489199 0.473807
0.499081 0.490581 0.475190
0.502446 0.491964 0.476573
0.505811 0.493347 0.477955
0.509175 0.494730 0.479338
0.512540 0.496112 0.480721
0.515905 0.497495 0.482104
0.519269 0.498878 0.483486
0.522634 0.500260 0.484869
0.525998 0.501643 0.486252
0.529363 0.503026 0.487634
0.478244 0.485599 0.468226
0.481608 0.486982 0.469608
0.484973 0.488364 0.470991
0.488337 0.489747 0.472374
0.491702 0.491130 0.473756
0.495067 0.492512 0.475139
0.498431 0.493895 0.476522
0.501796 0.495278 0.477905
0.505161 0.496661 0.479287
0.508525 0.498043 0.480670
0.511890 0.499426 0.482053
0.515254 0.500809 0.483435
0.518619 0.502191 0.484818
0.521984 0.503574 0.486201
0.525348 0.504957 0.487583
0.528713 0.506340 0.488966
0.532078 0.507722 0.490349
0.480958 0.490295 0.470940
0.484323 0.491678 0.472323
0.487687 0.493061 0.473706
0.491052 0.494443 0.475088
0.494417 0.495826 0.476471
0.497781 0.497209 0.477854
0.501146 0.498592 0.479236
0.504511 0.499974 0.480619
0.507875 0.501357 0.482002
0.511240 0.502740 0.483384
0.514604 0.504122 0.484767
0.517969 0.505505 0.486150
0.521334 0.506888 0.487533
0.524698 0.508271 0.488915
0.528063 0.509653 0.490298
0.531427 0.511036 0.491681
0.534792 0.512419 0.493063
0.483673 0.494992 0.473655
0.487037 0.496375 0.475037
0.490402 0.497757 0.476420
0.493767 0.499140 0.477803
0.497131 0.500523 0.479185
0.500496 0.501905 0.480568
0.503860 0.503288 0.481951
0.507225 0.504671 0.483334
0.510590 0.506054 0.484716
0.513954 0.507436 0.486099
0.517319 0.508819 0.487482
0.520684 0.510202 0.488864
0.524048 0.511584 0.490247
0.527413 0.512967 0.491630
0.530777 0.514350 0.493013
0.534142 0.515732 0.494395
0.537507 0.517115 0.495778
0.486387 0.499688 0.476369
0.489752 0.501071 0.477752
0.493117 0.502454 0.479135
0.496481 0.503836 0.480517
0.499846 0.505219 0.481900
0.503210 0.506602 0.483283
0.506575 0.507985 0.484665
0.509940 0.509367 0.486048
0.513304 0.510750 0.487431
0.516669 0.512133 0.488814
0.520033 0.513515 0.490196
0.523398 0.514898 0.491579
0.526763 0.516281 0.492962
0.530127 0.517664 0.494344
0.533492 0.519046 0.495727
0.536857 0.520429 0.497110
0.540221 0.521812 0.498493
0.489102 0.504385 0.479084
0.492466 0.505767 0.480466
0.495831 0.507150 0.481849
0.499196 0.508533 0.483232
0.502560 0.509916 0.484615
0.505925 0.511298 0.485997
0.509290 0.512681 0.487380
0.512654 0.514064 0.488763
0.516019 0.515446 0.490145
0.519383 0.516829 0.491528
0.522748 0.518212 0.492911
0.526113 0.519595 0.494294
0.529477 0.520977 0.495676
0.532842 0.522360 0.497059
0.536207 0.523743 0.498442
0.539571 0.525125 0.499824
0.542936 0.526508 0.501207
0.491816 0.509081 0.481798
0.495181 0.510464 0.483181
0.498546 0.511847 0.484564
0.501910 0.513229 0.485946
0.505275 0.514612 0.487329
0.508639 0.515995 0.488712
0.512004 0.517377 0.490095
0.515369 0.518760 0.491477
0.518733 0.520143 0.492860
0.522098 0.521526 0.494243
0.525463 0.522908 0.495625
0.528827 0.524291 0.497008
0.532192 0.525674 0.498391
0.535556 0.527056 0.499774
0.538921 0.528439 0.501156
0.542286 0.529822 0.502539
0.545650 0.531205 0.503922
0.494531 0.513778 0.484513
0.497896 0.515160 0.485896
0.501260 0.516543 0.487278
0.504625 0.517926 0.488661
0.507989 0.519309 0.490044
0.511354 0.520691 0.491426
0.514719 0.522074 0.492809
0.518083 0.523457 0.494192
0.521448 0.524839 0.495575
0.524813 0.526222 0.496957
0.528177 0.527605 0.498340
0.531542 0.528988 0.499723
0.534906 0.530370 0.501105
0.538271 0.531753 0.502488
0.541636 0.533136 0.503871
0.545000 0.534518 0.505254
0.548365 0.535901 0.506636
0.497246 0.518474 0.487227
0.500610 0.519857 0.488610
0.503975 0.521240 0.489993
0.507339 0.522622 0.491376
0.510704 0.524005 0.492758
0.514069 0.525388 0.494141
0.517433 0.526770 0.495524
0.520798 0.528153 0.496906
0.524162 0.529536 0.498289
0.527527 0.530919 0.499672
0.530892 0.532301 0.501055
0.534256 0.533684 0.502437
0.537621 0.535067 0.503820
0.540986 0.536449 0.505203
0.544350 0.537832 0.506585
0.547715 0.539215 0.507968
0.551079 0.540598 0.509351
0.499960 0.523171 0.489942
0.503325 0.524553 0.491325
0.506689 0.525936 0.492707
0.510054 0.527319 0.494090
0.513419 0.528701 0.495473
0.516783 0.530084 0.496856
0.520148 0.531467 0.498238
0.523512 0.532850 0.499621
0.526877 0.534232 0.501004
0.530242 0.535615 0.502386
0.533606 0.536998 0.503769
0.536971 0.538380 0.505152
0.540336 0.539763 0.506535
0.543700 0.541146 0.507917
0.547065 0.542529 0.509300
0.550429 0.543911 0.510683
0.553794 0.545294 0.512065
0.457054 0.448554 0.449018
0.460419 0.449937 0.450401
0.463784 0.451320 0.451784
0.467148 0.452703 0.453166
0.470513 0.454085 0.454549
0.473877 0.455468 0.455932
0.477242 0.456851 0.457314
0.480607 0.458233 0.458697
0.483971 0.459616 0.460080
0.487336 0.460999 0.461463
0.490701 0.462381 0.462845
0.494065 0.463764 0.464228
0.497430 0.465147 0.465611
0.500794 0.466530 0.466993
0.504159 0.467912 0.468376
0.507524 0.469295 0.469759
0.510888 0.470678 0.471142
0.459769 0.453251 0.451733
0.463134 0.454634 0.453115
0.466498 0.456016 0.454498
0.469863 0.457399 0.455881
0.473227 0.458782 0.457264
0.476592 0.460164 0.458646
0.479957 0.461547 0.460029
0.483321 0.462930 0.461412
0.486686 0.464313 0.462794
0.490051 0.465695 0.464177
0.493415 0.467078 0.465560
0.496780 0.468461 0.466943
0.500144 0.469843 0.468325
0.503509 0.471226 0.469708
0.506874 0.472609 0.471091
0.510238 0.473992 0.472473
0.513603 0.475374 0.473856
0.462483 0.457947 0.454447
0.465848 0.459330 0.455830
0.469213 0.460713 0.457213
0.472577 0.462095 0.458595
0.475942 0.463478 0.459978
0.479307 0.464861 0.461361
0.482671 0.466244 0.462744
0.486036 0.467626 0.464126
0.489400 0.469009 0.465509
0.492765 0.470392 0.466892
0.496130 0.471774 0.468274
0.499494 0.473157 0.469657
0.502859 0.474540 0.471040
0.506224 0.475923 0.472423
0.509588 0.477305 0.473805
0.512953 0.478688 0.475188
0.516317 0.480071 0.476571
0.465198 0.462644 0.457162
0.468563 0.464026 0.458545
0.471927 0.465409 0.459927
0.475292 0.466792 0.461310
0.478657 0.468175 0.462693
0.482021 0.469557 0.464075
0.485386 0.470940 0.465458
0.488750 0.472323 0.466841
0.492115 0.473705 0.468224
0.495480 0.475088 0.469606
0.498844 0.476471 0.470989
0.502209 0.477854 0.472372
0.505573 0.479236 0.473754
0.508938 0.480619 0.475137
0.512303 0.482002 0.476520
0.515667 0.483384 0.477903
0.519032 0.484767 0.479285
0.467913 0.467340 0.459876
0.471277 0.468723 0.461259
0.474642 0.470106 0.462642
0.478006 0.471488 0.464025
0.481371 0.472871 0.465407
0.484736 0.474254 0.466790
0.488100 0.475636 0.468173
0.491465 0.477019 0.469555
0.494830 0.478402 0.470938
0.498194 0.479785 0.472321
0.501559 0.481167 0.473704
0.504923 0.482550 0.475086
0.508288 0.483933 0.476469
0.511653 0.485315 0.477852
0.515017 0.486698 0.479234
0.518382 0.488081 0.480617
0.521747 0.489464 0.482000
0.470627 0.472037 0.462591
0.473992 0.473419 0.463974
0.477356 0.474802 0.465356
0.480721 0.476185 0.466739
0.484086 0.477568 0.468122
0.487450 0.478950 0.469505
0.490815 0.480333 0.470887
0.494179 0.481716 0.472270
0.497544 0.483098 0.473653
0.500909 0.484481 0.475035
0.504273 0.485864 0.476418
0.507638 0.487247 0.477801
0.511003 0.488629 0.479184
0.514367 0.490012 0.480566
0.517732 0.491395 0.481949
0.521096 0.492777 0.483332
0.524461 0.494160 0.484714
0.473342 0.476733 0.465306
0.476706 0.478116 0.466688
0.480071 0.479499 0.468071
0.483436 0.480881 0.469454
0.486800 0.482264 0.470836
0.490165 0.483647 0.472219
0.493529 0.485029 0.473602
0.496894 0.486412 0.474985
0.500259 0.487795 0.476367
0.503623 0.489178 0.477750
0.506988 0.490560 0.479133
0.510353 0.491943 0.480515
0.513717 0.493326 0.481898
0.517082 0.494708 0.483281
0.520446 0.496091 0.484663
0.523811 0.497474 0.486046
0.527176 0.498857 0.487429
0.476056 0.481430 0.468020
0.479421 0.482812 0.469403
0.482785 0.484195 0.470785
0.486150 0.485578 0.472168
0.489515 0.486960 0.473551
0.492879 0.488343 0.474934
0.496244 0.489726 0.476316
0.499609 0.491109 0.477699
0.502973 0.492491 0.479082
0.506338 0.493874 0.480464
0.509702 0.495257 0.481847
0.513067 0.496639 0.483230
0.516432 0.498022 0.484613
0.519796 0.499405 0.485995
0.523161 0.500788 0.487378
0.526526 0.502170 0.488761
0.529890 0.503553 0.490143
0.478771 0.486126 0.470735
0.482135 0.487509 0.472117
0.485500 0.488892 0.473500
0.488865 0.490274 0.474883
0.492229 0.491657 0.476265
0.495594 0.493040 0.477648
0.498959 0.494422 0.479031
0.502323 0.495805 0.480414
0.505688 0.497188 0.481796
0.509052 0.498570 0.483179
0.512417 0.499953 0.484562
0.515782 0.501336 0.485944
0.519146 0.502719 0.487327
0.522511 0.504101 0.488710
0.525875 0.505484 0.490093
0.529240 0.506867 0.491475
0.532605 0.508249 0.492858
0.481485 0.490823 0.473449
0.484850 0.492205 0.474832
0.488215 0.493588 0.476215
0.491579 0.494971 0.477597
0.494944 0.496353 0.478980
0.498308 0.497736 0.480363
0.501673 0.499119 0.481745
0.505038 0.500502 0.483128
0.508402 0.501884 0.484511
0.511767 0.503267 0.485894
0.515132 0.504650 0.487276
0.518496 0.506032 0.488659
0.521861 0.507415 0.490042
0.525225 0.508798 0.491424
0.528590 0.510181 0.492807
0.531955 0.511563 0.494190
0.535319 0.512946 0.495573
0.484200 0.495519 0.476164
0.487565 0.496902 0.477546
0.490929 0.498284 0.478929
0.494294 0.499667 0.480312
0.497658 0.501050 0.481695
0.501023 0.502433 0.483077
0.504388 0.503815 0.484460
0.507752 0.505198 0.485843
0.511117 0.506581 0.487225
0.514482 0.507963 0.488608
0.517846 0.509346 0.489991
0.521211 0.510729 0.491374
0.524575 0.512112 0.492756
0.527940 0.513494 0.494139
0.531305 0.514877 0.495522
0.534669 0.516260 0.496904
0.538034 0.517642 0.498287
0.486914 0.500215 0.478878
0.490279 0.501598 0.480261
0.493644 0.502981 0.481644
0.497008 0.504364 0.483026
0.500373 0.505746 0.484409
0.503738 0.507129 0.485792
0.507102 0.508512 0.487175
0.510467 0.509894 0.488557
0.513831 0.511277 0.489940
0.517196 0.512660 0.491323
0.520561 0.514043 0.492705
0.523925 0.515425 0.494088
0.527290 0.516808 0.495471
0.530655 0.518191 0.496854
0.534019 0.519573 0.498236
0.537384 0.520956 0.499619
0.540748 0.522339 0.501002
0.489629 0.504912 0.481593
0.492994 0.506295 0.482976
0.496358 0.507677 0.484358
0.499723 0.509060 0.485741
0.503088 0.510443 0.487124
0.506452 0.511825 0.488506
0.509817 0.513208 0.489889
0.513181 0.514591 0.491272
0.516546 0.515974 0.492655
0.519911 0.517356 0.494037
0.523275 0.518739 0.495420
0.526640 0.520122 0.496803
0.530004 0.521504 0.498185
0.533369 0.522887 0.499568
0.536734 0.524270 0.500951
0.540098 0.525653 0.502334
0.543463 0.527035 0.503716
0.492344 0.509608 0.484307
0.495708 0.510991 0.485690
0.499073 0.512374 0.487073
0.502437 0.513757 0.488456
0.505802 0.515139 0.489838
0.509167 0.516522 0.491221
0.512531 0.517905 0.492604
0.515896 0.519287 0.493986
0.519261 0.520670 0.495369
0.522625 0.522053 0.496752
0.525990 0.523436 0.498135
0.529354 0.524818 0.499517
0.532719 0.526201 0.500900
0.536084 0.527584 0.502283
0.539448 0.528966 0.503665
0.542813 0.530349 0.505048
0.546178 0.531732 0.506431
0.495058 0.514305 0.487022
0.498423 0.515688 0.488405
0.501787 0.517070 0.489787
0.505152 0.518453 0.491170
0.508517 0.519836 0.492553
0.511881 0.521218 0.493936
0.515246 0.522601 0.495318
0.518610 0.523984 0.496701
0.521975 0.525367 0.498084
0.525340 0.526749 0.499466
0.528704 0.528132 0.500849
0.532069 0.529515 0.502232
0.535434 0.530897 0.503614
0.538798 0.532280 0.504997
0.542163 0.533663 0.506380
0.545527 0.535046 0.507763
0.548892 0.536428 0.509145
0.497773 0.519001 0.489737
0.501137 0.520384 0.491119
0.504502 0.521767 0.492502
0.507867 0.523149 0.493885
0.511231 0.524532 0.495267
0.514596 0.525915 0.496650
0.517960 0.527298 0.498033
0.521325 0.528680 0.499415
0.524690 0.530063 0.500798
0.528054 0.531446 0.502181
0.531419 0.532828 0.503564
0.534784 0.534211 0.504946
0.538148 0.535594 0.506329
0.541513 0.536977 0.507712
0.544877 0.538359 0.509094
0.548242 0.539742 0.510477
0.551607 0.541125 0.511860
0.500487 0.523698 0.492451
0.503852 0.525080 0.493834
0.507216 0.526463 0.495216
0.510581 0.527846 0.496599
0.513946 0.529229 0.497982
0.517310 0.530611 0.499365
0.520675 0.531994 0.500747
0.524040 0.533377 0.502130
0.527404 0.534759 0.503513
0.530769 0.536142 0.504895
0.534133 0.537525 0.506278
0.537498 0.538908 0.507661
0.540863 0.540290 0.509044
0.544227 0.541673 0.510426
0.547592 0.543056 0.511809
0.550957 0.544438 0.513192
0.554321 0.545821 0.514574
0.457582 0.449082 0.451527
0.460946 0.450464 0.452910
0.464311 0.451847 0.454293
0.467675 0.453230 0.455675
0.471040 0.454612 0.457058
0.474405 0.455995 0.458441
0.477769 0.457378 0.459824
0.481134 0.458761 0.461206
0.484499 0.460143 0.462589
0.487863 0.461526 0.463972
0.491228 0.462909 0.465354
0.494592 0.464291 0.466737
0.497957 0.465674 0.468120
0.501322 0.467057 0.469503
0.504686 0.468440 0.470885
0.508051 0.469822 0.472268
0.511415 0.471205 0.473651
0.460296 0.453778 0.454242
