shared/src/main/assets/luts/mv_retro_pop.cube
TITLE "DALUR Retro Pop"
LUT_3D_SIZE 5
DOMAIN_MIN 0.0 0.0 0.0
DOMAIN_MAX 1.0 1.0 1.0
0.456000 0.447500 0.444000
0.469458 0.453031 0.449531
0.482917 0.458562 0.455062
0.496375 0.464093 0.460593
0.509834 0.469623 0.466123
0.466858 0.466286 0.454858
0.480317 0.471817 0.460389
0.493775 0.477348 0.465920
0.507234 0.482878 0.471451
0.520692 0.488409 0.476982
0.477716 0.485072 0.465716
0.491175 0.490603 0.471247
0.504633 0.496133 0.476778
0.518092 0.501664 0.482309
0.531550 0.507195 0.487840
0.488575 0.503858 0.476575
0.502033 0.509388 0.482106
0.515492 0.514919 0.487636
0.528950 0.520450 0.493167
0.542409 0.525981 0.498698
0.499433 0.522643 0.487433
0.512891 0.528174 0.492964
0.526350 0.533705 0.498495
0.539808 0.539236 0.504025
0.553267 0.544767 0.509556
0.458109 0.449609 0.454036
0.471567 0.455140 0.459567
0.485026 0.460670 0.465098
0.498484 0.466201 0.470629
0.511943 0.471732 0.476160
0.468967 0.468395 0.464895
0.482425 0.473925 0.470425
0.495884 0.479456 0.475956
0.509342 0.484987 0.481487
0.522801 0.490518 0.487018
0.479825 0.487180 0.475753
0.493284 0.492711 0.481284
0.506742 0.498242 0.486815
0.520201 0.503773 0.492345
0.533659 0.509304 0.497876
0.490683 0.505966 0.486611
0.504142 0.511497 0.492142
0.517600 0.517028 0.497673
0.531059 0.522559 0.503204
0.544517 0.528090 0.508734
0.501542 0.524752 0.497469
0.515000 0.530283 0.503000
0.528459 0.535814 0.508531
0.541917 0.541345 0.514062
0.555376 0.546876 0.519593
0.460218 0.451718 0.464073
0.473676 0.457248 0.469604
0.487134 0.462779 0.475134
0.500593 0.468310 0.480665
0.514051 0.473841 0.486196
0.471076 0.470503 0.474931
0.484534 0.476034 0.480462
0.497993 0.481565 0.485993
0.511451 0.487096 0.491524
0.524910 0.492627 0.497054
0.481934 0.489289 0.485789
0.495392 0.494820 0.491320
0.508851 0.500351 0.496851
0.522309 0.505882 0.502382
0.535768 0.511413 0.507913
0.492792 0.508075 0.496647
0.506251 0.513606 0.502178
0.519709 0.519137 0.507709
0.533168 0.524668 0.513240
0.546626 0.530198 0.518771
0.503650 0.526861 0.507506
0.517109 0.532392 0.513036
0.530567 0.537923 0.518567
0.544026 0.543453 0.524098
0.557484 0.548984 0.529629
0.462326 0.453826 0.474109
0.475785 0.459357 0.479640
0.489243 0.464888 0.485171
0.502702 0.470419 0.490702
0.516160 0.475950 0.496233
0.473184 0.472612 0.484967
0.486643 0.478143 0.490498
0.500101 0.483674 0.496029
0.513560 0.489205 0.501560
0.527018 0.494735 0.507091
0.484043 0.491398 0.495826
0.497501 0.496929 0.501356
0.510960 0.502460 0.506887
0.524418 0.507990 0.512418
0.537877 0.513521 0.517949
0.494901 0.510184 0.506684
0.508359 0.515715 0.512215
0.521818 0.521246 0.517746
0.535276 0.526776 0.523276
0.548735 0.532307 0.528807
0.505759 0.528970 0.517542
0.519218 0.534501 0.523073
0.532676 0.540031 0.528604
0.546135 0.545562 0.534135
0.559593 0.551093 0.539665
0.464435 0.455935 0.484146
0.477893 0.461466 0.489676
0.491352 0.466997 0.495207
0.504810 0.472528 0.500738
0.518269 0.478058 0.506269
0.475293 0.474721 0.495004
0.488752 0.480252 0.500535
0.502210 0.485783 0.506065
0.515669 0.491313 0.511596
0.529127 0.496844 0.517127
0.486151 0.493507 0.505862
0.499610 0.499038 0.511393
0.513068 0.504568 0.516924
0.526527 0.510099 0.522455
0.539985 0.515630 0.527985
0.497010 0.512293 0.516720
0.510468 0.517823 0.522251
0.523927 0.523354 0.527782
0.537385 0.528885 0.533313
0.550844 0.534416 0.538844
0.507868 0.531078 0.527578
0.521326 0.536609 0.533109
0.534785 0.542140 0.538640
0.548243 0.547671 0.544171
0.561702 0.553202 0.549702
