shared/src/main/assets/luts/mv_silver_noir.cube
TITLE "DALUR Silver Noir"
LUT_3D_SIZE 17
DOMAIN_MIN 0.0 0.0 0.0
DOMAIN_MAX 1.0 1.0 1.0
0.407000 0.410000 0.413000
0.405724 0.415022 0.418022
0.404447 0.420043 0.423043
0.403171 0.425065 0.428065
0.401894 0.430086 0.433086
0.400618 0.435108 0.438108
0.399342 0.440130 0.443130
0.398065 0.445151 0.448151
0.396789 0.450173 0.453173
0.395512 0.455194 0.458194
0.394236 0.460216 0.463216
0.392960 0.465237 0.468237
0.391683 0.470259 0.473259
0.390407 0.475281 0.478281
0.389131 0.480302 0.483302
0.387854 0.485324 0.488324
0.386578 0.490345 0.493345
0.416858 0.413560 0.422858
0.415582 0.418582 0.427880
0.414306 0.423604 0.432902
0.413029 0.428625 0.437923
0.411753 0.433647 0.442945
0.410476 0.438668 0.447966
0.409200 0.443690 0.452988
0.407924 0.448712 0.458010
0.406647 0.453733 0.463031
0.405371 0.458755 0.468053
0.404095 0.463776 0.473074
0.402818 0.468798 0.478096
0.401542 0.473819 0.483117
0.400265 0.478841 0.488139
0.398989 0.483863 0.493161
0.397713 0.488884 0.498182
0.396436 0.493906 0.503204
0.426717 0.417121 0.432717
0.425440 0.422142 0.437738
0.424164 0.427164 0.442760
0.422888 0.432186 0.447782
0.421611 0.437207 0.452803
0.420335 0.442229 0.457825
0.419059 0.447250 0.462846
0.417782 0.452272 0.467868
0.416506 0.457294 0.472890
0.415229 0.462315 0.477911
0.413953 0.467337 0.482933
0.412677 0.472358 0.487954
0.411400 0.477380 0.492976
0.410124 0.482401 0.497997
0.408847 0.487423 0.503019
0.407571 0.492445 0.508041
0.406295 0.497466 0.513062
0.436575 0.420681 0.442575
0.435299 0.425703 0.447597
0.434023 0.430725 0.452618
0.432746 0.435746 0.457640
0.431470 0.440768 0.462662
0.430193 0.445789 0.467683
0.428917 0.450811 0.472705
0.427641 0.455832 0.477726
0.426364 0.460854 0.482748
0.425088 0.465876 0.487770
0.423811 0.470897 0.492791
0.422535 0.475919 0.497813
0.421259 0.480940 0.502834
0.419982 0.485962 0.507856
0.418706 0.490984 0.512877
0.417429 0.496005 0.517899
0.416153 0.501027 0.522921
0.446434 0.424242 0.452434
0.445157 0.429263 0.457455
0.443881 0.434285 0.462477
0.442605 0.439307 0.467498
0.441328 0.444328 0.472520
0.440052 0.449350 0.477542
0.438775 0.454371 0.482563
0.437499 0.459393 0.487585
0.436223 0.464414 0.492606
0.434946 0.469436 0.497628
0.433670 0.474458 0.502650
0.432393 0.479479 0.507671
0.431117 0.484501 0.512693
0.429841 0.489522 0.517714
0.428564 0.494544 0.522736
0.427288 0.499566 0.527757
0.426011 0.504587 0.532779
0.456292 0.427802 0.462292
0.455016 0.432824 0.467314
0.453739 0.437845 0.472335
0.452463 0.442867 0.477357
0.451187 0.447889 0.482378
0.449910 0.452910 0.487400
0.448634 0.457932 0.492422
0.447357 0.462953 0.497443
0.446081 0.467975 0.502465
0.444805 0.472997 0.507486
0.443528 0.478018 0.512508
0.442252 0.483040 0.517530
0.440975 0.488061 0.522551
0.439699 0.493083 0.527573
0.438423 0.498104 0.532594
0.437146 0.503126 0.537616
0.435870 0.508148 0.542637
0.466151 0.431363 0.472151
0.464874 0.436384 0.477172
0.463598 0.441406 0.482194
0.462321 0.446427 0.487215
0.461045 0.451449 0.492237
0.459769 0.456471 0.497258
0.458492 0.461492 0.502280
0.457216 0.466514 0.507302
0.455939 0.471535 0.512323
0.454663 0.476557 0.517345
0.453387 0.481579 0.522366
0.452110 0.486600 0.527388
0.450834 0.491622 0.532410
0.449558 0.496643 0.537431
0.448281 0.501665 0.542453
0.447005 0.506686 0.547474
0.445728 0.511708 0.552496
0.476009 0.434923 0.482009
0.474733 0.439945 0.487031
0.473456 0.444966 0.492052
0.472180 0.449988 0.497074
0.470903 0.455010 0.502095
0.469627 0.460031 0.507117
0.468351 0.465053 0.512138
0.467074 0.470074 0.517160
0.465798 0.475096 0.522182
0.464521 0.480117 0.527203
0.463245 0.485139 0.532225
0.461969 0.490161 0.537246
0.460692 0.495182 0.542268
0.459416 0.500204 0.547290
0.458140 0.505225 0.552311
0.456863 0.510247 0.557333
0.455587 0.515269 0.562354
0.485867 0.438484 0.491867
0.484591 0.443505 0.496889
0.483315 0.448527 0.501911
0.482038 0.453548 0.506932
0.480762 0.458570 0.511954
0.479485 0.463592 0.516975
0.478209 0.468613 0.521997
0.476933 0.473635 0.527018
0.475656 0.478656 0.532040
0.474380 0.483678 0.537062
0.473104 0.488699 0.542083
0.471827 0.493721 0.547105
0.470551 0.498743 0.552126
0.469274 0.503764 0.557148
0.467998 0.508786 0.562170
0.466722 0.513807 0.567191
0.465445 0.518829 0.572213
0.495726 0.442044 0.501726
0.494449 0.447066 0.506747
0.493173 0.452087 0.511769
0.491897 0.457109 0.516791
0.490620 0.462130 0.521812
0.489344 0.467152 0.526834
0.488068 0.472174 0.531855
0.486791 0.477195 0.536877
0.485515 0.482217 0.541899
0.484238 0.487238 0.546920
0.482962 0.492260 0.551942
0.481686 0.497282 0.556963
0.480409 0.502303 0.561985
0.479133 0.507325 0.567006
0.477856 0.512346 0.572028
0.476580 0.517368 0.577050
0.475304 0.522389 0.582071
0.505584 0.445605 0.511584
0.504308 0.450626 0.516606
0.503031 0.455648 0.521627
0.501755 0.460669 0.526649
0.500479 0.465691 0.531671
0.499202 0.470712 0.536692
0.497926 0.475734 0.541714
0.496650 0.480756 0.546735
0.495373 0.485777 0.551757
0.494097 0.490799 0.556779
0.492820 0.495820 0.561800
0.491544 0.500842 0.566822
0.490268 0.505864 0.571843
0.488991 0.510885 0.576865
0.487715 0.515907 0.581886
0.486438 0.520928 0.586908
0.485162 0.525950 0.591930
0.515443 0.449165 0.521443
0.514166 0.454187 0.526464
0.512890 0.459208 0.531486
0.511614 0.464230 0.536507
0.510337 0.469251 0.541529
0.509061 0.474273 0.546551
0.507784 0.479294 0.551572
0.506508 0.484316 0.556594
0.505232 0.489338 0.561615
0.503955 0.494359 0.566637
0.502679 0.499381 0.571659
0.501402 0.504402 0.576680
0.500126 0.509424 0.581702
0.498850 0.514446 0.586723
0.497573 0.519467 0.591745
0.496297 0.524489 0.596766
0.495020 0.529510 0.601788
0.525301 0.452725 0.531301
0.524025 0.457747 0.536323
0.522748 0.462769 0.541344
0.521472 0.467790 0.546366
0.520196 0.472812 0.551387
0.518919 0.477833 0.556409
0.517643 0.482855 0.561431
0.516366 0.487877 0.566452
0.515090 0.492898 0.571474
0.513814 0.497920 0.576495
0.512537 0.502941 0.581517
0.511261 0.507963 0.586539
0.509984 0.512984 0.591560
0.508708 0.518006 0.596582
0.507432 0.523028 0.601603
0.506155 0.528049 0.606625
0.504879 0.533071 0.611646
0.535160 0.456286 0.541160
0.533883 0.461307 0.546181
0.532607 0.466329 0.551203
0.531330 0.471351 0.556224
0.530054 0.476372 0.561246
0.528778 0.481394 0.566267
0.527501 0.486415 0.571289
0.526225 0.491437 0.576311
0.524948 0.496459 0.581332
0.523672 0.501480 0.586354
0.522396 0.506502 0.591375
0.521119 0.511523 0.596397
0.519843 0.516545 0.601419
0.518566 0.521566 0.606440
0.517290 0.526588 0.611462
0.516014 0.531610 0.616483
0.514737 0.536631 0.621505
0.545018 0.459846 0.551018
0.543742 0.464868 0.556040
0.542465 0.469890 0.561061
0.541189 0.474911 0.566083
0.539912 0.479933 0.571104
0.538636 0.484954 0.576126
0.537360 0.489976 0.581147
0.536083 0.494997 0.586169
0.534807 0.500019 0.591191
0.533530 0.505041 0.596212
0.532254 0.510062 0.601234
0.530978 0.515084 0.606255
0.529701 0.520105 0.611277
0.528425 0.525127 0.616299
0.527149 0.530149 0.621320
0.525872 0.535170 0.626342
0.524596 0.540192 0.631363
0.554876 0.463407 0.560876
0.553600 0.468428 0.565898
0.552324 0.473450 0.570920
0.551047 0.478472 0.575941
0.549771 0.483493 0.580963
0.548494 0.488515 0.585984
0.547218 0.493536 0.591006
0.545942 0.498558 0.596027
0.544665 0.503579 0.601049
0.543389 0.508601 0.606071
0.542113 0.513623 0.611092
0.540836 0.518644 0.616114
0.539560 0.523666 0.621135
0.538283 0.528687 0.626157
0.537007 0.533709 0.631179
0.535731 0.538731 0.636200
0.534454 0.543752 0.641222
0.564735 0.466967 0.570735
0.563458 0.471989 0.575756
0.562182 0.477010 0.580778
0.560906 0.482032 0.585800
0.559629 0.487054 0.590821
0.558353 0.492075 0.595843
0.557076 0.497097 0.600864
0.555800 0.502118 0.605886
0.554524 0.507140 0.610907
0.553247 0.512162 0.615929
0.551971 0.517183 0.620951
0.550695 0.522205 0.625972
0.549418 0.527226 0.630994
0.548142 0.532248 0.636015
0.546865 0.537269 0.641037
0.545589 0.542291 0.646059
0.544313 0.547313 0.651080
0.408915 0.411915 0.408617
0.407638 0.416936 0.413638
0.406362 0.421958 0.418660
0.405085 0.426979 0.423681
0.403809 0.432001 0.428703
0.402533 0.437023 0.433725
0.401256 0.442044 0.438746
0.399980 0.447066 0.443768
0.398703 0.452087 0.448789
0.397427 0.457109 0.453811
0.396151 0.462130 0.458832
0.394874 0.467152 0.463854
0.393598 0.472174 0.468876
0.392322 0.477195 0.473897
0.391045 0.482217 0.478919
0.389769 0.487238 0.483940
0.388492 0.492260 0.488962
0.418773 0.415475 0.418475
0.417497 0.420497 0.423497
0.416220 0.425518 0.428518
0.414944 0.430540 0.433540
0.413667 0.435561 0.438561
0.412391 0.440583 0.443583
0.411115 0.445605 0.448605
0.409838 0.450626 0.453626
0.408562 0.455648 0.458648
0.407286 0.460669 0.463669
0.406009 0.465691 0.468691
0.404733 0.470712 0.473712
0.403456 0.475734 0.478734
0.402180 0.480756 0.483756
0.400904 0.485777 0.488777
0.399627 0.490799 0.493799
0.398351 0.495820 0.498820
0.428631 0.419035 0.428333
0.427355 0.424057 0.433355
0.426079 0.429079 0.438377
0.424802 0.434100 0.443398
0.423526 0.439122 0.448420
0.422249 0.444143 0.453441
0.420973 0.449165 0.458463
0.419697 0.454187 0.463485
0.418420 0.459208 0.468506
0.417144 0.464230 0.473528
0.415868 0.469251 0.478549
0.414591 0.474273 0.483571
0.413315 0.479294 0.488592
0.412038 0.484316 0.493614
0.410762 0.489338 0.498636
0.409486 0.494359 0.503657
0.408209 0.499381 0.508679
0.438490 0.422596 0.438192
0.437213 0.427618 0.443213
0.435937 0.432639 0.448235
0.434661 0.437661 0.453257
0.433384 0.442682 0.458278
0.432108 0.447704 0.463300
0.430832 0.452725 0.468321
0.429555 0.457747 0.473343
0.428279 0.462769 0.478365
0.427002 0.467790 0.483386
0.425726 0.472812 0.488408
0.424450 0.477833 0.493429
0.423173 0.482855 0.498451
0.421897 0.487877 0.503472
0.420620 0.492898 0.508494
0.419344 0.497920 0.513516
0.418068 0.502941 0.518537
0.448348 0.426156 0.448050
0.447072 0.431178 0.453072
0.445796 0.436200 0.458093
0.444519 0.441221 0.463115
0.443243 0.446243 0.468137
0.441966 0.451264 0.473158
0.440690 0.456286 0.478180
0.439414 0.461307 0.483201
0.438137 0.466329 0.488223
0.436861 0.471351 0.493245
0.435584 0.476372 0.498266
0.434308 0.481394 0.503288
0.433032 0.486415 0.508309
0.431755 0.491437 0.513331
0.430479 0.496459 0.518352
0.429202 0.501480 0.523374
0.427926 0.506502 0.528396
0.458207 0.429717 0.457909
0.456930 0.434738 0.462930
0.455654 0.439760 0.467952
0.454378 0.444782 0.472973
0.453101 0.449803 0.477995
0.451825 0.454825 0.483017
0.450548 0.459846 0.488038
0.449272 0.464868 0.493060
0.447996 0.469890 0.498081
0.446719 0.474911 0.503103
0.445443 0.479933 0.508125
0.444166 0.484954 0.513146
0.442890 0.489976 0.518168
0.441614 0.494997 0.523189
0.440337 0.500019 0.528211
0.439061 0.505041 0.533232
0.437784 0.510062 0.538254
0.468065 0.433277 0.467767
0.466789 0.438299 0.472789
0.465512 0.443320 0.477810
0.464236 0.448342 0.482832
0.462960 0.453364 0.487854
0.461683 0.458385 0.492875
0.460407 0.463407 0.497897
0.459130 0.468428 0.502918
0.457854 0.473450 0.507940
0.456578 0.478472 0.512961
0.455301 0.483493 0.517983
0.454025 0.488515 0.523005
0.452748 0.493536 0.528026
0.451472 0.498558 0.533048
0.450196 0.503579 0.538069
0.448919 0.508601 0.543091
0.447643 0.513623 0.548113
0.477924 0.436838 0.477626
0.476647 0.441859 0.482647
0.475371 0.446881 0.487669
0.474094 0.451903 0.492690
0.472818 0.456924 0.497712
0.471542 0.461946 0.502734
0.470265 0.466967 0.507755
0.468989 0.471989 0.512777
0.467712 0.477010 0.517798
0.466436 0.482032 0.522820
0.465160 0.487054 0.527841
0.463883 0.492075 0.532863
0.462607 0.497097 0.537885
0.461331 0.502118 0.542906
0.460054 0.507140 0.547928
0.458778 0.512162 0.552949
0.457501 0.517183 0.557971
0.487782 0.440398 0.487484
0.486506 0.445420 0.492506
0.485229 0.450441 0.497527
0.483953 0.455463 0.502549
0.482676 0.460485 0.507570
0.481400 0.465506 0.512592
0.480124 0.470528 0.517614
0.478847 0.475549 0.522635
0.477571 0.480571 0.527657
0.476294 0.485592 0.532678
0.475018 0.490614 0.537700
0.473742 0.495636 0.542721
0.472465 0.500657 0.547743
0.471189 0.505679 0.552765
0.469913 0.510700 0.557786
0.468636 0.515722 0.562808
0.467360 0.520744 0.567829
0.497640 0.443959 0.497342
0.496364 0.448980 0.502364
0.495088 0.454002 0.507386
0.493811 0.459023 0.512407
0.492535 0.464045 0.517429
0.491258 0.469067 0.522450
0.489982 0.474088 0.527472
0.488706 0.479110 0.532494
0.487429 0.484131 0.537515
0.486153 0.489153 0.542537
0.484877 0.494175 0.547558
0.483600 0.499196 0.552580
0.482324 0.504218 0.557601
0.481047 0.509239 0.562623
0.479771 0.514261 0.567645
0.478495 0.519282 0.572666
0.477218 0.524304 0.577688
0.507499 0.447519 0.507201
0.506222 0.452541 0.512222
0.504946 0.457562 0.517244
0.503670 0.462584 0.522266
0.502393 0.467605 0.527287
0.501117 0.472627 0.532309
0.499841 0.477649 0.537330
0.498564 0.482670 0.542352
0.497288 0.487692 0.547374
0.496011 0.492713 0.552395
0.494735 0.497735 0.557417
0.493459 0.502757 0.562438
0.492182 0.507778 0.567460
0.490906 0.512800 0.572481
0.489629 0.517821 0.577503
0.488353 0.522843 0.582525
0.487077 0.527864 0.587546
0.517357 0.451080 0.517059
0.516081 0.456101 0.522081
0.514804 0.461123 0.527102
0.513528 0.466144 0.532124
0.512252 0.471166 0.537146
0.510975 0.476187 0.542167
0.509699 0.481209 0.547189
0.508423 0.486231 0.552210
0.507146 0.491252 0.557232
0.505870 0.496274 0.562254
0.504593 0.501295 0.567275
0.503317 0.506317 0.572297
0.502041 0.511339 0.577318
0.500764 0.516360 0.582340
0.499488 0.521382 0.587361
0.498211 0.526403 0.592383
0.496935 0.531425 0.597405
0.527216 0.454640 0.526918
0.525939 0.459662 0.531939
0.524663 0.464683 0.536961
0.523387 0.469705 0.541982
0.522110 0.474726 0.547004
0.520834 0.479748 0.552026
0.519557 0.484770 0.557047
0.518281 0.489791 0.562069
0.517005 0.494813 0.567090
0.515728 0.499834 0.572112
0.514452 0.504856 0.577134
0.513175 0.509877 0.582155
0.511899 0.514899 0.587177
0.510623 0.519921 0.592198
0.509346 0.524942 0.597220
0.508070 0.529964 0.602241
0.506793 0.534985 0.607263
0.537074 0.458200 0.536776
0.535798 0.463222 0.541798
0.534521 0.468244 0.546819
0.533245 0.473265 0.551841
0.531969 0.478287 0.556862
0.530692 0.483308 0.561884
0.529416 0.488330 0.566906
0.528139 0.493352 0.571927
0.526863 0.498373 0.576949
0.525587 0.503395 0.581970
0.524310 0.508416 0.586992
0.523034 0.513438 0.592014
0.521757 0.518459 0.597035
0.520481 0.523481 0.602057
0.519205 0.528503 0.607078
0.517928 0.533524 0.612100
0.516652 0.538546 0.617121
0.546933 0.461761 0.546635
0.545656 0.466783 0.551656
0.544380 0.471804 0.556678
0.543103 0.476826 0.561699
0.541827 0.481847 0.566721
0.540551 0.486869 0.571743
0.539274 0.491890 0.576764
0.537998 0.496912 0.581786
0.536721 0.501934 0.586807
0.535445 0.506955 0.591829
0.534169 0.511977 0.596850
0.532892 0.516998 0.601872
0.531616 0.522020 0.606894
0.530339 0.527042 0.611915
0.529063 0.532063 0.616937
0.527787 0.537085 0.621958
0.526510 0.542106 0.626980
0.556791 0.465321 0.556493
0.555515 0.470343 0.561515
0.554238 0.475365 0.566536
0.552962 0.480386 0.571558
0.551685 0.485408 0.576579
0.550409 0.490429 0.581601
0.549133 0.495451 0.586623
0.547856 0.500472 0.591644
0.546580 0.505494 0.596666
0.545303 0.510516 0.601687
0.544027 0.515537 0.606709
0.542751 0.520559 0.611730
0.541474 0.525580 0.616752
0.540198 0.530602 0.621774
0.538922 0.535624 0.626795
0.537645 0.540645 0.631817
0.536369 0.545667 0.636838
0.566649 0.468882 0.566351
0.565373 0.473903 0.571373
0.564097 0.478925 0.576395
0.562820 0.483947 0.581416
0.561544 0.488968 0.586438
0.560267 0.493990 0.591459
0.558991 0.499011 0.596481
0.557715 0.504033 0.601503
0.556438 0.509055 0.606524
0.555162 0.514076 0.611546
0.553886 0.519098 0.616567
0.552609 0.524119 0.621589
0.551333 0.529141 0.626610
0.550056 0.534162 0.631632
0.548780 0.539184 0.636654
0.547504 0.544206 0.641675
0.546227 0.549227 0.646697
0.410829 0.413829 0.404233
0.409553 0.418851 0.409255
0.408276 0.423872 0.414276
0.407000 0.428894 0.419298
0.405724 0.433916 0.424320
0.404447 0.438937 0.429341
0.403171 0.443959 0.434363
0.401894 0.448980 0.439384
0.400618 0.454002 0.444406
0.399342 0.459023 0.449427
0.398065 0.464045 0.454449
0.396789 0.469067 0.459471
0.395512 0.474088 0.464492
0.394236 0.479110 0.469514
0.392960 0.484131 0.474535
0.391683 0.489153 0.479557
0.390407 0.494175 0.484579
0.420688 0.417390 0.414092
0.419411 0.422411 0.419113
0.418135 0.427433 0.424135
0.416858 0.432454 0.429156
0.415582 0.437476 0.434178
0.414306 0.442498 0.439200
0.413029 0.447519 0.444221
0.411753 0.452541 0.449243
0.410476 0.457562 0.454264
0.409200 0.462584 0.459286
0.407924 0.467605 0.464307
0.406647 0.472627 0.469329
0.405371 0.477649 0.474351
0.404095 0.482670 0.479372
0.402818 0.487692 0.484394
0.401542 0.492713 0.489415
0.400265 0.497735 0.494437
0.430546 0.420950 0.423950
0.429270 0.425972 0.428972
0.427993 0.430993 0.433993
0.426717 0.436015 0.439015
0.425440 0.441036 0.444036
0.424164 0.446058 0.449058
0.422888 0.451080 0.454080
0.421611 0.456101 0.459101
0.420335 0.461123 0.464123
0.419059 0.466144 0.469144
0.417782 0.471166 0.474166
0.416506 0.476187 0.479187
0.415229 0.481209 0.484209
0.413953 0.486231 0.489231
0.412677 0.491252 0.494252
0.411400 0.496274 0.499274
0.410124 0.501295 0.504295
0.440404 0.424511 0.433809
0.439128 0.429532 0.438830
0.437852 0.434554 0.443852
0.436575 0.439575 0.448873
0.435299 0.444597 0.453895
0.434023 0.449618 0.458916
0.432746 0.454640 0.463938
0.431470 0.459662 0.468960
0.430193 0.464683 0.473981
0.428917 0.469705 0.479003
0.427641 0.474726 0.484024
0.426364 0.479748 0.489046
0.425088 0.484770 0.494068
0.423811 0.489791 0.499089
0.422535 0.494813 0.504111
0.421259 0.499834 0.509132
0.419982 0.504856 0.514154
0.450263 0.428071 0.443667
0.448986 0.433093 0.448689
0.447710 0.438114 0.453710
0.446434 0.443136 0.458732
0.445157 0.448157 0.463753
0.443881 0.453179 0.468775
0.442605 0.458200 0.473796
0.441328 0.463222 0.478818
0.440052 0.468244 0.483840
0.438775 0.473265 0.488861
0.437499 0.478287 0.493883
0.436223 0.483308 0.498904
0.434946 0.488330 0.503926
0.433670 0.493352 0.508948
0.432393 0.498373 0.513969
0.431117 0.503395 0.518991
0.429841 0.508416 0.524012
0.460121 0.431631 0.453525
0.458845 0.436653 0.458547
0.457569 0.441675 0.463569
0.456292 0.446696 0.468590
0.455016 0.451718 0.473612
0.453739 0.456739 0.478633
0.452463 0.461761 0.483655
0.451187 0.466783 0.488676
0.449910 0.471804 0.493698
0.448634 0.476826 0.498720
0.447357 0.481847 0.503741
0.446081 0.486869 0.508763
0.444805 0.491890 0.513784
0.443528 0.496912 0.518806
0.442252 0.501934 0.523828
0.440975 0.506955 0.528849
0.439699 0.511977 0.533871
0.469980 0.435192 0.463384
0.468703 0.440213 0.468405
0.467427 0.445235 0.473427
0.466151 0.450257 0.478449
0.464874 0.455278 0.483470
0.463598 0.460300 0.488492
0.462321 0.465321 0.493513
0.461045 0.470343 0.498535
0.459769 0.475365 0.503556
0.458492 0.480386 0.508578
0.457216 0.485408 0.513600
0.455939 0.490429 0.518621
0.454663 0.495451 0.523643
0.453387 0.500472 0.528664
0.452110 0.505494 0.533686
0.450834 0.510516 0.538708
0.449558 0.515537 0.543729
0.479838 0.438752 0.473242
0.478562 0.443774 0.478264
0.477285 0.448796 0.483285
0.476009 0.453817 0.488307
0.474733 0.458839 0.493329
0.473456 0.463860 0.498350
0.472180 0.468882 0.503372
0.470903 0.473903 0.508393
0.469627 0.478925 0.513415
0.468351 0.483947 0.518436
0.467074 0.488968 0.523458
0.465798 0.493990 0.528480
0.464521 0.499011 0.533501
0.463245 0.504033 0.538523
0.461969 0.509055 0.543544
0.460692 0.514076 0.548566
0.459416 0.519098 0.553588
0.489697 0.442313 0.483101
0.488420 0.447334 0.488122
0.487144 0.452356 0.493144
0.485867 0.457378 0.498165
0.484591 0.462399 0.503187
0.483315 0.467421 0.508209
0.482038 0.472442 0.513230
0.480762 0.477464 0.518252
0.479485 0.482485 0.523273
0.478209 0.487507 0.528295
0.476933 0.492529 0.533316
0.475656 0.497550 0.538338
0.474380 0.502572 0.543360
0.473104 0.507593 0.548381
0.471827 0.512615 0.553403
0.470551 0.517637 0.558424
0.469274 0.522658 0.563446
0.499555 0.445873 0.492959
0.498279 0.450895 0.497981
0.497002 0.455916 0.503002
0.495726 0.460938 0.508024
0.494449 0.465960 0.513045
0.493173 0.470981 0.518067
0.491897 0.476003 0.523089
0.490620 0.481024 0.528110
0.489344 0.486046 0.533132
0.488068 0.491068 0.538153
0.486791 0.496089 0.543175
0.485515 0.501111 0.548196
0.484238 0.506132 0.553218
0.482962 0.511154 0.558240
0.481686 0.516175 0.563261
0.480409 0.521197 0.568283
0.479133 0.526219 0.573304
0.509413 0.449434 0.502817
0.508137 0.454455 0.507839
0.506861 0.459477 0.512861
0.505584 0.464498 0.517882
0.504308 0.469520 0.522904
0.503031 0.474542 0.527925
0.501755 0.479563 0.532947
0.500479 0.484585 0.537969
0.499202 0.489606 0.542990
0.497926 0.494628 0.548012
0.496650 0.499650 0.553033
0.495373 0.504671 0.558055
0.494097 0.509693 0.563076
0.492820 0.514714 0.568098
0.491544 0.519736 0.573120
0.490268 0.524757 0.578141
0.488991 0.529779 0.583163
0.519272 0.452994 0.512676
0.517995 0.458016 0.517697
0.516719 0.463037 0.522719
0.515443 0.468059 0.527741
0.514166 0.473080 0.532762
0.512890 0.478102 0.537784
0.511614 0.483124 0.542805
0.510337 0.488145 0.547827
0.509061 0.493167 0.552849
0.507784 0.498188 0.557870
0.506508 0.503210 0.562892
0.505232 0.508232 0.567913
0.503955 0.513253 0.572935
0.502679 0.518275 0.577957
0.501402 0.523296 0.582978
0.500126 0.528318 0.588000
0.498850 0.533339 0.593021
0.529130 0.456555 0.522534
0.527854 0.461576 0.527556
0.526578 0.466598 0.532578
0.525301 0.471619 0.537599
0.524025 0.476641 0.542621
0.522748 0.481663 0.547642
0.521472 0.486684 0.552664
0.520196 0.491706 0.557685
0.518919 0.496727 0.562707
0.517643 0.501749 0.567729
0.516366 0.506770 0.572750
0.515090 0.511792 0.577772
0.513814 0.516814 0.582793
0.512537 0.521835 0.587815
0.511261 0.526857 0.592837
0.509984 0.531878 0.597858
0.508708 0.536900 0.602880
0.538989 0.460115 0.532393
0.537712 0.465137 0.537414
0.536436 0.470158 0.542436
0.535160 0.475180 0.547458
0.533883 0.480201 0.552479
0.532607 0.485223 0.557501
0.531330 0.490245 0.562522
0.530054 0.495266 0.567544
0.528778 0.500288 0.572565
0.527501 0.505309 0.577587
0.526225 0.510331 0.582609
0.524948 0.515352 0.587630
0.523672 0.520374 0.592652
0.522396 0.525396 0.597673
0.521119 0.530417 0.602695
0.519843 0.535439 0.607717
0.518566 0.540460 0.612738
0.548847 0.463676 0.542251
0.547571 0.468697 0.547273
0.546294 0.473719 0.552294
0.545018 0.478740 0.557316
0.543742 0.483762 0.562338
0.542465 0.488783 0.567359
0.541189 0.493805 0.572381
0.539912 0.498827 0.577402
0.538636 0.503848 0.582424
0.537360 0.508870 0.587445
0.536083 0.513891 0.592467
0.534807 0.518913 0.597489
0.533530 0.523935 0.602510
0.532254 0.528956 0.607532
0.530978 0.533978 0.612553
0.529701 0.538999 0.617575
0.528425 0.544021 0.622597
0.558706 0.467236 0.552110
0.557429 0.472258 0.557131
0.556153 0.477279 0.562153
0.554876 0.482301 0.567174
0.553600 0.487322 0.572196
0.552324 0.492344 0.577218
0.551047 0.497365 0.582239
0.549771 0.502387 0.587261
0.548494 0.507409 0.592282
0.547218 0.512430 0.597304
0.545942 0.517452 0.602325
0.544665 0.522473 0.607347
0.543389 0.527495 0.612369
0.542113 0.532517 0.617390
0.540836 0.537538 0.622412
0.539560 0.542560 0.627433
0.538283 0.547581 0.632455
0.568564 0.470796 0.561968
0.567288 0.475818 0.566990
0.566011 0.480840 0.572011
0.564735 0.485861 0.577033
0.563458 0.490883 0.582054
0.562182 0.495904 0.587076
0.560906 0.500926 0.592098
0.559629 0.505948 0.597119
0.558353 0.510969 0.602141
0.557076 0.515991 0.607162
0.555800 0.521012 0.612184
0.554524 0.526034 0.617205
0.553247 0.531055 0.622227
0.551971 0.536077 0.627249
0.550695 0.541099 0.632270
0.549418 0.546120 0.637292
0.548142 0.551142 0.642313
0.412744 0.415744 0.399850
0.411467 0.420765 0.404871
0.410191 0.425787 0.409893
0.408915 0.430809 0.414915
0.407638 0.435830 0.419936
0.406362 0.440852 0.424958
0.405085 0.445873 0.429979
0.403809 0.450895 0.435001
0.402533 0.455916 0.440023
0.401256 0.460938 0.445044
0.399980 0.465960 0.450066
0.398703 0.470981 0.455087
0.397427 0.476003 0.460109
0.396151 0.481024 0.465130
0.394874 0.486046 0.470152
0.393598 0.491068 0.475174
0.392322 0.496089 0.480195
0.422602 0.419304 0.409708
