shared/src/main/assets/luts/mv_sick_yellow.cube
TITLE "DALUR Sick Yellow"
LUT_3D_SIZE 17
DOMAIN_MIN 0.0 0.0 0.0
DOMAIN_MAX 1.0 1.0 1.0
0.426000 0.427000 0.414000
0.430242 0.429311 0.416311
0.434485 0.431621 0.418621
0.438727 0.433932 0.420932
0.442970 0.436242 0.423242
0.447212 0.438553 0.425553
0.451454 0.440863 0.427863
0.455697 0.443174 0.430174
0.459939 0.445484 0.432484
0.464182 0.447795 0.434795
0.468424 0.450105 0.437105
0.472666 0.452416 0.439416
0.476909 0.454726 0.441726
0.481151 0.457037 0.444037
0.485393 0.459347 0.446347
0.489636 0.461658 0.448658
0.493878 0.463968 0.450968
0.430536 0.433468 0.418536
0.434778 0.435778 0.420847
0.439021 0.438089 0.423157
0.443263 0.440399 0.425468
0.447506 0.442710 0.427778
0.451748 0.445021 0.430089
0.455990 0.447331 0.432399
0.460233 0.449642 0.434710
0.464475 0.451952 0.437020
0.468718 0.454263 0.439331
0.472960 0.456573 0.441641
0.477202 0.458884 0.443952
0.481445 0.461194 0.446262
0.485687 0.463505 0.448573
0.489930 0.465815 0.450883
0.494172 0.468126 0.453194
0.498414 0.470436 0.455504
0.435072 0.439936 0.423072
0.439314 0.442246 0.425383
0.443557 0.444557 0.427693
0.447799 0.446867 0.430004
0.452042 0.449178 0.432314
0.456284 0.451488 0.434625
0.460526 0.453799 0.436935
0.464769 0.456109 0.439246
0.469011 0.458420 0.441556
0.473254 0.460730 0.443867
0.477496 0.463041 0.446177
0.481738 0.465352 0.448488
0.485981 0.467662 0.450798
0.490223 0.469973 0.453109
0.494466 0.472283 0.455419
0.498708 0.474594 0.457730
0.502950 0.476904 0.460040
0.439608 0.446404 0.427608
0.443851 0.448714 0.429919
0.448093 0.451025 0.432229
0.452335 0.453335 0.434540
0.456578 0.455646 0.436850
0.460820 0.457956 0.439161
0.465062 0.460267 0.441471
0.469305 0.462577 0.443782
0.473547 0.464888 0.446092
0.477790 0.467198 0.448403
0.482032 0.469509 0.450713
0.486274 0.471819 0.453024
0.490517 0.474130 0.455334
0.494759 0.476440 0.457645
0.499002 0.478751 0.459955
0.503244 0.481062 0.462266
0.507486 0.483372 0.464576
0.444144 0.452872 0.432144
0.448387 0.455182 0.434455
0.452629 0.457493 0.436765
0.456871 0.459803 0.439076
0.461114 0.462114 0.441386
0.465356 0.464424 0.443697
0.469599 0.466735 0.446007
0.473841 0.469045 0.448318
0.478083 0.471356 0.450628
0.482326 0.473666 0.452939
0.486568 0.475977 0.455249
0.490810 0.478287 0.457560
0.495053 0.480598 0.459870
0.499295 0.482908 0.462181
0.503538 0.485219 0.464491
0.507780 0.487529 0.466802
0.512022 0.489840 0.469112
0.448680 0.459340 0.436680
0.452923 0.461650 0.438991
0.457165 0.463961 0.441301
0.461407 0.466271 0.443612
0.465650 0.468582 0.445922
0.469892 0.470892 0.448233
0.474135 0.473203 0.450543
0.478377 0.475513 0.452854
0.482619 0.477824 0.455164
0.486862 0.480134 0.457475
0.491104 0.482445 0.459785
0.495347 0.484755 0.462096
0.499589 0.487066 0.464406
0.503831 0.489376 0.466717
0.508074 0.491687 0.469027
0.512316 0.493997 0.471338
0.516558 0.496308 0.473649
0.453216 0.465807 0.441216
0.457459 0.468118 0.443527
0.461701 0.470428 0.445837
0.465943 0.472739 0.448148
0.470186 0.475050 0.450458
0.474428 0.477360 0.452769
0.478671 0.479671 0.455079
0.482913 0.481981 0.457390
0.487155 0.484292 0.459700
0.491398 0.486602 0.462011
0.495640 0.488913 0.464321
0.499883 0.491223 0.466632
0.504125 0.493534 0.468942
0.508367 0.495844 0.471253
0.512610 0.498155 0.473563
0.516852 0.500465 0.475874
0.521094 0.502776 0.478185
0.457752 0.472275 0.445752
0.461995 0.474586 0.448063
0.466237 0.476896 0.450373
0.470479 0.479207 0.452684
0.474722 0.481517 0.454994
0.478964 0.483828 0.457305
0.483207 0.486138 0.459615
0.487449 0.488449 0.461926
0.491691 0.490760 0.464236
0.495934 0.493070 0.466547
0.500176 0.495381 0.468857
0.504419 0.497691 0.471168
0.508661 0.500002 0.473478
0.512903 0.502312 0.475789
0.517146 0.504623 0.478100
0.521388 0.506933 0.480410
0.525631 0.509244 0.482721
0.462288 0.478743 0.450288
0.466531 0.481054 0.452599
0.470773 0.483364 0.454909
0.475015 0.485675 0.457220
0.479258 0.487985 0.459530
0.483500 0.490296 0.461841
0.487743 0.492606 0.464151
0.491985 0.494917 0.466462
0.496227 0.497227 0.468772
0.500470 0.499538 0.471083
0.504712 0.501848 0.473393
0.508955 0.504159 0.475704
0.513197 0.506470 0.478015
0.517439 0.508780 0.480325
0.521682 0.511091 0.482636
0.525924 0.513401 0.484946
0.530167 0.515712 0.487257
0.466824 0.485211 0.454824
0.471067 0.487522 0.457135
0.475309 0.489832 0.459445
0.479552 0.492143 0.461756
0.483794 0.494453 0.464066
0.488036 0.496764 0.466377
0.492279 0.499074 0.468687
0.496521 0.501385 0.470998
0.500763 0.503695 0.473308
0.505006 0.506006 0.475619
0.509248 0.508316 0.477930
0.513491 0.510627 0.480240
0.517733 0.512937 0.482551
0.521975 0.515248 0.484861
0.526218 0.517558 0.487172
0.530460 0.519869 0.489482
0.534703 0.522180 0.491793
0.471360 0.491679 0.459360
0.475603 0.493990 0.461671
0.479845 0.496300 0.463981
0.484088 0.498611 0.466292
0.488330 0.500921 0.468602
0.492572 0.503232 0.470913
0.496815 0.505542 0.473223
0.501057 0.507853 0.475534
0.505300 0.510163 0.477845
0.509542 0.512474 0.480155
0.513784 0.514784 0.482466
0.518027 0.517095 0.484776
0.522269 0.519405 0.487087
0.526511 0.521716 0.489397
0.530754 0.524026 0.491708
0.534996 0.526337 0.494018
0.539239 0.528647 0.496329
0.475896 0.498147 0.463896
0.480139 0.500458 0.466207
0.484381 0.502768 0.468517
0.488624 0.505079 0.470828
0.492866 0.507389 0.473138
0.497108 0.509700 0.475449
0.501351 0.512010 0.477760
0.505593 0.514321 0.480070
0.509836 0.516631 0.482381
0.514078 0.518942 0.484691
0.518320 0.521252 0.487002
0.522563 0.523563 0.489312
0.526805 0.525873 0.491623
0.531048 0.528184 0.493933
0.535290 0.530494 0.496244
0.539532 0.532805 0.498554
0.543775 0.535115 0.500865
0.480432 0.504615 0.468432
0.484675 0.506925 0.470743
0.488917 0.509236 0.473053
0.493160 0.511546 0.475364
0.497402 0.513857 0.477675
0.501644 0.516168 0.479985
0.505887 0.518478 0.482296
0.510129 0.520789 0.484606
0.514372 0.523099 0.486917
0.518614 0.525410 0.489227
0.522856 0.527720 0.491538
0.527099 0.530031 0.493848
0.531341 0.532341 0.496159
0.535584 0.534652 0.498469
0.539826 0.536962 0.500780
0.544068 0.539273 0.503090
0.548311 0.541583 0.505401
0.484968 0.511083 0.472968
0.489211 0.513393 0.475279
0.493453 0.515704 0.477590
0.497696 0.518014 0.479900
0.501938 0.520325 0.482211
0.506180 0.522635 0.484521
0.510423 0.524946 0.486832
0.514665 0.527256 0.489142
0.518908 0.529567 0.491453
0.523150 0.531878 0.493763
0.527392 0.534188 0.496074
0.531635 0.536499 0.498384
0.535877 0.538809 0.500695
0.540120 0.541120 0.503005
0.544362 0.543430 0.505316
0.548604 0.545741 0.507626
0.552847 0.548051 0.509937
0.489505 0.517551 0.477505
0.493747 0.519861 0.479815
0.497989 0.522172 0.482126
0.502232 0.524482 0.484436
0.506474 0.526793 0.486747
0.510716 0.529103 0.489057
0.514959 0.531414 0.491368
0.519201 0.533724 0.493678
0.523444 0.536035 0.495989
0.527686 0.538345 0.498299
0.531928 0.540656 0.500610
0.536171 0.542966 0.502920
0.540413 0.545277 0.505231
0.544656 0.547587 0.507541
0.548898 0.549898 0.509852
0.553140 0.552209 0.512162
0.557383 0.554519 0.514473
0.494041 0.524019 0.482041
0.498283 0.526329 0.484351
0.502525 0.528640 0.486662
0.506768 0.530950 0.488972
0.511010 0.533261 0.491283
0.515253 0.535571 0.493593
0.519495 0.537882 0.495904
0.523737 0.540192 0.498214
0.527980 0.542503 0.500525
0.532222 0.544813 0.502835
0.536464 0.547124 0.505146
0.540707 0.549434 0.507456
0.544949 0.551745 0.509767
0.549192 0.554055 0.512077
0.553434 0.556366 0.514388
0.557676 0.558676 0.516698
0.561919 0.560987 0.519009
0.498577 0.530487 0.486577
0.502819 0.532797 0.488887
0.507061 0.535108 0.491198
0.511304 0.537418 0.493508
0.515546 0.539729 0.495819
0.519789 0.542039 0.498129
0.524031 0.544350 0.500440
0.528273 0.546660 0.502750
0.532516 0.548971 0.505061
0.536758 0.551281 0.507371
0.541001 0.553592 0.509682
0.545243 0.555902 0.511992
0.549485 0.558213 0.514303
0.553728 0.560523 0.516613
0.557970 0.562834 0.518924
0.562212 0.565144 0.521234
0.566455 0.567455 0.523545
0.426881 0.427881 0.416813
0.431123 0.430191 0.419123
0.435366 0.432502 0.421434
0.439608 0.434812 0.423744
0.443851 0.437123 0.426055
0.448093 0.439434 0.428365
0.452335 0.441744 0.430676
0.456578 0.444055 0.432986
0.460820 0.446365 0.435297
0.465062 0.448676 0.437607
0.469305 0.450986 0.439918
0.473547 0.453297 0.442229
0.477790 0.455607 0.444539
0.482032 0.457918 0.446850
0.486274 0.460228 0.449160
0.490517 0.462539 0.451471
0.494759 0.464849 0.453781
0.431417 0.434349 0.421349
0.435659 0.436659 0.423659
0.439902 0.438970 0.425970
0.444144 0.441280 0.428280
0.448387 0.443591 0.430591
0.452629 0.445901 0.432901
0.456871 0.448212 0.435212
0.461114 0.450522 0.437522
0.465356 0.452833 0.439833
0.469599 0.455144 0.442144
0.473841 0.457454 0.444454
0.478083 0.459765 0.446765
0.482326 0.462075 0.449075
0.486568 0.464386 0.451386
0.490810 0.466696 0.453696
0.495053 0.469007 0.456007
0.499295 0.471317 0.458317
0.435953 0.440817 0.425885
0.440195 0.443127 0.428195
0.444438 0.445438 0.430506
0.448680 0.447748 0.432816
0.452923 0.450059 0.435127
0.457165 0.452369 0.437437
0.461407 0.454680 0.439748
0.465650 0.456990 0.442059
0.469892 0.459301 0.444369
0.474135 0.461611 0.446680
0.478377 0.463922 0.448990
0.482619 0.466232 0.451301
0.486862 0.468543 0.453611
0.491104 0.470854 0.455922
0.495347 0.473164 0.458232
0.499589 0.475475 0.460543
0.503831 0.477785 0.462853
0.440489 0.447285 0.430421
0.444731 0.449595 0.432731
0.448974 0.451906 0.435042
0.453216 0.454216 0.437352
0.457459 0.456527 0.439663
0.461701 0.458837 0.441974
0.465943 0.461148 0.444284
0.470186 0.463458 0.446595
0.474428 0.465769 0.448905
0.478671 0.468079 0.451216
0.482913 0.470390 0.453526
0.487155 0.472700 0.455837
0.491398 0.475011 0.458147
0.495640 0.477321 0.460458
0.499883 0.479632 0.462768
0.504125 0.481942 0.465079
0.508367 0.484253 0.467389
0.445025 0.453753 0.434957
0.449267 0.456063 0.437267
0.453510 0.458374 0.439578
0.457752 0.460684 0.441889
0.461995 0.462995 0.444199
0.466237 0.465305 0.446510
0.470479 0.467616 0.448820
0.474722 0.469926 0.451131
0.478964 0.472237 0.453441
0.483207 0.474547 0.455752
0.487449 0.476858 0.458062
0.491691 0.479168 0.460373
0.495934 0.481479 0.462683
0.500176 0.483789 0.464994
0.504419 0.486100 0.467304
0.508661 0.488410 0.469615
0.512903 0.490721 0.471925
0.449561 0.460220 0.439493
0.453804 0.462531 0.441804
0.458046 0.464842 0.444114
0.462288 0.467152 0.446425
0.466531 0.469463 0.448735
0.470773 0.471773 0.451046
0.475015 0.474084 0.453356
0.479258 0.476394 0.455667
0.483500 0.478705 0.457977
0.487743 0.481015 0.460288
0.491985 0.483326 0.462598
0.496227 0.485636 0.464909
0.500470 0.487947 0.467219
0.504712 0.490257 0.469530
0.508955 0.492568 0.471840
0.513197 0.494878 0.474151
0.517439 0.497189 0.476461
0.454097 0.466688 0.444029
0.458340 0.468999 0.446340
0.462582 0.471309 0.448650
0.466824 0.473620 0.450961
0.471067 0.475930 0.453271
0.475309 0.478241 0.455582
0.479552 0.480552 0.457892
0.483794 0.482862 0.460203
0.488036 0.485173 0.462513
0.492279 0.487483 0.464824
0.496521 0.489794 0.467134
0.500763 0.492104 0.469445
0.505006 0.494415 0.471755
0.509248 0.496725 0.474066
0.513491 0.499036 0.476376
0.517733 0.501346 0.478687
0.521975 0.503657 0.480997
0.458633 0.473156 0.448565
0.462876 0.475467 0.450876
0.467118 0.477777 0.453186
0.471360 0.480088 0.455497
0.475603 0.482398 0.457807
0.479845 0.484709 0.460118
0.484088 0.487019 0.462428
0.488330 0.489330 0.464739
0.492572 0.491640 0.467049
0.496815 0.493951 0.469360
0.501057 0.496261 0.471670
0.505300 0.498572 0.473981
0.509542 0.500883 0.476291
0.513784 0.503193 0.478602
0.518027 0.505504 0.480912
0.522269 0.507814 0.483223
0.526511 0.510125 0.485533
0.463169 0.479624 0.453101
0.467412 0.481935 0.455412
0.471654 0.484245 0.457722
0.475896 0.486556 0.460033
0.480139 0.488866 0.462343
0.484381 0.491177 0.464654
0.488624 0.493487 0.466964
0.492866 0.495798 0.469275
0.497108 0.498108 0.471585
0.501351 0.500419 0.473896
0.505593 0.502729 0.476206
0.509836 0.505040 0.478517
0.514078 0.507350 0.480827
0.518320 0.509661 0.483138
0.522563 0.511971 0.485448
0.526805 0.514282 0.487759
0.531048 0.516593 0.490069
0.467705 0.486092 0.457637
0.471948 0.488403 0.459948
0.476190 0.490713 0.462258
0.480432 0.493024 0.464569
0.484675 0.495334 0.466879
0.488917 0.497645 0.469190
0.493160 0.499955 0.471500
0.497402 0.502266 0.473811
0.501644 0.504576 0.476121
0.505887 0.506887 0.478432
0.510129 0.509197 0.480742
0.514372 0.511508 0.483053
0.518614 0.513818 0.485363
0.522856 0.516129 0.487674
0.527099 0.518439 0.489984
0.531341 0.520750 0.492295
0.535584 0.523060 0.494605
0.472241 0.492560 0.462173
0.476484 0.494871 0.464484
0.480726 0.497181 0.466794
0.484968 0.499492 0.469105
0.489211 0.501802 0.471415
0.493453 0.504113 0.473726
0.497696 0.506423 0.476036
0.501938 0.508734 0.478347
0.506180 0.511044 0.480657
0.510423 0.513355 0.482968
0.514665 0.515665 0.485278
0.518908 0.517976 0.487589
0.523150 0.520286 0.489899
0.527392 0.522597 0.492210
0.531635 0.524907 0.494520
0.535877 0.527218 0.496831
0.540120 0.529528 0.499141
0.476777 0.499028 0.466709
0.481020 0.501338 0.469020
0.485262 0.503649 0.471330
0.489505 0.505959 0.473641
0.493747 0.508270 0.475951
0.497989 0.510581 0.478262
0.502232 0.512891 0.480572
0.506474 0.515202 0.482883
0.510716 0.517512 0.485193
0.514959 0.519823 0.487504
0.519201 0.522133 0.489814
0.523444 0.524444 0.492125
0.527686 0.526754 0.494435
0.531928 0.529065 0.496746
0.536171 0.531375 0.499056
0.540413 0.533686 0.501367
0.544656 0.535996 0.503678
0.481313 0.505496 0.471245
0.485556 0.507806 0.473556
0.489798 0.510117 0.475866
0.494041 0.512427 0.478177
0.498283 0.514738 0.480487
0.502525 0.517048 0.482798
0.506768 0.519359 0.485108
0.511010 0.521669 0.487419
0.515253 0.523980 0.489729
0.519495 0.526291 0.492040
0.523737 0.528601 0.494350
0.527980 0.530912 0.496661
0.532222 0.533222 0.498971
0.536464 0.535533 0.501282
0.540707 0.537843 0.503593
0.544949 0.540154 0.505903
0.549192 0.542464 0.508214
0.485849 0.511964 0.475781
0.490092 0.514274 0.478092
0.494334 0.516585 0.480402
0.498577 0.518895 0.482713
0.502819 0.521206 0.485023
0.507061 0.523516 0.487334
0.511304 0.525827 0.489644
0.515546 0.528137 0.491955
0.519789 0.530448 0.494265
0.524031 0.532758 0.496576
0.528273 0.535069 0.498886
0.532516 0.537379 0.501197
0.536758 0.539690 0.503508
0.541001 0.542001 0.505818
0.545243 0.544311 0.508129
0.549485 0.546622 0.510439
0.553728 0.548932 0.512750
0.490385 0.518432 0.480317
0.494628 0.520742 0.482628
0.498870 0.523053 0.484938
0.503113 0.525363 0.487249
0.507355 0.527674 0.489559
0.511597 0.529984 0.491870
0.515840 0.532295 0.494180
0.520082 0.534605 0.496491
0.524325 0.536916 0.498801
0.528567 0.539226 0.501112
0.532809 0.541537 0.503423
0.537052 0.543847 0.505733
0.541294 0.546158 0.508044
0.545537 0.548468 0.510354
0.549779 0.550779 0.512665
0.554021 0.553089 0.514975
0.558264 0.555400 0.517286
0.494921 0.524900 0.484853
0.499164 0.527210 0.487164
0.503406 0.529521 0.489474
0.507649 0.531831 0.491785
0.511891 0.534142 0.494095
0.516133 0.536452 0.496406
0.520376 0.538763 0.498716
0.524618 0.541073 0.501027
0.528861 0.543384 0.503338
0.533103 0.545694 0.505648
0.537345 0.548005 0.507959
0.541588 0.550315 0.510269
0.545830 0.552626 0.512580
0.550073 0.554936 0.514890
0.554315 0.557247 0.517201
0.558557 0.559557 0.519511
0.562800 0.561868 0.521822
0.499458 0.531367 0.489389
0.503700 0.533678 0.491700
0.507942 0.535989 0.494010
0.512185 0.538299 0.496321
0.516427 0.540610 0.498631
0.520669 0.542920 0.500942
0.524912 0.545231 0.503253
0.529154 0.547541 0.505563
0.533397 0.549852 0.507874
0.537639 0.552162 0.510184
0.541881 0.554473 0.512495
0.546124 0.556783 0.514805
0.550366 0.559094 0.517116
0.554609 0.561404 0.519426
0.558851 0.563715 0.521737
0.563093 0.566025 0.524047
0.567336 0.568336 0.526358
0.427762 0.428762 0.419626
0.432004 0.431072 0.421936
0.436247 0.433383 0.424247
0.440489 0.435693 0.426557
0.444731 0.438004 0.428868
0.448974 0.440314 0.431178
0.453216 0.442625 0.433489
0.457459 0.444936 0.435799
0.461701 0.447246 0.438110
0.465943 0.449557 0.440420
0.470186 0.451867 0.442731
0.474428 0.454178 0.445041
0.478671 0.456488 0.447352
0.482913 0.458799 0.449662
0.487155 0.461109 0.451973
0.491398 0.463420 0.454283
0.495640 0.465730 0.456594
0.432298 0.435230 0.424162
0.436540 0.437540 0.426472
0.440783 0.439851 0.428783
0.445025 0.442161 0.431093
0.449267 0.444472 0.433404
0.453510 0.446782 0.435714
0.457752 0.449093 0.438025
0.461995 0.451403 0.440335
0.466237 0.453714 0.442646
0.470479 0.456024 0.444956
0.474722 0.458335 0.447267
0.478964 0.460645 0.449577
0.483207 0.462956 0.451888
0.487449 0.465267 0.454198
0.491691 0.467577 0.456509
0.495934 0.469888 0.458819
0.500176 0.472198 0.461130
0.436834 0.441698 0.428698
0.441076 0.444008 0.431008
0.445319 0.446319 0.433319
0.449561 0.448629 0.435629
0.453804 0.450940 0.437940
0.458046 0.453250 0.440250
0.462288 0.455561 0.442561
0.466531 0.457871 0.444871
0.470773 0.460182 0.447182
0.475015 0.462492 0.449492
0.479258 0.464803 0.451803
0.483500 0.467113 0.454113
0.487743 0.469424 0.456424
0.491985 0.471734 0.458734
0.496227 0.474045 0.461045
0.500470 0.476355 0.463355
0.504712 0.478666 0.465666
0.441370 0.448166 0.433234
0.445612 0.450476 0.435544
0.449855 0.452787 0.437855
0.454097 0.455097 0.440165
0.458340 0.457408 0.442476
0.462582 0.459718 0.444786
0.466824 0.462029 0.447097
0.471067 0.464339 0.449407
0.475309 0.466650 0.451718
0.479552 0.468960 0.454028
0.483794 0.471271 0.456339
0.488036 0.473581 0.458649
0.492279 0.475892 0.460960
0.496521 0.478202 0.463270
0.500763 0.480513 0.465581
0.505006 0.482823 0.467892
0.509248 0.485134 0.470202
0.445906 0.454634 0.437770
0.450148 0.456944 0.440080
0.454391 0.459255 0.442391
0.458633 0.461565 0.444701
0.462876 0.463876 0.447012
0.467118 0.466186 0.449322
0.471360 0.468497 0.451633
0.475603 0.470807 0.453943
0.479845 0.473118 0.456254
0.484088 0.475428 0.458564
0.488330 0.477739 0.460875
0.492572 0.480049 0.463185
0.496815 0.482360 0.465496
0.501057 0.484670 0.467807
0.505300 0.486981 0.470117
0.509542 0.489291 0.472428
0.513784 0.491602 0.474738
0.450442 0.461101 0.442306
0.454684 0.463412 0.444616
0.458927 0.465722 0.446927
0.463169 0.468033 0.449237
0.467412 0.470343 0.451548
0.471654 0.472654 0.453858
0.475896 0.474965 0.456169
0.480139 0.477275 0.458479
0.484381 0.479586 0.460790
0.488624 0.481896 0.463100
0.492866 0.484207 0.465411
0.497108 0.486517 0.467722
0.501351 0.488828 0.470032
0.505593 0.491138 0.472343
0.509836 0.493449 0.474653
0.514078 0.495759 0.476964
0.518320 0.498070 0.479274
0.454978 0.467569 0.446842
0.459220 0.469880 0.449152
0.463463 0.472190 0.451463
0.467705 0.474501 0.453773
0.471948 0.476811 0.456084
0.476190 0.479122 0.458394
0.480432 0.481432 0.460705
0.484675 0.483743 0.463015
0.488917 0.486053 0.465326
0.493160 0.488364 0.467637
0.497402 0.490675 0.469947
0.501644 0.492985 0.472258
0.505887 0.495296 0.474568
0.510129 0.497606 0.476879
0.514372 0.499917 0.479189
0.518614 0.502227 0.481500
0.522856 0.504538 0.483810
0.459514 0.474037 0.451378
0.463757 0.476348 0.453688
0.467999 0.478658 0.455999
0.472241 0.480969 0.458309
0.476484 0.483279 0.460620
0.480726 0.485590 0.462930
0.484968 0.487900 0.465241
0.489211 0.490211 0.467552
0.493453 0.492521 0.469862
0.497696 0.494832 0.472173
0.501938 0.497142 0.474483
0.506180 0.499453 0.476794
0.510423 0.501763 0.479104
0.514665 0.504074 0.481415
0.518908 0.506385 0.483725
0.523150 0.508695 0.486036
0.527392 0.511006 0.488346
0.464050 0.480505 0.455914
0.468293 0.482816 0.458224
0.472535 0.485126 0.460535
0.476777 0.487437 0.462845
0.481020 0.489747 0.465156
0.485262 0.492058 0.467467
0.489505 0.494368 0.469777
0.493747 0.496679 0.472088
0.497989 0.498989 0.474398
0.502232 0.501300 0.476709
0.506474 0.503610 0.479019
0.510716 0.505921 0.481330
0.514959 0.508231 0.483640
0.519201 0.510542 0.485951
0.523444 0.512852 0.488261
0.527686 0.515163 0.490572
0.531928 0.517473 0.492882
0.468586 0.486973 0.460450
0.472829 0.489284 0.462760
0.477071 0.491594 0.465071
0.481313 0.493905 0.467382
0.485556 0.496215 0.469692
0.489798 0.498526 0.472003
0.494041 0.500836 0.474313
0.498283 0.503147 0.476624
0.502525 0.505457 0.478934
0.506768 0.507768 0.481245
0.511010 0.510078 0.483555
0.515253 0.512389 0.485866
0.519495 0.514699 0.488176
0.523737 0.517010 0.490487
0.527980 0.519320 0.492797
0.532222 0.521631 0.495108
0.536464 0.523941 0.497418
0.473122 0.493441 0.464986
0.477365 0.495751 0.467297
0.481607 0.498062 0.469607
0.485849 0.500373 0.471918
0.490092 0.502683 0.474228
0.494334 0.504994 0.476539
0.498577 0.507304 0.478849
0.502819 0.509615 0.481160
0.507061 0.511925 0.483470
0.511304 0.514236 0.485781
0.515546 0.516546 0.488091
0.519789 0.518857 0.490402
0.524031 0.521167 0.492712
0.528273 0.523478 0.495023
0.532516 0.525788 0.497333
0.536758 0.528099 0.499644
0.541001 0.530409 0.501954
0.477658 0.499909 0.469522
0.481901 0.502219 0.471833
0.486143 0.504530 0.474143
0.490385 0.506840 0.476454
0.494628 0.509151 0.478764
0.498870 0.511461 0.481075
0.503113 0.513772 0.483385
0.507355 0.516083 0.485696
0.511597 0.518393 0.488006
0.515840 0.520704 0.490317
0.520082 0.523014 0.492627
0.524325 0.525325 0.494938
0.528567 0.527635 0.497248
0.532809 0.529946 0.499559
0.537052 0.532256 0.501869
0.541294 0.534567 0.504180
0.545537 0.536877 0.506490
0.482194 0.506377 0.474058
0.486437 0.508687 0.476369
0.490679 0.510998 0.478679
0.494921 0.513308 0.480990
0.499164 0.515619 0.483300
0.503406 0.517929 0.485611
0.507649 0.520240 0.487921
0.511891 0.522550 0.490232
0.516133 0.524861 0.492542
0.520376 0.527171 0.494853
0.524618 0.529482 0.497163
0.528861 0.531793 0.499474
0.533103 0.534103 0.501784
0.537345 0.536414 0.504095
0.541588 0.538724 0.506405
0.545830 0.541035 0.508716
0.550073 0.543345 0.511026
0.486730 0.512845 0.478594
0.490973 0.515155 0.480905
0.495215 0.517466 0.483215
0.499458 0.519776 0.485526
0.503700 0.522087 0.487836
0.507942 0.524397 0.490147
0.512185 0.526708 0.492457
0.516427 0.529018 0.494768
0.520669 0.531329 0.497078
0.524912 0.533639 0.499389
0.529154 0.535950 0.501699
0.533397 0.538260 0.504010
0.537639 0.540571 0.506320
0.541881 0.542881 0.508631
0.546124 0.545192 0.510941
0.550366 0.547502 0.513252
0.554609 0.549813 0.515562
0.491266 0.519313 0.483130
0.495509 0.521623 0.485441
0.499751 0.523934 0.487751
0.503994 0.526244 0.490062
0.508236 0.528555 0.492372
0.512478 0.530865 0.494683
0.516721 0.533176 0.496993
0.520963 0.535486 0.499304
0.525206 0.537797 0.501614
0.529448 0.540107 0.503925
0.533690 0.542418 0.506235
0.537933 0.544728 0.508546
0.542175 0.547039 0.510856
0.546417 0.549349 0.513167
0.550660 0.551660 0.515477
0.554902 0.553970 0.517788
0.559145 0.556281 0.520098
0.495802 0.525781 0.487666
0.500045 0.528091 0.489977
0.504287 0.530402 0.492287
0.508530 0.532712 0.494598
0.512772 0.535023 0.496908
0.517014 0.537333 0.499219
0.521257 0.539644 0.501529
0.525499 0.541954 0.503840
0.529742 0.544265 0.506150
0.533984 0.546575 0.508461
0.538226 0.548886 0.510771
0.542469 0.551196 0.513082
0.546711 0.553507 0.515392
0.550954 0.555817 0.517703
0.555196 0.558128 0.520013
0.559438 0.560438 0.522324
0.563681 0.562749 0.524634
0.500338 0.532248 0.492202
0.504581 0.534559 0.494513
0.508823 0.536869 0.496823
0.513066 0.539180 0.499134
0.517308 0.541491 0.501444
0.521550 0.543801 0.503755
0.525793 0.546112 0.506065
0.530035 0.548422 0.508376
0.534278 0.550733 0.510686
0.538520 0.553043 0.512997
0.542762 0.555354 0.515307
0.547005 0.557664 0.517618
0.551247 0.559975 0.519928
0.555490 0.562285 0.522239
0.559732 0.564596 0.524549
0.563974 0.566906 0.526860
0.568217 0.569217 0.529171
0.428643 0.429643 0.422438
0.432885 0.431953 0.424749
0.437128 0.434264 0.427059
0.441370 0.436574 0.429370
0.445612 0.438885 0.431680
0.449855 0.441195 0.433991
0.454097 0.443506 0.436302
0.458340 0.445816 0.438612
0.462582 0.448127 0.440923
0.466824 0.450437 0.443233
0.471067 0.452748 0.445544
0.475309 0.455059 0.447854
0.479552 0.457369 0.450165
0.483794 0.459680 0.452475
0.488036 0.461990 0.454786
0.492279 0.464301 0.457096
0.496521 0.466611 0.459407
0.433179 0.436111 0.426974
