shared/src/main/assets/luts/mv_southern_gold.cube
TITLE "DALUR Southern Gold"
LUT_3D_SIZE 17
DOMAIN_MIN 0.0 0.0 0.0
DOMAIN_MAX 1.0 1.0 1.0
0.448000 0.430000 0.412000
0.451120 0.432274 0.414274
0.454239 0.434549 0.416549
0.457359 0.436823 0.418823
0.460478 0.439098 0.421098
0.463598 0.441372 0.423372
0.466718 0.443647 0.425647
0.469837 0.445921 0.427921
0.472957 0.448195 0.430195
0.476077 0.450470 0.432470
0.479196 0.452744 0.434744
0.482316 0.455019 0.437019
0.485435 0.457293 0.439293
0.488555 0.459567 0.441567
0.491675 0.461842 0.443842
0.494794 0.464116 0.446116
0.497914 0.466391 0.448391
0.452465 0.435310 0.416465
0.455585 0.437585 0.418740
0.458704 0.439859 0.421014
0.461824 0.442134 0.423288
0.464944 0.444408 0.425563
0.468063 0.446682 0.427837
0.471183 0.448957 0.430112
0.474302 0.451231 0.432386
0.477422 0.453506 0.434661
0.480542 0.455780 0.436935
0.483661 0.458055 0.439209
0.486781 0.460329 0.441484
0.489901 0.462603 0.443758
0.493020 0.464878 0.446033
0.496140 0.467152 0.448307
0.499259 0.469427 0.450581
0.502379 0.471701 0.452856
0.456930 0.440621 0.420930
0.460050 0.442895 0.423205
0.463170 0.445170 0.425479
0.466289 0.447444 0.427754
0.469409 0.449718 0.430028
0.472528 0.451993 0.432302
0.475648 0.454267 0.434577
0.478768 0.456542 0.436851
0.481887 0.458816 0.439126
0.485007 0.461090 0.441400
0.488126 0.463365 0.443675
0.491246 0.465639 0.445949
0.494366 0.467914 0.448223
0.497485 0.470188 0.450498
0.500605 0.472463 0.452772
0.503725 0.474737 0.455047
0.506844 0.477011 0.457321
0.461395 0.445931 0.425395
0.464515 0.448205 0.427670
0.467635 0.450480 0.429944
0.470754 0.452754 0.432219
0.473874 0.455029 0.434493
0.476994 0.457303 0.436768
0.480113 0.459578 0.439042
0.483233 0.461852 0.441316
0.486352 0.464126 0.443591
0.489472 0.466401 0.445865
0.492592 0.468675 0.448140
0.495711 0.470950 0.450414
0.498831 0.473224 0.452688
0.501950 0.475498 0.454963
0.505070 0.477773 0.457237
0.508190 0.480047 0.459512
0.511309 0.482322 0.461786
0.465861 0.451241 0.429861
0.468980 0.453516 0.432135
0.472100 0.455790 0.434409
0.475219 0.458065 0.436684
0.478339 0.460339 0.438958
0.481459 0.462614 0.441233
0.484578 0.464888 0.443507
0.487698 0.467162 0.445782
0.490818 0.469437 0.448056
0.493937 0.471711 0.450330
0.497057 0.473986 0.452605
0.500176 0.476260 0.454879
0.503296 0.478534 0.457154
0.506416 0.480809 0.459428
0.509535 0.483083 0.461702
0.512655 0.485358 0.463977
0.515774 0.487632 0.466251
0.470326 0.456552 0.434326
0.473445 0.458826 0.436600
0.476565 0.461101 0.438875
0.479685 0.463375 0.441149
0.482804 0.465649 0.443423
0.485924 0.467924 0.445698
0.489043 0.470198 0.447972
0.492163 0.472473 0.450247
0.495283 0.474747 0.452521
0.498402 0.477022 0.454796
0.501522 0.479296 0.457070
0.504642 0.481570 0.459344
0.507761 0.483845 0.461619
0.510881 0.486119 0.463893
0.514000 0.488394 0.466168
0.517120 0.490668 0.468442
0.520240 0.492942 0.470716
0.474791 0.461862 0.438791
0.477911 0.464137 0.441065
0.481030 0.466411 0.443340
0.484150 0.468685 0.445614
0.487269 0.470960 0.447889
0.490389 0.473234 0.450163
0.493509 0.475509 0.452437
0.496628 0.477783 0.454712
0.499748 0.480057 0.456986
0.502867 0.482332 0.459261
0.505987 0.484606 0.461535
0.509107 0.486881 0.463810
0.512226 0.489155 0.466084
0.515346 0.491430 0.468358
0.518466 0.493704 0.470633
0.521585 0.495978 0.472907
0.524705 0.498253 0.475182
0.479256 0.467172 0.443256
0.482376 0.469447 0.445531
0.485495 0.471721 0.447805
0.488615 0.473996 0.450079
0.491735 0.476270 0.452354
0.494854 0.478545 0.454628
0.497974 0.480819 0.456903
0.501093 0.483093 0.459177
0.504213 0.485368 0.461451
0.507333 0.487642 0.463726
0.510452 0.489917 0.466000
0.513572 0.492191 0.468275
0.516691 0.494466 0.470549
0.519811 0.496740 0.472824
0.522931 0.499014 0.475098
0.526050 0.501289 0.477372
0.529170 0.503563 0.479647
0.483721 0.472483 0.447721
0.486841 0.474757 0.449996
0.489961 0.477032 0.452270
0.493080 0.479306 0.454545
0.496200 0.481581 0.456819
0.499319 0.483855 0.459093
0.502439 0.486129 0.461368
0.505559 0.488404 0.463642
0.508678 0.490678 0.465917
0.511798 0.492953 0.468191
0.514917 0.495227 0.470465
0.518037 0.497501 0.472740
0.521157 0.499776 0.475014
0.524276 0.502050 0.477289
0.527396 0.504325 0.479563
0.530515 0.506599 0.481838
0.533635 0.508874 0.484112
0.488186 0.477793 0.452186
0.491306 0.480068 0.454461
0.494426 0.482342 0.456735
0.497545 0.484616 0.459010
0.500665 0.486891 0.461284
0.503785 0.489165 0.463559
0.506904 0.491440 0.465833
0.510024 0.493714 0.468107
0.513143 0.495989 0.470382
0.516263 0.498263 0.472656
0.519383 0.500537 0.474931
0.522502 0.502812 0.477205
0.525622 0.505086 0.479479
0.528741 0.507361 0.481754
0.531861 0.509635 0.484028
0.534981 0.511909 0.486303
0.538100 0.514184 0.488577
0.492652 0.483104 0.456652
0.495771 0.485378 0.458926
0.498891 0.487652 0.461200
0.502010 0.489927 0.463475
0.505130 0.492201 0.465749
0.508250 0.494476 0.468024
0.511369 0.496750 0.470298
0.514489 0.499024 0.472573
0.517609 0.501299 0.474847
0.520728 0.503573 0.477121
0.523848 0.505848 0.479396
0.526967 0.508122 0.481670
0.530087 0.510397 0.483945
0.533207 0.512671 0.486219
0.536326 0.514945 0.488493
0.539446 0.517220 0.490768
0.542565 0.519494 0.493042
0.497117 0.488414 0.461117
0.500236 0.490688 0.463391
0.503356 0.492963 0.465666
0.506476 0.495237 0.467940
0.509595 0.497512 0.470214
0.512715 0.499786 0.472489
0.515834 0.502060 0.474763
0.518954 0.504335 0.477038
0.522074 0.506609 0.479312
0.525193 0.508884 0.481587
0.528313 0.511158 0.483861
0.531433 0.513433 0.486135
0.534552 0.515707 0.488410
0.537672 0.517981 0.490684
0.540791 0.520256 0.492959
0.543911 0.522530 0.495233
0.547031 0.524805 0.497507
0.501582 0.493724 0.465582
0.504702 0.495999 0.467856
0.507821 0.498273 0.470131
0.510941 0.500548 0.472405
0.514060 0.502822 0.474680
0.517180 0.505096 0.476954
0.520300 0.507371 0.479228
0.523419 0.509645 0.481503
0.526539 0.511920 0.483777
0.529658 0.514194 0.486052
0.532778 0.516468 0.488326
0.535898 0.518743 0.490601
0.539017 0.521017 0.492875
0.542137 0.523292 0.495149
0.545257 0.525566 0.497424
0.548376 0.527841 0.499698
0.551496 0.530115 0.501973
0.506047 0.499035 0.470047
0.509167 0.501309 0.472322
0.512286 0.503583 0.474596
0.515406 0.505858 0.476870
0.518526 0.508132 0.479145
0.521645 0.510407 0.481419
0.524765 0.512681 0.483694
0.527884 0.514956 0.485968
0.531004 0.517230 0.488242
0.534124 0.519504 0.490517
0.537243 0.521779 0.492791
0.540363 0.524053 0.495066
0.543482 0.526328 0.497340
0.546602 0.528602 0.499615
0.549722 0.530876 0.501889
0.552841 0.533151 0.504163
0.555961 0.535425 0.506438
0.510512 0.504345 0.474512
0.513632 0.506619 0.476787
0.516751 0.508894 0.479061
0.519871 0.511168 0.481336
0.522991 0.513443 0.483610
0.526110 0.515717 0.485884
0.529230 0.517991 0.488159
0.532350 0.520266 0.490433
0.535469 0.522540 0.492708
0.538589 0.524815 0.494982
0.541708 0.527089 0.497256
0.544828 0.529364 0.499531
0.547948 0.531638 0.501805
0.551067 0.533912 0.504080
0.554187 0.536187 0.506354
0.557306 0.538461 0.508629
0.560426 0.540736 0.510903
0.514977 0.509655 0.478977
0.518097 0.511930 0.481252
0.521217 0.514204 0.483526
0.524336 0.516479 0.485801
0.527456 0.518753 0.488075
0.530575 0.521027 0.490350
0.533695 0.523302 0.492624
0.536815 0.525576 0.494898
0.539934 0.527851 0.497173
0.543054 0.530125 0.499447
0.546174 0.532400 0.501722
0.549293 0.534674 0.503996
0.552413 0.536948 0.506270
0.555532 0.539223 0.508545
0.558652 0.541497 0.510819
0.561772 0.543772 0.513094
0.564891 0.546046 0.515368
0.519443 0.514966 0.483443
0.522562 0.517240 0.485717
0.525682 0.519515 0.487991
0.528801 0.521789 0.490266
0.531921 0.524063 0.492540
0.535041 0.526338 0.494815
0.538160 0.528612 0.497089
0.541280 0.530887 0.499364
0.544399 0.533161 0.501638
0.547519 0.535435 0.503912
0.550639 0.537710 0.506187
0.553758 0.539984 0.508461
0.556878 0.542259 0.510736
0.559998 0.544533 0.513010
0.563117 0.546808 0.515284
0.566237 0.549082 0.517559
0.569356 0.551356 0.519833
0.448867 0.430867 0.413712
0.451987 0.433142 0.415987
0.455106 0.435416 0.418261
0.458226 0.437690 0.420536
0.461346 0.439965 0.422810
0.464465 0.442239 0.425084
0.467585 0.444514 0.427359
0.470704 0.446788 0.429633
0.473824 0.449063 0.431908
0.476944 0.451337 0.434182
0.480063 0.453611 0.436457
0.483183 0.455886 0.438731
0.486303 0.458160 0.441005
0.489422 0.460435 0.443280
0.492542 0.462709 0.445554
0.495661 0.464983 0.447829
0.498781 0.467258 0.450103
0.453332 0.436178 0.418178
0.456452 0.438452 0.420452
0.459572 0.440726 0.422726
0.462691 0.443001 0.425001
0.465811 0.445275 0.427275
0.468930 0.447550 0.429550
0.472050 0.449824 0.431824
0.475170 0.452098 0.434098
0.478289 0.454373 0.436373
0.481409 0.456647 0.438647
0.484528 0.458922 0.440922
0.487648 0.461196 0.443196
0.490768 0.463471 0.445471
0.493887 0.465745 0.447745
0.497007 0.468019 0.450019
0.500127 0.470294 0.452294
0.503246 0.472568 0.454568
0.457797 0.441488 0.422643
0.460917 0.443762 0.424917
0.464037 0.446037 0.427192
0.467156 0.448311 0.429466
0.470276 0.450586 0.431740
0.473396 0.452860 0.434015
0.476515 0.455134 0.436289
0.479635 0.457409 0.438564
0.482754 0.459683 0.440838
0.485874 0.461958 0.443112
0.488994 0.464232 0.445387
0.492113 0.466506 0.447661
0.495233 0.468781 0.449936
0.498352 0.471055 0.452210
0.501472 0.473330 0.454485
0.504592 0.475604 0.456759
0.507711 0.477879 0.459033
0.462263 0.446798 0.427108
0.465382 0.449073 0.429382
0.468502 0.451347 0.431657
0.471621 0.453621 0.433931
0.474741 0.455896 0.436206
0.477861 0.458170 0.438480
0.480980 0.460445 0.440754
0.484100 0.462719 0.443029
0.487220 0.464994 0.445303
0.490339 0.467268 0.447578
0.493459 0.469542 0.449852
0.496578 0.471817 0.452126
0.499698 0.474091 0.454401
0.502818 0.476366 0.456675
0.505937 0.478640 0.458950
0.509057 0.480915 0.461224
0.512176 0.483189 0.463499
0.466728 0.452109 0.431573
0.469847 0.454383 0.433847
0.472967 0.456657 0.436122
0.476087 0.458932 0.438396
0.479206 0.461206 0.440671
0.482326 0.463481 0.442945
0.485445 0.465755 0.445220
0.488565 0.468030 0.447494
0.491685 0.470304 0.449768
0.494804 0.472578 0.452043
0.497924 0.474853 0.454317
0.501044 0.477127 0.456592
0.504163 0.479402 0.458866
0.507283 0.481676 0.461140
0.510402 0.483950 0.463415
0.513522 0.486225 0.465689
0.516642 0.488499 0.467964
0.471193 0.457419 0.436038
0.474313 0.459693 0.438313
0.477432 0.461968 0.440587
0.480552 0.464242 0.442861
0.483671 0.466517 0.445136
0.486791 0.468791 0.447410
0.489911 0.471065 0.449685
0.493030 0.473340 0.451959
0.496150 0.475614 0.454234
0.499269 0.477889 0.456508
0.502389 0.480163 0.458782
0.505509 0.482438 0.461057
0.508628 0.484712 0.463331
0.511748 0.486986 0.465606
0.514868 0.489261 0.467880
0.517987 0.491535 0.470154
0.521107 0.493810 0.472429
0.475658 0.462729 0.440503
0.478778 0.465004 0.442778
0.481897 0.467278 0.445052
0.485017 0.469553 0.447327
0.488137 0.471827 0.449601
0.491256 0.474101 0.451875
0.494376 0.476376 0.454150
0.497495 0.478650 0.456424
0.500615 0.480925 0.458699
0.503735 0.483199 0.460973
0.506854 0.485473 0.463248
0.509974 0.487748 0.465522
0.513093 0.490022 0.467796
0.516213 0.492297 0.470071
0.519333 0.494571 0.472345
0.522452 0.496846 0.474620
0.525572 0.499120 0.476894
0.480123 0.468040 0.444968
0.483243 0.470314 0.447243
0.486363 0.472588 0.449517
0.489482 0.474863 0.451792
0.492602 0.477137 0.454066
0.495721 0.479412 0.456341
0.498841 0.481686 0.458615
0.501961 0.483961 0.460889
0.505080 0.486235 0.463164
0.508200 0.488509 0.465438
0.511319 0.490784 0.467713
0.514439 0.493058 0.469987
0.517559 0.495333 0.472262
0.520678 0.497607 0.474536
0.523798 0.499882 0.476810
0.526917 0.502156 0.479085
0.530037 0.504430 0.481359
0.484588 0.473350 0.449434
0.487708 0.475624 0.451708
0.490828 0.477899 0.453982
0.493947 0.480173 0.456257
0.497067 0.482448 0.458531
0.500187 0.484722 0.460806
0.503306 0.486997 0.463080
0.506426 0.489271 0.465355
0.509545 0.491545 0.467629
0.512665 0.493820 0.469903
0.515785 0.496094 0.472178
0.518904 0.498369 0.474452
0.522024 0.500643 0.476727
0.525143 0.502917 0.479001
0.528263 0.505192 0.481276
0.531383 0.507466 0.483550
0.534502 0.509741 0.485824
0.489054 0.478660 0.453899
0.492173 0.480935 0.456173
0.495293 0.483209 0.458448
0.498412 0.485484 0.460722
0.501532 0.487758 0.462996
0.504652 0.490032 0.465271
0.507771 0.492307 0.467545
0.510891 0.494581 0.469820
0.514011 0.496856 0.472094
0.517130 0.499130 0.474369
0.520250 0.501405 0.476643
0.523369 0.503679 0.478917
0.526489 0.505953 0.481192
0.529609 0.508228 0.483466
0.532728 0.510502 0.485741
0.535848 0.512777 0.488015
0.538967 0.515051 0.490290
0.493519 0.483971 0.458364
0.496638 0.486245 0.460638
0.499758 0.488520 0.462913
0.502878 0.490794 0.465187
0.505997 0.493068 0.467462
0.509117 0.495343 0.469736
0.512236 0.497617 0.472010
0.515356 0.499892 0.474285
0.518476 0.502166 0.476559
0.521595 0.504440 0.478834
0.524715 0.506715 0.481108
0.527835 0.508989 0.483383
0.530954 0.511264 0.485657
0.534074 0.513538 0.487931
0.537193 0.515813 0.490206
0.540313 0.518087 0.492480
0.543433 0.520361 0.494755
0.497984 0.489281 0.462829
0.501104 0.491555 0.465104
0.504223 0.493830 0.467378
0.507343 0.496104 0.469652
0.510462 0.498379 0.471927
0.513582 0.500653 0.474201
0.516702 0.502928 0.476476
0.519821 0.505202 0.478750
0.522941 0.507476 0.481024
0.526060 0.509751 0.483299
0.529180 0.512025 0.485573
0.532300 0.514300 0.487848
0.535419 0.516574 0.490122
0.538539 0.518849 0.492397
0.541659 0.521123 0.494671
0.544778 0.523397 0.496945
0.547898 0.525672 0.499220
0.502449 0.494591 0.467294
0.505569 0.496866 0.469569
0.508688 0.499140 0.471843
0.511808 0.501415 0.474118
0.514928 0.503689 0.476392
0.518047 0.505964 0.478666
0.521167 0.508238 0.480941
0.524286 0.510512 0.483215
0.527406 0.512787 0.485490
0.530526 0.515061 0.487764
0.533645 0.517336 0.490038
0.536765 0.519610 0.492313
0.539884 0.521884 0.494587
0.543004 0.524159 0.496862
0.546124 0.526433 0.499136
0.549243 0.528708 0.501411
0.552363 0.530982 0.503685
0.506914 0.499902 0.471759
0.510034 0.502176 0.474034
0.513153 0.504451 0.476308
0.516273 0.506725 0.478583
0.519393 0.508999 0.480857
0.522512 0.511274 0.483132
0.525632 0.513548 0.485406
0.528752 0.515823 0.487680
0.531871 0.518097 0.489955
0.534991 0.520372 0.492229
0.538110 0.522646 0.494504
0.541230 0.524920 0.496778
0.544350 0.527195 0.499052
0.547469 0.529469 0.501327
0.550589 0.531744 0.503601
0.553708 0.534018 0.505876
0.556828 0.536292 0.508150
0.511379 0.505212 0.476225
0.514499 0.507487 0.478499
0.517619 0.509761 0.480773
0.520738 0.512035 0.483048
0.523858 0.514310 0.485322
0.526977 0.516584 0.487597
0.530097 0.518859 0.489871
0.533217 0.521133 0.492146
0.536336 0.523407 0.494420
0.539456 0.525682 0.496694
0.542576 0.527956 0.498969
0.545695 0.530231 0.501243
0.548815 0.532505 0.503518
0.551934 0.534780 0.505792
0.555054 0.537054 0.508066
0.558174 0.539328 0.510341
0.561293 0.541603 0.512615
0.515845 0.510523 0.480690
0.518964 0.512797 0.482964
0.522084 0.515071 0.485239
0.525203 0.517346 0.487513
0.528323 0.519620 0.489787
0.531443 0.521895 0.492062
0.534562 0.524169 0.494336
0.537682 0.526443 0.496611
0.540801 0.528718 0.498885
0.543921 0.530992 0.501160
0.547041 0.533267 0.503434
0.550160 0.535541 0.505708
0.553280 0.537816 0.507983
0.556400 0.540090 0.510257
0.559519 0.542364 0.512532
0.562639 0.544639 0.514806
0.565758 0.546913 0.517080
0.520310 0.515833 0.485155
0.523429 0.518107 0.487429
0.526549 0.520382 0.489704
0.529669 0.522656 0.491978
0.532788 0.524931 0.494253
0.535908 0.527205 0.496527
0.539027 0.529479 0.498801
0.542147 0.531754 0.501076
0.545267 0.534028 0.503350
0.548386 0.536303 0.505625
0.551506 0.538577 0.507899
0.554625 0.540851 0.510174
0.557745 0.543126 0.512448
0.560865 0.545400 0.514722
0.563984 0.547675 0.516997
0.567104 0.549949 0.519271
0.570224 0.552224 0.521546
0.449734 0.431734 0.415425
0.452854 0.434009 0.417699
0.455974 0.436283 0.419974
0.459093 0.438558 0.422248
0.462213 0.440832 0.424522
0.465332 0.443106 0.426797
0.468452 0.445381 0.429071
0.471572 0.447655 0.431346
0.474691 0.449930 0.433620
0.477811 0.452204 0.435894
0.480930 0.454479 0.438169
0.484050 0.456753 0.440443
0.487170 0.459027 0.442718
0.490289 0.461302 0.444992
0.493409 0.463576 0.447267
0.496529 0.465851 0.449541
0.499648 0.468125 0.451815
0.454200 0.437045 0.419890
0.457319 0.439319 0.422164
0.460439 0.441594 0.424439
0.463558 0.443868 0.426713
0.466678 0.446142 0.428988
0.469798 0.448417 0.431262
0.472917 0.450691 0.433536
0.476037 0.452966 0.435811
0.479156 0.455240 0.438085
0.482276 0.457514 0.440360
0.485396 0.459789 0.442634
0.488515 0.462063 0.444908
0.491635 0.464338 0.447183
0.494754 0.466612 0.449457
0.497874 0.468887 0.451732
0.500994 0.471161 0.454006
0.504113 0.473435 0.456281
0.458665 0.442355 0.424355
0.461784 0.444629 0.426629
0.464904 0.446904 0.428904
0.468023 0.449178 0.431178
0.471143 0.451453 0.433453
0.474263 0.453727 0.435727
0.477382 0.456002 0.438002
0.480502 0.458276 0.440276
0.483622 0.460550 0.442550
0.486741 0.462825 0.444825
0.489861 0.465099 0.447099
0.492980 0.467374 0.449374
0.496100 0.469648 0.451648
0.499220 0.471922 0.453922
0.502339 0.474197 0.456197
0.505459 0.476471 0.458471
0.508578 0.478746 0.460746
0.463130 0.447665 0.428820
0.466249 0.449940 0.431095
0.469369 0.452214 0.433369
0.472489 0.454489 0.435643
0.475608 0.456763 0.437918
0.478728 0.459037 0.440192
0.481847 0.461312 0.442467
0.484967 0.463586 0.444741
0.488087 0.465861 0.447016
0.491206 0.468135 0.449290
0.494326 0.470410 0.451564
0.497446 0.472684 0.453839
0.500565 0.474958 0.456113
0.503685 0.477233 0.458388
0.506804 0.479507 0.460662
0.509924 0.481782 0.462936
0.513044 0.484056 0.465211
0.467595 0.452976 0.433285
0.470715 0.455250 0.435560
0.473834 0.457525 0.437834
0.476954 0.459799 0.440109
0.480073 0.462073 0.442383
0.483193 0.464348 0.444657
0.486313 0.466622 0.446932
0.489432 0.468897 0.449206
0.492552 0.471171 0.451481
0.495671 0.473446 0.453755
0.498791 0.475720 0.456030
0.501911 0.477994 0.458304
0.505030 0.480269 0.460578
0.508150 0.482543 0.462853
0.511270 0.484818 0.465127
0.514389 0.487092 0.467402
0.517509 0.489366 0.469676
0.472060 0.458286 0.437751
0.475180 0.460561 0.440025
0.478299 0.462835 0.442299
0.481419 0.465109 0.444574
0.484539 0.467384 0.446848
0.487658 0.469658 0.449123
0.490778 0.471933 0.451397
0.493897 0.474207 0.453671
0.497017 0.476481 0.455946
0.500137 0.478756 0.458220
0.503256 0.481030 0.460495
0.506376 0.483305 0.462769
0.509495 0.485579 0.465044
0.512615 0.487854 0.467318
0.515735 0.490128 0.469592
0.518854 0.492402 0.471867
0.521974 0.494677 0.474141
0.476525 0.463596 0.442216
0.479645 0.465871 0.444490
0.482765 0.468145 0.446765
0.485884 0.470420 0.449039
0.489004 0.472694 0.451313
0.492123 0.474969 0.453588
0.495243 0.477243 0.455862
0.498363 0.479517 0.458137
0.501482 0.481792 0.460411
0.504602 0.484066 0.462685
0.507721 0.486341 0.464960
0.510841 0.488615 0.467234
0.513961 0.490889 0.469509
0.517080 0.493164 0.471783
0.520200 0.495438 0.474058
0.523319 0.497713 0.476332
0.526439 0.499987 0.478606
0.480990 0.468907 0.446681
0.484110 0.471181 0.448955
0.487230 0.473456 0.451230
0.490349 0.475730 0.453504
0.493469 0.478004 0.455779
0.496589 0.480279 0.458053
0.499708 0.482553 0.460327
0.502828 0.484828 0.462602
0.505947 0.487102 0.464876
0.509067 0.489377 0.467151
0.512187 0.491651 0.469425
0.515306 0.493925 0.471699
0.518426 0.496200 0.473974
0.521545 0.498474 0.476248
0.524665 0.500749 0.478523
0.527785 0.503023 0.480797
0.530904 0.505298 0.483072
0.485456 0.474217 0.451146
0.488575 0.476492 0.453420
0.491695 0.478766 0.455695
0.494814 0.481040 0.457969
0.497934 0.483315 0.460244
0.501054 0.485589 0.462518
0.504173 0.487864 0.464793
0.507293 0.490138 0.467067
0.510413 0.492413 0.469341
0.513532 0.494687 0.471616
0.516652 0.496961 0.473890
0.519771 0.499236 0.476165
0.522891 0.501510 0.478439
0.526011 0.503785 0.480713
0.529130 0.506059 0.482988
0.532250 0.508333 0.485262
0.535369 0.510608 0.487537
0.489921 0.479528 0.455611
0.493040 0.481802 0.457886
0.496160 0.484076 0.460160
0.499280 0.486351 0.462434
0.502399 0.488625 0.464709
0.505519 0.490900 0.466983
0.508638 0.493174 0.469258
0.511758 0.495448 0.471532
0.514878 0.497723 0.473807
0.517997 0.499997 0.476081
0.521117 0.502272 0.478355
0.524237 0.504546 0.480630
0.527356 0.506821 0.482904
0.530476 0.509095 0.485179
0.533595 0.511369 0.487453
0.536715 0.513644 0.489727
0.539835 0.515918 0.492002
0.494386 0.484838 0.460076
0.497506 0.487112 0.462351
0.500625 0.489387 0.464625
0.503745 0.491661 0.466900
0.506864 0.493936 0.469174
0.509984 0.496210 0.471448
0.513104 0.498484 0.473723
0.516223 0.500759 0.475997
0.519343 0.503033 0.478272
0.522462 0.505308 0.480546
0.525582 0.507582 0.482821
0.528702 0.509856 0.485095
0.531821 0.512131 0.487369
0.534941 0.514405 0.489644
0.538061 0.516680 0.491918
0.541180 0.518954 0.494193
0.544300 0.521229 0.496467
0.498851 0.490148 0.464542
0.501971 0.492423 0.466816
0.505090 0.494697 0.469090
0.508210 0.496972 0.471365
0.511330 0.499246 0.473639
0.514449 0.501520 0.475914
0.517569 0.503795 0.478188
0.520688 0.506069 0.480462
0.523808 0.508344 0.482737
0.526928 0.510618 0.485011
0.530047 0.512892 0.487286
0.533167 0.515167 0.489560
0.536286 0.517441 0.491835
0.539406 0.519716 0.494109
0.542526 0.521990 0.496383
0.545645 0.524265 0.498658
0.548765 0.526539 0.500932
0.503316 0.495459 0.469007
0.506436 0.497733 0.471281
0.509555 0.500007 0.473555
0.512675 0.502282 0.475830
0.515795 0.504556 0.478104
0.518914 0.506831 0.480379
0.522034 0.509105 0.482653
0.525154 0.511380 0.484928
0.528273 0.513654 0.487202
0.531393 0.515928 0.489476
0.534512 0.518203 0.491751
0.537632 0.520477 0.494025
0.540752 0.522752 0.496300
0.543871 0.525026 0.498574
0.546991 0.527300 0.500849
0.550110 0.529575 0.503123
0.553230 0.531849 0.505397
0.507781 0.500769 0.473472
0.510901 0.503043 0.475746
0.514021 0.505318 0.478021
0.517140 0.507592 0.480295
0.520260 0.509867 0.482569
0.523379 0.512141 0.484844
0.526499 0.514415 0.487118
0.529619 0.516690 0.489393
0.532738 0.518964 0.491667
0.535858 0.521239 0.493942
0.538978 0.523513 0.496216
0.542097 0.525788 0.498490
0.545217 0.528062 0.500765
0.548336 0.530336 0.503039
0.551456 0.532611 0.505314
0.554576 0.534885 0.507588
0.557695 0.537160 0.509863
0.512247 0.506079 0.477937
0.515366 0.508354 0.480211
0.518486 0.510628 0.482486
0.521605 0.512903 0.484760
0.524725 0.515177 0.487035
0.527845 0.517451 0.489309
0.530964 0.519726 0.491583
0.534084 0.522000 0.493858
0.537203 0.524275 0.496132
0.540323 0.526549 0.498407
0.543443 0.528823 0.500681
0.546562 0.531098 0.502956
0.549682 0.533372 0.505230
0.552802 0.535647 0.507504
0.555921 0.537921 0.509779
0.559041 0.540196 0.512053
0.562160 0.542470 0.514328
0.516712 0.511390 0.482402
0.519831 0.513664 0.484677
0.522951 0.515939 0.486951
0.526071 0.518213 0.489225
0.529190 0.520487 0.491500
0.532310 0.522762 0.493774
0.535429 0.525036 0.496049
0.538549 0.527311 0.498323
0.541669 0.529585 0.500597
0.544788 0.531859 0.502872
0.547908 0.534134 0.505146
0.551027 0.536408 0.507421
0.554147 0.538683 0.509695
0.557267 0.540957 0.511970
0.560386 0.543232 0.514244
0.563506 0.545506 0.516518
0.566626 0.547780 0.518793
0.521177 0.516700 0.486867
0.524297 0.518974 0.489142
0.527416 0.521249 0.491416
0.530536 0.523523 0.493691
0.533655 0.525798 0.495965
0.536775 0.528072 0.498239
0.539895 0.530347 0.500514
0.543014 0.532621 0.502788
0.546134 0.534895 0.505063
0.549253 0.537170 0.507337
0.552373 0.539444 0.509611
0.555493 0.541719 0.511886
0.558612 0.543993 0.514160
0.561732 0.546267 0.516435
0.564851 0.548542 0.518709
0.567971 0.550816 0.520984
0.571091 0.553091 0.523258
0.450602 0.432602 0.417137
0.453721 0.434876 0.419412
0.456841 0.437150 0.421686
0.459960 0.439425 0.423960
0.463080 0.441699 0.426235
0.466200 0.443974 0.428509
0.469319 0.446248 0.430784
0.472439 0.448522 0.433058
0.475558 0.450797 0.435332
0.478678 0.453071 0.437607
0.481798 0.455346 0.439881
0.484917 0.457620 0.442156
0.488037 0.459895 0.444430
0.491156 0.462169 0.446705
0.494276 0.464443 0.448979
0.497396 0.466718 0.451253
0.500515 0.468992 0.453528
0.455067 0.437912 0.421602
