shared/src/main/assets/luts/mv_studio_mono.cube
TITLE "DALUR Studio Mono"
LUT_3D_SIZE 9
DOMAIN_MIN 0.0 0.0 0.0
DOMAIN_MAX 1.0 1.0 1.0
0.430000 0.430000 0.430000
0.423352 0.440563 0.440563
0.416704 0.451126 0.451126
0.410056 0.461690 0.461690
0.403408 0.472253 0.472253
0.396760 0.482816 0.482816
0.390112 0.493379 0.493379
0.383463 0.503942 0.503942
0.376815 0.514506 0.514506
0.450738 0.433527 0.450738
0.444090 0.444090 0.461301
0.437442 0.454653 0.471864
0.430794 0.465216 0.482427
0.424145 0.475779 0.492991
0.417497 0.486342 0.503554
0.410849 0.496906 0.514117
0.404201 0.507469 0.524680
0.397553 0.518032 0.535243
0.471476 0.437053 0.471476
0.464827 0.447616 0.482039
0.458179 0.458179 0.492602
0.451531 0.468743 0.503165
0.444883 0.479306 0.513728
0.438235 0.489869 0.524292
0.431587 0.500432 0.534855
0.424939 0.510995 0.545418
0.418291 0.521559 0.555981
0.492213 0.440580 0.492213
0.485565 0.451143 0.502777
0.478917 0.461706 0.513340
0.472269 0.472269 0.523903
0.465621 0.482832 0.534466
0.458973 0.493395 0.545029
0.452325 0.503959 0.555593
0.445677 0.514522 0.566156
0.439029 0.525085 0.576719
0.512951 0.444106 0.512951
0.506303 0.454669 0.523514
0.499655 0.465232 0.534078
0.493007 0.475796 0.544641
0.486359 0.486359 0.555204
0.479711 0.496922 0.565767
0.473063 0.507485 0.576330
0.466415 0.518048 0.586893
0.459766 0.528612 0.597457
0.533689 0.447633 0.533689
0.527041 0.458196 0.544252
0.520393 0.468759 0.554815
0.513745 0.479322 0.565378
0.507097 0.489885 0.575942
0.500448 0.500448 0.586505
0.493800 0.511012 0.597068
0.487152 0.521575 0.607631
0.480504 0.532138 0.618194
0.554427 0.451159 0.554427
0.547779 0.461722 0.564990
0.541131 0.472285 0.575553
0.534482 0.482849 0.586116
0.527834 0.493412 0.596679
0.521186 0.503975 0.607243
0.514538 0.514538 0.617806
0.507890 0.525101 0.628369
0.501242 0.535665 0.638932
0.575164 0.454686 0.575164
0.568516 0.465249 0.585728
0.561868 0.475812 0.596291
0.555220 0.486375 0.606854
0.548572 0.496938 0.617417
0.541924 0.507501 0.627980
0.535276 0.518065 0.638544
0.528628 0.528628 0.649107
0.521980 0.539191 0.659670
0.595902 0.458212 0.595902
0.589254 0.468775 0.606465
0.582606 0.479338 0.617029
0.575958 0.489902 0.627592
0.569310 0.500465 0.638155
0.562662 0.511028 0.648718
0.556014 0.521591 0.659281
0.549366 0.532154 0.669845
0.542718 0.542718 0.680408
0.434027 0.434027 0.416816
0.427379 0.444591 0.427379
0.420731 0.455154 0.437943
0.414083 0.465717 0.448506
0.407435 0.476280 0.459069
0.400787 0.486843 0.469632
0.394139 0.497407 0.480195
0.387491 0.507970 0.490759
0.380843 0.518533 0.501322
0.454765 0.437554 0.437554
0.448117 0.448117 0.448117
0.441469 0.458680 0.458680
0.434821 0.469244 0.469244
0.428173 0.479807 0.479807
0.421525 0.490370 0.490370
0.414877 0.500933 0.500933
0.408229 0.511496 0.511496
0.401581 0.522060 0.522060
0.475503 0.441080 0.458292
0.468855 0.451644 0.468855
0.462207 0.462207 0.479418
0.455559 0.472770 0.489981
0.448911 0.483333 0.500545
0.442263 0.493896 0.511108
0.435615 0.504460 0.521671
0.428966 0.515023 0.532234
0.422318 0.525586 0.542797
0.496241 0.444607 0.479029
0.489593 0.455170 0.489593
0.482945 0.465733 0.500156
0.476297 0.476297 0.510719
0.469648 0.486860 0.521282
0.463000 0.497423 0.531845
0.456352 0.507986 0.542409
0.449704 0.518549 0.552972
0.443056 0.529113 0.563535
0.516979 0.448133 0.499767
0.510330 0.458697 0.510330
0.503682 0.469260 0.520894
0.497034 0.479823 0.531457
0.490386 0.490386 0.542020
0.483738 0.500949 0.552583
0.477090 0.511513 0.563146
0.470442 0.522076 0.573710
0.463794 0.532639 0.584273
0.537716 0.451660 0.520505
0.531068 0.462223 0.531068
0.524420 0.472786 0.541631
0.517772 0.483350 0.552195
0.511124 0.493913 0.562758
0.504476 0.504476 0.573321
0.497828 0.515039 0.583884
0.491180 0.525602 0.594447
0.484532 0.536166 0.605011
0.558454 0.455186 0.541243
0.551806 0.465750 0.551806
0.545158 0.476313 0.562369
0.538510 0.486876 0.572932
0.531862 0.497439 0.583496
0.525214 0.508002 0.594059
0.518566 0.518566 0.604622
0.511918 0.529129 0.615185
0.505269 0.539692 0.625748
0.579192 0.458713 0.561981
0.572544 0.469276 0.572544
0.565896 0.479839 0.583107
0.559248 0.490403 0.593670
0.552600 0.500966 0.604233
0.545951 0.511529 0.614797
0.539303 0.522092 0.625360
0.532655 0.532655 0.635923
0.526007 0.543219 0.646486
0.599930 0.462239 0.582718
0.593282 0.472803 0.593282
0.586634 0.483366 0.603845
0.579985 0.493929 0.614408
0.573337 0.504492 0.624971
0.566689 0.515055 0.635534
0.560041 0.525619 0.646098
0.553393 0.536182 0.656661
0.546745 0.546745 0.667224
0.438055 0.438055 0.403632
0.431407 0.448618 0.414196
0.424759 0.459181 0.424759
0.418111 0.469744 0.435322
0.411463 0.480308 0.445885
0.404814 0.490871 0.456448
0.398166 0.501434 0.467011
0.391518 0.511997 0.477575
0.384870 0.522560 0.488138
0.458793 0.441581 0.424370
0.452145 0.452145 0.434933
0.445496 0.462708 0.445496
0.438848 0.473271 0.456060
0.432200 0.483834 0.466623
0.425552 0.494397 0.477186
0.418904 0.504961 0.487749
0.412256 0.515524 0.498312
0.405608 0.526087 0.508876
0.479530 0.445108 0.445108
0.472882 0.455671 0.455671
0.466234 0.466234 0.466234
0.459586 0.476797 0.476797
0.452938 0.487361 0.487361
0.446290 0.497924 0.497924
0.439642 0.508487 0.508487
0.432994 0.519050 0.519050
0.426346 0.529613 0.529613
0.500268 0.448634 0.465846
0.493620 0.459198 0.476409
0.486972 0.469761 0.486972
0.480324 0.480324 0.497535
0.473676 0.490887 0.508098
0.467028 0.501450 0.518662
0.460380 0.512014 0.529225
0.453732 0.522577 0.539788
0.447084 0.533140 0.550351
0.521006 0.452161 0.486583
0.514358 0.462724 0.497147
0.507710 0.473287 0.507710
0.501062 0.483850 0.518273
0.494414 0.494414 0.528836
0.487766 0.504977 0.539399
0.481117 0.515540 0.549963
0.474469 0.526103 0.560526
0.467821 0.536666 0.571089
0.541744 0.455687 0.507321
0.535096 0.466251 0.517884
0.528448 0.476814 0.528448
0.521800 0.487377 0.539011
0.515151 0.497940 0.549574
0.508503 0.508503 0.560137
0.501855 0.519067 0.570700
0.495207 0.529630 0.581264
0.488559 0.540193 0.591827
0.562482 0.459214 0.528059
0.555833 0.469777 0.538622
0.549185 0.480340 0.549185
0.542537 0.490903 0.559749
0.535889 0.501467 0.570312
0.529241 0.512030 0.580875
0.522593 0.522593 0.591438
0.515945 0.533156 0.602001
0.509297 0.543719 0.612565
0.583219 0.462740 0.548797
0.576571 0.473304 0.559360
0.569923 0.483867 0.569923
0.563275 0.494430 0.580486
0.556627 0.504993 0.591050
0.549979 0.515556 0.601613
0.543331 0.526120 0.612176
0.536683 0.536683 0.622739
0.530035 0.547246 0.633302
0.603957 0.466267 0.569535
0.597309 0.476830 0.580098
0.590661 0.487393 0.590661
0.584013 0.497956 0.601224
0.577365 0.508520 0.611787
0.570717 0.519083 0.622351
0.564069 0.529646 0.632914
0.557421 0.540209 0.643477
0.550772 0.550772 0.654040
0.442082 0.442082 0.390448
0.435434 0.452646 0.401012
0.428786 0.463209 0.411575
0.422138 0.473772 0.422138
0.415490 0.484335 0.432701
0.408842 0.494898 0.443264
0.402194 0.505461 0.453828
0.395546 0.516025 0.464391
0.388898 0.526588 0.474954
0.462820 0.445609 0.411186
0.456172 0.456172 0.421749
0.449524 0.466735 0.432313
0.442876 0.477298 0.442876
0.436228 0.487862 0.453439
0.429580 0.498425 0.464002
0.422932 0.508988 0.474565
0.416284 0.519551 0.485129
0.409635 0.530114 0.495692
0.483558 0.449135 0.431924
0.476910 0.459699 0.442487
0.470262 0.470262 0.453050
0.463614 0.480825 0.463614
0.456966 0.491388 0.474177
0.450317 0.501951 0.484740
0.443669 0.512514 0.495303
0.437021 0.523078 0.505866
0.430373 0.533641 0.516430
0.504296 0.452662 0.452662
0.497648 0.463225 0.463225
0.490999 0.473788 0.473788
0.484351 0.484351 0.484351
0.477703 0.494915 0.494915
0.471055 0.505478 0.505478
0.464407 0.516041 0.516041
0.457759 0.526604 0.526604
0.451111 0.537167 0.537167
0.525033 0.456188 0.473400
0.518385 0.466752 0.483963
0.511737 0.477315 0.494526
0.505089 0.487878 0.505089
0.498441 0.498441 0.515652
0.491793 0.509004 0.526216
0.485145 0.519567 0.536779
0.478497 0.530131 0.547342
0.471849 0.540694 0.557905
0.545771 0.459715 0.494137
0.539123 0.470278 0.504701
0.532475 0.480841 0.515264
0.525827 0.491404 0.525827
0.519179 0.501968 0.536390
0.512531 0.512531 0.546953
0.505883 0.523094 0.557517
0.499235 0.533657 0.568080
0.492587 0.544220 0.578643
0.566509 0.463241 0.514875
0.559861 0.473805 0.525438
0.553213 0.484368 0.536002
0.546565 0.494931 0.546565
0.539917 0.505494 0.557128
0.533269 0.516057 0.567691
0.526620 0.526620 0.578254
0.519972 0.537184 0.588818
0.513324 0.547747 0.599381
0.587247 0.466768 0.535613
0.580599 0.477331 0.546176
0.573951 0.487894 0.556739
0.567303 0.498457 0.567303
0.560654 0.509021 0.577866
0.554006 0.519584 0.588429
0.547358 0.530147 0.598992
0.540710 0.540710 0.609555
0.534062 0.551273 0.620119
0.607985 0.470294 0.556351
0.601336 0.480858 0.566914
0.594688 0.491421 0.577477
0.588040 0.501984 0.588040
0.581392 0.512547 0.598604
0.574744 0.523110 0.609167
0.568096 0.533674 0.619730
0.561448 0.544237 0.630293
0.554800 0.554800 0.640856
0.446110 0.446110 0.377265
0.439462 0.456673 0.387828
0.432814 0.467236 0.398391
0.426166 0.477799 0.408954
0.419517 0.488363 0.419517
0.412869 0.498926 0.430081
0.406221 0.509489 0.440644
0.399573 0.520052 0.451207
0.392925 0.530615 0.461770
0.466848 0.449636 0.398002
0.460199 0.460199 0.408566
0.453551 0.470763 0.419129
0.446903 0.481326 0.429692
0.440255 0.491889 0.440255
0.433607 0.502452 0.450818
0.426959 0.513015 0.461382
0.420311 0.523579 0.471945
0.413663 0.534142 0.482508
0.487585 0.453163 0.418740
0.480937 0.463726 0.429303
0.474289 0.474289 0.439867
0.467641 0.484852 0.450430
0.460993 0.495416 0.460993
0.454345 0.505979 0.471556
0.447697 0.516542 0.482119
0.441049 0.527105 0.492683
0.434401 0.537668 0.503246
0.508323 0.456689 0.439478
0.501675 0.467252 0.450041
0.495027 0.477816 0.460604
0.488379 0.488379 0.471168
0.481731 0.498942 0.481731
0.475083 0.509505 0.492294
0.468435 0.520068 0.502857
0.461787 0.530632 0.513420
0.455138 0.541195 0.523984
0.529061 0.460216 0.460216
0.522413 0.470779 0.470779
0.515765 0.481342 0.481342
0.509117 0.491905 0.491905
0.502469 0.502469 0.502469
0.495820 0.513032 0.513032
0.489172 0.523595 0.523595
0.482524 0.534158 0.534158
0.475876 0.544721 0.544721
0.549799 0.463742 0.480954
0.543151 0.474305 0.491517
0.536502 0.484869 0.502080
0.529854 0.495432 0.512643
0.523206 0.505995 0.523206
0.516558 0.516558 0.533770
0.509910 0.527121 0.544333
0.503262 0.537685 0.554896
0.496614 0.548248 0.565459
0.570536 0.467269 0.501691
0.563888 0.477832 0.512255
0.557240 0.488395 0.522818
0.550592 0.498958 0.533381
0.543944 0.509522 0.543944
0.537296 0.520085 0.554507
0.530648 0.530648 0.565070
0.524000 0.541211 0.575634
0.517352 0.551774 0.586197
0.591274 0.470795 0.522429
0.584626 0.481358 0.532992
0.577978 0.491922 0.543555
0.571330 0.502485 0.554119
0.564682 0.513048 0.564682
0.558034 0.523611 0.575245
0.551386 0.534174 0.585808
0.544738 0.544738 0.596371
0.538090 0.555301 0.606935
0.612012 0.474322 0.543167
0.605364 0.484885 0.553730
0.598716 0.495448 0.564293
0.592068 0.506011 0.574856
0.585420 0.516575 0.585420
0.578772 0.527138 0.595983
0.572123 0.537701 0.606546
0.565475 0.548264 0.617109
0.558827 0.558827 0.627672
0.450137 0.450137 0.364081
0.443489 0.460700 0.374644
0.436841 0.471264 0.385207
0.430193 0.481827 0.395770
0.423545 0.492390 0.406334
0.416897 0.502953 0.416897
0.410249 0.513516 0.427460
0.403601 0.524080 0.438023
0.396953 0.534643 0.448586
0.470875 0.453664 0.384819
0.464227 0.464227 0.395382
0.457579 0.474790 0.405945
0.450931 0.485353 0.416508
0.444283 0.495916 0.427071
0.437635 0.506480 0.437635
0.430986 0.517043 0.448198
0.424338 0.527606 0.458761
0.417690 0.538169 0.469324
0.491613 0.457190 0.405556
0.484965 0.467753 0.416120
0.478317 0.478317 0.426683
0.471669 0.488880 0.437246
0.465020 0.499443 0.447809
0.458372 0.510006 0.458372
0.451724 0.520569 0.468936
0.445076 0.531133 0.479499
0.438428 0.541696 0.490062
0.512351 0.460717 0.426294
0.505702 0.471280 0.436857
0.499054 0.481843 0.447421
0.492406 0.492406 0.457984
0.485758 0.502969 0.468547
0.479110 0.513533 0.479110
0.472462 0.524096 0.489673
0.465814 0.534659 0.500237
0.459166 0.545222 0.510800
0.533088 0.464243 0.447032
0.526440 0.474806 0.457595
0.519792 0.485370 0.468158
0.513144 0.495933 0.478722
0.506496 0.506496 0.489285
0.499848 0.517059 0.499848
0.493200 0.527622 0.510411
0.486552 0.538186 0.520974
0.479904 0.548749 0.531537
0.553826 0.467770 0.467770
0.547178 0.478333 0.478333
0.540530 0.488896 0.488896
0.533882 0.499459 0.499459
0.527234 0.510022 0.510022
0.520586 0.520586 0.520586
0.513938 0.531149 0.531149
0.507290 0.541712 0.541712
0.500641 0.552275 0.552275
0.574564 0.471296 0.488507
0.567916 0.481859 0.499071
0.561268 0.492423 0.509634
0.554620 0.502986 0.520197
0.547972 0.513549 0.530760
0.541323 0.524112 0.541323
0.534675 0.534675 0.551887
0.528027 0.545239 0.562450
0.521379 0.555802 0.573013
0.595302 0.474823 0.509245
0.588654 0.485386 0.519808
0.582005 0.495949 0.530372
0.575357 0.506512 0.540935
0.568709 0.517075 0.551498
0.562061 0.527639 0.562061
0.555413 0.538202 0.572624
0.548765 0.548765 0.583188
0.542117 0.559328 0.593751
0.616039 0.478349 0.529983
0.609391 0.488912 0.540546
0.602743 0.499476 0.551109
0.596095 0.510039 0.561673
0.589447 0.520602 0.572236
0.582799 0.531165 0.582799
0.576151 0.541728 0.593362
0.569503 0.552292 0.603925
0.562855 0.562855 0.614489
0.454165 0.454165 0.350897
0.447517 0.464728 0.361460
0.440868 0.475291 0.372023
0.434220 0.485854 0.382587
0.427572 0.496417 0.393150
0.420924 0.506981 0.403713
0.414276 0.517544 0.414276
0.407628 0.528107 0.424839
0.400980 0.538670 0.435403
0.474902 0.457691 0.371635
0.468254 0.468254 0.382198
0.461606 0.478818 0.392761
0.454958 0.489381 0.403324
0.448310 0.499944 0.413888
0.441662 0.510507 0.424451
0.435014 0.521070 0.435014
0.428366 0.531634 0.445577
0.421718 0.542197 0.456140
0.495640 0.461218 0.392373
0.488992 0.471781 0.402936
0.482344 0.482344 0.413499
0.475696 0.492907 0.424062
0.469048 0.503470 0.434625
0.462400 0.514034 0.445189
0.455752 0.524597 0.455752
0.449104 0.535160 0.466315
0.442456 0.545723 0.476878
0.516378 0.464744 0.413110
0.509730 0.475307 0.423673
0.503082 0.485871 0.434237
0.496434 0.496434 0.444800
0.489786 0.506997 0.455363
0.483138 0.517560 0.465926
0.476489 0.528123 0.476489
0.469841 0.538687 0.487053
0.463193 0.549250 0.497616
0.537116 0.468271 0.433848
0.530468 0.478834 0.444411
0.523820 0.489397 0.454974
0.517172 0.499960 0.465538
0.510523 0.510523 0.476101
0.503875 0.521087 0.486664
0.497227 0.531650 0.497227
0.490579 0.542213 0.507790
0.483931 0.552776 0.518354
0.557854 0.471797 0.454586
0.551205 0.482360 0.465149
0.544557 0.492924 0.475712
0.537909 0.503487 0.486275
0.531261 0.514050 0.496839
0.524613 0.524613 0.507402
0.517965 0.535176 0.517965
0.511317 0.545740 0.528528
0.504669 0.556303 0.539091
0.578591 0.475324 0.475324
0.571943 0.485887 0.485887
0.565295 0.496450 0.496450
0.558647 0.507013 0.507013
0.551999 0.517576 0.517576
0.545351 0.528140 0.528140
0.538703 0.538703 0.538703
0.532055 0.549266 0.549266
0.525407 0.559829 0.559829
0.599329 0.478850 0.496061
0.592681 0.489413 0.506625
0.586033 0.499977 0.517188
0.579385 0.510540 0.527751
0.572737 0.521103 0.538314
0.566089 0.531666 0.548877
0.559441 0.542229 0.559441
0.552793 0.552793 0.570004
0.546144 0.563356 0.580567
0.620067 0.482377 0.516799
0.613419 0.492940 0.527362
0.606771 0.503503 0.537926
0.600123 0.514066 0.548489
0.593475 0.524629 0.559052
0.586826 0.535193 0.569615
0.580178 0.545756 0.580178
0.573530 0.556319 0.590742
0.566882 0.566882 0.601305
0.458192 0.458192 0.337713
0.451544 0.468755 0.348276
0.444896 0.479318 0.358840
0.438248 0.489882 0.369403
0.431600 0.500445 0.379966
0.424952 0.511008 0.390529
0.418304 0.521571 0.401092
0.411655 0.532134 0.411655
0.405007 0.542698 0.422219
0.478930 0.461719 0.358451
0.472282 0.472282 0.369014
0.465634 0.482845 0.379577
0.458986 0.493408 0.390140
0.452338 0.503971 0.400704
0.445689 0.514535 0.411267
0.439041 0.525098 0.421830
0.432393 0.535661 0.432393
0.425745 0.546224 0.442956
0.499668 0.465245 0.379189
0.493020 0.475808 0.389752
0.486371 0.486371 0.400315
0.479723 0.496935 0.410878
0.473075 0.507498 0.421441
0.466427 0.518061 0.432005
0.459779 0.528624 0.442568
0.453131 0.539187 0.453131
0.446483 0.549751 0.463694
0.520405 0.468772 0.399926
0.513757 0.479335 0.410490
0.507109 0.489898 0.421053
0.500461 0.500461 0.431616
0.493813 0.511024 0.442179
0.487165 0.521588 0.452742
0.480517 0.532151 0.463306
0.473869 0.542714 0.473869
0.467221 0.553277 0.484432
0.541143 0.472298 0.420664
0.534495 0.482861 0.431227
0.527847 0.493424 0.441791
0.521199 0.503988 0.452354
0.514551 0.514551 0.462917
0.507903 0.525114 0.473480
0.501255 0.535677 0.484043
0.494607 0.546240 0.494607
0.487959 0.556804 0.505170
0.561881 0.475825 0.441402
0.555233 0.486388 0.451965
0.548585 0.496951 0.462528
0.541937 0.507514 0.473092
0.535289 0.518077 0.483655
0.528641 0.528641 0.494218
0.521992 0.539204 0.504781
0.515344 0.549767 0.515344
0.508696 0.560330 0.525908
0.582619 0.479351 0.462140
0.575971 0.489914 0.472703
0.569323 0.500477 0.483266
0.562675 0.511041 0.493829
0.556026 0.521604 0.504393
0.549378 0.532167 0.514956
0.542730 0.542730 0.525519
0.536082 0.553293 0.536082
0.529434 0.563857 0.546645
0.603357 0.482878 0.482878
0.596708 0.493441 0.493441
0.590060 0.504004 0.504004
0.583412 0.514567 0.514567
0.576764 0.525130 0.525130
0.570116 0.535694 0.535694
0.563468 0.546257 0.546257
0.556820 0.556820 0.556820
0.550172 0.567383 0.567383
0.624094 0.486404 0.503615
0.617446 0.496967 0.514179
0.610798 0.507530 0.524742
0.604150 0.518094 0.535305
0.597502 0.528657 0.545868
0.590854 0.539220 0.556431
0.584206 0.549783 0.566995
0.577558 0.560346 0.577558
0.570910 0.570910 0.588121
0.462220 0.462220 0.324529
0.455571 0.472783 0.335092
0.448923 0.483346 0.345656
0.442275 0.493909 0.356219
0.435627 0.504472 0.366782
0.428979 0.515035 0.377345
0.422331 0.525599 0.387908
0.415683 0.536162 0.398472
0.409035 0.546725 0.409035
0.482957 0.465746 0.345267
0.476309 0.476309 0.355830
0.469661 0.486872 0.366393
0.463013 0.497436 0.376957
0.456365 0.507999 0.387520
0.449717 0.518562 0.398083
0.443069 0.529125 0.408646
0.436421 0.539688 0.419209
0.429773 0.550252 0.429773
0.503695 0.469273 0.366005
0.497047 0.479836 0.376568
0.490399 0.490399 0.387131
0.483751 0.500962 0.397694
0.477103 0.511525 0.408258
0.470455 0.522088 0.418821
0.463807 0.532652 0.429384
0.457158 0.543215 0.439947
0.450510 0.553778 0.450510
0.524433 0.472799 0.386743
0.517785 0.483362 0.397306
0.511137 0.493925 0.407869
0.504489 0.504489 0.418432
0.497841 0.515052 0.428995
0.491192 0.525615 0.439559
0.484544 0.536178 0.450122
0.477896 0.546741 0.460685
0.471248 0.557305 0.471248
0.545171 0.476326 0.407480
0.538523 0.486889 0.418044
0.531874 0.497452 0.428607
0.525226 0.508015 0.439170
0.518578 0.518578 0.449733
0.511930 0.529141 0.460296
0.505282 0.539705 0.470860
0.498634 0.550268 0.481423
0.491986 0.560831 0.491986
0.565908 0.479852 0.428218
0.559260 0.490415 0.438781
0.552612 0.500978 0.449345
0.545964 0.511542 0.459908
0.539316 0.522105 0.470471
0.532668 0.532668 0.481034
0.526020 0.543231 0.491597
0.519372 0.553794 0.502161
0.512724 0.564358 0.512724
0.586646 0.483379 0.448956
0.579998 0.493942 0.459519
0.573350 0.504505 0.470082
0.566702 0.515068 0.480646
0.560054 0.525631 0.491209
0.553406 0.536194 0.501772
0.546758 0.546758 0.512335
0.540110 0.557321 0.522898
0.533462 0.567884 0.533462
0.607384 0.486905 0.469694
0.600736 0.497468 0.480257
0.594088 0.508031 0.490820
0.587440 0.518595 0.501383
0.580792 0.529158 0.511947
0.574144 0.539721 0.522510
0.567495 0.550284 0.533073
0.560847 0.560847 0.543636
0.554199 0.571411 0.554199
0.628122 0.490432 0.490432
0.621474 0.500995 0.500995
0.614826 0.511558 0.511558
0.608178 0.522121 0.522121
0.601529 0.532684 0.532684
0.594881 0.543248 0.543248
0.588233 0.553811 0.553811
0.581585 0.564374 0.564374
0.574937 0.574937 0.574937
