shared/src/main/assets/luts/mv_southern_gold.cube
TITLE "DALUR Southern Gold"
LUT_3D_SIZE 9
DOMAIN_MIN 0.0 0.0 0.0
DOMAIN_MAX 1.0 1.0 1.0
0.448000 0.430000 0.412000
0.454239 0.434549 0.416549
0.460478 0.439098 0.421098
0.466718 0.443647 0.425647
0.472957 0.448195 0.430195
0.479196 0.452744 0.434744
0.485435 0.457293 0.439293
0.491675 0.461842 0.443842
0.497914 0.466391 0.448391
0.456930 0.440621 0.420930
0.463170 0.445170 0.425479
0.469409 0.449718 0.430028
0.475648 0.454267 0.434577
0.481887 0.458816 0.439126
0.488126 0.463365 0.443675
0.494366 0.467914 0.448223
0.500605 0.472463 0.452772
0.506844 0.477011 0.457321
0.465861 0.451241 0.429861
0.472100 0.455790 0.434409
0.478339 0.460339 0.438958
0.484578 0.464888 0.443507
0.490818 0.469437 0.448056
0.497057 0.473986 0.452605
0.503296 0.478534 0.457154
0.509535 0.483083 0.461702
0.515774 0.487632 0.466251
0.474791 0.461862 0.438791
0.481030 0.466411 0.443340
0.487269 0.470960 0.447889
0.493509 0.475509 0.452437
0.499748 0.480057 0.456986
0.505987 0.484606 0.461535
0.512226 0.489155 0.466084
0.518466 0.493704 0.470633
0.524705 0.498253 0.475182
0.483721 0.472483 0.447721
0.489961 0.477032 0.452270
0.496200 0.481581 0.456819
0.502439 0.486129 0.461368
0.508678 0.490678 0.465917
0.514917 0.495227 0.470465
0.521157 0.499776 0.475014
0.527396 0.504325 0.479563
0.533635 0.508874 0.484112
0.492652 0.483104 0.456652
0.498891 0.487652 0.461200
0.505130 0.492201 0.465749
0.511369 0.496750 0.470298
0.517609 0.501299 0.474847
0.523848 0.505848 0.479396
0.530087 0.510397 0.483945
0.536326 0.514945 0.488493
0.542565 0.519494 0.493042
0.501582 0.493724 0.465582
0.507821 0.498273 0.470131
0.514060 0.502822 0.474680
0.520300 0.507371 0.479228
0.526539 0.511920 0.483777
0.532778 0.516468 0.488326
0.539017 0.521017 0.492875
0.545257 0.525566 0.497424
0.551496 0.530115 0.501973
0.510512 0.504345 0.474512
0.516751 0.508894 0.479061
0.522991 0.513443 0.483610
0.529230 0.517991 0.488159
0.535469 0.522540 0.492708
0.541708 0.527089 0.497256
0.547948 0.531638 0.501805
0.554187 0.536187 0.506354
0.560426 0.540736 0.510903
0.519443 0.514966 0.483443
0.525682 0.519515 0.487991
0.531921 0.524063 0.492540
0.538160 0.528612 0.497089
0.544399 0.533161 0.501638
0.550639 0.537710 0.506187
0.556878 0.542259 0.510736
0.563117 0.546808 0.515284
0.569356 0.551356 0.519833
0.449734 0.431734 0.415425
0.455974 0.436283 0.419974
0.462213 0.440832 0.424522
0.468452 0.445381 0.429071
0.474691 0.449930 0.433620
0.480930 0.454479 0.438169
0.487170 0.459027 0.442718
0.493409 0.463576 0.447267
0.499648 0.468125 0.451815
0.458665 0.442355 0.424355
0.464904 0.446904 0.428904
0.471143 0.451453 0.433453
0.477382 0.456002 0.438002
0.483622 0.460550 0.442550
0.489861 0.465099 0.447099
0.496100 0.469648 0.451648
0.502339 0.474197 0.456197
0.508578 0.478746 0.460746
0.467595 0.452976 0.433285
0.473834 0.457525 0.437834
0.480073 0.462073 0.442383
0.486313 0.466622 0.446932
0.492552 0.471171 0.451481
0.498791 0.475720 0.456030
0.505030 0.480269 0.460578
0.511270 0.484818 0.465127
0.517509 0.489366 0.469676
0.476525 0.463596 0.442216
0.482765 0.468145 0.446765
0.489004 0.472694 0.451313
0.495243 0.477243 0.455862
0.501482 0.481792 0.460411
0.507721 0.486341 0.464960
0.513961 0.490889 0.469509
0.520200 0.495438 0.474058
0.526439 0.499987 0.478606
0.485456 0.474217 0.451146
0.491695 0.478766 0.455695
0.497934 0.483315 0.460244
0.504173 0.487864 0.464793
0.510413 0.492413 0.469341
0.516652 0.496961 0.473890
0.522891 0.501510 0.478439
0.529130 0.506059 0.482988
0.535369 0.510608 0.487537
0.494386 0.484838 0.460076
0.500625 0.489387 0.464625
0.506864 0.493936 0.469174
0.513104 0.498484 0.473723
0.519343 0.503033 0.478272
0.525582 0.507582 0.482821
0.531821 0.512131 0.487369
0.538061 0.516680 0.491918
0.544300 0.521229 0.496467
0.503316 0.495459 0.469007
0.509555 0.500007 0.473555
0.515795 0.504556 0.478104
0.522034 0.509105 0.482653
0.528273 0.513654 0.487202
0.534512 0.518203 0.491751
0.540752 0.522752 0.496300
0.546991 0.527300 0.500849
0.553230 0.531849 0.505397
0.512247 0.506079 0.477937
0.518486 0.510628 0.482486
0.524725 0.515177 0.487035
0.530964 0.519726 0.491583
0.537203 0.524275 0.496132
0.543443 0.528823 0.500681
0.549682 0.533372 0.505230
0.555921 0.537921 0.509779
0.562160 0.542470 0.514328
0.521177 0.516700 0.486867
0.527416 0.521249 0.491416
0.533655 0.525798 0.495965
0.539895 0.530347 0.500514
0.546134 0.534895 0.505063
0.552373 0.539444 0.509611
0.558612 0.543993 0.514160
0.564851 0.548542 0.518709
0.571091 0.553091 0.523258
0.451469 0.433469 0.418849
0.457708 0.438018 0.423398
0.463947 0.442566 0.427947
0.470186 0.447115 0.432496
0.476426 0.451664 0.437045
0.482665 0.456213 0.441594
0.488904 0.460762 0.446142
0.495143 0.465311 0.450691
0.501382 0.469859 0.455240
0.460399 0.444089 0.427780
0.466638 0.448638 0.432329
0.472877 0.453187 0.436877
0.479117 0.457736 0.441426
0.485356 0.462285 0.445975
0.491595 0.466834 0.450524
0.497834 0.471382 0.455073
0.504074 0.475931 0.459622
0.510313 0.480480 0.464170
0.469329 0.454710 0.436710
0.475569 0.459259 0.441259
0.481808 0.463808 0.445808
0.488047 0.468357 0.450357
0.494286 0.472905 0.454905
0.500525 0.477454 0.459454
0.506765 0.482003 0.464003
0.513004 0.486552 0.468552
0.519243 0.491101 0.473101
0.478260 0.465331 0.445640
0.484499 0.469880 0.450189
0.490738 0.474428 0.454738
0.496977 0.478977 0.459287
0.503217 0.483526 0.463836
0.509456 0.488075 0.468385
0.515695 0.492624 0.472933
0.521934 0.497173 0.477482
0.528173 0.501721 0.482031
0.487190 0.475952 0.454571
0.493429 0.480500 0.459120
0.499668 0.485049 0.463668
0.505908 0.489598 0.468217
0.512147 0.494147 0.472766
0.518386 0.498696 0.477315
0.524625 0.503245 0.481864
0.530865 0.507793 0.486413
0.537104 0.512342 0.490961
0.496120 0.486572 0.463501
0.502360 0.491121 0.468050
0.508599 0.495670 0.472599
0.514838 0.500219 0.477148
0.521077 0.504768 0.481696
0.527316 0.509316 0.486245
0.533556 0.513865 0.490794
0.539795 0.518414 0.495343
0.546034 0.522963 0.499892
0.505051 0.497193 0.472431
0.511290 0.501742 0.476980
0.517529 0.506291 0.481529
0.523768 0.510839 0.486078
0.530008 0.515388 0.490627
0.536247 0.519937 0.495176
0.542486 0.524486 0.499724
0.548725 0.529035 0.504273
0.554964 0.533584 0.508822
0.513981 0.507814 0.481362
0.520220 0.512362 0.485911
0.526459 0.516911 0.490459
0.532699 0.521460 0.495008
0.538938 0.526009 0.499557
0.545177 0.530558 0.504106
0.551416 0.535107 0.508655
0.557656 0.539656 0.513204
0.563895 0.544204 0.517752
0.522911 0.518434 0.490292
0.529150 0.522983 0.494841
0.535390 0.527532 0.499390
0.541629 0.532081 0.503939
0.547868 0.536630 0.508487
0.554107 0.541179 0.513036
0.560347 0.545727 0.517585
0.566586 0.550276 0.522134
0.572825 0.554825 0.526683
0.453203 0.435203 0.422274
0.459442 0.439752 0.426823
0.465681 0.444301 0.431372
0.471921 0.448850 0.435921
0.478160 0.453398 0.440470
0.484399 0.457947 0.445018
0.490638 0.462496 0.449567
0.496878 0.467045 0.454116
0.503117 0.471594 0.458665
0.462133 0.445824 0.431205
0.468373 0.450373 0.435753
0.474612 0.454921 0.440302
0.480851 0.459470 0.444851
0.487090 0.464019 0.449400
0.493329 0.468568 0.453949
0.499569 0.473117 0.458498
0.505808 0.477666 0.463046
0.512047 0.482214 0.467595
0.471064 0.456444 0.440135
0.477303 0.460993 0.444684
0.483542 0.465542 0.449232
0.489781 0.470091 0.453781
0.496021 0.474640 0.458330
0.502260 0.479189 0.462879
0.508499 0.483737 0.467428
0.514738 0.488286 0.471977
0.520977 0.492835 0.476526
0.479994 0.467065 0.449065
0.486233 0.471614 0.453614
0.492472 0.476163 0.458163
0.498712 0.480712 0.462712
0.504951 0.485260 0.467260
0.511190 0.489809 0.471809
0.517429 0.494358 0.476358
0.523669 0.498907 0.480907
0.529908 0.503456 0.485456
0.488924 0.477686 0.457995
0.495164 0.482235 0.462544
0.501403 0.486784 0.467093
0.507642 0.491332 0.471642
0.513881 0.495881 0.476191
0.520120 0.500430 0.480740
0.526360 0.504979 0.485288
0.532599 0.509528 0.489837
0.538838 0.514077 0.494386
0.497855 0.488307 0.466926
0.504094 0.492855 0.471475
0.510333 0.497404 0.476023
0.516572 0.501953 0.480572
0.522812 0.506502 0.485121
0.529051 0.511051 0.489670
0.535290 0.515600 0.494219
0.541529 0.520148 0.498768
0.547768 0.524697 0.503316
0.506785 0.498927 0.475856
0.513024 0.503476 0.480405
0.519263 0.508025 0.484954
0.525503 0.512574 0.489503
0.531742 0.517123 0.494051
0.537981 0.521671 0.498600
0.544220 0.526220 0.503149
0.550460 0.530769 0.507698
0.556699 0.535318 0.512247
0.515715 0.509548 0.484786
0.521955 0.514097 0.489335
0.528194 0.518646 0.493884
0.534433 0.523195 0.498433
0.540672 0.527743 0.502982
0.546911 0.532292 0.507531
0.553151 0.536841 0.512079
0.559390 0.541390 0.516628
0.565629 0.545939 0.521177
0.524646 0.520169 0.493717
0.530885 0.524718 0.498266
0.537124 0.529266 0.502814
0.543363 0.533815 0.507363
0.549602 0.538364 0.511912
0.555842 0.542913 0.516461
0.562081 0.547462 0.521010
0.568320 0.552011 0.525559
0.574559 0.556559 0.530107
0.454937 0.436937 0.425699
0.461177 0.441486 0.430248
0.467416 0.446035 0.434797
0.473655 0.450584 0.439345
0.479894 0.455133 0.443894
0.486133 0.459682 0.448443
0.492373 0.464230 0.452992
0.498612 0.468779 0.457541
0.504851 0.473328 0.462090
0.463868 0.447558 0.434629
0.470107 0.452107 0.439178
0.476346 0.456656 0.443727
0.482585 0.461205 0.448276
0.488825 0.465753 0.452825
0.495064 0.470302 0.457373
0.501303 0.474851 0.461922
0.507542 0.479400 0.466471
0.513781 0.483949 0.471020
0.472798 0.458179 0.443560
0.479037 0.462728 0.448108
0.485276 0.467276 0.452657
0.491516 0.471825 0.457206
0.497755 0.476374 0.461755
0.503994 0.480923 0.466304
0.510233 0.485472 0.470853
0.516473 0.490021 0.475401
0.522712 0.494569 0.479950
0.481728 0.468799 0.452490
0.487968 0.473348 0.457039
0.494207 0.477897 0.461588
0.500446 0.482446 0.466136
0.506685 0.486995 0.470685
0.512924 0.491544 0.475234
0.519164 0.496093 0.479783
0.525403 0.500641 0.484332
0.531642 0.505190 0.488881
0.490659 0.479420 0.461420
0.496898 0.483969 0.465969
0.503137 0.488518 0.470518
0.509376 0.493067 0.475067
0.515616 0.497616 0.479616
0.521855 0.502164 0.484164
0.528094 0.506713 0.488713
0.534333 0.511262 0.493262
0.540572 0.515811 0.497811
0.499589 0.490041 0.470351
0.505828 0.494590 0.474899
0.512067 0.499139 0.479448
0.518307 0.503687 0.483997
0.524546 0.508236 0.488546
0.530785 0.512785 0.493095
0.537024 0.517334 0.497644
0.543264 0.521883 0.502192
0.549503 0.526432 0.506741
0.508519 0.500662 0.479281
0.514759 0.505210 0.483830
0.520998 0.509759 0.488379
0.527237 0.514308 0.492927
0.533476 0.518857 0.497476
0.539715 0.523406 0.502025
0.545955 0.527955 0.506574
0.552194 0.532503 0.511123
0.558433 0.537052 0.515672
0.517450 0.511282 0.488211
0.523689 0.515831 0.492760
0.529928 0.520380 0.497309
0.536167 0.524929 0.501858
0.542407 0.529478 0.506407
0.548646 0.534027 0.510955
0.554885 0.538575 0.515504
0.561124 0.543124 0.520053
0.567363 0.547673 0.524602
0.526380 0.521903 0.497141
0.532619 0.526452 0.501690
0.538858 0.531001 0.506239
0.545098 0.535550 0.510788
0.551337 0.540098 0.515337
0.557576 0.544647 0.519886
0.563815 0.549196 0.524435
0.570055 0.553745 0.528983
0.576294 0.558294 0.533532
0.456672 0.438672 0.429124
0.462911 0.443221 0.433672
0.469150 0.447769 0.438221
0.475389 0.452318 0.442770
0.481629 0.456867 0.447319
0.487868 0.461416 0.451868
0.494107 0.465965 0.456417
0.500346 0.470514 0.460965
0.506585 0.475062 0.465514
0.465602 0.449292 0.438054
0.471841 0.453841 0.442603
0.478080 0.458390 0.447152
0.484320 0.462939 0.451700
0.490559 0.467488 0.456249
0.496798 0.472037 0.460798
0.503037 0.476585 0.465347
0.509277 0.481134 0.469896
0.515516 0.485683 0.474445
0.474532 0.459913 0.446984
0.480772 0.464462 0.451533
0.487011 0.469011 0.456082
0.493250 0.473560 0.460631
0.499489 0.478108 0.465180
0.505728 0.482657 0.469728
0.511968 0.487206 0.474277
0.518207 0.491755 0.478826
0.524446 0.496304 0.483375
0.483463 0.470534 0.455915
0.489702 0.475083 0.460463
0.495941 0.479631 0.465012
0.502180 0.484180 0.469561
0.508420 0.488729 0.474110
0.514659 0.493278 0.478659
0.520898 0.497827 0.483208
0.527137 0.502376 0.487756
0.533376 0.506925 0.492305
0.492393 0.481155 0.464845
0.498632 0.485703 0.469394
0.504871 0.490252 0.473943
0.511111 0.494801 0.478491
0.517350 0.499350 0.483040
0.523589 0.503899 0.487589
0.529828 0.508448 0.492138
0.536068 0.512996 0.496687
0.542307 0.517545 0.501236
0.501323 0.491775 0.473775
0.507563 0.496324 0.478324
0.513802 0.500873 0.482873
0.520041 0.505422 0.487422
0.526280 0.509971 0.491971
0.532519 0.514519 0.496519
0.538759 0.519068 0.501068
0.544998 0.523617 0.505617
0.551237 0.528166 0.510166
0.510254 0.502396 0.482706
0.516493 0.506945 0.487254
0.522732 0.511494 0.491803
0.528971 0.516042 0.496352
0.535211 0.520591 0.500901
0.541450 0.525140 0.505450
0.547689 0.529689 0.509999
0.553928 0.534238 0.514547
0.560167 0.538787 0.519096
0.519184 0.513017 0.491636
0.525423 0.517566 0.496185
0.531662 0.522114 0.500734
0.537902 0.526663 0.505282
0.544141 0.531212 0.509831
0.550380 0.535761 0.514380
0.556619 0.540310 0.518929
0.562859 0.544859 0.523478
0.569098 0.549407 0.528027
0.528114 0.523637 0.500566
0.534354 0.528186 0.505115
0.540593 0.532735 0.509664
0.546832 0.537284 0.514213
0.553071 0.541833 0.518762
0.559310 0.546382 0.523310
0.565550 0.550930 0.527859
0.571789 0.555479 0.532408
0.578028 0.560028 0.536957
0.458406 0.440406 0.432548
0.464645 0.444955 0.437097
0.470884 0.449504 0.441646
0.477124 0.454053 0.446195
0.483363 0.458601 0.450744
0.489602 0.463150 0.455293
0.495841 0.467699 0.459841
0.502081 0.472248 0.464390
0.508320 0.476797 0.468939
0.467336 0.451027 0.441479
0.473576 0.455576 0.446028
0.479815 0.460124 0.450576
0.486054 0.464673 0.455125
0.492293 0.469222 0.459674
0.498532 0.473771 0.464223
0.504772 0.478320 0.468772
0.511011 0.482869 0.473321
0.517250 0.487417 0.477869
0.476267 0.461647 0.450409
0.482506 0.466196 0.454958
0.488745 0.470745 0.459507
0.494984 0.475294 0.464056
0.501224 0.479843 0.468604
0.507463 0.484392 0.473153
0.513702 0.488940 0.477702
0.519941 0.493489 0.482251
0.526180 0.498038 0.486800
0.485197 0.472268 0.459339
0.491436 0.476817 0.463888
0.497675 0.481366 0.468437
0.503915 0.485915 0.472986
0.510154 0.490464 0.477535
0.516393 0.495012 0.482084
0.522632 0.499561 0.486632
0.528872 0.504110 0.491181
0.535111 0.508659 0.495730
0.494127 0.482889 0.468270
0.500367 0.487438 0.472818
0.506606 0.491987 0.477367
0.512845 0.496535 0.481916
0.519084 0.501084 0.486465
0.525323 0.505633 0.491014
0.531563 0.510182 0.495563
0.537802 0.514731 0.500112
0.544041 0.519280 0.504660
0.503058 0.493510 0.477200
0.509297 0.498058 0.481749
0.515536 0.502607 0.486298
0.521775 0.507156 0.490846
0.528015 0.511705 0.495395
0.534254 0.516254 0.499944
0.540493 0.520803 0.504493
0.546732 0.525351 0.509042
0.552971 0.529900 0.513591
0.511988 0.504130 0.486130
0.518227 0.508679 0.490679
0.524466 0.513228 0.495228
0.530706 0.517777 0.499777
0.536945 0.522326 0.504326
0.543184 0.526874 0.508874
0.549423 0.531423 0.513423
0.555663 0.535972 0.517972
0.561902 0.540521 0.522521
0.520918 0.514751 0.495061
0.527158 0.519300 0.499609
0.533397 0.523849 0.504158
0.539636 0.528398 0.508707
0.545875 0.532946 0.513256
0.552114 0.537495 0.517805
0.558354 0.542044 0.522354
0.564593 0.546593 0.526902
0.570832 0.551142 0.531451
0.529849 0.525372 0.503991
0.536088 0.529921 0.508540
0.542327 0.534469 0.513089
0.548566 0.539018 0.517637
0.554806 0.543567 0.522186
0.561045 0.548116 0.526735
0.567284 0.552665 0.531284
0.573523 0.557214 0.535833
0.579762 0.561762 0.540382
0.460140 0.442140 0.435973
0.466380 0.446689 0.440522
0.472619 0.451238 0.445071
0.478858 0.455787 0.449620
0.485097 0.460336 0.454168
0.491336 0.464885 0.458717
0.497576 0.469433 0.463266
0.503815 0.473982 0.467815
0.510054 0.478531 0.472364
0.469071 0.452761 0.444903
0.475310 0.457310 0.449452
0.481549 0.461859 0.454001
0.487788 0.466408 0.458550
0.494028 0.470956 0.463099
0.500267 0.475505 0.467648
0.506506 0.480054 0.472196
0.512745 0.484603 0.476745
0.518984 0.489152 0.481294
0.478001 0.463382 0.453834
0.484240 0.467931 0.458383
0.490479 0.472479 0.462931
0.496719 0.477028 0.467480
0.502958 0.481577 0.472029
0.509197 0.486126 0.476578
0.515436 0.490675 0.481127
0.521676 0.495224 0.485676
0.527915 0.499772 0.490224
0.486931 0.474003 0.462764
0.493171 0.478551 0.467313
0.499410 0.483100 0.471862
0.505649 0.487649 0.476411
0.511888 0.492198 0.480959
0.518127 0.496747 0.485508
0.524367 0.501296 0.490057
0.530606 0.505844 0.494606
0.536845 0.510393 0.499155
0.495862 0.484623 0.471694
0.502101 0.489172 0.476243
0.508340 0.493721 0.480792
0.514579 0.498270 0.485341
0.520819 0.502819 0.489890
0.527058 0.507367 0.494439
0.533297 0.511916 0.498987
0.539536 0.516465 0.503536
0.545775 0.521014 0.508085
0.504792 0.495244 0.480625
0.511031 0.499793 0.485174
0.517270 0.504342 0.489722
0.523510 0.508890 0.494271
0.529749 0.513439 0.498820
0.535988 0.517988 0.503369
0.542227 0.522537 0.507918
0.548467 0.527086 0.512467
0.554706 0.531635 0.517015
0.513722 0.505865 0.489555
0.519962 0.510413 0.494104
0.526201 0.514962 0.498653
0.532440 0.519511 0.503202
0.538679 0.524060 0.507750
0.544918 0.528609 0.512299
0.551158 0.533158 0.516848
0.557397 0.537706 0.521397
0.563636 0.542255 0.525946
0.522653 0.516485 0.498485
0.528892 0.521034 0.503034
0.535131 0.525583 0.507583
0.541370 0.530132 0.512132
0.547610 0.534681 0.516681
0.553849 0.539230 0.521230
0.560088 0.543778 0.525778
0.566327 0.548327 0.530327
0.572566 0.552876 0.534876
0.531583 0.527106 0.507416
0.537822 0.531655 0.511965
0.544061 0.536204 0.516513
0.550301 0.540753 0.521062
0.556540 0.545301 0.525611
0.562779 0.549850 0.530160
0.569018 0.554399 0.534709
0.575258 0.558948 0.539258
0.581497 0.563497 0.543806
0.461875 0.443875 0.439398
0.468114 0.448424 0.443947
0.474353 0.452972 0.448495
0.480592 0.457521 0.453044
0.486832 0.462070 0.457593
0.493071 0.466619 0.462142
0.499310 0.471168 0.466691
0.505549 0.475717 0.471240
0.511789 0.480265 0.475789
0.470805 0.454495 0.448328
0.477044 0.459044 0.452877
0.483283 0.463593 0.457426
0.489523 0.468142 0.461975
0.495762 0.472691 0.466523
0.502001 0.477240 0.471072
0.508240 0.481788 0.475621
0.514480 0.486337 0.480170
0.520719 0.490886 0.484719
0.479735 0.465116 0.457258
0.485975 0.469665 0.461807
0.492214 0.474214 0.466356
0.498453 0.478763 0.470905
0.504692 0.483311 0.475454
0.510931 0.487860 0.480003
0.517171 0.492409 0.484551
0.523410 0.496958 0.489100
0.529649 0.501507 0.493649
0.488666 0.475737 0.466189
0.494905 0.480286 0.470738
0.501144 0.484835 0.475286
0.507383 0.489383 0.479835
0.513623 0.493932 0.484384
0.519862 0.498481 0.488933
0.526101 0.503030 0.493482
0.532340 0.507579 0.498031
0.538579 0.512128 0.502579
0.497596 0.486358 0.475119
0.503835 0.490906 0.479668
0.510074 0.495455 0.484217
0.516314 0.500004 0.488766
0.522553 0.504553 0.493314
0.528792 0.509102 0.497863
0.535031 0.513651 0.502412
0.541271 0.518199 0.506961
0.547510 0.522748 0.511510
0.506526 0.496978 0.484049
0.512766 0.501527 0.488598
0.519005 0.506076 0.493147
0.525244 0.510625 0.497696
0.531483 0.515174 0.502245
0.537722 0.519722 0.506794
0.543962 0.524271 0.511342
0.550201 0.528820 0.515891
0.556440 0.533369 0.520440
0.515457 0.507599 0.492980
0.521696 0.512148 0.497529
0.527935 0.516697 0.502077
0.534174 0.521245 0.506626
0.540414 0.525794 0.511175
0.546653 0.530343 0.515724
0.552892 0.534892 0.520273
0.559131 0.539441 0.524822
0.565370 0.543990 0.529370
0.524387 0.518220 0.501910
0.530626 0.522769 0.506459
0.536865 0.527317 0.511008
0.543105 0.531866 0.515557
0.549344 0.536415 0.520105
0.555583 0.540964 0.524654
0.561822 0.545513 0.529203
0.568062 0.550062 0.533752
0.574301 0.554610 0.538301
0.533317 0.528840 0.510840
0.539557 0.533389 0.515389
0.545796 0.537938 0.519938
0.552035 0.542487 0.524487
0.558274 0.547036 0.529036
0.564513 0.551585 0.533585
0.570753 0.556133 0.538133
0.576992 0.560682 0.542682
0.583231 0.565231 0.547231
