shared/src/main/assets/luts/mv_studio_mono.cube
TITLE "DALUR Studio Mono"
LUT_3D_SIZE 5
DOMAIN_MIN 0.0 0.0 0.0
DOMAIN_MAX 1.0 1.0 1.0
0.430000 0.430000 0.430000
0.416704 0.451126 0.451126
0.403408 0.472253 0.472253
0.390112 0.493379 0.493379
0.376815 0.514506 0.514506
0.471476 0.437053 0.471476
0.458179 0.458179 0.492602
0.444883 0.479306 0.513728
0.431587 0.500432 0.534855
0.418291 0.521559 0.555981
0.512951 0.444106 0.512951
0.499655 0.465232 0.534078
0.486359 0.486359 0.555204
0.473063 0.507485 0.576330
0.459766 0.528612 0.597457
0.554427 0.451159 0.554427
0.541131 0.472285 0.575553
0.527834 0.493412 0.596679
0.514538 0.514538 0.617806
0.501242 0.535665 0.638932
0.595902 0.458212 0.595902
0.582606 0.479338 0.617029
0.569310 0.500465 0.638155
0.556014 0.521591 0.659281
0.542718 0.542718 0.680408
0.438055 0.438055 0.403632
0.424759 0.459181 0.424759
0.411463 0.480308 0.445885
0.398166 0.501434 0.467011
0.384870 0.522560 0.488138
0.479530 0.445108 0.445108
0.466234 0.466234 0.466234
0.452938 0.487361 0.487361
0.439642 0.508487 0.508487
0.426346 0.529613 0.529613
0.521006 0.452161 0.486583
0.507710 0.473287 0.507710
0.494414 0.494414 0.528836
0.481117 0.515540 0.549963
0.467821 0.536666 0.571089
0.562482 0.459214 0.528059
0.549185 0.480340 0.549185
0.535889 0.501467 0.570312
0.522593 0.522593 0.591438
0.509297 0.543719 0.612565
0.603957 0.466267 0.569535
0.590661 0.487393 0.590661
0.577365 0.508520 0.611787
0.564069 0.529646 0.632914
0.550772 0.550772 0.654040
0.446110 0.446110 0.377265
0.432814 0.467236 0.398391
0.419517 0.488363 0.419517
0.406221 0.509489 0.440644
0.392925 0.530615 0.461770
0.487585 0.453163 0.418740
0.474289 0.474289 0.439867
0.460993 0.495416 0.460993
0.447697 0.516542 0.482119
0.434401 0.537668 0.503246
0.529061 0.460216 0.460216
0.515765 0.481342 0.481342
0.502469 0.502469 0.502469
0.489172 0.523595 0.523595
0.475876 0.544721 0.544721
0.570536 0.467269 0.501691
0.557240 0.488395 0.522818
0.543944 0.509522 0.543944
0.530648 0.530648 0.565070
0.517352 0.551774 0.586197
0.612012 0.474322 0.543167
0.598716 0.495448 0.564293
0.585420 0.516575 0.585420
0.572123 0.537701 0.606546
0.558827 0.558827 0.627672
0.454165 0.454165 0.350897
0.440868 0.475291 0.372023
0.427572 0.496417 0.393150
0.414276 0.517544 0.414276
0.400980 0.538670 0.435403
0.495640 0.461218 0.392373
0.482344 0.482344 0.413499
0.469048 0.503470 0.434625
0.455752 0.524597 0.455752
0.442456 0.545723 0.476878
0.537116 0.468271 0.433848
0.523820 0.489397 0.454974
0.510523 0.510523 0.476101
0.497227 0.531650 0.497227
0.483931 0.552776 0.518354
0.578591 0.475324 0.475324
0.565295 0.496450 0.496450
0.551999 0.517576 0.517576
0.538703 0.538703 0.538703
0.525407 0.559829 0.559829
0.620067 0.482377 0.516799
0.606771 0.503503 0.537926
0.593475 0.524629 0.559052
0.580178 0.545756 0.580178
0.566882 0.566882 0.601305
0.462220 0.462220 0.324529
0.448923 0.483346 0.345656
0.435627 0.504472 0.366782
0.422331 0.525599 0.387908
0.409035 0.546725 0.409035
0.503695 0.469273 0.366005
0.490399 0.490399 0.387131
0.477103 0.511525 0.408258
0.463807 0.532652 0.429384
0.450510 0.553778 0.450510
0.545171 0.476326 0.407480
0.531874 0.497452 0.428607
0.518578 0.518578 0.449733
0.505282 0.539705 0.470860
0.491986 0.560831 0.491986
0.586646 0.483379 0.448956
0.573350 0.504505 0.470082
0.560054 0.525631 0.491209
0.546758 0.546758 0.512335
0.533462 0.567884 0.533462
0.628122 0.490432 0.490432
0.614826 0.511558 0.511558
0.601529 0.532684 0.532684
0.588233 0.553811 0.553811
0.574937 0.574937 0.574937
