shared/src/main/assets/luts/mv_studio_mono.cube
TITLE "DALUR Studio Mono"
LUT_3D_SIZE 17
DOMAIN_MIN 0.0 0.0 0.0
DOMAIN_MAX 1.0 1.0 1.0
0.430000 0.430000 0.430000
0.426676 0.435282 0.435282
0.423352 0.440563 0.440563
0.420028 0.445845 0.445845
0.416704 0.451126 0.451126
0.413380 0.456408 0.456408
0.410056 0.461690 0.461690
0.406732 0.466971 0.466971
0.403408 0.472253 0.472253
0.400084 0.477534 0.477534
0.396760 0.482816 0.482816
0.393436 0.488098 0.488098
0.390112 0.493379 0.493379
0.386787 0.498661 0.498661
0.383463 0.503942 0.503942
0.380139 0.509224 0.509224
0.376815 0.514506 0.514506
0.440369 0.431763 0.440369
0.437045 0.437045 0.445650
0.433721 0.442326 0.450932
0.430397 0.447608 0.456214
0.427073 0.452890 0.461495
0.423749 0.458171 0.466777
0.420425 0.463453 0.472058
0.417101 0.468734 0.477340
0.413777 0.474016 0.482622
0.410453 0.479298 0.487903
0.407128 0.484579 0.493185
0.403804 0.489861 0.498466
0.400480 0.495142 0.503748
0.397156 0.500424 0.509030
0.393832 0.505706 0.514311
0.390508 0.510987 0.519593
0.387184 0.516269 0.524874
0.450738 0.433527 0.450738
0.447414 0.438808 0.456019
0.444090 0.444090 0.461301
0.440766 0.449371 0.466583
0.437442 0.454653 0.471864
0.434118 0.459934 0.477146
0.430794 0.465216 0.482427
0.427469 0.470498 0.487709
0.424145 0.475779 0.492991
0.420821 0.481061 0.498272
0.417497 0.486342 0.503554
0.414173 0.491624 0.508835
0.410849 0.496906 0.514117
0.407525 0.502187 0.519399
0.404201 0.507469 0.524680
0.400877 0.512750 0.529962
0.397553 0.518032 0.535243
0.461107 0.435290 0.461107
0.457783 0.440571 0.466388
0.454459 0.445853 0.471670
0.451135 0.451135 0.476951
0.447811 0.456416 0.482233
0.444486 0.461698 0.487515
0.441162 0.466979 0.492796
0.437838 0.472261 0.498078
0.434514 0.477543 0.503359
0.431190 0.482824 0.508641
0.427866 0.488106 0.513923
0.424542 0.493387 0.519204
0.421218 0.498669 0.524486
0.417894 0.503951 0.529767
0.414570 0.509232 0.535049
0.411246 0.514514 0.540331
0.407922 0.519795 0.545612
0.471476 0.437053 0.471476
0.468152 0.442335 0.476757
0.464827 0.447616 0.482039
0.461503 0.452898 0.487320
0.458179 0.458179 0.492602
0.454855 0.463461 0.497884
0.451531 0.468743 0.503165
0.448207 0.474024 0.508447
0.444883 0.479306 0.513728
0.441559 0.484587 0.519010
0.438235 0.489869 0.524292
0.434911 0.495151 0.529573
0.431587 0.500432 0.534855
0.428263 0.505714 0.540136
0.424939 0.510995 0.545418
0.421615 0.516277 0.550700
0.418291 0.521559 0.555981
0.481844 0.438816 0.481844
0.478520 0.444098 0.487126
0.475196 0.449379 0.492408
0.471872 0.454661 0.497689
0.468548 0.459943 0.502971
0.465224 0.465224 0.508252
0.461900 0.470506 0.513534
0.458576 0.475787 0.518816
0.455252 0.481069 0.524097
0.451928 0.486351 0.529379
0.448604 0.491632 0.534660
0.445280 0.496914 0.539942
0.441956 0.502195 0.545224
0.438632 0.507477 0.550505
0.435308 0.512759 0.555787
0.431984 0.518040 0.561068
0.428660 0.523322 0.566350
0.492213 0.440580 0.492213
0.488889 0.445861 0.497495
0.485565 0.451143 0.502777
0.482241 0.456424 0.508058
0.478917 0.461706 0.513340
0.475593 0.466987 0.518621
0.472269 0.472269 0.523903
0.468945 0.477551 0.529185
0.465621 0.482832 0.534466
0.462297 0.488114 0.539748
0.458973 0.493395 0.545029
0.455649 0.498677 0.550311
0.452325 0.503959 0.555593
0.449001 0.509240 0.560874
0.445677 0.514522 0.566156
0.442353 0.519803 0.571437
0.439029 0.525085 0.576719
0.502582 0.442343 0.502582
0.499258 0.447624 0.507864
0.495934 0.452906 0.513145
0.492610 0.458188 0.518427
0.489286 0.463469 0.523709
0.485962 0.468751 0.528990
0.482638 0.474032 0.534272
0.479314 0.479314 0.539553
0.475990 0.484596 0.544835
0.472666 0.489877 0.550117
0.469342 0.495159 0.555398
0.466018 0.500440 0.560680
0.462694 0.505722 0.565961
0.459370 0.511004 0.571243
0.456046 0.516285 0.576525
0.452722 0.521567 0.581806
0.449398 0.526848 0.587088
0.512951 0.444106 0.512951
0.509627 0.449388 0.518233
0.506303 0.454669 0.523514
0.502979 0.459951 0.528796
0.499655 0.465232 0.534078
0.496331 0.470514 0.539359
0.493007 0.475796 0.544641
0.489683 0.481077 0.549922
0.486359 0.486359 0.555204
0.483035 0.491640 0.560486
0.479711 0.496922 0.565767
0.476387 0.502204 0.571049
0.473063 0.507485 0.576330
0.469739 0.512767 0.581612
0.466415 0.518048 0.586893
0.463090 0.523330 0.592175
0.459766 0.528612 0.597457
0.523320 0.445869 0.523320
0.519996 0.451151 0.528602
0.516672 0.456432 0.533883
0.513348 0.461714 0.539165
0.510024 0.466996 0.544446
0.506700 0.472277 0.549728
0.503376 0.477559 0.555010
0.500052 0.482840 0.560291
0.496728 0.488122 0.565573
0.493404 0.493404 0.570854
0.490080 0.498685 0.576136
0.486756 0.503967 0.581418
0.483432 0.509248 0.586699
0.480107 0.514530 0.591981
0.476783 0.519812 0.597262
0.473459 0.525093 0.602544
0.470135 0.530375 0.607826
0.533689 0.447633 0.533689
0.530365 0.452914 0.538970
0.527041 0.458196 0.544252
0.523717 0.463477 0.549534
0.520393 0.468759 0.554815
0.517069 0.474040 0.560097
0.513745 0.479322 0.565378
0.510421 0.484604 0.570660
0.507097 0.489885 0.575942
0.503773 0.495167 0.581223
0.500448 0.500448 0.586505
0.497124 0.505730 0.591786
0.493800 0.511012 0.597068
0.490476 0.516293 0.602350
0.487152 0.521575 0.607631
0.483828 0.526856 0.612913
0.480504 0.532138 0.618194
0.544058 0.449396 0.544058
0.540734 0.454677 0.549339
0.537410 0.459959 0.554621
0.534086 0.465241 0.559903
0.530762 0.470522 0.565184
0.527438 0.475804 0.570466
0.524114 0.481085 0.575747
0.520789 0.486367 0.581029
0.517465 0.491649 0.586311
0.514141 0.496930 0.591592
0.510817 0.502212 0.596874
0.507493 0.507493 0.602155
0.504169 0.512775 0.607437
0.500845 0.518057 0.612719
0.497521 0.523338 0.618000
0.494197 0.528620 0.623282
0.490873 0.533901 0.628563
0.554427 0.451159 0.554427
0.551103 0.456441 0.559708
0.547779 0.461722 0.564990
0.544455 0.467004 0.570271
0.541131 0.472285 0.575553
0.537806 0.477567 0.580835
0.534482 0.482849 0.586116
0.531158 0.488130 0.591398
0.527834 0.493412 0.596679
0.524510 0.498693 0.601961
0.521186 0.503975 0.607243
0.517862 0.509257 0.612524
0.514538 0.514538 0.617806
0.511214 0.519820 0.623087
0.507890 0.525101 0.628369
0.504566 0.530383 0.633651
0.501242 0.535665 0.638932
0.564796 0.452922 0.564796
0.561472 0.458204 0.570077
0.558147 0.463485 0.575359
0.554823 0.468767 0.580640
0.551499 0.474049 0.585922
0.548175 0.479330 0.591204
0.544851 0.484612 0.596485
0.541527 0.489893 0.601767
0.538203 0.495175 0.607048
0.534879 0.500457 0.612330
0.531555 0.505738 0.617612
0.528231 0.511020 0.622893
0.524907 0.516301 0.628175
0.521583 0.521583 0.633456
0.518259 0.526865 0.638738
0.514935 0.532146 0.644020
0.511611 0.537428 0.649301
0.575164 0.454686 0.575164
0.571840 0.459967 0.580446
0.568516 0.465249 0.585728
0.565192 0.470530 0.591009
0.561868 0.475812 0.596291
0.558544 0.481093 0.601572
0.555220 0.486375 0.606854
0.551896 0.491657 0.612136
0.548572 0.496938 0.617417
0.545248 0.502220 0.622699
0.541924 0.507501 0.627980
0.538600 0.512783 0.633262
0.535276 0.518065 0.638544
0.531952 0.523346 0.643825
0.528628 0.528628 0.649107
0.525304 0.533909 0.654388
0.521980 0.539191 0.659670
0.585533 0.456449 0.585533
0.582209 0.461730 0.590815
0.578885 0.467012 0.596097
0.575561 0.472294 0.601378
0.572237 0.477575 0.606660
0.568913 0.482857 0.611941
0.565589 0.488138 0.617223
0.562265 0.493420 0.622505
0.558941 0.498702 0.627786
0.555617 0.503983 0.633068
0.552293 0.509265 0.638349
0.548969 0.514546 0.643631
0.545645 0.519828 0.648913
0.542321 0.525110 0.654194
0.538997 0.530391 0.659476
0.535673 0.535673 0.664757
0.532349 0.540954 0.670039
0.595902 0.458212 0.595902
0.592578 0.463494 0.601184
0.589254 0.468775 0.606465
0.585930 0.474057 0.611747
0.582606 0.479338 0.617029
0.579282 0.484620 0.622310
0.575958 0.489902 0.627592
0.572634 0.495183 0.632873
0.569310 0.500465 0.638155
0.565986 0.505746 0.643437
0.562662 0.511028 0.648718
0.559338 0.516310 0.654000
0.556014 0.521591 0.659281
0.552690 0.526873 0.664563
0.549366 0.532154 0.669845
0.546042 0.537436 0.675126
0.542718 0.542718 0.680408
0.432014 0.432014 0.423408
0.428690 0.437295 0.428690
0.425366 0.442577 0.433971
0.422042 0.447859 0.439253
0.418718 0.453140 0.444534
0.415394 0.458422 0.449816
0.412069 0.463703 0.455098
0.408745 0.468985 0.460379
0.405421 0.474267 0.465661
0.402097 0.479548 0.470942
0.398773 0.484830 0.476224
0.395449 0.490111 0.481506
0.392125 0.495393 0.486787
0.388801 0.500674 0.492069
0.385477 0.505956 0.497350
0.382153 0.511238 0.502632
0.378829 0.516519 0.507914
0.442383 0.433777 0.433777
0.439059 0.439059 0.439059
0.435735 0.444340 0.444340
0.432410 0.449622 0.449622
0.429086 0.454903 0.454903
0.425762 0.460185 0.460185
0.422438 0.465467 0.465467
0.419114 0.470748 0.470748
0.415790 0.476030 0.476030
0.412466 0.481311 0.481311
0.409142 0.486593 0.486593
0.405818 0.491875 0.491875
0.402494 0.497156 0.497156
0.399170 0.502438 0.502438
0.395846 0.507719 0.507719
0.392522 0.513001 0.513001
0.389198 0.518283 0.518283
0.452751 0.435540 0.444146
0.449427 0.440822 0.449427
0.446103 0.446103 0.454709
0.442779 0.451385 0.459991
0.439455 0.456667 0.465272
0.436131 0.461948 0.470554
0.432807 0.467230 0.475835
0.429483 0.472511 0.481117
0.426159 0.477793 0.486399
0.422835 0.483075 0.491680
0.419511 0.488356 0.496962
0.416187 0.493638 0.502243
0.412863 0.498919 0.507525
0.409539 0.504201 0.512807
0.406215 0.509483 0.518088
0.402891 0.514764 0.523370
0.399567 0.520046 0.528651
0.463120 0.437303 0.454515
0.459796 0.442585 0.459796
0.456472 0.447867 0.465078
0.453148 0.453148 0.470360
0.449824 0.458430 0.475641
0.446500 0.463711 0.480923
0.443176 0.468993 0.486204
0.439852 0.474275 0.491486
0.436528 0.479556 0.496768
0.433204 0.484838 0.502049
0.429880 0.490119 0.507331
0.426556 0.495401 0.512612
0.423232 0.500683 0.517894
0.419908 0.505964 0.523176
0.416584 0.511246 0.528457
0.413260 0.516527 0.533739
0.409936 0.521809 0.539020
0.473489 0.439067 0.464884
0.470165 0.444348 0.470165
0.466841 0.449630 0.475447
0.463517 0.454912 0.480728
0.460193 0.460193 0.486010
0.456869 0.465475 0.491292
0.453545 0.470756 0.496573
0.450221 0.476038 0.501855
0.446897 0.481320 0.507136
0.443573 0.486601 0.512418
0.440249 0.491883 0.517700
0.436925 0.497164 0.522981
0.433601 0.502446 0.528263
0.430277 0.507727 0.533544
0.426953 0.513009 0.538826
0.423629 0.518291 0.544108
0.420305 0.523572 0.549389
0.483858 0.440830 0.475253
0.480534 0.446112 0.480534
0.477210 0.451393 0.485816
0.473886 0.456675 0.491097
0.470562 0.461956 0.496379
0.467238 0.467238 0.501661
0.463914 0.472520 0.506942
0.460590 0.477801 0.512224
0.457266 0.483083 0.517505
0.453942 0.488364 0.522787
0.450618 0.493646 0.528069
0.447294 0.498928 0.533350
0.443970 0.504209 0.538632
0.440646 0.509491 0.543913
0.437322 0.514772 0.549195
0.433998 0.520054 0.554477
0.430674 0.525336 0.559758
0.494227 0.442593 0.485621
0.490903 0.447875 0.490903
0.487579 0.453156 0.496185
0.484255 0.458438 0.501466
0.480931 0.463720 0.506748
0.477607 0.469001 0.512029
0.474283 0.474283 0.517311
0.470959 0.479564 0.522593
0.467635 0.484846 0.527874
0.464311 0.490128 0.533156
0.460987 0.495409 0.538437
0.457663 0.500691 0.543719
0.454339 0.505972 0.549001
0.451015 0.511254 0.554282
0.447690 0.516536 0.559564
0.444366 0.521817 0.564845
0.441042 0.527099 0.570127
0.504596 0.444356 0.495990
0.501272 0.449638 0.501272
0.497948 0.454920 0.506554
0.494624 0.460201 0.511835
0.491300 0.465483 0.517117
0.487976 0.470764 0.522398
0.484652 0.476046 0.527680
0.481328 0.481328 0.532961
0.478004 0.486609 0.538243
0.474680 0.491891 0.543525
0.471356 0.497172 0.548806
0.468031 0.502454 0.554088
0.464707 0.507736 0.559369
0.461383 0.513017 0.564651
0.458059 0.518299 0.569933
0.454735 0.523580 0.575214
0.451411 0.528862 0.580496
0.514965 0.446120 0.506359
0.511641 0.451401 0.511641
0.508317 0.456683 0.516922
0.504993 0.461965 0.522204
0.501669 0.467246 0.527486
0.498345 0.472528 0.532767
0.495021 0.477809 0.538049
0.491697 0.483091 0.543330
0.488373 0.488373 0.548612
0.485048 0.493654 0.553894
0.481724 0.498936 0.559175
0.478400 0.504217 0.564457
0.475076 0.509499 0.569738
0.471752 0.514780 0.575020
0.468428 0.520062 0.580302
0.465104 0.525344 0.585583
0.461780 0.530625 0.590865
0.525334 0.447883 0.516728
0.522010 0.453165 0.522010
0.518686 0.458446 0.527291
0.515362 0.463728 0.532573
0.512038 0.469009 0.537854
0.508714 0.474291 0.543136
0.505389 0.479573 0.548418
0.502065 0.484854 0.553699
0.498741 0.490136 0.558981
0.495417 0.495417 0.564262
0.492093 0.500699 0.569544
0.488769 0.505981 0.574826
0.485445 0.511262 0.580107
0.482121 0.516544 0.585389
0.478797 0.521825 0.590670
0.475473 0.527107 0.595952
0.472149 0.532389 0.601234
0.535703 0.449646 0.527097
0.532379 0.454928 0.532379
0.529055 0.460209 0.537660
0.525730 0.465491 0.542942
0.522406 0.470773 0.548223
0.519082 0.476054 0.553505
0.515758 0.481336 0.558787
0.512434 0.486617 0.564068
0.509110 0.491899 0.569350
0.505786 0.497181 0.574631
0.502462 0.502462 0.579913
0.499138 0.507744 0.585195
0.495814 0.513025 0.590476
0.492490 0.518307 0.595758
0.489166 0.523589 0.601039
0.485842 0.528870 0.606321
0.482518 0.534152 0.611603
0.546072 0.451409 0.537466
0.542747 0.456691 0.542747
0.539423 0.461973 0.548029
0.536099 0.467254 0.553311
0.532775 0.472536 0.558592
0.529451 0.477817 0.563874
0.526127 0.483099 0.569155
0.522803 0.488381 0.574437
0.519479 0.493662 0.579719
0.516155 0.498944 0.585000
0.512831 0.504225 0.590282
0.509507 0.509507 0.595563
0.506183 0.514789 0.600845
0.502859 0.520070 0.606127
0.499535 0.525352 0.611408
0.496211 0.530633 0.616690
0.492887 0.535915 0.621971
0.556440 0.453173 0.547835
0.553116 0.458454 0.553116
0.549792 0.463736 0.558398
0.546468 0.469018 0.563680
0.543144 0.474299 0.568961
0.539820 0.479581 0.574243
0.536496 0.484862 0.579524
0.533172 0.490144 0.584806
0.529848 0.495426 0.590088
0.526524 0.500707 0.595369
0.523200 0.505989 0.600651
0.519876 0.511270 0.605932
0.516552 0.516552 0.611214
0.513228 0.521833 0.616496
0.509904 0.527115 0.621777
0.506580 0.532397 0.627059
0.503256 0.537678 0.632340
0.566809 0.454936 0.558204
0.563485 0.460218 0.563485
0.560161 0.465499 0.568767
0.556837 0.470781 0.574048
0.553513 0.476062 0.579330
0.550189 0.481344 0.584612
0.546865 0.486626 0.589893
0.543541 0.491907 0.595175
0.540217 0.497189 0.600456
0.536893 0.502470 0.605738
0.533569 0.507752 0.611020
0.530245 0.513034 0.616301
0.526921 0.518315 0.621583
0.523597 0.523597 0.626864
0.520273 0.528878 0.632146
0.516949 0.534160 0.637428
0.513625 0.539442 0.642709
0.577178 0.456699 0.568573
0.573854 0.461981 0.573854
0.570530 0.467262 0.579136
0.567206 0.472544 0.584417
0.563882 0.477826 0.589699
0.560558 0.483107 0.594981
0.557234 0.488389 0.600262
0.553910 0.493670 0.605544
0.550586 0.498952 0.610825
0.547262 0.504234 0.616107
0.543938 0.509515 0.621389
0.540614 0.514797 0.626670
0.537290 0.520078 0.631952
0.533966 0.525360 0.637233
0.530642 0.530642 0.642515
0.527318 0.535923 0.647797
0.523994 0.541205 0.653078
0.587547 0.458462 0.578941
0.584223 0.463744 0.584223
0.580899 0.469026 0.589505
0.577575 0.474307 0.594786
0.574251 0.479589 0.600068
0.570927 0.484870 0.605349
0.567603 0.490152 0.610631
0.564279 0.495434 0.615913
0.560955 0.500715 0.621194
0.557631 0.505997 0.626476
0.554307 0.511278 0.631757
0.550983 0.516560 0.637039
0.547659 0.521842 0.642321
0.544335 0.527123 0.647602
0.541010 0.532405 0.652884
0.537686 0.537686 0.658165
0.534362 0.542968 0.663447
0.597916 0.460226 0.589310
0.594592 0.465507 0.594592
0.591268 0.470789 0.599874
0.587944 0.476071 0.605155
0.584620 0.481352 0.610437
0.581296 0.486634 0.615718
0.577972 0.491915 0.621000
0.574648 0.497197 0.626282
0.571324 0.502479 0.631563
0.568000 0.507760 0.636845
0.564676 0.513042 0.642126
0.561352 0.518323 0.647408
0.558027 0.523605 0.652689
0.554703 0.528886 0.657971
0.551379 0.534168 0.663253
0.548055 0.539450 0.668534
0.544731 0.544731 0.673816
0.434027 0.434027 0.416816
0.430703 0.439309 0.422098
0.427379 0.444591 0.427379
0.424055 0.449872 0.432661
0.420731 0.455154 0.437943
0.417407 0.460435 0.443224
0.414083 0.465717 0.448506
0.410759 0.470999 0.453787
0.407435 0.476280 0.459069
0.404111 0.481562 0.464351
0.400787 0.486843 0.469632
0.397463 0.492125 0.474914
0.394139 0.497407 0.480195
0.390815 0.502688 0.485477
0.387491 0.507970 0.490759
0.384167 0.513251 0.496040
0.380843 0.518533 0.501322
0.444396 0.435791 0.427185
0.441072 0.441072 0.432467
0.437748 0.446354 0.437748
0.434424 0.451635 0.443030
0.431100 0.456917 0.448311
0.427776 0.462199 0.453593
0.424452 0.467480 0.458875
0.421128 0.472762 0.464156
0.417804 0.478043 0.469438
0.414480 0.483325 0.474719
0.411156 0.488607 0.480001
0.407832 0.493888 0.485283
0.404508 0.499170 0.490564
0.401184 0.504451 0.495846
0.397860 0.509733 0.501127
0.394536 0.515015 0.506409
0.391212 0.520296 0.511691
0.454765 0.437554 0.437554
0.451441 0.442836 0.442836
0.448117 0.448117 0.448117
0.444793 0.453399 0.453399
0.441469 0.458680 0.458680
0.438145 0.463962 0.463962
0.434821 0.469244 0.469244
0.431497 0.474525 0.474525
0.428173 0.479807 0.479807
0.424849 0.485088 0.485088
0.421525 0.490370 0.490370
0.418201 0.495652 0.495652
0.414877 0.500933 0.500933
0.411553 0.506215 0.506215
0.408229 0.511496 0.511496
0.404905 0.516778 0.516778
0.401581 0.522060 0.522060
0.465134 0.439317 0.447923
0.461810 0.444599 0.453204
0.458486 0.449880 0.458486
0.455162 0.455162 0.463768
0.451838 0.460444 0.469049
0.448514 0.465725 0.474331
0.445190 0.471007 0.479612
0.441866 0.476288 0.484894
0.438542 0.481570 0.490176
0.435218 0.486852 0.495457
0.431894 0.492133 0.500739
0.428570 0.497415 0.506020
0.425246 0.502696 0.511302
0.421922 0.507978 0.516584
0.418598 0.513260 0.521865
0.415273 0.518541 0.527147
0.411949 0.523823 0.532428
0.475503 0.441080 0.458292
0.472179 0.446362 0.463573
0.468855 0.451644 0.468855
0.465531 0.456925 0.474137
0.462207 0.462207 0.479418
0.458883 0.467488 0.484700
0.455559 0.472770 0.489981
0.452235 0.478052 0.495263
0.448911 0.483333 0.500545
0.445587 0.488615 0.505826
0.442263 0.493896 0.511108
0.438939 0.499178 0.516389
0.435615 0.504460 0.521671
0.432290 0.509741 0.526952
0.428966 0.515023 0.532234
0.425642 0.520304 0.537516
0.422318 0.525586 0.542797
0.485872 0.442844 0.468661
0.482548 0.448125 0.473942
0.479224 0.453407 0.479224
0.475900 0.458688 0.484505
0.472576 0.463970 0.489787
0.469252 0.469252 0.495069
0.465928 0.474533 0.500350
0.462604 0.479815 0.505632
0.459280 0.485096 0.510913
0.455956 0.490378 0.516195
0.452631 0.495660 0.521477
0.449307 0.500941 0.526758
0.445983 0.506223 0.532040
0.442659 0.511504 0.537321
0.439335 0.516786 0.542603
0.436011 0.522068 0.547885
0.432687 0.527349 0.553166
0.496241 0.444607 0.479029
0.492917 0.449889 0.484311
0.489593 0.455170 0.489593
0.486269 0.460452 0.494874
0.482945 0.465733 0.500156
0.479621 0.471015 0.505437
0.476297 0.476297 0.510719
0.472972 0.481578 0.516001
0.469648 0.486860 0.521282
0.466324 0.492141 0.526564
0.463000 0.497423 0.531845
0.459676 0.502705 0.537127
0.456352 0.507986 0.542409
0.453028 0.513268 0.547690
0.449704 0.518549 0.552972
0.446380 0.523831 0.558253
0.443056 0.529113 0.563535
0.506610 0.446370 0.489398
0.503286 0.451652 0.494680
0.499962 0.456933 0.499962
0.496638 0.462215 0.505243
0.493314 0.467497 0.510525
0.489989 0.472778 0.515806
0.486665 0.478060 0.521088
0.483341 0.483341 0.526370
0.480017 0.488623 0.531651
0.476693 0.493905 0.536933
0.473369 0.499186 0.542214
0.470045 0.504468 0.547496
0.466721 0.509749 0.552778
0.463397 0.515031 0.558059
0.460073 0.520313 0.563341
0.456749 0.525594 0.568622
0.453425 0.530876 0.573904
0.516979 0.448133 0.499767
0.513655 0.453415 0.505049
0.510330 0.458697 0.510330
0.507006 0.463978 0.515612
0.503682 0.469260 0.520894
0.500358 0.474541 0.526175
0.497034 0.479823 0.531457
0.493710 0.485105 0.536738
0.490386 0.490386 0.542020
0.487062 0.495668 0.547302
0.483738 0.500949 0.552583
0.480414 0.506231 0.557865
0.477090 0.511513 0.563146
0.473766 0.516794 0.568428
0.470442 0.522076 0.573710
0.467118 0.527357 0.578991
0.463794 0.532639 0.584273
0.527347 0.449897 0.510136
0.524023 0.455178 0.515418
0.520699 0.460460 0.520699
0.517375 0.465741 0.525981
0.514051 0.471023 0.531263
0.510727 0.476305 0.536544
0.507403 0.481586 0.541826
0.504079 0.486868 0.547107
0.500755 0.492149 0.552389
0.497431 0.497431 0.557671
0.494107 0.502713 0.562952
0.490783 0.507994 0.568234
0.487459 0.513276 0.573515
0.484135 0.518557 0.578797
0.480811 0.523839 0.584079
0.477487 0.529121 0.589360
0.474163 0.534402 0.594642
0.537716 0.451660 0.520505
0.534392 0.456942 0.525787
0.531068 0.462223 0.531068
0.527744 0.467505 0.536350
0.524420 0.472786 0.541631
0.521096 0.478068 0.546913
0.517772 0.483350 0.552195
0.514448 0.488631 0.557476
0.511124 0.493913 0.562758
0.507800 0.499194 0.568039
0.504476 0.504476 0.573321
0.501152 0.509758 0.578603
0.497828 0.515039 0.583884
0.494504 0.520321 0.589166
0.491180 0.525602 0.594447
0.487856 0.530884 0.599729
0.484532 0.536166 0.605011
0.548085 0.453423 0.530874
0.544761 0.458705 0.536156
0.541437 0.463986 0.541437
0.538113 0.469268 0.546719
0.534789 0.474550 0.552000
0.531465 0.479831 0.557282
0.528141 0.485113 0.562564
0.524817 0.490394 0.567845
0.521493 0.495676 0.573127
0.518169 0.500958 0.578408
0.514845 0.506239 0.583690
0.511521 0.511521 0.588972
0.508197 0.516802 0.594253
0.504873 0.522084 0.599535
0.501549 0.527366 0.604816
0.498225 0.532647 0.610098
0.494901 0.537929 0.615380
0.558454 0.455186 0.541243
0.555130 0.460468 0.546524
0.551806 0.465750 0.551806
0.548482 0.471031 0.557088
0.545158 0.476313 0.562369
0.541834 0.481594 0.567651
0.538510 0.486876 0.572932
0.535186 0.492158 0.578214
0.531862 0.497439 0.583496
0.528538 0.502721 0.588777
0.525214 0.508002 0.594059
0.521890 0.513284 0.599340
0.518566 0.518566 0.604622
0.515242 0.523847 0.609904
0.511918 0.529129 0.615185
0.508593 0.534410 0.620467
0.505269 0.539692 0.625748
0.568823 0.456950 0.551612
0.565499 0.462231 0.556893
0.562175 0.467513 0.562175
0.558851 0.472794 0.567457
0.555527 0.478076 0.572738
0.552203 0.483358 0.578020
0.548879 0.488639 0.583301
0.545555 0.493921 0.588583
0.542231 0.499202 0.593865
0.538907 0.504484 0.599146
0.535583 0.509766 0.604428
0.532259 0.515047 0.609709
0.528935 0.520329 0.614991
0.525610 0.525610 0.620273
0.522286 0.530892 0.625554
0.518962 0.536174 0.630836
0.515638 0.541455 0.636117
0.579192 0.458713 0.561981
0.575868 0.463995 0.567262
0.572544 0.469276 0.572544
0.569220 0.474558 0.577825
0.565896 0.479839 0.583107
0.562572 0.485121 0.588389
0.559248 0.490403 0.593670
0.555924 0.495684 0.598952
0.552600 0.500966 0.604233
0.549276 0.506247 0.609515
0.545951 0.511529 0.614797
0.542627 0.516811 0.620078
0.539303 0.522092 0.625360
0.535979 0.527374 0.630641
0.532655 0.532655 0.635923
0.529331 0.537937 0.641205
0.526007 0.543219 0.646486
0.589561 0.460476 0.572350
0.586237 0.465758 0.577631
0.582913 0.471039 0.582913
0.579589 0.476321 0.588194
0.576265 0.481603 0.593476
0.572941 0.486884 0.598757
0.569617 0.492166 0.604039
0.566292 0.497447 0.609321
0.562968 0.502729 0.614602
0.559644 0.508011 0.619884
0.556320 0.513292 0.625165
0.552996 0.518574 0.630447
0.549672 0.523855 0.635729
0.546348 0.529137 0.641010
0.543024 0.534419 0.646292
0.539700 0.539700 0.651573
0.536376 0.544982 0.656855
0.599930 0.462239 0.582718
0.596606 0.467521 0.588000
0.593282 0.472803 0.593282
0.589958 0.478084 0.598563
0.586634 0.483366 0.603845
0.583309 0.488647 0.609126
0.579985 0.493929 0.614408
0.576661 0.499211 0.619690
0.573337 0.504492 0.624971
0.570013 0.509774 0.630253
0.566689 0.515055 0.635534
0.563365 0.520337 0.640816
0.560041 0.525619 0.646098
0.556717 0.530900 0.651379
0.553393 0.536182 0.656661
0.550069 0.541463 0.661942
0.546745 0.546745 0.667224
0.436041 0.436041 0.410224
0.432717 0.441323 0.415506
0.429393 0.446604 0.420787
0.426069 0.451886 0.426069
0.422745 0.457168 0.431351
0.419421 0.462449 0.436632
0.416097 0.467731 0.441914
0.412773 0.473012 0.447195
0.409449 0.478294 0.452477
0.406125 0.483576 0.457759
0.402801 0.488857 0.463040
0.399477 0.494139 0.468322
0.396153 0.499420 0.473603
0.392829 0.504702 0.478885
0.389505 0.509984 0.484167
0.386181 0.515265 0.489448
0.382856 0.520547 0.494730
0.446410 0.437804 0.420593
