shared/src/main/assets/luts/mv_sick_yellow.cube
TITLE "DALUR Sick Yellow"
LUT_3D_SIZE 9
DOMAIN_MIN 0.0 0.0 0.0
DOMAIN_MAX 1.0 1.0 1.0
0.426000 0.427000 0.414000
0.434485 0.431621 0.418621
0.442970 0.436242 0.423242
0.451454 0.440863 0.427863
0.459939 0.445484 0.432484
0.468424 0.450105 0.437105
0.476909 0.454726 0.441726
0.485393 0.459347 0.446347
0.493878 0.463968 0.450968
0.435072 0.439936 0.423072
0.443557 0.444557 0.427693
0.452042 0.449178 0.432314
0.460526 0.453799 0.436935
0.469011 0.458420 0.441556
0.477496 0.463041 0.446177
0.485981 0.467662 0.450798
0.494466 0.472283 0.455419
0.502950 0.476904 0.460040
0.444144 0.452872 0.432144
0.452629 0.457493 0.436765
0.461114 0.462114 0.441386
0.469599 0.466735 0.446007
0.478083 0.471356 0.450628
0.486568 0.475977 0.455249
0.495053 0.480598 0.459870
0.503538 0.485219 0.464491
0.512022 0.489840 0.469112
0.453216 0.465807 0.441216
0.461701 0.470428 0.445837
0.470186 0.475050 0.450458
0.478671 0.479671 0.455079
0.487155 0.484292 0.459700
0.495640 0.488913 0.464321
0.504125 0.493534 0.468942
0.512610 0.498155 0.473563
0.521094 0.502776 0.478185
0.462288 0.478743 0.450288
0.470773 0.483364 0.454909
0.479258 0.487985 0.459530
0.487743 0.492606 0.464151
0.496227 0.497227 0.468772
0.504712 0.501848 0.473393
0.513197 0.506470 0.478015
0.521682 0.511091 0.482636
0.530167 0.515712 0.487257
0.471360 0.491679 0.459360
0.479845 0.496300 0.463981
0.488330 0.500921 0.468602
0.496815 0.505542 0.473223
0.505300 0.510163 0.477845
0.513784 0.514784 0.482466
0.522269 0.519405 0.487087
0.530754 0.524026 0.491708
0.539239 0.528647 0.496329
0.480432 0.504615 0.468432
0.488917 0.509236 0.473053
0.497402 0.513857 0.477675
0.505887 0.518478 0.482296
0.514372 0.523099 0.486917
0.522856 0.527720 0.491538
0.531341 0.532341 0.496159
0.539826 0.536962 0.500780
0.548311 0.541583 0.505401
0.489505 0.517551 0.477505
0.497989 0.522172 0.482126
0.506474 0.526793 0.486747
0.514959 0.531414 0.491368
0.523444 0.536035 0.495989
0.531928 0.540656 0.500610
0.540413 0.545277 0.505231
0.548898 0.549898 0.509852
0.557383 0.554519 0.514473
0.498577 0.530487 0.486577
0.507061 0.535108 0.491198
0.515546 0.539729 0.495819
0.524031 0.544350 0.500440
0.532516 0.548971 0.505061
0.541001 0.553592 0.509682
0.549485 0.558213 0.514303
0.557970 0.562834 0.518924
0.566455 0.567455 0.523545
0.427762 0.428762 0.419626
0.436247 0.433383 0.424247
0.444731 0.438004 0.428868
0.453216 0.442625 0.433489
0.461701 0.447246 0.438110
0.470186 0.451867 0.442731
0.478671 0.456488 0.447352
0.487155 0.461109 0.451973
0.495640 0.465730 0.456594
0.436834 0.441698 0.428698
0.445319 0.446319 0.433319
0.453804 0.450940 0.437940
0.462288 0.455561 0.442561
0.470773 0.460182 0.447182
0.479258 0.464803 0.451803
0.487743 0.469424 0.456424
0.496227 0.474045 0.461045
0.504712 0.478666 0.465666
0.445906 0.454634 0.437770
0.454391 0.459255 0.442391
0.462876 0.463876 0.447012
0.471360 0.468497 0.451633
0.479845 0.473118 0.456254
0.488330 0.477739 0.460875
0.496815 0.482360 0.465496
0.505300 0.486981 0.470117
0.513784 0.491602 0.474738
0.454978 0.467569 0.446842
0.463463 0.472190 0.451463
0.471948 0.476811 0.456084
0.480432 0.481432 0.460705
0.488917 0.486053 0.465326
0.497402 0.490675 0.469947
0.505887 0.495296 0.474568
0.514372 0.499917 0.479189
0.522856 0.504538 0.483810
0.464050 0.480505 0.455914
0.472535 0.485126 0.460535
0.481020 0.489747 0.465156
0.489505 0.494368 0.469777
0.497989 0.498989 0.474398
0.506474 0.503610 0.479019
0.514959 0.508231 0.483640
0.523444 0.512852 0.488261
0.531928 0.517473 0.492882
0.473122 0.493441 0.464986
0.481607 0.498062 0.469607
0.490092 0.502683 0.474228
0.498577 0.507304 0.478849
0.507061 0.511925 0.483470
0.515546 0.516546 0.488091
0.524031 0.521167 0.492712
0.532516 0.525788 0.497333
0.541001 0.530409 0.501954
0.482194 0.506377 0.474058
0.490679 0.510998 0.478679
0.499164 0.515619 0.483300
0.507649 0.520240 0.487921
0.516133 0.524861 0.492542
0.524618 0.529482 0.497163
0.533103 0.534103 0.501784
0.541588 0.538724 0.506405
0.550073 0.543345 0.511026
0.491266 0.519313 0.483130
0.499751 0.523934 0.487751
0.508236 0.528555 0.492372
0.516721 0.533176 0.496993
0.525206 0.537797 0.501614
0.533690 0.542418 0.506235
0.542175 0.547039 0.510856
0.550660 0.551660 0.515477
0.559145 0.556281 0.520098
0.500338 0.532248 0.492202
0.508823 0.536869 0.496823
0.517308 0.541491 0.501444
0.525793 0.546112 0.506065
0.534278 0.550733 0.510686
0.542762 0.555354 0.515307
0.551247 0.559975 0.519928
0.559732 0.564596 0.524549
0.568217 0.569217 0.529171
0.429524 0.430524 0.425251
0.438009 0.435145 0.429872
0.446493 0.439766 0.434493
0.454978 0.444387 0.439114
0.463463 0.449008 0.443735
0.471948 0.453629 0.448356
0.480432 0.458250 0.452977
0.488917 0.462871 0.457599
0.497402 0.467492 0.462220
0.438596 0.443460 0.434323
0.447081 0.448081 0.438944
0.455565 0.452702 0.443565
0.464050 0.457323 0.448186
0.472535 0.461944 0.452807
0.481020 0.466565 0.457428
0.489505 0.471186 0.462050
0.497989 0.475807 0.466671
0.506474 0.480428 0.471292
0.447668 0.456395 0.443395
0.456153 0.461016 0.448016
0.464637 0.465637 0.452637
0.473122 0.470258 0.457258
0.481607 0.474880 0.461880
0.490092 0.479501 0.466501
0.498577 0.484122 0.471122
0.507061 0.488743 0.475743
0.515546 0.493364 0.480364
0.456740 0.469331 0.452467
0.465225 0.473952 0.457088
0.473710 0.478573 0.461710
0.482194 0.483194 0.466331
0.490679 0.487815 0.470952
0.499164 0.492436 0.475573
0.507649 0.497057 0.480194
0.516133 0.501678 0.484815
0.524618 0.506300 0.489436
0.465812 0.482267 0.461540
0.474297 0.486888 0.466161
0.482782 0.491509 0.470782
0.491266 0.496130 0.475403
0.499751 0.500751 0.480024
0.508236 0.505372 0.484645
0.516721 0.509993 0.489266
0.525206 0.514614 0.493887
0.533690 0.519235 0.498508
0.474884 0.495203 0.470612
0.483369 0.499824 0.475233
0.491854 0.504445 0.479854
0.500338 0.509066 0.484475
0.508823 0.513687 0.489096
0.517308 0.518308 0.493717
0.525793 0.522929 0.498338
0.534278 0.527550 0.502959
0.542762 0.532171 0.507580
0.483956 0.508139 0.479684
0.492441 0.512760 0.484305
0.500926 0.517381 0.488926
0.509411 0.522002 0.493547
0.517895 0.526623 0.498168
0.526380 0.531244 0.502789
0.534865 0.535865 0.507410
0.543350 0.540486 0.512031
0.551834 0.545107 0.516652
0.493028 0.521074 0.488756
0.501513 0.525696 0.493377
0.509998 0.530317 0.497998
0.518483 0.534938 0.502619
0.526967 0.539559 0.507240
0.535452 0.544180 0.511861
0.543937 0.548801 0.516482
0.552422 0.553422 0.521103
0.560907 0.558043 0.525724
0.502100 0.534010 0.497828
0.510585 0.538631 0.502449
0.519070 0.543252 0.507070
0.527555 0.547873 0.511691
0.536039 0.552494 0.516312
0.544524 0.557115 0.520933
0.553009 0.561737 0.525554
0.561494 0.566358 0.530175
0.569979 0.570979 0.534796
0.431286 0.432286 0.430877
0.439770 0.436907 0.435498
0.448255 0.441528 0.440119
0.456740 0.446149 0.444740
0.465225 0.450770 0.449361
0.473710 0.455391 0.453982
0.482194 0.460012 0.458603
0.490679 0.464633 0.463224
0.499164 0.469254 0.467845
0.440358 0.445221 0.439949
0.448842 0.449842 0.444570
0.457327 0.454464 0.449191
0.465812 0.459085 0.453812
0.474297 0.463706 0.458433
0.482782 0.468327 0.463054
0.491266 0.472948 0.467675
0.499751 0.477569 0.472296
0.508236 0.482190 0.476917
0.449430 0.458157 0.449021
0.457915 0.462778 0.453642
0.466399 0.467399 0.458263
0.474884 0.472020 0.462884
0.483369 0.476641 0.467505
0.491854 0.481262 0.472126
0.500338 0.485883 0.476747
0.508823 0.490505 0.481368
0.517308 0.495126 0.485989
0.458502 0.471093 0.458093
0.466987 0.475714 0.462714
0.475471 0.480335 0.467335
0.483956 0.484956 0.471956
0.492441 0.489577 0.476577
0.500926 0.494198 0.481198
0.509411 0.498819 0.485819
0.517895 0.503440 0.490440
0.526380 0.508061 0.495061
0.467574 0.484029 0.467165
0.476059 0.488650 0.471786
0.484543 0.493271 0.476407
0.493028 0.497892 0.481028
0.501513 0.502513 0.485649
0.509998 0.507134 0.490270
0.518483 0.511755 0.494891
0.526967 0.516376 0.499512
0.535452 0.520997 0.504133
0.476646 0.496965 0.476237
0.485131 0.501586 0.480858
0.493616 0.506207 0.485479
0.502100 0.510828 0.490100
0.510585 0.515449 0.494721
0.519070 0.520070 0.499342
0.527555 0.524691 0.503963
0.536039 0.529312 0.508584
0.544524 0.533933 0.513206
0.485718 0.509901 0.485309
0.494203 0.514522 0.489930
0.502688 0.519143 0.494551
0.511172 0.523764 0.499172
0.519657 0.528385 0.503793
0.528142 0.533006 0.508414
0.536627 0.537627 0.513036
0.545112 0.542248 0.517657
0.553596 0.546869 0.522278
0.494790 0.522836 0.494381
0.503275 0.527457 0.499002
0.511760 0.532078 0.503623
0.520244 0.536699 0.508244
0.528729 0.541320 0.512866
0.537214 0.545942 0.517487
0.545699 0.550563 0.522108
0.554184 0.555184 0.526729
0.562668 0.559805 0.531350
0.503862 0.535772 0.503453
0.512347 0.540393 0.508074
0.520832 0.545014 0.512696
0.529317 0.549635 0.517317
0.537801 0.554256 0.521938
0.546286 0.558877 0.526559
0.554771 0.563498 0.531180
0.563256 0.568119 0.535801
0.571740 0.572740 0.540422
0.433047 0.434047 0.436502
0.441532 0.438669 0.441123
0.450017 0.443290 0.445745
0.458502 0.447911 0.450366
0.466987 0.452532 0.454987
0.475471 0.457153 0.459608
0.483956 0.461774 0.464229
0.492441 0.466395 0.468850
0.500926 0.471016 0.473471
0.442120 0.446983 0.445575
0.450604 0.451604 0.450196
0.459089 0.456225 0.454817
0.467574 0.460846 0.459438
0.476059 0.465467 0.464059
0.484543 0.470088 0.468680
0.493028 0.474710 0.473301
0.501513 0.479331 0.477922
0.509998 0.483952 0.482543
0.451192 0.459919 0.454647
0.459676 0.464540 0.459268
0.468161 0.469161 0.463889
0.476646 0.473782 0.468510
0.485131 0.478403 0.473131
0.493616 0.483024 0.477752
0.502100 0.487645 0.482373
0.510585 0.492266 0.486994
0.519070 0.496887 0.491615
0.460264 0.472855 0.463719
0.468748 0.477476 0.468340
0.477233 0.482097 0.472961
0.485718 0.486718 0.477582
0.494203 0.491339 0.482203
0.502688 0.495960 0.486824
0.511172 0.500581 0.491445
0.519657 0.505202 0.496066
0.528142 0.509823 0.500687
0.469336 0.485791 0.472791
0.477821 0.490412 0.477412
0.486305 0.495033 0.482033
0.494790 0.499654 0.486654
0.503275 0.504275 0.491275
0.511760 0.508896 0.495896
0.520244 0.513517 0.500517
0.528729 0.518138 0.505138
0.537214 0.522759 0.509759
0.478408 0.498727 0.481863
0.486893 0.503348 0.486484
0.495377 0.507969 0.491105
0.503862 0.512590 0.495726
0.512347 0.517211 0.500347
0.520832 0.521832 0.504968
0.529317 0.526453 0.509589
0.537801 0.531074 0.514210
0.546286 0.535695 0.518831
0.487480 0.511662 0.490935
0.495965 0.516283 0.495556
0.504449 0.520904 0.500177
0.512934 0.525526 0.504798
0.521419 0.530147 0.509419
0.529904 0.534768 0.514040
0.538389 0.539389 0.518661
0.546873 0.544010 0.523282
0.555358 0.548631 0.527903
0.496552 0.524598 0.500007
0.505037 0.529219 0.504628
0.513522 0.533840 0.509249
0.522006 0.538461 0.513870
0.530491 0.543082 0.518491
0.538976 0.547703 0.523112
0.547461 0.552324 0.527733
0.555945 0.556945 0.532354
0.564430 0.561567 0.536975
0.505624 0.537534 0.509079
0.514109 0.542155 0.513700
0.522594 0.546776 0.518321
0.531078 0.551397 0.522942
0.539563 0.556018 0.527563
0.548048 0.560639 0.532184
0.556533 0.565260 0.536805
0.565018 0.569881 0.541426
0.573502 0.574502 0.546047
0.434809 0.435809 0.442128
0.443294 0.440430 0.446749
0.451779 0.445051 0.451370
0.460264 0.449672 0.455991
0.468748 0.454293 0.460612
0.477233 0.458915 0.465233
0.485718 0.463536 0.469854
0.494203 0.468157 0.474475
0.502688 0.472778 0.479096
0.443881 0.448745 0.451200
0.452366 0.453366 0.455821
0.460851 0.457987 0.460442
0.469336 0.462608 0.465063
0.477821 0.467229 0.469684
0.486305 0.471850 0.474305
0.494790 0.476471 0.478926
0.503275 0.481092 0.483547
0.511760 0.485713 0.488168
0.452953 0.461681 0.460272
0.461438 0.466302 0.464893
0.469923 0.470923 0.469514
0.478408 0.475544 0.474135
0.486893 0.480165 0.478756
0.495377 0.484786 0.483377
0.503862 0.489407 0.487998
0.512347 0.494028 0.492619
0.520832 0.498649 0.497241
0.462026 0.474617 0.469344
0.470510 0.479238 0.473965
0.478995 0.483859 0.478586
0.487480 0.488480 0.483207
0.495965 0.493101 0.487828
0.504449 0.497722 0.492449
0.512934 0.502343 0.497071
0.521419 0.506964 0.501692
0.529904 0.511585 0.506313
0.471098 0.487553 0.478416
0.479582 0.492174 0.483037
0.488067 0.496795 0.487658
0.496552 0.501416 0.492279
0.505037 0.506037 0.496901
0.513522 0.510658 0.501522
0.522006 0.515279 0.506143
0.530491 0.519900 0.510764
0.538976 0.524521 0.515385
0.480170 0.500488 0.487488
0.488654 0.505109 0.492109
0.497139 0.509731 0.496731
0.505624 0.514352 0.501352
0.514109 0.518973 0.505973
0.522594 0.523594 0.510594
0.531078 0.528215 0.515215
0.539563 0.532836 0.519836
0.548048 0.537457 0.524457
0.489242 0.513424 0.496561
0.497727 0.518045 0.501182
0.506211 0.522666 0.505803
0.514696 0.527287 0.510424
0.523181 0.531908 0.515045
0.531666 0.536529 0.519666
0.540150 0.541150 0.524287
0.548635 0.545772 0.528908
0.557120 0.550393 0.533529
0.498314 0.526360 0.505633
0.506799 0.530981 0.510254
0.515283 0.535602 0.514875
0.523768 0.540223 0.519496
0.532253 0.544844 0.524117
0.540738 0.549465 0.528738
0.549223 0.554086 0.533359
0.557707 0.558707 0.537980
0.566192 0.563328 0.542601
0.507386 0.539296 0.514705
0.515871 0.543917 0.519326
0.524356 0.548538 0.523947
0.532840 0.553159 0.528568
0.541325 0.557780 0.533189
0.549810 0.562401 0.537810
0.558295 0.567022 0.542431
0.566779 0.571643 0.547052
0.575264 0.576264 0.551673
0.436571 0.437571 0.447754
0.445056 0.442192 0.452375
0.453541 0.446813 0.456996
0.462026 0.451434 0.461617
0.470510 0.456055 0.466238
0.478995 0.460676 0.470859
0.487480 0.465297 0.475480
0.495965 0.469918 0.480101
0.504449 0.474540 0.484722
0.445643 0.450507 0.456826
0.454128 0.455128 0.461447
0.462613 0.459749 0.466068
0.471098 0.464370 0.470689
0.479582 0.468991 0.475310
0.488067 0.473612 0.479931
0.496552 0.478233 0.484552
0.505037 0.482854 0.489173
0.513522 0.487475 0.493794
0.454715 0.463443 0.465898
0.463200 0.468064 0.470519
0.471685 0.472685 0.475140
0.480170 0.477306 0.479761
0.488654 0.481927 0.484382
0.497139 0.486548 0.489003
0.505624 0.491169 0.493624
0.514109 0.495790 0.498245
0.522594 0.500411 0.502866
0.463787 0.476379 0.474970
0.472272 0.481000 0.479591
0.480757 0.485621 0.484212
0.489242 0.490242 0.488833
0.497727 0.494863 0.493454
0.506211 0.499484 0.498075
0.514696 0.504105 0.502696
0.523181 0.508726 0.507317
0.531666 0.513347 0.511938
0.472860 0.489314 0.484042
0.481344 0.493936 0.488663
0.489829 0.498557 0.493284
0.498314 0.503178 0.497905
0.506799 0.507799 0.502526
0.515283 0.512420 0.507147
0.523768 0.517041 0.511768
0.532253 0.521662 0.516389
0.540738 0.526283 0.521010
0.481932 0.502250 0.493114
0.490416 0.506871 0.497735
0.498901 0.511492 0.502356
0.507386 0.516113 0.506977
0.515871 0.520734 0.511598
0.524356 0.525356 0.516219
0.532840 0.529977 0.520840
0.541325 0.534598 0.525461
0.549810 0.539219 0.530082
0.491004 0.515186 0.502186
0.499488 0.519807 0.506807
0.507973 0.524428 0.511428
0.516458 0.529049 0.516049
0.524943 0.533670 0.520670
0.533428 0.538291 0.525291
0.541912 0.542912 0.529912
0.550397 0.547533 0.534533
0.558882 0.552154 0.539154
0.500076 0.528122 0.511258
0.508561 0.532743 0.515879
0.517045 0.537364 0.520500
0.525530 0.541985 0.525121
0.534015 0.546606 0.529742
0.542500 0.551227 0.534363
0.550984 0.555848 0.538984
0.559469 0.560469 0.543605
0.567954 0.565090 0.548227
0.509148 0.541058 0.520330
0.517633 0.545679 0.524951
0.526117 0.550300 0.529572
0.534602 0.554921 0.534193
0.543087 0.559542 0.538814
0.551572 0.564163 0.543435
0.560057 0.568784 0.548057
0.568541 0.573405 0.552678
0.577026 0.578026 0.557299
0.438333 0.439333 0.453379
0.446818 0.443954 0.458000
0.455303 0.448575 0.462621
0.463787 0.453196 0.467242
0.472272 0.457817 0.471863
0.480757 0.462438 0.476484
0.489242 0.467059 0.481106
0.497727 0.471680 0.485727
0.506211 0.476301 0.490348
0.447405 0.452269 0.462451
0.455890 0.456890 0.467072
0.464375 0.461511 0.471693
0.472860 0.466132 0.476314
0.481344 0.470753 0.480936
0.489829 0.475374 0.485557
0.498314 0.479995 0.490178
0.506799 0.484616 0.494799
0.515283 0.489237 0.499420
0.456477 0.465205 0.471523
0.464962 0.469826 0.476144
0.473447 0.474447 0.480766
0.481932 0.479068 0.485387
0.490416 0.483689 0.490008
0.498901 0.488310 0.494629
0.507386 0.492931 0.499250
0.515871 0.497552 0.503871
0.524356 0.502173 0.508492
0.465549 0.478141 0.480596
0.474034 0.482762 0.485217
0.482519 0.487383 0.489838
0.491004 0.492004 0.494459
0.499488 0.496625 0.499080
0.507973 0.501246 0.503701
0.516458 0.505867 0.508322
0.524943 0.510488 0.512943
0.533428 0.515109 0.517564
0.474621 0.491076 0.489668
0.483106 0.495697 0.494289
0.491591 0.500318 0.498910
0.500076 0.504939 0.503531
0.508561 0.509561 0.508152
0.517045 0.514182 0.512773
0.525530 0.518803 0.517394
0.534015 0.523424 0.522015
0.542500 0.528045 0.526636
0.483693 0.504012 0.498740
0.492178 0.508633 0.503361
0.500663 0.513254 0.507982
0.509148 0.517875 0.512603
0.517633 0.522496 0.517224
0.526117 0.527117 0.521845
0.534602 0.531738 0.526466
0.543087 0.536359 0.531087
0.551572 0.540980 0.535708
0.492766 0.516948 0.507812
0.501250 0.521569 0.512433
0.509735 0.526190 0.517054
0.518220 0.530811 0.521675
0.526705 0.535432 0.526296
0.535189 0.540053 0.530917
0.543674 0.544674 0.535538
0.552159 0.549295 0.540159
0.560644 0.553916 0.544780
0.501838 0.529884 0.516884
0.510322 0.534505 0.521505
0.518807 0.539126 0.526126
0.527292 0.543747 0.530747
0.535777 0.548368 0.535368
0.544262 0.552989 0.539989
0.552746 0.557610 0.544610
0.561231 0.562231 0.549231
0.569716 0.566852 0.553852
0.510910 0.542820 0.525956
0.519394 0.547441 0.530577
0.527879 0.552062 0.535198
0.536364 0.556683 0.539819
0.544849 0.561304 0.544440
0.553334 0.565925 0.549061
0.561818 0.570546 0.553682
0.570303 0.575167 0.558303
0.578788 0.579788 0.562924
0.440095 0.441095 0.459005
0.448580 0.445716 0.463626
0.457065 0.450337 0.468247
0.465549 0.454958 0.472868
0.474034 0.459579 0.477489
0.482519 0.464200 0.482110
0.491004 0.468821 0.486731
0.499488 0.473442 0.491352
0.507973 0.478063 0.495973
0.449167 0.454031 0.468077
0.457652 0.458652 0.472698
0.466137 0.463273 0.477319
0.474621 0.467894 0.481940
0.483106 0.472515 0.486561
0.491591 0.477136 0.491182
0.500076 0.481757 0.495803
0.508561 0.486378 0.500424
0.517045 0.490999 0.505045
0.458239 0.466967 0.477149
0.466724 0.471588 0.481770
0.475209 0.476209 0.486391
0.483693 0.480830 0.491012
0.492178 0.485451 0.495633
0.500663 0.490072 0.500254
0.509148 0.494693 0.504875
0.517633 0.499314 0.509496
0.526117 0.503935 0.514117
0.467311 0.479902 0.486221
0.475796 0.484523 0.490842
0.484281 0.489144 0.495463
0.492766 0.493766 0.500084
0.501250 0.498387 0.504705
0.509735 0.503008 0.509326
0.518220 0.507629 0.513947
0.526705 0.512250 0.518568
0.535189 0.516871 0.523189
0.476383 0.492838 0.495293
0.484868 0.497459 0.499914
0.493353 0.502080 0.504535
0.501838 0.506701 0.509156
0.510322 0.511322 0.513777
0.518807 0.515943 0.518398
0.527292 0.520564 0.523019
0.535777 0.525185 0.527640
0.544262 0.529807 0.532262
0.485455 0.505774 0.504365
0.493940 0.510395 0.508986
0.502425 0.515016 0.513607
0.510910 0.519637 0.518228
0.519394 0.524258 0.522849
0.527879 0.528879 0.527470
0.536364 0.533500 0.532092
0.544849 0.538121 0.536713
0.553334 0.542742 0.541334
0.494527 0.518710 0.513437
0.503012 0.523331 0.518058
0.511497 0.527952 0.522679
0.519982 0.532573 0.527300
0.528467 0.537194 0.531922
0.536951 0.541815 0.536543
0.545436 0.546436 0.541164
0.553921 0.551057 0.545785
0.562406 0.555678 0.550406
0.503599 0.531646 0.522509
0.512084 0.536267 0.527130
0.520569 0.540888 0.531752
0.529054 0.545509 0.536373
0.537539 0.550130 0.540994
0.546023 0.554751 0.545615
0.554508 0.559372 0.550236
0.562993 0.563993 0.554857
0.571478 0.568614 0.559478
0.512672 0.544581 0.531581
0.521156 0.549203 0.536203
0.529641 0.553824 0.540824
0.538126 0.558445 0.545445
0.546611 0.563066 0.550066
0.555095 0.567687 0.554687
0.563580 0.572308 0.559308
0.572065 0.576929 0.563929
0.580550 0.581550 0.568550
