shared/src/main/assets/luts/mv_silver_noir.cube
TITLE "DALUR Silver Noir"
LUT_3D_SIZE 9
DOMAIN_MIN 0.0 0.0 0.0
DOMAIN_MAX 1.0 1.0 1.0
0.407000 0.410000 0.413000
0.404447 0.420043 0.423043
0.401894 0.430086 0.433086
0.399342 0.440130 0.443130
0.396789 0.450173 0.453173
0.394236 0.460216 0.463216
0.391683 0.470259 0.473259
0.389131 0.480302 0.483302
0.386578 0.490345 0.493345
0.426717 0.417121 0.432717
0.424164 0.427164 0.442760
0.421611 0.437207 0.452803
0.419059 0.447250 0.462846
0.416506 0.457294 0.472890
0.413953 0.467337 0.482933
0.411400 0.477380 0.492976
0.408847 0.487423 0.503019
0.406295 0.497466 0.513062
0.446434 0.424242 0.452434
0.443881 0.434285 0.462477
0.441328 0.444328 0.472520
0.438775 0.454371 0.482563
0.436223 0.464414 0.492606
0.433670 0.474458 0.502650
0.431117 0.484501 0.512693
0.428564 0.494544 0.522736
0.426011 0.504587 0.532779
0.466151 0.431363 0.472151
0.463598 0.441406 0.482194
0.461045 0.451449 0.492237
0.458492 0.461492 0.502280
0.455939 0.471535 0.512323
0.453387 0.481579 0.522366
0.450834 0.491622 0.532410
0.448281 0.501665 0.542453
0.445728 0.511708 0.552496
0.485867 0.438484 0.491867
0.483315 0.448527 0.501911
0.480762 0.458570 0.511954
0.478209 0.468613 0.521997
0.475656 0.478656 0.532040
0.473104 0.488699 0.542083
0.470551 0.498743 0.552126
0.467998 0.508786 0.562170
0.465445 0.518829 0.572213
0.505584 0.445605 0.511584
0.503031 0.455648 0.521627
0.500479 0.465691 0.531671
0.497926 0.475734 0.541714
0.495373 0.485777 0.551757
0.492820 0.495820 0.561800
0.490268 0.505864 0.571843
0.487715 0.515907 0.581886
0.485162 0.525950 0.591930
0.525301 0.452725 0.531301
0.522748 0.462769 0.541344
0.520196 0.472812 0.551387
0.517643 0.482855 0.561431
0.515090 0.492898 0.571474
0.512537 0.502941 0.581517
0.509984 0.512984 0.591560
0.507432 0.523028 0.601603
0.504879 0.533071 0.611646
0.545018 0.459846 0.551018
0.542465 0.469890 0.561061
0.539912 0.479933 0.571104
0.537360 0.489976 0.581147
0.534807 0.500019 0.591191
0.532254 0.510062 0.601234
0.529701 0.520105 0.611277
0.527149 0.530149 0.621320
0.524596 0.540192 0.631363
0.564735 0.466967 0.570735
0.562182 0.477010 0.580778
0.559629 0.487054 0.590821
0.557076 0.497097 0.600864
0.554524 0.507140 0.610907
0.551971 0.517183 0.620951
0.549418 0.527226 0.630994
0.546865 0.537269 0.641037
0.544313 0.547313 0.651080
0.410829 0.413829 0.404233
0.408276 0.423872 0.414276
0.405724 0.433916 0.424320
0.403171 0.443959 0.434363
0.400618 0.454002 0.444406
0.398065 0.464045 0.454449
0.395512 0.474088 0.464492
0.392960 0.484131 0.474535
0.390407 0.494175 0.484579
0.430546 0.420950 0.423950
0.427993 0.430993 0.433993
0.425440 0.441036 0.444036
0.422888 0.451080 0.454080
0.420335 0.461123 0.464123
0.417782 0.471166 0.474166
0.415229 0.481209 0.484209
0.412677 0.491252 0.494252
0.410124 0.501295 0.504295
0.450263 0.428071 0.443667
0.447710 0.438114 0.453710
0.445157 0.448157 0.463753
0.442605 0.458200 0.473796
0.440052 0.468244 0.483840
0.437499 0.478287 0.493883
0.434946 0.488330 0.503926
0.432393 0.498373 0.513969
0.429841 0.508416 0.524012
0.469980 0.435192 0.463384
0.467427 0.445235 0.473427
0.464874 0.455278 0.483470
0.462321 0.465321 0.493513
0.459769 0.475365 0.503556
0.457216 0.485408 0.513600
0.454663 0.495451 0.523643
0.452110 0.505494 0.533686
0.449558 0.515537 0.543729
0.489697 0.442313 0.483101
0.487144 0.452356 0.493144
0.484591 0.462399 0.503187
0.482038 0.472442 0.513230
0.479485 0.482485 0.523273
0.476933 0.492529 0.533316
0.474380 0.502572 0.543360
0.471827 0.512615 0.553403
0.469274 0.522658 0.563446
0.509413 0.449434 0.502817
0.506861 0.459477 0.512861
0.504308 0.469520 0.522904
0.501755 0.479563 0.532947
0.499202 0.489606 0.542990
0.496650 0.499650 0.553033
0.494097 0.509693 0.563076
0.491544 0.519736 0.573120
0.488991 0.529779 0.583163
0.529130 0.456555 0.522534
0.526578 0.466598 0.532578
0.524025 0.476641 0.542621
0.521472 0.486684 0.552664
0.518919 0.496727 0.562707
0.516366 0.506770 0.572750
0.513814 0.516814 0.582793
0.511261 0.526857 0.592837
0.508708 0.536900 0.602880
0.548847 0.463676 0.542251
0.546294 0.473719 0.552294
0.543742 0.483762 0.562338
0.541189 0.493805 0.572381
0.538636 0.503848 0.582424
0.536083 0.513891 0.592467
0.533530 0.523935 0.602510
0.530978 0.533978 0.612553
0.528425 0.544021 0.622597
0.568564 0.470796 0.561968
0.566011 0.480840 0.572011
0.563458 0.490883 0.582054
0.560906 0.500926 0.592098
0.558353 0.510969 0.602141
0.555800 0.521012 0.612184
0.553247 0.531055 0.622227
0.550695 0.541099 0.632270
0.548142 0.551142 0.642313
0.414658 0.417658 0.395466
0.412106 0.427702 0.405510
0.409553 0.437745 0.415553
0.407000 0.447788 0.425596
0.404447 0.457831 0.435639
0.401894 0.467874 0.445682
0.399342 0.477917 0.455725
0.396789 0.487961 0.465769
0.394236 0.498004 0.475812
0.434375 0.424779 0.415183
0.431822 0.434822 0.425226
0.429270 0.444866 0.435270
0.426717 0.454909 0.445313
0.424164 0.464952 0.455356
0.421611 0.474995 0.465399
0.419059 0.485038 0.475442
0.416506 0.495081 0.485485
0.413953 0.505125 0.495529
0.454092 0.431900 0.434900
0.451539 0.441943 0.444943
0.448986 0.451986 0.454986
0.446434 0.462030 0.465030
0.443881 0.472073 0.475073
0.441328 0.482116 0.485116
0.438775 0.492159 0.495159
0.436223 0.502202 0.505202
0.433670 0.512245 0.515245
0.473809 0.439021 0.454617
0.471256 0.449064 0.464660
0.468703 0.459107 0.474703
0.466151 0.469151 0.484747
0.463598 0.479194 0.494790
0.461045 0.489237 0.504833
0.458492 0.499280 0.514876
0.455939 0.509323 0.524919
0.453387 0.519366 0.534962
0.493526 0.446142 0.474334
0.490973 0.456185 0.484377
0.488420 0.466228 0.494420
0.485867 0.476271 0.504463
0.483315 0.486315 0.514507
0.480762 0.496358 0.524550
0.478209 0.506401 0.534593
0.475656 0.516444 0.544636
0.473104 0.526487 0.554679
0.513243 0.453263 0.494051
0.510690 0.463306 0.504094
0.508137 0.473349 0.514137
0.505584 0.483392 0.524180
0.503031 0.493436 0.534223
0.500479 0.503479 0.544267
0.497926 0.513522 0.554310
0.495373 0.523565 0.564353
0.492820 0.533608 0.574396
0.532959 0.460384 0.513768
0.530407 0.470427 0.523811
0.527854 0.480470 0.533854
0.525301 0.490513 0.543897
0.522748 0.500556 0.553940
0.520196 0.510600 0.563983
0.517643 0.520643 0.574027
0.515090 0.530686 0.584070
0.512537 0.540729 0.594113
0.552676 0.467505 0.533484
0.550124 0.477548 0.543528
0.547571 0.487591 0.553571
0.545018 0.497634 0.563614
0.542465 0.507677 0.573657
0.539912 0.517721 0.583700
0.537360 0.527764 0.593743
0.534807 0.537807 0.603787
0.532254 0.547850 0.613830
0.572393 0.474626 0.553201
0.569840 0.484669 0.563244
0.567288 0.494712 0.573288
0.564735 0.504755 0.583331
0.562182 0.514798 0.593374
0.559629 0.524841 0.603417
0.557076 0.534885 0.613460
0.554524 0.544928 0.623503
0.551971 0.554971 0.633547
0.418488 0.421488 0.386700
0.415935 0.431531 0.396743
0.413382 0.441574 0.406786
0.410829 0.451617 0.416829
0.408276 0.461660 0.426872
0.405724 0.471703 0.436916
0.403171 0.481747 0.446959
0.400618 0.491790 0.457002
0.398065 0.501833 0.467045
0.438204 0.428608 0.406417
0.435652 0.438652 0.416460
0.433099 0.448695 0.426503
0.430546 0.458738 0.436546
0.427993 0.468781 0.446589
0.425440 0.478824 0.456632
0.422888 0.488867 0.466676
0.420335 0.498911 0.476719
0.417782 0.508954 0.486762
0.457921 0.435729 0.426133
0.455368 0.445772 0.436177
0.452816 0.455816 0.446220
0.450263 0.465859 0.456263
0.447710 0.475902 0.466306
0.445157 0.485945 0.476349
0.442605 0.495988 0.486392
0.440052 0.506031 0.496436
0.437499 0.516075 0.506479
0.477638 0.442850 0.445850
0.475085 0.452893 0.455893
0.472533 0.462937 0.465937
0.469980 0.472980 0.475980
0.467427 0.483023 0.486023
0.464874 0.493066 0.496066
0.462321 0.503109 0.506109
0.459769 0.513152 0.516152
0.457216 0.523196 0.526196
0.497355 0.449971 0.465567
0.494802 0.460014 0.475610
0.492249 0.470057 0.485653
0.489697 0.480101 0.495697
0.487144 0.490144 0.505740
0.484591 0.500187 0.515783
0.482038 0.510230 0.525826
0.479485 0.520273 0.535869
0.476933 0.530316 0.545912
0.517072 0.457092 0.485284
0.514519 0.467135 0.495327
0.511966 0.477178 0.505370
0.509413 0.487222 0.515413
0.506861 0.497265 0.525457
0.504308 0.507308 0.535500
0.501755 0.517351 0.545543
0.499202 0.527394 0.555586
0.496650 0.537437 0.565629
0.536789 0.464213 0.505001
0.534236 0.474256 0.515044
0.531683 0.484299 0.525087
0.529130 0.494342 0.535130
0.526578 0.504386 0.545173
0.524025 0.514429 0.555217
0.521472 0.524472 0.565260
0.518919 0.534515 0.575303
0.516366 0.544558 0.585346
0.556505 0.471334 0.524718
0.553953 0.481377 0.534761
0.551400 0.491420 0.544804
0.548847 0.501463 0.554847
0.546294 0.511507 0.564890
0.543742 0.521550 0.574933
0.541189 0.531593 0.584977
0.538636 0.541636 0.595020
0.536083 0.551679 0.605063
0.576222 0.478455 0.544434
0.573670 0.488498 0.554478
0.571117 0.498541 0.564521
0.568564 0.508584 0.574564
0.566011 0.518627 0.584607
0.563458 0.528671 0.594650
0.560906 0.538714 0.604693
0.558353 0.548757 0.614737
0.555800 0.558800 0.624780
0.422317 0.425317 0.377933
0.419764 0.435360 0.387976
0.417211 0.445403 0.398019
0.414658 0.455446 0.408062
0.412106 0.465489 0.418106
0.409553 0.475533 0.428149
0.407000 0.485576 0.438192
0.404447 0.495619 0.448235
0.401894 0.505662 0.458278
0.442034 0.432438 0.397650
0.439481 0.442481 0.407693
0.436928 0.452524 0.417736
0.434375 0.462567 0.427779
0.431822 0.472610 0.437822
0.429270 0.482653 0.447866
0.426717 0.492697 0.457909
0.424164 0.502740 0.467952
0.421611 0.512783 0.477995
0.461750 0.439558 0.417367
0.459198 0.449602 0.427410
0.456645 0.459645 0.437453
0.454092 0.469688 0.447496
0.451539 0.479731 0.457539
0.448986 0.489774 0.467582
0.446434 0.499817 0.477626
0.443881 0.509861 0.487669
0.441328 0.519904 0.497712
0.481467 0.446679 0.437083
0.478914 0.456723 0.447127
0.476362 0.466766 0.457170
0.473809 0.476809 0.467213
0.471256 0.486852 0.477256
0.468703 0.496895 0.487299
0.466151 0.506938 0.497342
0.463598 0.516982 0.507386
0.461045 0.527025 0.517429
0.501184 0.453800 0.456800
0.498631 0.463843 0.466843
0.496079 0.473887 0.476887
0.493526 0.483930 0.486930
0.490973 0.493973 0.496973
0.488420 0.504016 0.507016
0.485867 0.514059 0.517059
0.483315 0.524102 0.527102
0.480762 0.534146 0.537146
0.520901 0.460921 0.476517
0.518348 0.470964 0.486560
0.515795 0.481008 0.496603
0.513243 0.491051 0.506647
0.510690 0.501094 0.516690
0.508137 0.511137 0.526733
0.505584 0.521180 0.536776
0.503031 0.531223 0.546819
0.500479 0.541267 0.556862
0.540618 0.468042 0.496234
0.538065 0.478085 0.506277
0.535512 0.488128 0.516320
0.532959 0.498172 0.526364
0.530407 0.508215 0.536407
0.527854 0.518258 0.546450
0.525301 0.528301 0.556493
0.522748 0.538344 0.566536
0.520196 0.548387 0.576579
0.560335 0.475163 0.515951
0.557782 0.485206 0.525994
0.555229 0.495249 0.536037
0.552676 0.505293 0.546080
0.550124 0.515336 0.556124
0.547571 0.525379 0.566167
0.545018 0.535422 0.576210
0.542465 0.545465 0.586253
0.539912 0.555508 0.596296
0.580051 0.482284 0.535668
0.577499 0.492327 0.545711
0.574946 0.502370 0.555754
0.572393 0.512413 0.565797
0.569840 0.522457 0.575840
0.567288 0.532500 0.585884
0.564735 0.542543 0.595927
0.562182 0.552586 0.605970
0.559629 0.562629 0.616013
0.426146 0.429146 0.369166
0.423593 0.439189 0.379209
0.421040 0.449232 0.389252
0.418488 0.459275 0.399296
0.415935 0.469319 0.409339
0.413382 0.479362 0.419382
0.410829 0.489405 0.429425
0.408276 0.499448 0.439468
0.405724 0.509491 0.449511
0.445863 0.436267 0.388883
0.443310 0.446310 0.398926
0.440757 0.456353 0.408969
0.438204 0.466396 0.419012
0.435652 0.476439 0.429056
0.433099 0.486483 0.439099
0.430546 0.496526 0.449142
0.427993 0.506569 0.459185
0.425440 0.516612 0.469228
0.465580 0.443388 0.408600
0.463027 0.453431 0.418643
0.460474 0.463474 0.428686
0.457921 0.473517 0.438729
0.455368 0.483560 0.448772
0.452816 0.493603 0.458816
0.450263 0.503647 0.468859
0.447710 0.513690 0.478902
0.445157 0.523733 0.488945
0.485296 0.450509 0.428317
0.482744 0.460552 0.438360
0.480191 0.470595 0.448403
0.477638 0.480638 0.458446
0.475085 0.490681 0.468489
0.472533 0.500724 0.478533
0.469980 0.510768 0.488576
0.467427 0.520811 0.498619
0.464874 0.530854 0.508662
0.505013 0.457629 0.448034
0.502460 0.467673 0.458077
0.499908 0.477716 0.468120
0.497355 0.487759 0.478163
0.494802 0.497802 0.488206
0.492249 0.507845 0.498249
0.489697 0.517888 0.508293
0.487144 0.527932 0.518336
0.484591 0.537975 0.528379
0.524730 0.464750 0.467750
0.522177 0.474794 0.477794
0.519625 0.484837 0.487837
0.517072 0.494880 0.497880
0.514519 0.504923 0.507923
0.511966 0.514966 0.517966
0.509413 0.525009 0.528009
0.506861 0.535053 0.538053
0.504308 0.545096 0.548096
0.544447 0.471871 0.487467
0.541894 0.481914 0.497510
0.539341 0.491958 0.507554
0.536789 0.502001 0.517597
0.534236 0.512044 0.527640
0.531683 0.522087 0.537683
0.529130 0.532130 0.547726
0.526578 0.542173 0.557769
0.524025 0.552217 0.567813
0.564164 0.478992 0.507184
0.561611 0.489035 0.517227
0.559058 0.499079 0.527270
0.556505 0.509122 0.537314
0.553953 0.519165 0.547357
0.551400 0.529208 0.557400
0.548847 0.539251 0.567443
0.546294 0.549294 0.577486
0.543742 0.559338 0.587529
0.583881 0.486113 0.526901
0.581328 0.496156 0.536944
0.578775 0.506199 0.546987
0.576222 0.516243 0.557030
0.573670 0.526286 0.567074
0.571117 0.536329 0.577117
0.568564 0.546372 0.587160
0.566011 0.556415 0.597203
0.563458 0.566458 0.607246
0.429975 0.432975 0.360399
0.427422 0.443018 0.370442
0.424869 0.453061 0.380486
0.422317 0.463105 0.390529
0.419764 0.473148 0.400572
0.417211 0.483191 0.410615
0.414658 0.493234 0.420658
0.412106 0.503277 0.430702
0.409553 0.513320 0.440745
0.449692 0.440096 0.380116
0.447139 0.450139 0.390159
0.444586 0.460182 0.400203
0.442034 0.470225 0.410246
0.439481 0.480269 0.420289
0.436928 0.490312 0.430332
0.434375 0.500355 0.440375
0.431822 0.510398 0.450418
0.429270 0.520441 0.460462
0.469409 0.447217 0.399833
0.466856 0.457260 0.409876
0.464303 0.467303 0.419919
0.461750 0.477346 0.429963
0.459198 0.487389 0.440006
0.456645 0.497433 0.450049
0.454092 0.507476 0.460092
0.451539 0.517519 0.470135
0.448986 0.527562 0.480178
0.489126 0.454338 0.419550
0.486573 0.464381 0.429593
0.484020 0.474424 0.439636
0.481467 0.484467 0.449679
0.478914 0.494510 0.459723
0.476362 0.504554 0.469766
0.473809 0.514597 0.479809
0.471256 0.524640 0.489852
0.468703 0.534683 0.499895
0.508842 0.461459 0.439267
0.506290 0.471502 0.449310
0.503737 0.481545 0.459353
0.501184 0.491588 0.469396
0.498631 0.501631 0.479439
0.496079 0.511674 0.489483
0.493526 0.521718 0.499526
0.490973 0.531761 0.509569
0.488420 0.541804 0.519612
0.528559 0.468580 0.458984
0.526006 0.478623 0.469027
0.523454 0.488666 0.479070
0.520901 0.498709 0.489113
0.518348 0.508752 0.499156
0.515795 0.518795 0.509199
0.513243 0.528839 0.519243
0.510690 0.538882 0.529286
0.508137 0.548925 0.539329
0.548276 0.475700 0.478700
0.545723 0.485744 0.488744
0.543171 0.495787 0.498787
0.540618 0.505830 0.508830
0.538065 0.515873 0.518873
0.535512 0.525916 0.528916
0.532959 0.535959 0.538959
0.530407 0.546003 0.549003
0.527854 0.556046 0.559046
0.567993 0.482821 0.498417
0.565440 0.492865 0.508460
0.562887 0.502908 0.518504
0.560335 0.512951 0.528547
0.557782 0.522994 0.538590
0.555229 0.533037 0.548633
0.552676 0.543080 0.558676
0.550124 0.553124 0.568719
0.547571 0.563167 0.578763
0.587710 0.489942 0.518134
0.585157 0.499985 0.528177
0.582604 0.510029 0.538220
0.580051 0.520072 0.548264
0.577499 0.530115 0.558307
0.574946 0.540158 0.568350
0.572393 0.550201 0.578393
0.569840 0.560244 0.588436
0.567288 0.570288 0.598479
0.433804 0.436804 0.351633
0.431251 0.446847 0.361676
0.428699 0.456891 0.371719
0.426146 0.466934 0.381762
0.423593 0.476977 0.391805
0.421040 0.487020 0.401848
0.418488 0.497063 0.411892
0.415935 0.507106 0.421935
0.413382 0.517150 0.431978
0.453521 0.443925 0.371349
0.450968 0.453968 0.381393
0.448415 0.464011 0.391436
0.445863 0.474055 0.401479
0.443310 0.484098 0.411522
0.440757 0.494141 0.421565
0.438204 0.504184 0.431608
0.435652 0.514227 0.441652
0.433099 0.524270 0.451695
0.473238 0.451046 0.391066
0.470685 0.461089 0.401109
0.468132 0.471132 0.411153
0.465580 0.481175 0.421196
0.463027 0.491219 0.431239
0.460474 0.501262 0.441282
0.457921 0.511305 0.451325
0.455368 0.521348 0.461368
0.452816 0.531391 0.471412
0.492955 0.458167 0.410783
0.490402 0.468210 0.420826
0.487849 0.478253 0.430869
0.485296 0.488296 0.440913
0.482744 0.498340 0.450956
0.480191 0.508383 0.460999
0.477638 0.518426 0.471042
0.475085 0.528469 0.481085
0.472533 0.538512 0.491128
0.512672 0.465288 0.430500
0.510119 0.475331 0.440543
0.507566 0.485374 0.450586
0.505013 0.495417 0.460629
0.502460 0.505460 0.470673
0.499908 0.515504 0.480716
0.497355 0.525547 0.490759
0.494802 0.535590 0.500802
0.492249 0.545633 0.510845
0.532388 0.472409 0.450217
0.529836 0.482452 0.460260
0.527283 0.492495 0.470303
0.524730 0.502538 0.480346
0.522177 0.512581 0.490389
0.519625 0.522625 0.500433
0.517072 0.532668 0.510476
0.514519 0.542711 0.520519
0.511966 0.552754 0.530562
0.552105 0.479530 0.469934
0.549553 0.489573 0.479977
0.547000 0.499616 0.490020
0.544447 0.509659 0.500063
0.541894 0.519702 0.510106
0.539341 0.529745 0.520150
0.536789 0.539789 0.530193
0.534236 0.549832 0.540236
0.531683 0.559875 0.550279
0.571822 0.486651 0.489651
0.569269 0.496694 0.499694
0.566717 0.506737 0.509737
0.564164 0.516780 0.519780
0.561611 0.526823 0.529823
0.559058 0.536866 0.539866
0.556505 0.546910 0.549910
0.553953 0.556953 0.559953
0.551400 0.566996 0.569996
0.591539 0.493771 0.509367
0.588986 0.503815 0.519411
0.586433 0.513858 0.529454
0.583881 0.523901 0.539497
0.581328 0.533944 0.549540
0.578775 0.543987 0.559583
0.576222 0.554030 0.569626
0.573670 0.564074 0.579670
0.571117 0.574117 0.589713
0.437633 0.440633 0.342866
0.435081 0.450677 0.352909
0.432528 0.460720 0.362952
0.429975 0.470763 0.372995
0.427422 0.480806 0.383038
0.424869 0.490849 0.393082
0.422317 0.500892 0.403125
0.419764 0.510936 0.413168
0.417211 0.520979 0.423211
0.457350 0.447754 0.362583
0.454797 0.457797 0.372626
0.452245 0.467841 0.382669
0.449692 0.477884 0.392712
0.447139 0.487927 0.402755
0.444586 0.497970 0.412798
0.442034 0.508013 0.422842
0.439481 0.518056 0.432885
0.436928 0.528100 0.442928
0.477067 0.454875 0.382299
0.474514 0.464918 0.392343
0.471961 0.474961 0.402386
0.469409 0.485005 0.412429
0.466856 0.495048 0.422472
0.464303 0.505091 0.432515
0.461750 0.515134 0.442558
0.459198 0.525177 0.452602
0.456645 0.535220 0.462645
0.496784 0.461996 0.402016
0.494231 0.472039 0.412060
0.491678 0.482082 0.422103
0.489126 0.492126 0.432146
0.486573 0.502169 0.442189
0.484020 0.512212 0.452232
0.481467 0.522255 0.462275
0.478914 0.532298 0.472319
0.476362 0.542341 0.482362
0.516501 0.469117 0.421733
0.513948 0.479160 0.431776
0.511395 0.489203 0.441820
0.508842 0.499246 0.451863
0.506290 0.509290 0.461906
0.503737 0.519333 0.471949
0.501184 0.529376 0.481992
0.498631 0.539419 0.492035
0.496079 0.549462 0.502079
0.536218 0.476238 0.441450
0.533665 0.486281 0.451493
0.531112 0.496324 0.461536
0.528559 0.506367 0.471580
0.526006 0.516411 0.481623
0.523454 0.526454 0.491666
0.520901 0.536497 0.501709
0.518348 0.546540 0.511752
0.515795 0.556583 0.521795
0.555934 0.483359 0.461167
0.553382 0.493402 0.471210
0.550829 0.503445 0.481253
0.548276 0.513488 0.491296
0.545723 0.523531 0.501340
0.543171 0.533575 0.511383
0.540618 0.543618 0.521426
0.538065 0.553661 0.531469
0.535512 0.563704 0.541512
0.575651 0.490480 0.480884
0.573099 0.500523 0.490927
0.570546 0.510566 0.500970
0.567993 0.520609 0.511013
0.565440 0.530652 0.521056
0.562887 0.540696 0.531100
0.560335 0.550739 0.541143
0.557782 0.560782 0.551186
0.555229 0.570825 0.561229
0.595368 0.497601 0.500601
0.592815 0.507644 0.510644
0.590263 0.517687 0.520687
0.587710 0.527730 0.530730
0.585157 0.537773 0.540773
0.582604 0.547816 0.550816
0.580051 0.557860 0.560860
0.577499 0.567903 0.570903
0.574946 0.577946 0.580946
