shared/src/main/assets/luts/mv_sick_yellow.cube
TITLE "DALUR Sick Yellow"
LUT_3D_SIZE 5
DOMAIN_MIN 0.0 0.0 0.0
DOMAIN_MAX 1.0 1.0 1.0
0.426000 0.427000 0.414000
0.442970 0.436242 0.423242
0.459939 0.445484 0.432484
0.476909 0.454726 0.441726
0.493878 0.463968 0.450968
0.444144 0.452872 0.432144
0.461114 0.462114 0.441386
0.478083 0.471356 0.450628
0.495053 0.480598 0.459870
0.512022 0.489840 0.469112
0.462288 0.478743 0.450288
0.479258 0.487985 0.459530
0.496227 0.497227 0.468772
0.513197 0.506470 0.478015
0.530167 0.515712 0.487257
0.480432 0.504615 0.468432
0.497402 0.513857 0.477675
0.514372 0.523099 0.486917
0.531341 0.532341 0.496159
0.548311 0.541583 0.505401
0.498577 0.530487 0.486577
0.515546 0.539729 0.495819
0.532516 0.548971 0.505061
0.549485 0.558213 0.514303
0.566455 0.567455 0.523545
0.429524 0.430524 0.425251
0.446493 0.439766 0.434493
0.463463 0.449008 0.443735
0.480432 0.458250 0.452977
0.497402 0.467492 0.462220
0.447668 0.456395 0.443395
0.464637 0.465637 0.452637
0.481607 0.474880 0.461880
0.498577 0.484122 0.471122
0.515546 0.493364 0.480364
0.465812 0.482267 0.461540
0.482782 0.491509 0.470782
0.499751 0.500751 0.480024
0.516721 0.509993 0.489266
0.533690 0.519235 0.498508
0.483956 0.508139 0.479684
0.500926 0.517381 0.488926
0.517895 0.526623 0.498168
0.534865 0.535865 0.507410
0.551834 0.545107 0.516652
0.502100 0.534010 0.497828
0.519070 0.543252 0.507070
0.536039 0.552494 0.516312
0.553009 0.561737 0.525554
0.569979 0.570979 0.534796
0.433047 0.434047 0.436502
0.450017 0.443290 0.445745
0.466987 0.452532 0.454987
0.483956 0.461774 0.464229
0.500926 0.471016 0.473471
0.451192 0.459919 0.454647
0.468161 0.469161 0.463889
0.485131 0.478403 0.473131
0.502100 0.487645 0.482373
0.519070 0.496887 0.491615
0.469336 0.485791 0.472791
0.486305 0.495033 0.482033
0.503275 0.504275 0.491275
0.520244 0.513517 0.500517
0.537214 0.522759 0.509759
0.487480 0.511662 0.490935
0.504449 0.520904 0.500177
0.521419 0.530147 0.509419
0.538389 0.539389 0.518661
0.555358 0.548631 0.527903
0.505624 0.537534 0.509079
0.522594 0.546776 0.518321
0.539563 0.556018 0.527563
0.556533 0.565260 0.536805
0.573502 0.574502 0.546047
0.436571 0.437571 0.447754
0.453541 0.446813 0.456996
0.470510 0.456055 0.466238
0.487480 0.465297 0.475480
0.504449 0.474540 0.484722
0.454715 0.463443 0.465898
0.471685 0.472685 0.475140
0.488654 0.481927 0.484382
0.505624 0.491169 0.493624
0.522594 0.500411 0.502866
0.472860 0.489314 0.484042
0.489829 0.498557 0.493284
0.506799 0.507799 0.502526
0.523768 0.517041 0.511768
0.540738 0.526283 0.521010
0.491004 0.515186 0.502186
0.507973 0.524428 0.511428
0.524943 0.533670 0.520670
0.541912 0.542912 0.529912
0.558882 0.552154 0.539154
0.509148 0.541058 0.520330
0.526117 0.550300 0.529572
0.543087 0.559542 0.538814
0.560057 0.568784 0.548057
0.577026 0.578026 0.557299
0.440095 0.441095 0.459005
0.457065 0.450337 0.468247
0.474034 0.459579 0.477489
0.491004 0.468821 0.486731
0.507973 0.478063 0.495973
0.458239 0.466967 0.477149
0.475209 0.476209 0.486391
0.492178 0.485451 0.495633
0.509148 0.494693 0.504875
0.526117 0.503935 0.514117
0.476383 0.492838 0.495293
0.493353 0.502080 0.504535
0.510322 0.511322 0.513777
0.527292 0.520564 0.523019
0.544262 0.529807 0.532262
0.494527 0.518710 0.513437
0.511497 0.527952 0.522679
0.528467 0.537194 0.531922
0.545436 0.546436 0.541164
0.562406 0.555678 0.550406
0.512672 0.544581 0.531581
0.529641 0.553824 0.540824
0.546611 0.563066 0.550066
0.563580 0.572308 0.559308
0.580550 0.581550 0.568550
