shared/src/main/assets/luts/mv_southern_gold.cube
TITLE "DALUR Southern Gold"
LUT_3D_SIZE 5
DOMAIN_MIN 0.0 0.0 0.0
DOMAIN_MAX 1.0 1.0 1.0
0.448000 0.430000 0.412000
0.460478 0.439098 0.421098
0.472957 0.448195 0.430195
0.485435 0.457293 0.439293
0.497914 0.466391 0.448391
0.465861 0.451241 0.429861
0.478339 0.460339 0.438958
0.490818 0.469437 0.448056
0.503296 0.478534 0.457154
0.515774 0.487632 0.466251
0.483721 0.472483 0.447721
0.496200 0.481581 0.456819
0.508678 0.490678 0.465917
0.521157 0.499776 0.475014
0.533635 0.508874 0.484112
0.501582 0.493724 0.465582
0.514060 0.502822 0.474680
0.526539 0.511920 0.483777
0.539017 0.521017 0.492875
0.551496 0.530115 0.501973
0.519443 0.514966 0.483443
0.531921 0.524063 0.492540
0.544399 0.533161 0.501638
0.556878 0.542259 0.510736
0.569356 0.551356 0.519833
0.451469 0.433469 0.418849
0.463947 0.442566 0.427947
0.476426 0.451664 0.437045
0.488904 0.460762 0.446142
0.501382 0.469859 0.455240
0.469329 0.454710 0.436710
0.481808 0.463808 0.445808
0.494286 0.472905 0.454905
0.506765 0.482003 0.464003
0.519243 0.491101 0.473101
0.487190 0.475952 0.454571
0.499668 0.485049 0.463668
0.512147 0.494147 0.472766
0.524625 0.503245 0.481864
0.537104 0.512342 0.490961
0.505051 0.497193 0.472431
0.517529 0.506291 0.481529
0.530008 0.515388 0.490627
0.542486 0.524486 0.499724
0.554964 0.533584 0.508822
0.522911 0.518434 0.490292
0.535390 0.527532 0.499390
0.547868 0.536630 0.508487
0.560347 0.545727 0.517585
0.572825 0.554825 0.526683
0.454937 0.436937 0.425699
0.467416 0.446035 0.434797
0.479894 0.455133 0.443894
0.492373 0.464230 0.452992
0.504851 0.473328 0.462090
0.472798 0.458179 0.443560
0.485276 0.467276 0.452657
0.497755 0.476374 0.461755
0.510233 0.485472 0.470853
0.522712 0.494569 0.479950
0.490659 0.479420 0.461420
0.503137 0.488518 0.470518
0.515616 0.497616 0.479616
0.528094 0.506713 0.488713
0.540572 0.515811 0.497811
0.508519 0.500662 0.479281
0.520998 0.509759 0.488379
0.533476 0.518857 0.497476
0.545955 0.527955 0.506574
0.558433 0.537052 0.515672
0.526380 0.521903 0.497141
0.538858 0.531001 0.506239
0.551337 0.540098 0.515337
0.563815 0.549196 0.524435
0.576294 0.558294 0.533532
0.458406 0.440406 0.432548
0.470884 0.449504 0.441646
0.483363 0.458601 0.450744
0.495841 0.467699 0.459841
0.508320 0.476797 0.468939
0.476267 0.461647 0.450409
0.488745 0.470745 0.459507
0.501224 0.479843 0.468604
0.513702 0.488940 0.477702
0.526180 0.498038 0.486800
0.494127 0.482889 0.468270
0.506606 0.491987 0.477367
0.519084 0.501084 0.486465
0.531563 0.510182 0.495563
0.544041 0.519280 0.504660
0.511988 0.504130 0.486130
0.524466 0.513228 0.495228
0.536945 0.522326 0.504326
0.549423 0.531423 0.513423
0.561902 0.540521 0.522521
0.529849 0.525372 0.503991
0.542327 0.534469 0.513089
0.554806 0.543567 0.522186
0.567284 0.552665 0.531284
0.579762 0.561762 0.540382
0.461875 0.443875 0.439398
0.474353 0.452972 0.448495
0.486832 0.462070 0.457593
0.499310 0.471168 0.466691
0.511789 0.480265 0.475789
0.479735 0.465116 0.457258
0.492214 0.474214 0.466356
0.504692 0.483311 0.475454
0.517171 0.492409 0.484551
0.529649 0.501507 0.493649
0.497596 0.486358 0.475119
0.510074 0.495455 0.484217
0.522553 0.504553 0.493314
0.535031 0.513651 0.502412
0.547510 0.522748 0.511510
0.515457 0.507599 0.492980
0.527935 0.516697 0.502077
0.540414 0.525794 0.511175
0.552892 0.534892 0.520273
0.565370 0.543990 0.529370
0.533317 0.528840 0.510840
0.545796 0.537938 0.519938
0.558274 0.547036 0.529036
0.570753 0.556133 0.538133
0.583231 0.565231 0.547231
