shared/src/main/assets/luts/mv_silver_noir.cube
TITLE "DALUR Silver Noir"
LUT_3D_SIZE 5
DOMAIN_MIN 0.0 0.0 0.0
DOMAIN_MAX 1.0 1.0 1.0
0.407000 0.410000 0.413000
0.401894 0.430086 0.433086
0.396789 0.450173 0.453173
0.391683 0.470259 0.473259
0.386578 0.490345 0.493345
0.446434 0.424242 0.452434
0.441328 0.444328 0.472520
0.436223 0.464414 0.492606
0.431117 0.484501 0.512693
0.426011 0.504587 0.532779
0.485867 0.438484 0.491867
0.480762 0.458570 0.511954
0.475656 0.478656 0.532040
0.470551 0.498743 0.552126
0.465445 0.518829 0.572213
0.525301 0.452725 0.531301
0.520196 0.472812 0.551387
0.515090 0.492898 0.571474
0.509984 0.512984 0.591560
0.504879 0.533071 0.611646
0.564735 0.466967 0.570735
0.559629 0.487054 0.590821
0.554524 0.507140 0.610907
0.549418 0.527226 0.630994
0.544313 0.547313 0.651080
0.414658 0.417658 0.395466
0.409553 0.437745 0.415553
0.404447 0.457831 0.435639
0.399342 0.477917 0.455725
0.394236 0.498004 0.475812
0.454092 0.431900 0.434900
0.448986 0.451986 0.454986
0.443881 0.472073 0.475073
0.438775 0.492159 0.495159
0.433670 0.512245 0.515245
0.493526 0.446142 0.474334
0.488420 0.466228 0.494420
0.483315 0.486315 0.514507
0.478209 0.506401 0.534593
0.473104 0.526487 0.554679
0.532959 0.460384 0.513768
0.527854 0.480470 0.533854
0.522748 0.500556 0.553940
0.517643 0.520643 0.574027
0.512537 0.540729 0.594113
0.572393 0.474626 0.553201
0.567288 0.494712 0.573288
0.562182 0.514798 0.593374
0.557076 0.534885 0.613460
0.551971 0.554971 0.633547
0.422317 0.425317 0.377933
0.417211 0.445403 0.398019
0.412106 0.465489 0.418106
0.407000 0.485576 0.438192
0.401894 0.505662 0.458278
0.461750 0.439558 0.417367
0.456645 0.459645 0.437453
0.451539 0.479731 0.457539
0.446434 0.499817 0.477626
0.441328 0.519904 0.497712
0.501184 0.453800 0.456800
0.496079 0.473887 0.476887
0.490973 0.493973 0.496973
0.485867 0.514059 0.517059
0.480762 0.534146 0.537146
0.540618 0.468042 0.496234
0.535512 0.488128 0.516320
0.530407 0.508215 0.536407
0.525301 0.528301 0.556493
0.520196 0.548387 0.576579
0.580051 0.482284 0.535668
0.574946 0.502370 0.555754
0.569840 0.522457 0.575840
0.564735 0.542543 0.595927
0.559629 0.562629 0.616013
0.429975 0.432975 0.360399
0.424869 0.453061 0.380486
0.419764 0.473148 0.400572
0.414658 0.493234 0.420658
0.409553 0.513320 0.440745
0.469409 0.447217 0.399833
0.464303 0.467303 0.419919
0.459198 0.487389 0.440006
0.454092 0.507476 0.460092
0.448986 0.527562 0.480178
0.508842 0.461459 0.439267
0.503737 0.481545 0.459353
0.498631 0.501631 0.479439
0.493526 0.521718 0.499526
0.488420 0.541804 0.519612
0.548276 0.475700 0.478700
0.543171 0.495787 0.498787
0.538065 0.515873 0.518873
0.532959 0.535959 0.538959
0.527854 0.556046 0.559046
0.587710 0.489942 0.518134
0.582604 0.510029 0.538220
0.577499 0.530115 0.558307
0.572393 0.550201 0.578393
0.567288 0.570288 0.598479
0.437633 0.440633 0.342866
0.432528 0.460720 0.362952
0.427422 0.480806 0.383038
0.422317 0.500892 0.403125
0.417211 0.520979 0.423211
0.477067 0.454875 0.382299
0.471961 0.474961 0.402386
0.466856 0.495048 0.422472
0.461750 0.515134 0.442558
0.456645 0.535220 0.462645
0.516501 0.469117 0.421733
0.511395 0.489203 0.441820
0.506290 0.509290 0.461906
0.501184 0.529376 0.481992
0.496079 0.549462 0.502079
0.555934 0.483359 0.461167
0.550829 0.503445 0.481253
0.545723 0.523531 0.501340
0.540618 0.543618 0.521426
0.535512 0.563704 0.541512
0.595368 0.497601 0.500601
0.590263 0.517687 0.520687
0.585157 0.537773 0.540773
0.580051 0.557860 0.560860
0.574946 0.577946 0.580946
