shared/src/main/assets/luts/mv_vegas_neon.cube
TITLE "DALUR Vegas Neon"
LUT_3D_SIZE 5
DOMAIN_MIN 0.0 0.0 0.0
DOMAIN_MAX 1.0 1.0 1.0
0.417000 0.414000 0.423000
0.438774 0.421774 0.430774
0.460548 0.429548 0.438548
0.482322 0.437322 0.446322
0.504096 0.445096 0.454096
0.432262 0.443262 0.438262
0.454036 0.451036 0.446036
0.475810 0.458810 0.453810
0.497584 0.466584 0.461584
0.519358 0.474358 0.469358
0.447524 0.472524 0.453524
0.469298 0.480298 0.461298
0.491072 0.488072 0.469072
0.512846 0.495846 0.476846
0.534620 0.503620 0.484620
0.462786 0.501786 0.468786
0.484560 0.509560 0.476560
0.506334 0.517334 0.484334
0.528108 0.525108 0.492108
0.549882 0.532882 0.499882
0.478048 0.531048 0.484048
0.499822 0.538822 0.491822
0.521596 0.546596 0.499596
0.543370 0.554370 0.507370
0.565144 0.562144 0.515144
0.419964 0.416964 0.439964
0.441738 0.424738 0.447738
0.463512 0.432512 0.455512
0.485286 0.440286 0.463286
0.507060 0.448060 0.471060
0.435226 0.446226 0.455226
0.457000 0.454000 0.463000
0.478774 0.461774 0.470774
0.500548 0.469548 0.478548
0.522322 0.477322 0.486322
0.450488 0.475488 0.470488
0.472262 0.483262 0.478262
0.494036 0.491036 0.486036
0.515810 0.498810 0.493810
0.537584 0.506584 0.501584
0.465750 0.504750 0.485750
0.487524 0.512524 0.493524
0.509298 0.520298 0.501298
0.531072 0.528072 0.509072
0.552846 0.535846 0.516846
0.481012 0.534012 0.501012
0.502786 0.541786 0.508786
0.524560 0.549560 0.516560
0.546334 0.557334 0.524334
0.568108 0.565108 0.532108
0.422928 0.419928 0.456928
0.444702 0.427702 0.464702
0.466476 0.435476 0.472476
0.488250 0.443250 0.480250
0.510024 0.451024 0.488024
0.438190 0.449190 0.472190
0.459964 0.456964 0.479964
0.481738 0.464738 0.487738
0.503512 0.472512 0.495512
0.525286 0.480286 0.503286
0.453452 0.478452 0.487452
0.475226 0.486226 0.495226
0.497000 0.494000 0.503000
0.518774 0.501774 0.510774
0.540548 0.509548 0.518548
0.468714 0.507714 0.502714
0.490488 0.515488 0.510488
0.512262 0.523262 0.518262
0.534036 0.531036 0.526036
0.555810 0.538810 0.533810
0.483976 0.536976 0.517976
0.505750 0.544750 0.525750
0.527524 0.552524 0.533524
0.549298 0.560298 0.541298
0.571072 0.568072 0.549072
0.425892 0.422892 0.473892
0.447666 0.430666 0.481666
0.469440 0.438440 0.489440
0.491214 0.446214 0.497214
0.512988 0.453988 0.504988
0.441154 0.452154 0.489154
0.462928 0.459928 0.496928
0.484702 0.467702 0.504702
0.506476 0.475476 0.512476
0.528250 0.483250 0.520250
0.456416 0.481416 0.504416
0.478190 0.489190 0.512190
0.499964 0.496964 0.519964
0.521738 0.504738 0.527738
0.543512 0.512512 0.535512
0.471678 0.510678 0.519678
0.493452 0.518452 0.527452
0.515226 0.526226 0.535226
0.537000 0.534000 0.543000
0.558774 0.541774 0.550774
0.486940 0.539940 0.534940
0.508714 0.547714 0.542714
0.530488 0.555488 0.550488
0.552262 0.563262 0.558262
0.574036 0.571036 0.566036
0.428856 0.425856 0.490856
0.450630 0.433630 0.498630
0.472404 0.441404 0.506404
0.494178 0.449178 0.514178
0.515952 0.456952 0.521952
0.444118 0.455118 0.506118
0.465892 0.462892 0.513892
0.487666 0.470666 0.521666
0.509440 0.478440 0.529440
0.531214 0.486214 0.537214
0.459380 0.484380 0.521380
0.481154 0.492154 0.529154
0.502928 0.499928 0.536928
0.524702 0.507702 0.544702
0.546476 0.515476 0.552476
0.474642 0.513642 0.536642
0.496416 0.521416 0.544416
0.518190 0.529190 0.552190
0.539964 0.536964 0.559964
0.561738 0.544738 0.567738
0.489904 0.542904 0.551904
0.511678 0.550678 0.559678
0.533452 0.558452 0.567452
0.555226 0.566226 0.575226
0.577000 0.574000 0.583000
