shared/src/main/assets/luts/mv_vegas_neon.cube
TITLE "DALUR Vegas Neon"
LUT_3D_SIZE 9
DOMAIN_MIN 0.0 0.0 0.0
DOMAIN_MAX 1.0 1.0 1.0
0.417000 0.414000 0.423000
0.427887 0.417887 0.426887
0.438774 0.421774 0.430774
0.449661 0.425661 0.434661
0.460548 0.429548 0.438548
0.471435 0.433435 0.442435
0.482322 0.437322 0.446322
0.493209 0.441209 0.450209
0.504096 0.445096 0.454096
0.424631 0.428631 0.430631
0.435518 0.432518 0.434518
0.446405 0.436405 0.438405
0.457292 0.440292 0.442292
0.468179 0.444179 0.446179
0.479066 0.448066 0.450066
0.489953 0.451953 0.453953
0.500840 0.455840 0.457840
0.511727 0.459727 0.461727
0.432262 0.443262 0.438262
0.443149 0.447149 0.442149
0.454036 0.451036 0.446036
0.464923 0.454923 0.449923
0.475810 0.458810 0.453810
0.486697 0.462697 0.457697
0.497584 0.466584 0.461584
0.508471 0.470471 0.465471
0.519358 0.474358 0.469358
0.439893 0.457893 0.445893
0.450780 0.461780 0.449780
0.461667 0.465667 0.453667
0.472554 0.469554 0.457554
0.483441 0.473441 0.461441
0.494328 0.477328 0.465328
0.505215 0.481215 0.469215
0.516102 0.485102 0.473102
0.526989 0.488989 0.476989
0.447524 0.472524 0.453524
0.458411 0.476411 0.457411
0.469298 0.480298 0.461298
0.480185 0.484185 0.465185
0.491072 0.488072 0.469072
0.501959 0.491959 0.472959
0.512846 0.495846 0.476846
0.523733 0.499733 0.480733
0.534620 0.503620 0.484620
0.455155 0.487155 0.461155
0.466042 0.491042 0.465042
0.476929 0.494929 0.468929
0.487816 0.498816 0.472816
0.498703 0.502703 0.476703
0.509590 0.506590 0.480590
0.520477 0.510477 0.484477
0.531364 0.514364 0.488364
0.542251 0.518251 0.492251
0.462786 0.501786 0.468786
0.473673 0.505673 0.472673
0.484560 0.509560 0.476560
0.495447 0.513447 0.480447
0.506334 0.517334 0.484334
0.517221 0.521221 0.488221
0.528108 0.525108 0.492108
0.538995 0.528995 0.495995
0.549882 0.532882 0.499882
0.470417 0.516417 0.476417
0.481304 0.520304 0.480304
0.492191 0.524191 0.484191
0.503078 0.528078 0.488078
0.513965 0.531965 0.491965
0.524852 0.535852 0.495852
0.535739 0.539739 0.499739
0.546626 0.543626 0.503626
0.557513 0.547513 0.507513
0.478048 0.531048 0.484048
0.488935 0.534935 0.487935
0.499822 0.538822 0.491822
0.510709 0.542709 0.495709
0.521596 0.546596 0.499596
0.532483 0.550483 0.503483
0.543370 0.554370 0.507370
0.554257 0.558257 0.511257
0.565144 0.562144 0.515144
0.418482 0.415482 0.431482
0.429369 0.419369 0.435369
0.440256 0.423256 0.439256
0.451143 0.427143 0.443143
0.462030 0.431030 0.447030
0.472917 0.434917 0.450917
0.483804 0.438804 0.454804
0.494691 0.442691 0.458691
0.505578 0.446578 0.462578
0.426113 0.430113 0.439113
0.437000 0.434000 0.443000
0.447887 0.437887 0.446887
0.458774 0.441774 0.450774
0.469661 0.445661 0.454661
0.480548 0.449548 0.458548
0.491435 0.453435 0.462435
0.502322 0.457322 0.466322
0.513209 0.461209 0.470209
0.433744 0.444744 0.446744
0.444631 0.448631 0.450631
0.455518 0.452518 0.454518
0.466405 0.456405 0.458405
0.477292 0.460292 0.462292
0.488179 0.464179 0.466179
0.499066 0.468066 0.470066
0.509953 0.471953 0.473953
0.520840 0.475840 0.477840
0.441375 0.459375 0.454375
0.452262 0.463262 0.458262
0.463149 0.467149 0.462149
0.474036 0.471036 0.466036
0.484923 0.474923 0.469923
0.495810 0.478810 0.473810
0.506697 0.482697 0.477697
0.517584 0.486584 0.481584
0.528471 0.490471 0.485471
0.449006 0.474006 0.462006
0.459893 0.477893 0.465893
0.470780 0.481780 0.469780
0.481667 0.485667 0.473667
0.492554 0.489554 0.477554
0.503441 0.493441 0.481441
0.514328 0.497328 0.485328
0.525215 0.501215 0.489215
0.536102 0.505102 0.493102
0.456637 0.488637 0.469637
0.467524 0.492524 0.473524
0.478411 0.496411 0.477411
0.489298 0.500298 0.481298
0.500185 0.504185 0.485185
0.511072 0.508072 0.489072
0.521959 0.511959 0.492959
0.532846 0.515846 0.496846
0.543733 0.519733 0.500733
0.464268 0.503268 0.477268
0.475155 0.507155 0.481155
0.486042 0.511042 0.485042
0.496929 0.514929 0.488929
0.507816 0.518816 0.492816
0.518703 0.522703 0.496703
0.529590 0.526590 0.500590
0.540477 0.530477 0.504477
0.551364 0.534364 0.508364
0.471899 0.517899 0.484899
0.482786 0.521786 0.488786
0.493673 0.525673 0.492673
0.504560 0.529560 0.496560
0.515447 0.533447 0.500447
0.526334 0.537334 0.504334
0.537221 0.541221 0.508221
0.548108 0.545108 0.512108
0.558995 0.548995 0.515995
0.479530 0.532530 0.492530
0.490417 0.536417 0.496417
0.501304 0.540304 0.500304
0.512191 0.544191 0.504191
0.523078 0.548078 0.508078
0.533965 0.551965 0.511965
0.544852 0.555852 0.515852
0.555739 0.559739 0.519739
0.566626 0.563626 0.523626
0.419964 0.416964 0.439964
0.430851 0.420851 0.443851
0.441738 0.424738 0.447738
0.452625 0.428625 0.451625
0.463512 0.432512 0.455512
0.474399 0.436399 0.459399
0.485286 0.440286 0.463286
0.496173 0.444173 0.467173
0.507060 0.448060 0.471060
0.427595 0.431595 0.447595
0.438482 0.435482 0.451482
0.449369 0.439369 0.455369
0.460256 0.443256 0.459256
0.471143 0.447143 0.463143
0.482030 0.451030 0.467030
0.492917 0.454917 0.470917
0.503804 0.458804 0.474804
0.514691 0.462691 0.478691
0.435226 0.446226 0.455226
0.446113 0.450113 0.459113
0.457000 0.454000 0.463000
0.467887 0.457887 0.466887
0.478774 0.461774 0.470774
0.489661 0.465661 0.474661
0.500548 0.469548 0.478548
0.511435 0.473435 0.482435
0.522322 0.477322 0.486322
0.442857 0.460857 0.462857
0.453744 0.464744 0.466744
0.464631 0.468631 0.470631
0.475518 0.472518 0.474518
0.486405 0.476405 0.478405
0.497292 0.480292 0.482292
0.508179 0.484179 0.486179
0.519066 0.488066 0.490066
0.529953 0.491953 0.493953
0.450488 0.475488 0.470488
0.461375 0.479375 0.474375
0.472262 0.483262 0.478262
0.483149 0.487149 0.482149
0.494036 0.491036 0.486036
0.504923 0.494923 0.489923
0.515810 0.498810 0.493810
0.526697 0.502697 0.497697
0.537584 0.506584 0.501584
0.458119 0.490119 0.478119
0.469006 0.494006 0.482006
0.479893 0.497893 0.485893
0.490780 0.501780 0.489780
0.501667 0.505667 0.493667
0.512554 0.509554 0.497554
0.523441 0.513441 0.501441
0.534328 0.517328 0.505328
0.545215 0.521215 0.509215
0.465750 0.504750 0.485750
0.476637 0.508637 0.489637
0.487524 0.512524 0.493524
0.498411 0.516411 0.497411
0.509298 0.520298 0.501298
0.520185 0.524185 0.505185
0.531072 0.528072 0.509072
0.541959 0.531959 0.512959
0.552846 0.535846 0.516846
0.473381 0.519381 0.493381
0.484268 0.523268 0.497268
0.495155 0.527155 0.501155
0.506042 0.531042 0.505042
0.516929 0.534929 0.508929
0.527816 0.538816 0.512816
0.538703 0.542703 0.516703
0.549590 0.546590 0.520590
0.560477 0.550477 0.524477
0.481012 0.534012 0.501012
0.491899 0.537899 0.504899
0.502786 0.541786 0.508786
0.513673 0.545673 0.512673
0.524560 0.549560 0.516560
0.535447 0.553447 0.520447
0.546334 0.557334 0.524334
0.557221 0.561221 0.528221
0.568108 0.565108 0.532108
0.421446 0.418446 0.448446
0.432333 0.422333 0.452333
0.443220 0.426220 0.456220
0.454107 0.430107 0.460107
0.464994 0.433994 0.463994
0.475881 0.437881 0.467881
0.486768 0.441768 0.471768
0.497655 0.445655 0.475655
0.508542 0.449542 0.479542
0.429077 0.433077 0.456077
0.439964 0.436964 0.459964
0.450851 0.440851 0.463851
0.461738 0.444738 0.467738
0.472625 0.448625 0.471625
0.483512 0.452512 0.475512
0.494399 0.456399 0.479399
0.505286 0.460286 0.483286
0.516173 0.464173 0.487173
0.436708 0.447708 0.463708
0.447595 0.451595 0.467595
0.458482 0.455482 0.471482
0.469369 0.459369 0.475369
0.480256 0.463256 0.479256
0.491143 0.467143 0.483143
0.502030 0.471030 0.487030
0.512917 0.474917 0.490917
0.523804 0.478804 0.494804
0.444339 0.462339 0.471339
0.455226 0.466226 0.475226
0.466113 0.470113 0.479113
0.477000 0.474000 0.483000
0.487887 0.477887 0.486887
0.498774 0.481774 0.490774
0.509661 0.485661 0.494661
0.520548 0.489548 0.498548
0.531435 0.493435 0.502435
0.451970 0.476970 0.478970
0.462857 0.480857 0.482857
0.473744 0.484744 0.486744
0.484631 0.488631 0.490631
0.495518 0.492518 0.494518
0.506405 0.496405 0.498405
0.517292 0.500292 0.502292
0.528179 0.504179 0.506179
0.539066 0.508066 0.510066
0.459601 0.491601 0.486601
0.470488 0.495488 0.490488
0.481375 0.499375 0.494375
0.492262 0.503262 0.498262
0.503149 0.507149 0.502149
0.514036 0.511036 0.506036
0.524923 0.514923 0.509923
0.535810 0.518810 0.513810
0.546697 0.522697 0.517697
0.467232 0.506232 0.494232
0.478119 0.510119 0.498119
0.489006 0.514006 0.502006
0.499893 0.517893 0.505893
0.510780 0.521780 0.509780
0.521667 0.525667 0.513667
0.532554 0.529554 0.517554
0.543441 0.533441 0.521441
0.554328 0.537328 0.525328
0.474863 0.520863 0.501863
0.485750 0.524750 0.505750
0.496637 0.528637 0.509637
0.507524 0.532524 0.513524
0.518411 0.536411 0.517411
0.529298 0.540298 0.521298
0.540185 0.544185 0.525185
0.551072 0.548072 0.529072
0.561959 0.551959 0.532959
0.482494 0.535494 0.509494
0.493381 0.539381 0.513381
0.504268 0.543268 0.517268
0.515155 0.547155 0.521155
0.526042 0.551042 0.525042
0.536929 0.554929 0.528929
0.547816 0.558816 0.532816
0.558703 0.562703 0.536703
0.569590 0.566590 0.540590
0.422928 0.419928 0.456928
0.433815 0.423815 0.460815
0.444702 0.427702 0.464702
0.455589 0.431589 0.468589
0.466476 0.435476 0.472476
0.477363 0.439363 0.476363
0.488250 0.443250 0.480250
0.499137 0.447137 0.484137
0.510024 0.451024 0.488024
0.430559 0.434559 0.464559
0.441446 0.438446 0.468446
0.452333 0.442333 0.472333
0.463220 0.446220 0.476220
0.474107 0.450107 0.480107
0.484994 0.453994 0.483994
0.495881 0.457881 0.487881
0.506768 0.461768 0.491768
0.517655 0.465655 0.495655
0.438190 0.449190 0.472190
0.449077 0.453077 0.476077
0.459964 0.456964 0.479964
0.470851 0.460851 0.483851
0.481738 0.464738 0.487738
0.492625 0.468625 0.491625
0.503512 0.472512 0.495512
0.514399 0.476399 0.499399
0.525286 0.480286 0.503286
0.445821 0.463821 0.479821
0.456708 0.467708 0.483708
0.467595 0.471595 0.487595
0.478482 0.475482 0.491482
0.489369 0.479369 0.495369
0.500256 0.483256 0.499256
0.511143 0.487143 0.503143
0.522030 0.491030 0.507030
0.532917 0.494917 0.510917
0.453452 0.478452 0.487452
0.464339 0.482339 0.491339
0.475226 0.486226 0.495226
0.486113 0.490113 0.499113
0.497000 0.494000 0.503000
0.507887 0.497887 0.506887
0.518774 0.501774 0.510774
0.529661 0.505661 0.514661
0.540548 0.509548 0.518548
0.461083 0.493083 0.495083
0.471970 0.496970 0.498970
0.482857 0.500857 0.502857
0.493744 0.504744 0.506744
0.504631 0.508631 0.510631
0.515518 0.512518 0.514518
0.526405 0.516405 0.518405
0.537292 0.520292 0.522292
0.548179 0.524179 0.526179
0.468714 0.507714 0.502714
0.479601 0.511601 0.506601
0.490488 0.515488 0.510488
0.501375 0.519375 0.514375
0.512262 0.523262 0.518262
0.523149 0.527149 0.522149
0.534036 0.531036 0.526036
0.544923 0.534923 0.529923
0.555810 0.538810 0.533810
0.476345 0.522345 0.510345
0.487232 0.526232 0.514232
0.498119 0.530119 0.518119
0.509006 0.534006 0.522006
0.519893 0.537893 0.525893
0.530780 0.541780 0.529780
0.541667 0.545667 0.533667
0.552554 0.549554 0.537554
0.563441 0.553441 0.541441
0.483976 0.536976 0.517976
0.494863 0.540863 0.521863
0.505750 0.544750 0.525750
0.516637 0.548637 0.529637
0.527524 0.552524 0.533524
0.538411 0.556411 0.537411
0.549298 0.560298 0.541298
0.560185 0.564185 0.545185
0.571072 0.568072 0.549072
0.424410 0.421410 0.465410
0.435297 0.425297 0.469297
0.446184 0.429184 0.473184
0.457071 0.433071 0.477071
0.467958 0.436958 0.480958
0.478845 0.440845 0.484845
0.489732 0.444732 0.488732
0.500619 0.448619 0.492619
0.511506 0.452506 0.496506
0.432041 0.436041 0.473041
0.442928 0.439928 0.476928
0.453815 0.443815 0.480815
0.464702 0.447702 0.484702
0.475589 0.451589 0.488589
0.486476 0.455476 0.492476
0.497363 0.459363 0.496363
0.508250 0.463250 0.500250
0.519137 0.467137 0.504137
0.439672 0.450672 0.480672
0.450559 0.454559 0.484559
0.461446 0.458446 0.488446
0.472333 0.462333 0.492333
0.483220 0.466220 0.496220
0.494107 0.470107 0.500107
0.504994 0.473994 0.503994
0.515881 0.477881 0.507881
0.526768 0.481768 0.511768
0.447303 0.465303 0.488303
0.458190 0.469190 0.492190
0.469077 0.473077 0.496077
0.479964 0.476964 0.499964
0.490851 0.480851 0.503851
0.501738 0.484738 0.507738
0.512625 0.488625 0.511625
0.523512 0.492512 0.515512
0.534399 0.496399 0.519399
0.454934 0.479934 0.495934
0.465821 0.483821 0.499821
0.476708 0.487708 0.503708
0.487595 0.491595 0.507595
0.498482 0.495482 0.511482
0.509369 0.499369 0.515369
0.520256 0.503256 0.519256
0.531143 0.507143 0.523143
0.542030 0.511030 0.527030
0.462565 0.494565 0.503565
0.473452 0.498452 0.507452
0.484339 0.502339 0.511339
0.495226 0.506226 0.515226
0.506113 0.510113 0.519113
0.517000 0.514000 0.523000
0.527887 0.517887 0.526887
0.538774 0.521774 0.530774
0.549661 0.525661 0.534661
0.470196 0.509196 0.511196
0.481083 0.513083 0.515083
0.491970 0.516970 0.518970
0.502857 0.520857 0.522857
0.513744 0.524744 0.526744
0.524631 0.528631 0.530631
0.535518 0.532518 0.534518
0.546405 0.536405 0.538405
0.557292 0.540292 0.542292
0.477827 0.523827 0.518827
0.488714 0.527714 0.522714
0.499601 0.531601 0.526601
0.510488 0.535488 0.530488
0.521375 0.539375 0.534375
0.532262 0.543262 0.538262
0.543149 0.547149 0.542149
0.554036 0.551036 0.546036
0.564923 0.554923 0.549923
0.485458 0.538458 0.526458
0.496345 0.542345 0.530345
0.507232 0.546232 0.534232
0.518119 0.550119 0.538119
0.529006 0.554006 0.542006
0.539893 0.557893 0.545893
0.550780 0.561780 0.549780
0.561667 0.565667 0.553667
0.572554 0.569554 0.557554
0.425892 0.422892 0.473892
0.436779 0.426779 0.477779
0.447666 0.430666 0.481666
0.458553 0.434553 0.485553
0.469440 0.438440 0.489440
0.480327 0.442327 0.493327
0.491214 0.446214 0.497214
0.502101 0.450101 0.501101
0.512988 0.453988 0.504988
0.433523 0.437523 0.481523
0.444410 0.441410 0.485410
0.455297 0.445297 0.489297
0.466184 0.449184 0.493184
0.477071 0.453071 0.497071
0.487958 0.456958 0.500958
0.498845 0.460845 0.504845
0.509732 0.464732 0.508732
0.520619 0.468619 0.512619
0.441154 0.452154 0.489154
0.452041 0.456041 0.493041
0.462928 0.459928 0.496928
0.473815 0.463815 0.500815
0.484702 0.467702 0.504702
0.495589 0.471589 0.508589
0.506476 0.475476 0.512476
0.517363 0.479363 0.516363
0.528250 0.483250 0.520250
0.448785 0.466785 0.496785
0.459672 0.470672 0.500672
0.470559 0.474559 0.504559
0.481446 0.478446 0.508446
0.492333 0.482333 0.512333
0.503220 0.486220 0.516220
0.514107 0.490107 0.520107
0.524994 0.493994 0.523994
0.535881 0.497881 0.527881
0.456416 0.481416 0.504416
0.467303 0.485303 0.508303
0.478190 0.489190 0.512190
0.489077 0.493077 0.516077
0.499964 0.496964 0.519964
0.510851 0.500851 0.523851
0.521738 0.504738 0.527738
0.532625 0.508625 0.531625
0.543512 0.512512 0.535512
0.464047 0.496047 0.512047
0.474934 0.499934 0.515934
0.485821 0.503821 0.519821
0.496708 0.507708 0.523708
0.507595 0.511595 0.527595
0.518482 0.515482 0.531482
0.529369 0.519369 0.535369
0.540256 0.523256 0.539256
0.551143 0.527143 0.543143
0.471678 0.510678 0.519678
0.482565 0.514565 0.523565
0.493452 0.518452 0.527452
0.504339 0.522339 0.531339
0.515226 0.526226 0.535226
0.526113 0.530113 0.539113
0.537000 0.534000 0.543000
0.547887 0.537887 0.546887
0.558774 0.541774 0.550774
0.479309 0.525309 0.527309
0.490196 0.529196 0.531196
0.501083 0.533083 0.535083
0.511970 0.536970 0.538970
0.522857 0.540857 0.542857
0.533744 0.544744 0.546744
0.544631 0.548631 0.550631
0.555518 0.552518 0.554518
0.566405 0.556405 0.558405
0.486940 0.539940 0.534940
0.497827 0.543827 0.538827
0.508714 0.547714 0.542714
0.519601 0.551601 0.546601
0.530488 0.555488 0.550488
0.541375 0.559375 0.554375
0.552262 0.563262 0.558262
0.563149 0.567149 0.562149
0.574036 0.571036 0.566036
0.427374 0.424374 0.482374
0.438261 0.428261 0.486261
0.449148 0.432148 0.490148
0.460035 0.436035 0.494035
0.470922 0.439922 0.497922
0.481809 0.443809 0.501809
0.492696 0.447696 0.505696
0.503583 0.451583 0.509583
0.514470 0.455470 0.513470
0.435005 0.439005 0.490005
0.445892 0.442892 0.493892
0.456779 0.446779 0.497779
0.467666 0.450666 0.501666
0.478553 0.454553 0.505553
0.489440 0.458440 0.509440
0.500327 0.462327 0.513327
0.511214 0.466214 0.517214
0.522101 0.470101 0.521101
0.442636 0.453636 0.497636
0.453523 0.457523 0.501523
0.464410 0.461410 0.505410
0.475297 0.465297 0.509297
0.486184 0.469184 0.513184
0.497071 0.473071 0.517071
0.507958 0.476958 0.520958
0.518845 0.480845 0.524845
0.529732 0.484732 0.528732
0.450267 0.468267 0.505267
0.461154 0.472154 0.509154
0.472041 0.476041 0.513041
0.482928 0.479928 0.516928
0.493815 0.483815 0.520815
0.504702 0.487702 0.524702
0.515589 0.491589 0.528589
0.526476 0.495476 0.532476
0.537363 0.499363 0.536363
0.457898 0.482898 0.512898
0.468785 0.486785 0.516785
0.479672 0.490672 0.520672
0.490559 0.494559 0.524559
0.501446 0.498446 0.528446
0.512333 0.502333 0.532333
0.523220 0.506220 0.536220
0.534107 0.510107 0.540107
0.544994 0.513994 0.543994
0.465529 0.497529 0.520529
0.476416 0.501416 0.524416
0.487303 0.505303 0.528303
0.498190 0.509190 0.532190
0.509077 0.513077 0.536077
0.519964 0.516964 0.539964
0.530851 0.520851 0.543851
0.541738 0.524738 0.547738
0.552625 0.528625 0.551625
0.473160 0.512160 0.528160
0.484047 0.516047 0.532047
0.494934 0.519934 0.535934
0.505821 0.523821 0.539821
0.516708 0.527708 0.543708
0.527595 0.531595 0.547595
0.538482 0.535482 0.551482
0.549369 0.539369 0.555369
0.560256 0.543256 0.559256
0.480791 0.526791 0.535791
0.491678 0.530678 0.539678
0.502565 0.534565 0.543565
0.513452 0.538452 0.547452
0.524339 0.542339 0.551339
0.535226 0.546226 0.555226
0.546113 0.550113 0.559113
0.557000 0.554000 0.563000
0.567887 0.557887 0.566887
0.488422 0.541422 0.543422
0.499309 0.545309 0.547309
0.510196 0.549196 0.551196
0.521083 0.553083 0.555083
0.531970 0.556970 0.558970
0.542857 0.560857 0.562857
0.553744 0.564744 0.566744
0.564631 0.568631 0.570631
0.575518 0.572518 0.574518
0.428856 0.425856 0.490856
0.439743 0.429743 0.494743
0.450630 0.433630 0.498630
0.461517 0.437517 0.502517
0.472404 0.441404 0.506404
0.483291 0.445291 0.510291
0.494178 0.449178 0.514178
0.505065 0.453065 0.518065
0.515952 0.456952 0.521952
0.436487 0.440487 0.498487
0.447374 0.444374 0.502374
0.458261 0.448261 0.506261
0.469148 0.452148 0.510148
0.480035 0.456035 0.514035
0.490922 0.459922 0.517922
0.501809 0.463809 0.521809
0.512696 0.467696 0.525696
0.523583 0.471583 0.529583
0.444118 0.455118 0.506118
0.455005 0.459005 0.510005
0.465892 0.462892 0.513892
0.476779 0.466779 0.517779
0.487666 0.470666 0.521666
0.498553 0.474553 0.525553
0.509440 0.478440 0.529440
0.520327 0.482327 0.533327
0.531214 0.486214 0.537214
0.451749 0.469749 0.513749
0.462636 0.473636 0.517636
0.473523 0.477523 0.521523
0.484410 0.481410 0.525410
0.495297 0.485297 0.529297
0.506184 0.489184 0.533184
0.517071 0.493071 0.537071
0.527958 0.496958 0.540958
0.538845 0.500845 0.544845
0.459380 0.484380 0.521380
0.470267 0.488267 0.525267
0.481154 0.492154 0.529154
0.492041 0.496041 0.533041
0.502928 0.499928 0.536928
0.513815 0.503815 0.540815
0.524702 0.507702 0.544702
0.535589 0.511589 0.548589
0.546476 0.515476 0.552476
0.467011 0.499011 0.529011
0.477898 0.502898 0.532898
0.488785 0.506785 0.536785
0.499672 0.510672 0.540672
0.510559 0.514559 0.544559
0.521446 0.518446 0.548446
0.532333 0.522333 0.552333
0.543220 0.526220 0.556220
0.554107 0.530107 0.560107
0.474642 0.513642 0.536642
0.485529 0.517529 0.540529
0.496416 0.521416 0.544416
0.507303 0.525303 0.548303
0.518190 0.529190 0.552190
0.529077 0.533077 0.556077
0.539964 0.536964 0.559964
0.550851 0.540851 0.563851
0.561738 0.544738 0.567738
0.482273 0.528273 0.544273
0.493160 0.532160 0.548160
0.504047 0.536047 0.552047
0.514934 0.539934 0.555934
0.525821 0.543821 0.559821
0.536708 0.547708 0.563708
0.547595 0.551595 0.567595
0.558482 0.555482 0.571482
0.569369 0.559369 0.575369
0.489904 0.542904 0.551904
0.500791 0.546791 0.555791
0.511678 0.550678 0.559678
0.522565 0.554565 0.563565
0.533452 0.558452 0.567452
0.544339 0.562339 0.571339
0.555226 0.566226 0.575226
0.566113 0.570113 0.579113
0.577000 0.574000 0.583000
