shared/src/main/assets/luts/mv_vegas_neon.cube
TITLE "DALUR Vegas Neon"
LUT_3D_SIZE 17
DOMAIN_MIN 0.0 0.0 0.0
DOMAIN_MAX 1.0 1.0 1.0
0.417000 0.414000 0.423000
0.422443 0.415943 0.424943
0.427887 0.417887 0.426887
0.433330 0.419830 0.428830
0.438774 0.421774 0.430774
0.444217 0.423717 0.432717
0.449661 0.425661 0.434661
0.455104 0.427604 0.436605
0.460548 0.429548 0.438548
0.465992 0.431491 0.440491
0.471435 0.433435 0.442435
0.476878 0.435378 0.444378
0.482322 0.437322 0.446322
0.487765 0.439265 0.448265
0.493209 0.441209 0.450209
0.498652 0.443152 0.452152
0.504096 0.445096 0.454096
0.420815 0.421315 0.426815
0.426259 0.423259 0.428759
0.431702 0.425202 0.430702
0.437146 0.427146 0.432646
0.442589 0.429089 0.434589
0.448033 0.431033 0.436533
0.453476 0.432976 0.438476
0.458920 0.434920 0.440420
0.464363 0.436863 0.442363
0.469807 0.438807 0.444307
0.475250 0.440750 0.446250
0.480694 0.442694 0.448194
0.486137 0.444637 0.450137
0.491581 0.446581 0.452081
0.497024 0.448524 0.454024
0.502468 0.450468 0.455968
0.507911 0.452411 0.457911
0.424631 0.428631 0.430631
0.430075 0.430574 0.432574
0.435518 0.432518 0.434518
0.440962 0.434462 0.436462
0.446405 0.436405 0.438405
0.451848 0.438348 0.440348
0.457292 0.440292 0.442292
0.462735 0.442235 0.444235
0.468179 0.444179 0.446179
0.473622 0.446122 0.448122
0.479066 0.448066 0.450066
0.484509 0.450010 0.452010
0.489953 0.451953 0.453953
0.495397 0.453897 0.455897
0.500840 0.455840 0.457840
0.506283 0.457784 0.459784
0.511727 0.459727 0.461727
0.428447 0.435947 0.434447
0.433890 0.437890 0.436390
0.439333 0.439833 0.438333
0.444777 0.441777 0.440277
0.450220 0.443720 0.442220
0.455664 0.445664 0.444164
0.461107 0.447607 0.446107
0.466551 0.449551 0.448051
0.471994 0.451494 0.449994
0.477438 0.453438 0.451938
0.482881 0.455381 0.453881
0.488325 0.457325 0.455825
0.493768 0.459268 0.457768
0.499212 0.461212 0.459712
0.504656 0.463155 0.461655
0.510099 0.465099 0.463599
0.515543 0.467042 0.465542
0.432262 0.443262 0.438262
0.437705 0.445205 0.440205
0.443149 0.447149 0.442149
0.448593 0.449093 0.444093
0.454036 0.451036 0.446036
0.459479 0.452979 0.447979
0.464923 0.454923 0.449923
0.470366 0.456866 0.451866
0.475810 0.458810 0.453810
0.481253 0.460753 0.455753
0.486697 0.462697 0.457697
0.492140 0.464640 0.459640
0.497584 0.466584 0.461584
0.503027 0.468527 0.463527
0.508471 0.470471 0.465471
0.513915 0.472415 0.467415
0.519358 0.474358 0.469358
0.436077 0.450577 0.442077
0.441521 0.452521 0.444021
0.446964 0.454464 0.445964
0.452408 0.456408 0.447908
0.457851 0.458351 0.449851
0.463295 0.460295 0.451795
0.468738 0.462238 0.453738
0.474182 0.464182 0.455682
0.479625 0.466125 0.457625
0.485069 0.468069 0.459569
0.490512 0.470012 0.461512
0.495956 0.471956 0.463456
0.501399 0.473899 0.465399
0.506843 0.475843 0.467343
0.512286 0.477786 0.469286
0.517730 0.479730 0.471230
0.523173 0.481673 0.473173
0.439893 0.457893 0.445893
0.445336 0.459836 0.447836
0.450780 0.461780 0.449780
0.456223 0.463723 0.451723
0.461667 0.465667 0.453667
0.467110 0.467610 0.455610
0.472554 0.469554 0.457554
0.477997 0.471497 0.459497
0.483441 0.473441 0.461441
0.488884 0.475384 0.463384
0.494328 0.477328 0.465328
0.499771 0.479271 0.467271
0.505215 0.481215 0.469215
0.510659 0.483158 0.471158
0.516102 0.485102 0.473102
0.521545 0.487046 0.475046
0.526989 0.488989 0.476989
0.443708 0.465208 0.449708
0.449152 0.467152 0.451652
0.454595 0.469095 0.453595
0.460039 0.471039 0.455539
0.465482 0.472982 0.457482
0.470926 0.474926 0.459426
0.476369 0.476869 0.461369
0.481813 0.478813 0.463313
0.487256 0.480756 0.465257
0.492700 0.482700 0.467200
0.498143 0.484644 0.469143
0.503587 0.486587 0.471087
0.509030 0.488530 0.473030
0.514474 0.490474 0.474974
0.519918 0.492418 0.476917
0.525361 0.494361 0.478861
0.530805 0.496305 0.480804
0.447524 0.472524 0.453524
0.452967 0.474467 0.455467
0.458411 0.476411 0.457411
0.463855 0.478354 0.459354
0.469298 0.480298 0.461298
0.474741 0.482241 0.463241
0.480185 0.484185 0.465185
0.485628 0.486128 0.467129
0.491072 0.488072 0.469072
0.496515 0.490015 0.471015
0.501959 0.491959 0.472959
0.507402 0.493902 0.474902
0.512846 0.495846 0.476846
0.518289 0.497789 0.478789
0.523733 0.499733 0.480733
0.529177 0.501676 0.482677
0.534620 0.503620 0.484620
0.451339 0.479839 0.457339
0.456783 0.481783 0.459283
0.462226 0.483726 0.461226
0.467670 0.485670 0.463170
0.473113 0.487613 0.465113
0.478557 0.489557 0.467057
0.484000 0.491500 0.469000
0.489444 0.493444 0.470944
0.494887 0.495387 0.472887
0.500331 0.497331 0.474831
0.505775 0.499274 0.476774
0.511218 0.501218 0.478718
0.516661 0.503162 0.480662
0.522105 0.505105 0.482605
0.527548 0.507049 0.484548
0.532992 0.508992 0.486492
0.538435 0.510935 0.488435
0.455155 0.487155 0.461155
0.460599 0.489098 0.463099
0.466042 0.491042 0.465042
0.471486 0.492986 0.466985
0.476929 0.494929 0.468929
0.482372 0.496872 0.470872
0.487816 0.498816 0.472816
0.493259 0.500760 0.474760
0.498703 0.502703 0.476703
0.504147 0.504646 0.478646
0.509590 0.506590 0.480590
0.515034 0.508533 0.482534
0.520477 0.510477 0.484477
0.525921 0.512421 0.486421
0.531364 0.514364 0.488364
0.536808 0.516308 0.490308
0.542251 0.518251 0.492251
0.458971 0.494471 0.464971
0.464414 0.496414 0.466914
0.469857 0.498358 0.468857
0.475301 0.500301 0.470801
0.480744 0.502244 0.472744
0.486188 0.504188 0.474688
0.491631 0.506131 0.476631
0.497075 0.508075 0.478575
0.502518 0.510019 0.480519
0.507962 0.511962 0.482462
0.513405 0.513906 0.484405
0.518849 0.515849 0.486349
0.524292 0.517792 0.488292
0.529736 0.519736 0.490236
0.535180 0.521680 0.492180
0.540623 0.523623 0.494123
0.546067 0.525567 0.496067
0.462786 0.501786 0.468786
0.468229 0.503729 0.470729
0.473673 0.505673 0.472673
0.479117 0.507617 0.474616
0.484560 0.509560 0.476560
0.490003 0.511503 0.478504
0.495447 0.513447 0.480447
0.500891 0.515390 0.482390
0.506334 0.517334 0.484334
0.511777 0.519277 0.486277
0.517221 0.521221 0.488221
0.522664 0.523165 0.490165
0.528108 0.525108 0.492108
0.533552 0.527052 0.494052
0.538995 0.528995 0.495995
0.544439 0.530938 0.497939
0.549882 0.532882 0.499882
0.466602 0.509101 0.472602
0.472045 0.511045 0.474545
0.477488 0.512989 0.476488
0.482932 0.514932 0.478432
0.488376 0.516876 0.480376
0.493819 0.518819 0.482319
0.499262 0.520763 0.484262
0.504706 0.522706 0.486206
0.510150 0.524650 0.488150
0.515593 0.526593 0.490093
0.521037 0.528537 0.492037
0.526480 0.530480 0.493980
0.531923 0.532424 0.495924
0.537367 0.534367 0.497867
0.542811 0.536311 0.499811
0.548254 0.538254 0.501754
0.553697 0.540197 0.503698
0.470417 0.516417 0.476417
0.475861 0.518361 0.478361
0.481304 0.520304 0.480304
0.486747 0.522247 0.482247
0.492191 0.524191 0.484191
0.497634 0.526134 0.486134
0.503078 0.528078 0.488078
0.508522 0.530022 0.490022
0.513965 0.531965 0.491965
0.519409 0.533909 0.493909
0.524852 0.535852 0.495852
0.530296 0.537796 0.497796
0.535739 0.539739 0.499739
0.541183 0.541683 0.501683
0.546626 0.543626 0.503626
0.552069 0.545570 0.505570
0.557513 0.547513 0.507513
0.474233 0.523733 0.480233
0.479676 0.525676 0.482176
0.485119 0.527620 0.484119
0.490563 0.529563 0.486063
0.496007 0.531506 0.488007
0.501450 0.533450 0.489950
0.506893 0.535393 0.491893
0.512337 0.537337 0.493837
0.517781 0.539281 0.495781
0.523224 0.541224 0.497724
0.528668 0.543168 0.499668
0.534111 0.545111 0.501611
0.539555 0.547054 0.503555
0.544998 0.548998 0.505498
0.550442 0.550941 0.507441
0.555885 0.552885 0.509385
0.561329 0.554829 0.511328
0.478048 0.531048 0.484048
0.483491 0.532991 0.485991
0.488935 0.534935 0.487935
0.494378 0.536878 0.489878
0.499822 0.538822 0.491822
0.505265 0.540765 0.493765
0.510709 0.542709 0.495709
0.516152 0.544652 0.497652
0.521596 0.546596 0.499596
0.527039 0.548539 0.501539
0.532483 0.550483 0.503483
0.537926 0.552426 0.505426
0.543370 0.554370 0.507370
0.548814 0.556314 0.509313
0.554257 0.558257 0.511257
0.559701 0.560200 0.513200
0.565144 0.562144 0.515144
0.417741 0.414741 0.427241
0.423184 0.416684 0.429184
0.428628 0.418628 0.431128
0.434071 0.420571 0.433071
0.439515 0.422515 0.435015
0.444958 0.424458 0.436958
0.450402 0.426402 0.438902
0.455846 0.428345 0.440846
0.461289 0.430289 0.442789
0.466732 0.432233 0.444732
0.472176 0.434176 0.446676
0.477619 0.436119 0.448620
0.483063 0.438063 0.450563
0.488507 0.440006 0.452506
0.493950 0.441950 0.454450
0.499393 0.443893 0.456393
0.504837 0.445837 0.458337
0.421556 0.422056 0.431056
0.427000 0.424000 0.433000
0.432443 0.425943 0.434943
0.437887 0.427887 0.436887
0.443330 0.429830 0.438830
0.448774 0.431774 0.440774
0.454217 0.433717 0.442717
0.459661 0.435661 0.444661
0.465104 0.437605 0.446605
0.470548 0.439548 0.448548
0.475992 0.441491 0.450491
0.481435 0.443435 0.452435
0.486878 0.445378 0.454378
0.492322 0.447322 0.456322
0.497765 0.449265 0.458265
0.503209 0.451209 0.460209
0.508652 0.453152 0.462152
0.425372 0.429372 0.434872
0.430816 0.431316 0.436816
0.436259 0.433259 0.438759
0.441702 0.435202 0.440702
0.447146 0.437146 0.442646
0.452589 0.439090 0.444590
0.458033 0.441033 0.446533
0.463477 0.442976 0.448477
0.468920 0.444920 0.450420
0.474363 0.446863 0.452363
0.479807 0.448807 0.454307
0.485251 0.450750 0.456251
0.490694 0.452694 0.458194
0.496138 0.454638 0.460138
0.501581 0.456581 0.462081
0.507025 0.458525 0.464025
0.512468 0.460468 0.465968
0.429187 0.436688 0.438688
0.434631 0.438631 0.440631
0.440075 0.440574 0.442574
0.445518 0.442518 0.444518
0.450962 0.444462 0.446462
0.456405 0.446405 0.448405
0.461848 0.448348 0.450348
0.467292 0.450292 0.452292
0.472735 0.452235 0.454235
0.478179 0.454179 0.456179
0.483623 0.456122 0.458122
0.489066 0.458066 0.460066
0.494509 0.460010 0.462010
0.499953 0.461953 0.463953
0.505397 0.463897 0.465897
0.510840 0.465840 0.467840
0.516284 0.467784 0.469784
0.433003 0.444003 0.442503
0.438447 0.445947 0.444447
0.443890 0.447890 0.446390
0.449333 0.449833 0.448333
0.454777 0.451777 0.450277
0.460220 0.453720 0.452220
0.465664 0.455664 0.454164
0.471107 0.457608 0.456107
0.476551 0.459551 0.458051
0.481994 0.461494 0.459994
0.487438 0.463438 0.461938
0.492881 0.465382 0.463882
0.498325 0.467325 0.465825
0.503769 0.469269 0.467769
0.509212 0.471212 0.469712
0.514656 0.473156 0.471656
0.520099 0.475099 0.473599
0.436818 0.451319 0.446319
0.442262 0.453262 0.448262
0.447705 0.455205 0.450205
0.453149 0.457149 0.452149
0.458593 0.459092 0.454093
0.464036 0.461036 0.456036
0.469479 0.462979 0.457979
0.474923 0.464923 0.459923
0.480366 0.466866 0.461866
0.485810 0.468810 0.463810
0.491254 0.470753 0.465753
0.496697 0.472697 0.467697
0.502140 0.474640 0.469640
0.507584 0.476584 0.471584
0.513027 0.478527 0.473527
0.518471 0.480471 0.475471
0.523914 0.482414 0.477415
0.440634 0.458634 0.450134
0.446077 0.460577 0.452077
0.451521 0.462521 0.454021
0.456964 0.464464 0.455964
0.462408 0.466408 0.457908
0.467851 0.468351 0.459851
0.473295 0.470295 0.461795
0.478738 0.472238 0.463738
0.484182 0.474182 0.465682
0.489625 0.476125 0.467625
0.495069 0.478069 0.469569
0.500513 0.480012 0.471513
0.505956 0.481956 0.473456
0.511400 0.483899 0.475399
0.516843 0.485843 0.477343
0.522286 0.487786 0.479286
0.527730 0.489730 0.481230
0.444449 0.465949 0.453950
0.449893 0.467893 0.455893
0.455336 0.469836 0.457836
0.460780 0.471780 0.459780
0.466224 0.473723 0.461724
0.471667 0.475667 0.463667
0.477110 0.477610 0.465610
0.482554 0.479554 0.467554
0.487998 0.481498 0.469498
0.493441 0.483441 0.471441
0.498885 0.485384 0.473384
0.504328 0.487328 0.475328
0.509772 0.489271 0.477272
0.515215 0.491215 0.479215
0.520659 0.493158 0.481158
0.526102 0.495102 0.483102
0.531545 0.497045 0.485045
0.448265 0.473265 0.457765
0.453708 0.475208 0.459708
0.459152 0.477152 0.461652
0.464595 0.479096 0.463595
0.470039 0.481039 0.465539
0.475482 0.482982 0.467482
0.480926 0.484926 0.469426
0.486370 0.486870 0.471369
0.491813 0.488813 0.473313
0.497256 0.490756 0.475257
0.502700 0.492700 0.477200
0.508143 0.494643 0.479143
0.513587 0.496587 0.481087
0.519030 0.498530 0.483030
0.524474 0.500474 0.484974
0.529917 0.502417 0.486917
0.535361 0.504361 0.488861
0.452080 0.480580 0.461580
0.457524 0.482524 0.463524
0.462967 0.484467 0.465467
0.468411 0.486411 0.467411
0.473855 0.488354 0.469355
0.479298 0.490298 0.471298
0.484741 0.492241 0.473241
0.490185 0.494185 0.475185
0.495628 0.496128 0.477129
0.501072 0.498072 0.479072
0.506516 0.500015 0.481015
0.511959 0.501959 0.482959
0.517402 0.503902 0.484902
0.522846 0.505846 0.486846
0.528289 0.507789 0.488789
0.533733 0.509733 0.490733
0.539176 0.511676 0.492676
0.455896 0.487896 0.465396
0.461340 0.489840 0.467340
0.466783 0.491783 0.469283
0.472226 0.493727 0.471226
0.477670 0.495670 0.473170
0.483113 0.497614 0.475114
0.488557 0.499557 0.477057
0.494000 0.501500 0.479000
0.499444 0.503444 0.480944
0.504887 0.505387 0.482887
0.510331 0.507331 0.484831
0.515775 0.509274 0.486774
0.521218 0.511218 0.488718
0.526662 0.513162 0.490662
0.532105 0.515105 0.492605
0.537548 0.517049 0.494549
0.542992 0.518992 0.496492
0.459711 0.495212 0.469212
0.465155 0.497155 0.471155
0.470599 0.499099 0.473099
0.476042 0.501042 0.475042
0.481486 0.502985 0.476986
0.486929 0.504929 0.478929
0.492372 0.506872 0.480872
0.497816 0.508816 0.482816
0.503259 0.510759 0.484759
0.508703 0.512703 0.486703
0.514147 0.514647 0.488646
0.519590 0.516590 0.490590
0.525034 0.518533 0.492534
0.530477 0.520477 0.494477
0.535921 0.522420 0.496420
0.541364 0.524364 0.498364
0.546808 0.526307 0.500307
0.463527 0.502527 0.473027
0.468971 0.504471 0.474971
0.474414 0.506414 0.476914
0.479857 0.508358 0.478857
0.485301 0.510301 0.480801
0.490744 0.512244 0.482744
0.496188 0.514188 0.484688
0.501631 0.516131 0.486631
0.507075 0.518075 0.488575
0.512518 0.520018 0.490518
0.517962 0.521962 0.492462
0.523405 0.523906 0.494405
0.528849 0.525849 0.496349
0.534292 0.527792 0.498292
0.539736 0.529736 0.500236
0.545180 0.531679 0.502180
0.550623 0.533623 0.504123
0.467342 0.509842 0.476843
0.472786 0.511786 0.478786
0.478229 0.513729 0.480729
0.483673 0.515673 0.482673
0.489117 0.517617 0.484617
0.494560 0.519560 0.486560
0.500004 0.521504 0.488504
0.505447 0.523447 0.490447
0.510891 0.525390 0.492391
0.516334 0.527334 0.494334
0.521778 0.529277 0.496277
0.527221 0.531221 0.498221
0.532664 0.533165 0.500165
0.538108 0.535108 0.502108
0.543551 0.537052 0.504051
0.548995 0.538995 0.505995
0.554438 0.540938 0.507938
0.471158 0.517158 0.480658
0.476601 0.519101 0.482601
0.482045 0.521045 0.484545
0.487488 0.522989 0.486488
0.492932 0.524932 0.488432
0.498375 0.526876 0.490376
0.503819 0.528819 0.492319
0.509262 0.530763 0.494262
0.514706 0.532706 0.496206
0.520150 0.534649 0.498149
0.525593 0.536593 0.500093
0.531037 0.538536 0.502036
0.536480 0.540480 0.503980
0.541924 0.542423 0.505923
0.547367 0.544367 0.507867
0.552810 0.546310 0.509810
0.558254 0.548254 0.511754
0.474973 0.524473 0.484473
0.480417 0.526417 0.486417
0.485860 0.528361 0.488360
0.491304 0.530304 0.490304
0.496748 0.532247 0.492248
0.502191 0.534191 0.494191
0.507634 0.536134 0.496134
0.513078 0.538078 0.498078
0.518521 0.540022 0.500022
0.523965 0.541965 0.501965
0.529408 0.543909 0.503908
0.534852 0.545852 0.505852
0.540295 0.547795 0.507795
0.545739 0.549739 0.509739
0.551183 0.551682 0.511682
0.556626 0.553626 0.513626
0.562069 0.555569 0.515569
0.478789 0.531789 0.488289
0.484232 0.533732 0.490232
0.489676 0.535676 0.492176
0.495119 0.537619 0.494119
0.500563 0.539563 0.496063
0.506006 0.541506 0.498006
0.511450 0.543450 0.499950
0.516893 0.545393 0.501893
0.522337 0.547337 0.503837
0.527780 0.549280 0.505780
0.533224 0.551224 0.507724
0.538667 0.553167 0.509667
0.544111 0.555111 0.511611
0.549554 0.557054 0.513554
0.554998 0.558998 0.515498
0.560441 0.560941 0.517441
0.565885 0.562885 0.519385
0.418482 0.415482 0.431482
0.423925 0.417425 0.433425
0.429369 0.419369 0.435369
0.434812 0.421312 0.437312
0.440256 0.423256 0.439256
0.445699 0.425199 0.441199
0.451143 0.427143 0.443143
0.456587 0.429086 0.445086
0.462030 0.431030 0.447030
0.467473 0.432973 0.448973
0.472917 0.434917 0.450917
0.478360 0.436860 0.452860
0.483804 0.438804 0.454804
0.489248 0.440747 0.456747
0.494691 0.442691 0.458691
0.500134 0.444634 0.460634
0.505578 0.446578 0.462578
0.422297 0.422797 0.435297
0.427741 0.424741 0.437241
0.433184 0.426684 0.439184
0.438628 0.428628 0.441128
0.444071 0.430571 0.443071
0.449515 0.432515 0.445015
0.454958 0.434458 0.446958
0.460402 0.436402 0.448902
0.465845 0.438345 0.450846
0.471289 0.440289 0.452789
0.476733 0.442232 0.454732
0.482176 0.444176 0.456676
0.487619 0.446119 0.458619
0.493063 0.448063 0.460563
0.498506 0.450006 0.462506
0.503950 0.451950 0.464450
0.509393 0.453893 0.466393
0.426113 0.430113 0.439113
0.431557 0.432057 0.441057
0.437000 0.434000 0.443000
0.442443 0.435943 0.444943
0.447887 0.437887 0.446887
0.453330 0.439830 0.448830
0.458774 0.441774 0.450774
0.464217 0.443717 0.452717
0.469661 0.445661 0.454661
0.475104 0.447604 0.456604
0.480548 0.449548 0.458548
0.485992 0.451491 0.460491
0.491435 0.453435 0.462435
0.496879 0.455379 0.464379
0.502322 0.457322 0.466322
0.507765 0.459265 0.468266
0.513209 0.461209 0.470209
0.429928 0.437428 0.442929
0.435372 0.439372 0.444872
0.440815 0.441315 0.446815
0.446259 0.443259 0.448759
0.451703 0.445203 0.450703
0.457146 0.447146 0.452646
0.462589 0.449089 0.454589
0.468033 0.451033 0.456533
0.473476 0.452976 0.458476
0.478920 0.454920 0.460420
0.484364 0.456863 0.462363
0.489807 0.458807 0.464307
0.495250 0.460750 0.466251
0.500694 0.462694 0.468194
0.506138 0.464637 0.470137
0.511581 0.466581 0.472081
0.517024 0.468525 0.474025
0.433744 0.444744 0.446744
0.439188 0.446688 0.448688
0.444631 0.448631 0.450631
0.450074 0.450574 0.452574
0.455518 0.452518 0.454518
0.460961 0.454461 0.456461
0.466405 0.456405 0.458405
0.471848 0.458348 0.460348
0.477292 0.460292 0.462292
0.482735 0.462235 0.464235
0.488179 0.464179 0.466179
0.493622 0.466122 0.468122
0.499066 0.468066 0.470066
0.504510 0.470010 0.472010
0.509953 0.471953 0.473953
0.515397 0.473896 0.475897
0.520840 0.475840 0.477840
0.437559 0.452059 0.450560
0.443003 0.454003 0.452503
0.448446 0.455946 0.454446
0.453890 0.457890 0.456390
0.459333 0.459833 0.458333
0.464777 0.461777 0.460277
0.470220 0.463720 0.462220
0.475664 0.465664 0.464164
0.481107 0.467607 0.466107
0.486551 0.469551 0.468051
0.491995 0.471494 0.469994
0.497438 0.473438 0.471938
0.502881 0.475381 0.473881
0.508325 0.477325 0.475825
0.513768 0.479268 0.477768
0.519212 0.481212 0.479712
0.524655 0.483155 0.481656
0.441375 0.459375 0.454375
0.446818 0.461318 0.456318
0.452262 0.463262 0.458262
0.457705 0.465205 0.460205
0.463149 0.467149 0.462149
0.468592 0.469092 0.464092
0.474036 0.471036 0.466036
0.479479 0.472979 0.467979
0.484923 0.474923 0.469923
0.490366 0.476866 0.471866
0.495810 0.478810 0.473810
0.501254 0.480753 0.475753
0.506697 0.482697 0.477697
0.512140 0.484640 0.479640
0.517584 0.486584 0.481584
0.523027 0.488527 0.483527
0.528471 0.490471 0.485471
0.445190 0.466690 0.458190
0.450634 0.468634 0.460134
0.456077 0.470577 0.462077
0.461521 0.472521 0.464021
0.466965 0.474464 0.465965
0.472408 0.476408 0.467908
0.477851 0.478351 0.469851
0.483295 0.480295 0.471795
0.488739 0.482239 0.473739
0.494182 0.484182 0.475682
0.499625 0.486125 0.477625
0.505069 0.488069 0.479569
0.510513 0.490012 0.481513
0.515956 0.491956 0.483456
0.521400 0.493899 0.485399
0.526843 0.495843 0.487343
0.532286 0.497786 0.489286
0.449006 0.474006 0.462006
0.454449 0.475949 0.463949
0.459893 0.477893 0.465893
0.465336 0.479836 0.467836
0.470780 0.481780 0.469780
0.476223 0.483723 0.471723
0.481667 0.485667 0.473667
0.487111 0.487611 0.475610
0.492554 0.489554 0.477554
0.497997 0.491497 0.479498
0.503441 0.493441 0.481441
0.508884 0.495385 0.483384
0.514328 0.497328 0.485328
0.519771 0.499271 0.487271
0.525215 0.501215 0.489215
0.530659 0.503158 0.491158
0.536102 0.505102 0.493102
0.452821 0.481321 0.465821
0.458265 0.483265 0.467765
0.463708 0.485208 0.469708
0.469152 0.487152 0.471652
0.474595 0.489095 0.473595
0.480039 0.491039 0.475539
0.485482 0.492982 0.477482
0.490926 0.494926 0.479426
0.496369 0.496869 0.481370
0.501813 0.498813 0.483313
0.507256 0.500756 0.485256
0.512700 0.502700 0.487200
0.518143 0.504643 0.489143
0.523587 0.506587 0.491087
0.529030 0.508530 0.493030
0.534474 0.510474 0.494974
0.539917 0.512417 0.496917
0.456637 0.488637 0.469637
0.462081 0.490581 0.471581
0.467524 0.492524 0.473524
0.472967 0.494467 0.475467
0.478411 0.496411 0.477411
0.483854 0.498355 0.479355
0.489298 0.500298 0.481298
0.494741 0.502242 0.483241
0.500185 0.504185 0.485185
0.505628 0.506128 0.487128
0.511072 0.508072 0.489072
0.516516 0.510016 0.491016
0.521959 0.511959 0.492959
0.527402 0.513903 0.494903
0.532846 0.515846 0.496846
0.538289 0.517790 0.498789
0.543733 0.519733 0.500733
0.460452 0.495953 0.473452
0.465896 0.497896 0.475396
0.471340 0.499839 0.477340
0.476783 0.501783 0.479283
0.482227 0.503726 0.481227
0.487670 0.505670 0.483170
0.493113 0.507613 0.485113
0.498557 0.509557 0.487057
0.504000 0.511500 0.489000
0.509444 0.513444 0.490944
0.514888 0.515387 0.492888
0.520331 0.517331 0.494831
0.525775 0.519274 0.496775
0.531218 0.521218 0.498718
0.536662 0.523162 0.500661
0.542105 0.525105 0.502605
0.547548 0.527049 0.504548
0.464268 0.503268 0.477268
0.469712 0.505212 0.479212
0.475155 0.507155 0.481155
0.480598 0.509099 0.483098
0.486042 0.511042 0.485042
0.491485 0.512985 0.486985
0.496929 0.514929 0.488929
0.502372 0.516872 0.490872
0.507816 0.518816 0.492816
0.513259 0.520759 0.494759
0.518703 0.522703 0.496703
0.524147 0.524647 0.498646
0.529590 0.526590 0.500590
0.535034 0.528533 0.502533
0.540477 0.530477 0.504477
0.545921 0.532420 0.506421
0.551364 0.534364 0.508364
0.468083 0.510583 0.481083
0.473527 0.512527 0.483027
0.478970 0.514470 0.484970
0.484414 0.516414 0.486914
0.489858 0.518358 0.488858
0.495301 0.520301 0.490801
0.500745 0.522245 0.492745
0.506188 0.524188 0.494688
0.511632 0.526131 0.496632
0.517075 0.528075 0.498575
0.522518 0.530019 0.500518
0.527962 0.531962 0.502462
0.533405 0.533906 0.504405
0.538849 0.535849 0.506349
0.544292 0.537793 0.508293
0.549736 0.539736 0.510236
0.555179 0.541679 0.512180
0.471899 0.517899 0.484899
0.477342 0.519842 0.486842
0.482786 0.521786 0.488786
0.488230 0.523730 0.490730
0.493673 0.525673 0.492673
0.499116 0.527617 0.494617
0.504560 0.529560 0.496560
0.510004 0.531504 0.498504
0.515447 0.533447 0.500447
0.520891 0.535390 0.502390
0.526334 0.537334 0.504334
0.531778 0.539277 0.506278
0.537221 0.541221 0.508221
0.542664 0.543165 0.510165
0.548108 0.545108 0.512108
0.553551 0.547052 0.514051
0.558995 0.548995 0.515995
0.475714 0.525215 0.488714
0.481158 0.527158 0.490658
0.486601 0.529102 0.492601
0.492045 0.531045 0.494545
0.497489 0.532989 0.496488
0.502932 0.534932 0.498432
0.508375 0.536876 0.500375
0.513819 0.538819 0.502319
0.519262 0.540763 0.504263
0.524706 0.542706 0.506206
0.530150 0.544650 0.508150
0.535593 0.546593 0.510093
0.541037 0.548536 0.512037
0.546480 0.550480 0.513980
0.551924 0.552423 0.515923
0.557367 0.554367 0.517867
0.562810 0.556310 0.519810
0.479530 0.532530 0.492530
0.484973 0.534473 0.494473
0.490417 0.536417 0.496417
0.495860 0.538360 0.498360
0.501304 0.540304 0.500304
0.506747 0.542247 0.502247
0.512191 0.544191 0.504191
0.517634 0.546134 0.506134
0.523078 0.548078 0.508078
0.528521 0.550021 0.510021
0.533965 0.551965 0.511965
0.539408 0.553908 0.513908
0.544852 0.555852 0.515852
0.550295 0.557795 0.517795
0.555739 0.559739 0.519739
0.561183 0.561682 0.521682
0.566626 0.563626 0.523626
0.419223 0.416223 0.435723
0.424666 0.418166 0.437666
0.430110 0.420110 0.439610
0.435553 0.422053 0.441553
0.440997 0.423997 0.443497
0.446440 0.425940 0.445441
0.451884 0.427884 0.447384
0.457327 0.429828 0.449328
0.462771 0.431771 0.451271
0.468214 0.433715 0.453215
0.473658 0.435658 0.455158
0.479102 0.437601 0.457101
0.484545 0.439545 0.459045
0.489988 0.441488 0.460988
0.495432 0.443432 0.462932
0.500876 0.445375 0.464875
0.506319 0.447319 0.466819
0.423038 0.423538 0.439538
