shared/src/main/assets/luts/mv_warehouse_reality.cube
TITLE "DALUR Warehouse Reality"
LUT_3D_SIZE 17
DOMAIN_MIN 0.0 0.0 0.0
DOMAIN_MAX 1.0 1.0 1.0
0.443000 0.442000 0.437000
0.444658 0.444383 0.439383
0.446317 0.446765 0.441765
0.447975 0.449148 0.444148
0.449633 0.451531 0.446531
0.451291 0.453914 0.448914
0.452950 0.456296 0.451296
0.454608 0.458679 0.453679
0.456266 0.461062 0.456062
0.457924 0.463445 0.458445
0.459583 0.465827 0.460827
0.461241 0.468210 0.463210
0.462899 0.470593 0.465593
0.464558 0.472975 0.467975
0.466216 0.475358 0.470358
0.467874 0.477741 0.472741
0.469532 0.480124 0.475124
0.447678 0.445953 0.441678
0.449336 0.448336 0.444061
0.450994 0.450719 0.446443
0.452653 0.453102 0.448826
0.454311 0.455484 0.451209
0.455969 0.457867 0.453591
0.457627 0.460250 0.455974
0.459286 0.462632 0.458357
0.460944 0.465015 0.460740
0.462602 0.467398 0.463122
0.464261 0.469781 0.465505
0.465919 0.472163 0.467888
0.467577 0.474546 0.470270
0.469235 0.476929 0.472653
0.470894 0.479311 0.475036
0.472552 0.481694 0.477419
0.474210 0.484077 0.479801
0.452356 0.449907 0.446356
0.454014 0.452289 0.448738
0.455672 0.454672 0.451121
0.457330 0.457055 0.453504
0.458989 0.459438 0.455886
0.460647 0.461820 0.458269
0.462305 0.464203 0.460652
0.463963 0.466586 0.463035
0.465622 0.468968 0.465417
0.467280 0.471351 0.467800
0.468938 0.473734 0.470183
0.470597 0.476117 0.472566
0.472255 0.478499 0.474948
0.473913 0.480882 0.477331
0.475571 0.483265 0.479714
0.477230 0.485648 0.482096
0.478888 0.488030 0.484479
0.457033 0.453860 0.451033
0.458692 0.456243 0.453416
0.460350 0.458625 0.455799
0.462008 0.461008 0.458182
0.463666 0.463391 0.460564
0.465325 0.465774 0.462947
0.466983 0.468156 0.465330
0.468641 0.470539 0.467712
0.470300 0.472922 0.470095
0.471958 0.475305 0.472478
0.473616 0.477687 0.474861
0.475274 0.480070 0.477243
0.476933 0.482453 0.479626
0.478591 0.484835 0.482009
0.480249 0.487218 0.484391
0.481907 0.489601 0.486774
0.483566 0.491984 0.489157
0.461711 0.457813 0.455711
0.463369 0.460196 0.458094
0.465028 0.462579 0.460477
0.466686 0.464962 0.462859
0.468344 0.467344 0.465242
0.470003 0.469727 0.467625
0.471661 0.472110 0.470007
0.473319 0.474492 0.472390
0.474977 0.476875 0.474773
0.476636 0.479258 0.477156
0.478294 0.481641 0.479538
0.479952 0.484023 0.481921
0.481610 0.486406 0.484304
0.483269 0.488789 0.486687
0.484927 0.491171 0.489069
0.486585 0.493554 0.491452
0.488243 0.495937 0.493835
0.466389 0.461767 0.460389
0.468047 0.464149 0.462772
0.469705 0.466532 0.465154
0.471364 0.468915 0.467537
0.473022 0.471298 0.469920
0.474680 0.473680 0.472303
0.476339 0.476063 0.474685
0.477997 0.478446 0.477068
0.479655 0.480828 0.479451
0.481313 0.483211 0.481833
0.482972 0.485594 0.484216
0.484630 0.487977 0.486599
0.486288 0.490359 0.488982
0.487946 0.492742 0.491364
0.489605 0.495125 0.493747
0.491263 0.497508 0.496130
0.492921 0.499890 0.498513
0.471067 0.465720 0.465067
0.472725 0.468103 0.467449
0.474383 0.470485 0.469832
0.476042 0.472868 0.472215
0.477700 0.475251 0.474598
0.479358 0.477634 0.476980
0.481016 0.480016 0.479363
0.482675 0.482399 0.481746
0.484333 0.484782 0.484129
0.485991 0.487165 0.486511
0.487649 0.489547 0.488894
0.489308 0.491930 0.491277
0.490966 0.494313 0.493659
0.492624 0.496695 0.496042
0.494283 0.499078 0.498425
0.495941 0.501461 0.500808
0.497599 0.503844 0.503190
0.475745 0.469673 0.469745
0.477403 0.472056 0.472127
0.479061 0.474439 0.474510
0.480719 0.476822 0.476893
0.482378 0.479204 0.479275
0.484036 0.481587 0.481658
0.485694 0.483970 0.484041
0.487352 0.486352 0.486424
0.489011 0.488735 0.488806
0.490669 0.491118 0.491189
0.492327 0.493501 0.493572
0.493986 0.495883 0.495954
0.495644 0.498266 0.498337
0.497302 0.500649 0.500720
0.498960 0.503031 0.503103
0.500619 0.505414 0.505485
0.502277 0.507797 0.507868
0.480422 0.473627 0.474422
0.482081 0.476009 0.476805
0.483739 0.478392 0.479188
0.485397 0.480775 0.481570
0.487055 0.483158 0.483953
0.488714 0.485540 0.486336
0.490372 0.487923 0.488719
0.492030 0.490306 0.491101
0.493688 0.492688 0.493484
0.495347 0.495071 0.495867
0.497005 0.497454 0.498250
0.498663 0.499837 0.500632
0.500322 0.502219 0.503015
0.501980 0.504602 0.505398
0.503638 0.506985 0.507780
0.505296 0.509368 0.510163
0.506955 0.511750 0.512546
0.485100 0.477580 0.479100
0.486758 0.479963 0.481483
0.488417 0.482345 0.483866
0.490075 0.484728 0.486248
0.491733 0.487111 0.488631
0.493391 0.489494 0.491014
0.495050 0.491876 0.493396
0.496708 0.494259 0.495779
0.498366 0.496642 0.498162
0.500025 0.499025 0.500545
0.501683 0.501407 0.502927
0.503341 0.503790 0.505310
0.504999 0.506173 0.507693
0.506658 0.508555 0.510075
0.508316 0.510938 0.512458
0.509974 0.513321 0.514841
0.511632 0.515704 0.517224
0.489778 0.481533 0.483778
0.491436 0.483916 0.486161
0.493094 0.486299 0.488543
0.494753 0.488682 0.490926
0.496411 0.491064 0.493309
0.498069 0.493447 0.495691
0.499728 0.495830 0.498074
0.501386 0.498212 0.500457
0.503044 0.500595 0.502840
0.504702 0.502978 0.505222
0.506361 0.505361 0.507605
0.508019 0.507743 0.509988
0.509677 0.510126 0.512371
0.511335 0.512509 0.514753
0.512994 0.514891 0.517136
0.514652 0.517274 0.519519
0.516310 0.519657 0.521901
0.494456 0.485487 0.488456
0.496114 0.487869 0.490838
0.497772 0.490252 0.493221
0.499430 0.492635 0.495604
0.501089 0.495018 0.497987
0.502747 0.497400 0.500369
0.504405 0.499783 0.502752
0.506064 0.502166 0.505135
0.507722 0.504548 0.507517
0.509380 0.506931 0.509900
0.511038 0.509314 0.512283
0.512697 0.511697 0.514666
0.514355 0.514079 0.517048
0.516013 0.516462 0.519431
0.517671 0.518845 0.521814
0.519330 0.521228 0.524197
0.520988 0.523610 0.526579
0.499133 0.489440 0.493133
0.500792 0.491823 0.495516
0.502450 0.494205 0.497899
0.504108 0.496588 0.500282
0.505767 0.498971 0.502664
0.507425 0.501354 0.505047
0.509083 0.503736 0.507430
0.510741 0.506119 0.509813
0.512400 0.508502 0.512195
0.514058 0.510885 0.514578
0.515716 0.513267 0.516961
0.517374 0.515650 0.519343
0.519033 0.518033 0.521726
0.520691 0.520415 0.524109
0.522349 0.522798 0.526492
0.524008 0.525181 0.528874
0.525666 0.527564 0.531257
0.503811 0.493393 0.497811
0.505470 0.495776 0.500194
0.507128 0.498159 0.502577
0.508786 0.500542 0.504959
0.510444 0.502924 0.507342
0.512103 0.505307 0.509725
0.513761 0.507690 0.512108
0.515419 0.510072 0.514490
0.517077 0.512455 0.516873
0.518736 0.514838 0.519256
0.520394 0.517221 0.521638
0.522052 0.519603 0.524021
0.523711 0.521986 0.526404
0.525369 0.524369 0.528787
0.527027 0.526751 0.531169
0.528685 0.529134 0.533552
0.530344 0.531517 0.535935
0.508489 0.497347 0.502489
0.510147 0.499729 0.504872
0.511806 0.502112 0.507254
0.513464 0.504495 0.509637
0.515122 0.506878 0.512020
0.516780 0.509260 0.514403
0.518439 0.511643 0.516785
0.520097 0.514026 0.519168
0.521755 0.516408 0.521551
0.523413 0.518791 0.523934
0.525072 0.521174 0.526316
0.526730 0.523557 0.528699
0.528388 0.525939 0.531082
0.530047 0.528322 0.533464
0.531705 0.530705 0.535847
0.533363 0.533088 0.538230
0.535021 0.535470 0.540613
0.513167 0.501300 0.507167
0.514825 0.503683 0.509550
0.516483 0.506065 0.511932
0.518142 0.508448 0.514315
0.519800 0.510831 0.516698
0.521458 0.513214 0.519080
0.523116 0.515596 0.521463
0.524775 0.517979 0.523846
0.526433 0.520362 0.526229
0.528091 0.522745 0.528611
0.529750 0.525127 0.530994
0.531408 0.527510 0.533377
0.533066 0.529893 0.535760
0.534724 0.532275 0.538142
0.536383 0.534658 0.540525
0.538041 0.537041 0.542908
0.539699 0.539424 0.545290
0.517845 0.505253 0.511845
0.519503 0.507636 0.514227
0.521161 0.510019 0.516610
0.522819 0.512402 0.518993
0.524478 0.514784 0.521376
0.526136 0.517167 0.523758
0.527794 0.519550 0.526141
0.529453 0.521932 0.528524
0.531111 0.524315 0.530906
0.532769 0.526698 0.533289
0.534427 0.529081 0.535672
0.536086 0.531463 0.538055
0.537744 0.533846 0.540437
0.539402 0.536229 0.542820
0.541060 0.538612 0.545203
0.542719 0.540994 0.547585
0.544377 0.543377 0.549968
0.443908 0.442908 0.437184
0.445567 0.445291 0.439567
0.447225 0.447674 0.441949
0.448883 0.450057 0.444332
0.450542 0.452439 0.446715
0.452200 0.454822 0.449098
0.453858 0.457205 0.451480
0.455516 0.459588 0.453863
0.457175 0.461970 0.456246
0.458833 0.464353 0.458629
0.460491 0.466736 0.461011
0.462149 0.469118 0.463394
0.463808 0.471501 0.465777
0.465466 0.473884 0.468159
0.467124 0.476267 0.470542
0.468783 0.478649 0.472925
0.470441 0.481032 0.475308
0.448586 0.446862 0.441862
0.450245 0.449245 0.444245
0.451903 0.451627 0.446627
0.453561 0.454010 0.449010
0.455219 0.456393 0.451393
0.456878 0.458775 0.453775
0.458536 0.461158 0.456158
0.460194 0.463541 0.458541
0.461852 0.465924 0.460924
0.463511 0.468306 0.463306
0.465169 0.470689 0.465689
0.466827 0.473072 0.468072
0.468486 0.475454 0.470454
0.470144 0.477837 0.472837
0.471802 0.480220 0.475220
0.473460 0.482603 0.477603
0.475119 0.484985 0.479985
0.453264 0.450815 0.446540
0.454922 0.453198 0.448922
0.456581 0.455581 0.451305
0.458239 0.457963 0.453688
0.459897 0.460346 0.456070
0.461555 0.462729 0.458453
0.463214 0.465111 0.460836
0.464872 0.467494 0.463219
0.466530 0.469877 0.465601
0.468188 0.472260 0.467984
0.469847 0.474642 0.470367
0.471505 0.477025 0.472750
0.473163 0.479408 0.475132
0.474822 0.481791 0.477515
0.476480 0.484173 0.479898
0.478138 0.486556 0.482280
0.479796 0.488939 0.484663
0.457942 0.454768 0.451217
0.459600 0.457151 0.453600
0.461258 0.459534 0.455983
0.462917 0.461917 0.458366
0.464575 0.464299 0.460748
0.466233 0.466682 0.463131
0.467891 0.469065 0.465514
0.469550 0.471448 0.467896
0.471208 0.473830 0.470279
0.472866 0.476213 0.472662
0.474525 0.478596 0.475045
0.476183 0.480978 0.477427
0.477841 0.483361 0.479810
0.479499 0.485744 0.482193
0.481158 0.488127 0.484576
0.482816 0.490509 0.486958
0.484474 0.492892 0.489341
0.462620 0.458722 0.455895
0.464278 0.461105 0.458278
0.465936 0.463487 0.460661
0.467594 0.465870 0.463043
0.469253 0.468253 0.465426
0.470911 0.470635 0.467809
0.472569 0.473018 0.470192
0.474228 0.475401 0.472574
0.475886 0.477784 0.474957
0.477544 0.480166 0.477340
0.479202 0.482549 0.479722
0.480861 0.484932 0.482105
0.482519 0.487314 0.484488
0.484177 0.489697 0.486871
0.485835 0.492080 0.489253
0.487494 0.494463 0.491636
0.489152 0.496845 0.494019
0.467297 0.462675 0.460573
0.468956 0.465058 0.462956
0.470614 0.467441 0.465338
0.472272 0.469823 0.467721
0.473930 0.472206 0.470104
0.475589 0.474589 0.472487
0.477247 0.476971 0.474869
0.478905 0.479354 0.477252
0.480564 0.481737 0.479635
0.482222 0.484120 0.482017
0.483880 0.486502 0.484400
0.485538 0.488885 0.486783
0.487197 0.491268 0.489166
0.488855 0.493651 0.491548
0.490513 0.496033 0.493931
0.492171 0.498416 0.496314
0.493830 0.500799 0.498697
0.471975 0.466628 0.465251
0.473633 0.469011 0.467633
0.475292 0.471394 0.470016
0.476950 0.473777 0.472399
0.478608 0.476159 0.474782
0.480267 0.478542 0.477164
0.481925 0.480925 0.479547
0.483583 0.483308 0.481930
0.485241 0.485690 0.484313
0.486900 0.488073 0.486695
0.488558 0.490456 0.489078
0.490216 0.492838 0.491461
0.491874 0.495221 0.493843
0.493533 0.497604 0.496226
0.495191 0.499987 0.498609
0.496849 0.502369 0.500992
0.498508 0.504752 0.503374
0.476653 0.470582 0.469929
0.478311 0.472965 0.472311
0.479970 0.475347 0.474694
0.481628 0.477730 0.477077
0.483286 0.480113 0.479459
0.484944 0.482495 0.481842
0.486603 0.484878 0.484225
0.488261 0.487261 0.486608
0.489919 0.489644 0.488990
0.491577 0.492026 0.491373
0.493236 0.494409 0.493756
0.494894 0.496792 0.496138
0.496552 0.499174 0.498521
0.498211 0.501557 0.500904
0.499869 0.503940 0.503287
0.501527 0.506323 0.505669
0.503185 0.508705 0.508052
0.481331 0.474535 0.474606
0.482989 0.476918 0.476989
0.484647 0.479301 0.479372
0.486306 0.481683 0.481754
0.487964 0.484066 0.484137
0.489622 0.486449 0.486520
0.491280 0.488831 0.488903
0.492939 0.491214 0.491285
0.494597 0.493597 0.493668
0.496255 0.495980 0.496051
0.497913 0.498362 0.498434
0.499572 0.500745 0.500816
0.501230 0.503128 0.503199
0.502888 0.505511 0.505582
0.504547 0.507893 0.507964
0.506205 0.510276 0.510347
0.507863 0.512659 0.512730
0.486009 0.478488 0.479284
0.487667 0.480871 0.481667
0.489325 0.483254 0.484050
0.490983 0.485637 0.486432
0.492642 0.488019 0.488815
0.494300 0.490402 0.491198
0.495958 0.492785 0.493580
0.497616 0.495168 0.495963
0.499275 0.497550 0.498346
0.500933 0.499933 0.500729
0.502591 0.502316 0.503111
0.504250 0.504698 0.505494
0.505908 0.507081 0.507877
0.507566 0.509464 0.510260
0.509224 0.511847 0.512642
0.510883 0.514229 0.515025
0.512541 0.516612 0.517408
0.490686 0.482442 0.483962
0.492345 0.484825 0.486345
0.494003 0.487207 0.488727
0.495661 0.489590 0.491110
0.497319 0.491973 0.493493
0.498978 0.494355 0.495876
0.500636 0.496738 0.498258
0.502294 0.499121 0.500641
0.503953 0.501504 0.503024
0.505611 0.503886 0.505406
0.507269 0.506269 0.507789
0.508927 0.508652 0.510172
0.510586 0.511035 0.512555
0.512244 0.513417 0.514937
0.513902 0.515800 0.517320
0.515560 0.518183 0.519703
0.517219 0.520565 0.522085
0.495364 0.486395 0.488640
0.497022 0.488778 0.491022
0.498681 0.491161 0.493405
0.500339 0.493543 0.495788
0.501997 0.495926 0.498171
0.503655 0.498309 0.500553
0.505314 0.500691 0.502936
0.506972 0.503074 0.505319
0.508630 0.505457 0.507701
0.510289 0.507840 0.510084
0.511947 0.510222 0.512467
0.513605 0.512605 0.514850
0.515263 0.514988 0.517232
0.516922 0.517371 0.519615
0.518580 0.519753 0.521998
0.520238 0.522136 0.524381
0.521896 0.524519 0.526763
0.500042 0.490348 0.493317
0.501700 0.492731 0.495700
0.503358 0.495114 0.498083
0.505017 0.497497 0.500466
0.506675 0.499879 0.502848
0.508333 0.502262 0.505231
0.509992 0.504645 0.507614
0.511650 0.507028 0.509997
0.513308 0.509410 0.512379
0.514966 0.511793 0.514762
0.516625 0.514176 0.517145
0.518283 0.516558 0.519527
0.519941 0.518941 0.521910
0.521599 0.521324 0.524293
0.523258 0.523707 0.526676
0.524916 0.526089 0.529058
0.526574 0.528472 0.531441
0.504720 0.494302 0.497995
0.506378 0.496685 0.500378
0.508036 0.499067 0.502761
0.509695 0.501450 0.505143
0.511353 0.503833 0.507526
0.513011 0.506215 0.509909
0.514669 0.508598 0.512292
0.516328 0.510981 0.514674
0.517986 0.513364 0.517057
0.519644 0.515746 0.519440
0.521302 0.518129 0.521822
0.522961 0.520512 0.524205
0.524619 0.522895 0.526588
0.526277 0.525277 0.528971
0.527936 0.527660 0.531353
0.529594 0.530043 0.533736
0.531252 0.532425 0.536119
0.509397 0.498255 0.502673
0.511056 0.500638 0.505056
0.512714 0.503021 0.507438
0.514372 0.505403 0.509821
0.516031 0.507786 0.512204
0.517689 0.510169 0.514587
0.519347 0.512552 0.516969
0.521005 0.514934 0.519352
0.522664 0.517317 0.521735
0.524322 0.519700 0.524118
0.525980 0.522082 0.526500
0.527638 0.524465 0.528883
0.529297 0.526848 0.531266
0.530955 0.529231 0.533648
0.532613 0.531613 0.536031
0.534272 0.533996 0.538414
0.535930 0.536379 0.540797
0.514075 0.502209 0.507351
0.515734 0.504591 0.509734
0.517392 0.506974 0.512116
0.519050 0.509357 0.514499
0.520708 0.511739 0.516882
0.522367 0.514122 0.519264
0.524025 0.516505 0.521647
0.525683 0.518888 0.524030
0.527341 0.521270 0.526413
0.529000 0.523653 0.528795
0.530658 0.526036 0.531178
0.532316 0.528418 0.533561
0.533975 0.530801 0.535944
0.535633 0.533184 0.538326
0.537291 0.535567 0.540709
0.538949 0.537949 0.543092
0.540608 0.540332 0.545474
0.518753 0.506162 0.512029
0.520411 0.508545 0.514411
0.522070 0.510927 0.516794
0.523728 0.513310 0.519177
0.525386 0.515693 0.521560
0.527044 0.518075 0.523942
0.528703 0.520458 0.526325
0.530361 0.522841 0.528708
0.532019 0.525224 0.531090
0.533678 0.527606 0.533473
0.535336 0.529989 0.535856
0.536994 0.532372 0.538239
0.538652 0.534755 0.540621
0.540311 0.537137 0.543004
0.541969 0.539520 0.545387
0.543627 0.541903 0.547769
0.545285 0.544285 0.550152
0.444817 0.443817 0.437368
0.446475 0.446200 0.439751
0.448133 0.448582 0.442133
0.449792 0.450965 0.444516
0.451450 0.453348 0.446899
0.453108 0.455731 0.449282
0.454767 0.458113 0.451664
0.456425 0.460496 0.454047
0.458083 0.462879 0.456430
0.459741 0.465261 0.458813
0.461400 0.467644 0.461195
0.463058 0.470027 0.463578
0.464716 0.472410 0.465961
0.466374 0.474792 0.468343
0.468033 0.477175 0.470726
0.469691 0.479558 0.473109
0.471349 0.481941 0.475492
0.449495 0.447770 0.442046
0.451153 0.450153 0.444429
0.452811 0.452536 0.446811
0.454470 0.454918 0.449194
0.456128 0.457301 0.451577
0.457786 0.459684 0.453959
0.459444 0.462067 0.456342
0.461103 0.464449 0.458725
0.462761 0.466832 0.461108
0.464419 0.469215 0.463490
0.466077 0.471597 0.465873
0.467736 0.473980 0.468256
0.469394 0.476363 0.470638
0.471052 0.478746 0.473021
0.472711 0.481128 0.475404
0.474369 0.483511 0.477787
0.476027 0.485894 0.480169
0.454173 0.451724 0.446724
0.455831 0.454106 0.449106
0.457489 0.456489 0.451489
0.459147 0.458872 0.453872
0.460806 0.461254 0.456254
0.462464 0.463637 0.458637
0.464122 0.466020 0.461020
0.465780 0.468403 0.463403
0.467439 0.470785 0.465785
0.469097 0.473168 0.468168
0.470755 0.475551 0.470551
0.472413 0.477934 0.472934
0.474072 0.480316 0.475316
0.475730 0.482699 0.477699
0.477388 0.485082 0.480082
0.479047 0.487464 0.482464
0.480705 0.489847 0.484847
0.458850 0.455677 0.451401
0.460509 0.458060 0.453784
0.462167 0.460442 0.456167
0.463825 0.462825 0.458550
0.465483 0.465208 0.460932
0.467142 0.467591 0.463315
0.468800 0.469973 0.465698
0.470458 0.472356 0.468080
0.472116 0.474739 0.470463
0.473775 0.477121 0.472846
0.475433 0.479504 0.475229
0.477091 0.481887 0.477611
0.478750 0.484270 0.479994
0.480408 0.486652 0.482377
0.482066 0.489035 0.484760
0.483724 0.491418 0.487142
0.485383 0.493801 0.489525
0.463528 0.459630 0.456079
0.465186 0.462013 0.458462
0.466845 0.464396 0.460845
0.468503 0.466778 0.463227
0.470161 0.469161 0.465610
0.471819 0.471544 0.467993
0.473478 0.473927 0.470376
0.475136 0.476309 0.472758
0.476794 0.478692 0.475141
0.478453 0.481075 0.477524
0.480111 0.483458 0.479906
0.481769 0.485840 0.482289
0.483427 0.488223 0.484672
0.485086 0.490606 0.487055
0.486744 0.492988 0.489437
0.488402 0.495371 0.491820
0.490060 0.497754 0.494203
0.468206 0.463584 0.460757
0.469864 0.465966 0.463140
0.471522 0.468349 0.465522
0.473181 0.470732 0.467905
0.474839 0.473114 0.470288
0.476497 0.475497 0.472671
0.478155 0.477880 0.475053
0.479814 0.480263 0.477436
0.481472 0.482645 0.479819
0.483130 0.485028 0.482201
0.484789 0.487411 0.484584
0.486447 0.489794 0.486967
0.488105 0.492176 0.489350
0.489763 0.494559 0.491732
0.491422 0.496942 0.494115
0.493080 0.499324 0.496498
0.494738 0.501707 0.498881
0.472884 0.467537 0.465435
0.474542 0.469920 0.467817
0.476200 0.472302 0.470200
0.477858 0.474685 0.472583
0.479517 0.477068 0.474966
0.481175 0.479451 0.477348
0.482833 0.481833 0.479731
0.484492 0.484216 0.482114
0.486150 0.486599 0.484497
0.487808 0.488981 0.486879
0.489466 0.491364 0.489262
0.491125 0.493747 0.491645
0.492783 0.496130 0.494027
0.494441 0.498512 0.496410
0.496099 0.500895 0.498793
0.497758 0.503278 0.501176
0.499416 0.505661 0.503558
0.477561 0.471490 0.470113
0.479220 0.473873 0.472495
0.480878 0.476256 0.474878
0.482536 0.478638 0.477261
0.484195 0.481021 0.479643
0.485853 0.483404 0.482026
0.487511 0.485787 0.484409
0.489169 0.488169 0.486792
0.490828 0.490552 0.489174
0.492486 0.492935 0.491557
0.494144 0.495318 0.493940
0.495802 0.497700 0.496322
0.497461 0.500083 0.498705
0.499119 0.502466 0.501088
0.500777 0.504848 0.503471
0.502436 0.507231 0.505853
0.504094 0.509614 0.508236
0.482239 0.475444 0.474790
0.483898 0.477826 0.477173
0.485556 0.480209 0.479556
0.487214 0.482592 0.481938
0.488872 0.484975 0.484321
0.490531 0.487357 0.486704
0.492189 0.489740 0.489087
0.493847 0.492123 0.491469
0.495505 0.494505 0.493852
0.497164 0.496888 0.496235
0.498822 0.499271 0.498618
0.500480 0.501654 0.501000
0.502138 0.504036 0.503383
0.503797 0.506419 0.505766
0.505455 0.508802 0.508148
0.507113 0.511184 0.510531
0.508772 0.513567 0.512914
0.486917 0.479397 0.479468
0.488575 0.481780 0.481851
0.490234 0.484162 0.484234
0.491892 0.486545 0.486616
0.493550 0.488928 0.488999
0.495208 0.491311 0.491382
0.496867 0.493693 0.493764
0.498525 0.496076 0.496147
0.500183 0.498459 0.498530
0.501841 0.500841 0.500913
0.503500 0.503224 0.503295
0.505158 0.505607 0.505678
0.506816 0.507990 0.508061
0.508475 0.510372 0.510444
0.510133 0.512755 0.512826
0.511791 0.515138 0.515209
0.513449 0.517521 0.517592
0.491595 0.483350 0.484146
0.493253 0.485733 0.486529
0.494911 0.488116 0.488911
0.496570 0.490498 0.491294
0.498228 0.492881 0.493677
0.499886 0.495264 0.496060
0.501544 0.497647 0.498442
0.503203 0.500029 0.500825
0.504861 0.502412 0.503208
0.506519 0.504795 0.505590
0.508178 0.507178 0.507973
0.509836 0.509560 0.510356
0.511494 0.511943 0.512739
0.513152 0.514326 0.515121
0.514811 0.516708 0.517504
0.516469 0.519091 0.519887
0.518127 0.521474 0.522269
0.496273 0.487304 0.488824
0.497931 0.489686 0.491206
0.499589 0.492069 0.493589
0.501247 0.494452 0.495972
0.502906 0.496835 0.498355
0.504564 0.499217 0.500737
0.506222 0.501600 0.503120
0.507880 0.503983 0.505503
0.509539 0.506365 0.507885
0.511197 0.508748 0.510268
0.512855 0.511131 0.512651
0.514514 0.513514 0.515034
0.516172 0.515896 0.517416
0.517830 0.518279 0.519799
0.519488 0.520662 0.522182
0.521147 0.523044 0.524565
0.522805 0.525427 0.526947
0.500950 0.491257 0.493501
0.502609 0.493640 0.495884
0.504267 0.496022 0.498267
0.505925 0.498405 0.500650
0.507583 0.500788 0.503032
0.509242 0.503171 0.505415
0.510900 0.505553 0.507798
0.512558 0.507936 0.510181
0.514217 0.510319 0.512563
0.515875 0.512701 0.514946
0.517533 0.515084 0.517329
0.519191 0.517467 0.519711
0.520850 0.519850 0.522094
0.522508 0.522232 0.524477
0.524166 0.524615 0.526860
0.525824 0.526998 0.529242
0.527483 0.529381 0.531625
0.505628 0.495210 0.498179
0.507286 0.497593 0.500562
0.508945 0.499976 0.502945
0.510603 0.502358 0.505327
0.512261 0.504741 0.507710
0.513920 0.507124 0.510093
0.515578 0.509507 0.512476
0.517236 0.511889 0.514858
0.518894 0.514272 0.517241
0.520553 0.516655 0.519624
0.522211 0.519038 0.522007
0.523869 0.521420 0.524389
0.525527 0.523803 0.526772
0.527186 0.526186 0.529155
0.528844 0.528568 0.531537
0.530502 0.530951 0.533920
0.532161 0.533334 0.536303
0.510306 0.499164 0.502857
0.511964 0.501546 0.505240
0.513623 0.503929 0.507623
0.515281 0.506312 0.510005
0.516939 0.508695 0.512388
0.518597 0.511077 0.514771
0.520256 0.513460 0.517153
0.521914 0.515843 0.519536
0.523572 0.518225 0.521919
0.525230 0.520608 0.524302
0.526889 0.522991 0.526684
0.528547 0.525374 0.529067
0.530205 0.527756 0.531450
0.531863 0.530139 0.533832
0.533522 0.532522 0.536215
0.535180 0.534904 0.538598
0.536838 0.537287 0.540981
0.514984 0.503117 0.507535
0.516642 0.505500 0.509918
0.518300 0.507882 0.512300
0.519959 0.510265 0.514683
0.521617 0.512648 0.517066
0.523275 0.515031 0.519448
0.524933 0.517413 0.521831
0.526592 0.519796 0.524214
0.528250 0.522179 0.526597
0.529908 0.524561 0.528979
0.531566 0.526944 0.531362
0.533225 0.529327 0.533745
0.534883 0.531710 0.536128
0.536541 0.534092 0.538510
0.538200 0.536475 0.540893
0.539858 0.538858 0.543276
0.541516 0.541241 0.545658
0.519662 0.507070 0.512213
0.521320 0.509453 0.514595
0.522978 0.511836 0.516978
0.524636 0.514218 0.519361
0.526295 0.516601 0.521744
0.527953 0.518984 0.524126
0.529611 0.521367 0.526509
0.531269 0.523749 0.528892
0.532928 0.526132 0.531274
0.534586 0.528515 0.533657
0.536244 0.530898 0.536040
0.537903 0.533280 0.538423
0.539561 0.535663 0.540805
0.541219 0.538046 0.543188
0.542877 0.540428 0.545571
0.544536 0.542811 0.547953
0.546194 0.545194 0.550336
0.445725 0.444725 0.437552
0.447384 0.447108 0.439935
0.449042 0.449491 0.442317
0.450700 0.451874 0.444700
0.452358 0.454256 0.447083
0.454017 0.456639 0.449466
0.455675 0.459022 0.451848
0.457333 0.461404 0.454231
0.458992 0.463787 0.456614
0.460650 0.466170 0.458997
0.462308 0.468553 0.461379
0.463966 0.470935 0.463762
0.465625 0.473318 0.466145
0.467283 0.475701 0.468527
0.468941 0.478084 0.470910
0.470599 0.480466 0.473293
0.472258 0.482849 0.475676
0.450403 0.448679 0.442230
