shared/src/main/assets/luts/mv_white_fashion.cube
TITLE "DALUR White Fashion"
LUT_3D_SIZE 17
DOMAIN_MIN 0.0 0.0 0.0
DOMAIN_MAX 1.0 1.0 1.0
0.435200 0.439000 0.444800
0.436521 0.441986 0.447786
0.437843 0.444972 0.450772
0.439164 0.447958 0.453758
0.440486 0.450943 0.456743
0.441807 0.453929 0.459729
0.443129 0.456915 0.462715
0.444450 0.459901 0.465701
0.445772 0.462887 0.468687
0.447093 0.465873 0.471673
0.448415 0.468859 0.474659
0.449736 0.471844 0.477644
0.451058 0.474830 0.480630
0.452379 0.477816 0.483616
0.453701 0.480802 0.486602
0.455022 0.483788 0.489588
0.456344 0.486774 0.492574
0.441062 0.443198 0.450662
0.442383 0.446183 0.453648
0.443705 0.449169 0.456634
0.445026 0.452155 0.459619
0.446348 0.455141 0.462605
0.447669 0.458127 0.465591
0.448991 0.461113 0.468577
0.450312 0.464098 0.471563
0.451634 0.467084 0.474549
0.452955 0.470070 0.477535
0.454277 0.473056 0.480520
0.455598 0.476042 0.483506
0.456920 0.479028 0.486492
0.458241 0.482014 0.489478
0.459563 0.484999 0.492464
0.460884 0.487985 0.495450
0.462206 0.490971 0.498435
0.446924 0.447395 0.456524
0.448245 0.450381 0.459510
0.449567 0.453367 0.462495
0.450888 0.456353 0.465481
0.452210 0.459338 0.468467
0.453531 0.462324 0.471453
0.454853 0.465310 0.474439
0.456174 0.468296 0.477425
0.457496 0.471282 0.480411
0.458817 0.474268 0.483396
0.460139 0.477254 0.486382
0.461460 0.480239 0.489368
0.462782 0.483225 0.492354
0.464103 0.486211 0.495340
0.465425 0.489197 0.498326
0.466746 0.492183 0.501311
0.468068 0.495169 0.504297
0.452786 0.451593 0.462386
0.454107 0.454578 0.465371
0.455429 0.457564 0.468357
0.456750 0.460550 0.471343
0.458072 0.463536 0.474329
0.459393 0.466522 0.477315
0.460715 0.469508 0.480301
0.462036 0.472493 0.483287
0.463358 0.475479 0.486272
0.464679 0.478465 0.489258
0.466001 0.481451 0.492244
0.467322 0.484437 0.495230
0.468644 0.487423 0.498216
0.469965 0.490409 0.501202
0.471287 0.493394 0.504187
0.472608 0.496380 0.507173
0.473930 0.499366 0.510159
0.458647 0.455790 0.468247
0.459969 0.458776 0.471233
0.461290 0.461762 0.474219
0.462612 0.464748 0.477205
0.463933 0.467733 0.480191
0.465255 0.470719 0.483177
0.466576 0.473705 0.486163
0.467898 0.476691 0.489148
0.469219 0.479677 0.492134
0.470541 0.482663 0.495120
0.471862 0.485649 0.498106
0.473184 0.488634 0.501092
0.474505 0.491620 0.504078
0.475827 0.494606 0.507063
0.477148 0.497592 0.510049
0.478470 0.500578 0.513035
0.479791 0.503564 0.516021
0.464509 0.459988 0.474109
0.465831 0.462973 0.477095
0.467152 0.465959 0.480081
0.468474 0.468945 0.483067
0.469795 0.471931 0.486053
0.471117 0.474917 0.489039
0.472438 0.477903 0.492024
0.473760 0.480888 0.495010
0.475081 0.483874 0.497996
0.476403 0.486860 0.500982
0.477724 0.489846 0.503968
0.479046 0.492832 0.506954
0.480367 0.495818 0.509939
0.481689 0.498804 0.512925
0.483010 0.501789 0.515911
0.484332 0.504775 0.518897
0.485653 0.507761 0.521883
0.470371 0.464185 0.479971
0.471693 0.467171 0.482957
0.473014 0.470157 0.485943
0.474336 0.473143 0.488929
0.475657 0.476128 0.491915
0.476979 0.479114 0.494900
0.478300 0.482100 0.497886
0.479622 0.485086 0.500872
0.480943 0.488072 0.503858
0.482265 0.491058 0.506844
0.483586 0.494044 0.509830
0.484908 0.497029 0.512815
0.486229 0.500015 0.515801
0.487551 0.503001 0.518787
0.488872 0.505987 0.521773
0.490194 0.508973 0.524759
0.491515 0.511959 0.527745
0.476233 0.468383 0.485833
0.477554 0.471368 0.488819
0.478876 0.474354 0.491805
0.480197 0.477340 0.494791
0.481519 0.480326 0.497776
0.482840 0.483312 0.500762
0.484162 0.486298 0.503748
0.485483 0.489283 0.506734
0.486805 0.492269 0.509720
0.488126 0.495255 0.512706
0.489448 0.498241 0.515692
0.490769 0.501227 0.518677
0.492091 0.504213 0.521663
0.493412 0.507199 0.524649
0.494734 0.510184 0.527635
0.496055 0.513170 0.530621
0.497377 0.516156 0.533607
0.482095 0.472580 0.491695
0.483416 0.475566 0.494681
0.484738 0.478552 0.497667
0.486059 0.481538 0.500652
0.487381 0.484523 0.503638
0.488702 0.487509 0.506624
0.490024 0.490495 0.509610
0.491345 0.493481 0.512596
0.492667 0.496467 0.515582
0.493988 0.499453 0.518568
0.495310 0.502439 0.521553
0.496631 0.505424 0.524539
0.497953 0.508410 0.527525
0.499274 0.511396 0.530511
0.500596 0.514382 0.533497
0.501917 0.517368 0.536483
0.503239 0.520354 0.539468
0.487957 0.476778 0.497557
0.489278 0.479763 0.500543
0.490600 0.482749 0.503528
0.491921 0.485735 0.506514
0.493243 0.488721 0.509500
0.494564 0.491707 0.512486
0.495886 0.494693 0.515472
0.497207 0.497678 0.518458
0.498529 0.500664 0.521444
0.499850 0.503650 0.524429
0.501172 0.506636 0.527415
0.502493 0.509622 0.530401
0.503815 0.512608 0.533387
0.505136 0.515594 0.536373
0.506458 0.518579 0.539359
0.507779 0.521565 0.542344
0.509101 0.524551 0.545330
0.493819 0.480975 0.503419
0.495140 0.483961 0.506404
0.496462 0.486947 0.509390
0.497783 0.489933 0.512376
0.499105 0.492918 0.515362
0.500426 0.495904 0.518348
0.501748 0.498890 0.521334
0.503069 0.501876 0.524320
0.504391 0.504862 0.527305
0.505712 0.507848 0.530291
0.507034 0.510834 0.533277
0.508355 0.513819 0.536263
0.509677 0.516805 0.539249
0.510998 0.519791 0.542235
0.512320 0.522777 0.545220
0.513641 0.525763 0.548206
0.514963 0.528749 0.551192
0.499680 0.485173 0.509280
0.501002 0.488158 0.512266
0.502323 0.491144 0.515252
0.503645 0.494130 0.518238
0.504966 0.497116 0.521224
0.506288 0.500102 0.524210
0.507609 0.503088 0.527196
0.508931 0.506073 0.530181
0.510252 0.509059 0.533167
0.511574 0.512045 0.536153
0.512895 0.515031 0.539139
0.514217 0.518017 0.542125
0.515538 0.521003 0.545111
0.516860 0.523989 0.548096
0.518181 0.526974 0.551082
0.519503 0.529960 0.554068
0.520824 0.532946 0.557054
0.505542 0.489370 0.515142
0.506864 0.492356 0.518128
0.508185 0.495342 0.521114
0.509507 0.498328 0.524100
0.510828 0.501313 0.527086
0.512150 0.504299 0.530072
0.513471 0.507285 0.533057
0.514793 0.510271 0.536043
0.516114 0.513257 0.539029
0.517436 0.516243 0.542015
0.518757 0.519229 0.545001
0.520079 0.522214 0.547987
0.521400 0.525200 0.550972
0.522722 0.528186 0.553958
0.524043 0.531172 0.556944
0.525365 0.534158 0.559930
0.526686 0.537144 0.562916
0.511404 0.493568 0.521004
0.512726 0.496553 0.523990
0.514047 0.499539 0.526976
0.515369 0.502525 0.529962
0.516690 0.505511 0.532948
0.518012 0.508497 0.535933
0.519333 0.511483 0.538919
0.520655 0.514468 0.541905
0.521976 0.517454 0.544891
0.523298 0.520440 0.547877
0.524619 0.523426 0.550863
0.525941 0.526412 0.553848
0.527262 0.529398 0.556834
0.528584 0.532384 0.559820
0.529905 0.535369 0.562806
0.531227 0.538355 0.565792
0.532548 0.541341 0.568778
0.517266 0.497765 0.526866
0.518587 0.500751 0.529852
0.519909 0.503737 0.532838
0.521230 0.506723 0.535824
0.522552 0.509708 0.538809
0.523873 0.512694 0.541795
0.525195 0.515680 0.544781
0.526516 0.518666 0.547767
0.527838 0.521652 0.550753
0.529159 0.524638 0.553739
0.530481 0.527624 0.556724
0.531802 0.530609 0.559710
0.533124 0.533595 0.562696
0.534445 0.536581 0.565682
0.535767 0.539567 0.568668
0.537088 0.542553 0.571654
0.538410 0.545539 0.574640
0.523128 0.501963 0.532728
0.524449 0.504948 0.535714
0.525771 0.507934 0.538700
0.527092 0.510920 0.541685
0.528414 0.513906 0.544671
0.529735 0.516892 0.547657
0.531057 0.519878 0.550643
0.532378 0.522863 0.553629
0.533700 0.525849 0.556615
0.535021 0.528835 0.559600
0.536343 0.531821 0.562586
0.537664 0.534807 0.565572
0.538986 0.537793 0.568558
0.540307 0.540779 0.571544
0.541629 0.543764 0.574530
0.542950 0.546750 0.577516
0.544272 0.549736 0.580501
0.528990 0.506160 0.538590
0.530311 0.509146 0.541576
0.531633 0.512132 0.544561
0.532954 0.515118 0.547547
0.534276 0.518103 0.550533
0.535597 0.521089 0.553519
0.536919 0.524075 0.556505
0.538240 0.527061 0.559491
0.539562 0.530047 0.562476
0.540883 0.533033 0.565462
0.542205 0.536019 0.568448
0.543526 0.539004 0.571434
0.544848 0.541990 0.574420
0.546169 0.544976 0.577406
0.547491 0.547962 0.580392
0.548812 0.550948 0.583377
0.550134 0.553934 0.586363
0.436338 0.440138 0.444274
0.437660 0.443124 0.447260
0.438981 0.446110 0.450246
0.440303 0.449096 0.453232
0.441624 0.452082 0.456217
0.442946 0.455068 0.459203
0.444267 0.458054 0.462189
0.445589 0.461039 0.465175
0.446910 0.464025 0.468161
0.448232 0.467011 0.471147
0.449553 0.469997 0.474133
0.450875 0.472983 0.477118
0.452196 0.475969 0.480104
0.453518 0.478954 0.483090
0.454839 0.481940 0.486076
0.456161 0.484926 0.489062
0.457482 0.487912 0.492048
0.442200 0.444336 0.450136
0.443522 0.447322 0.453122
0.444843 0.450308 0.456108
0.446165 0.453293 0.459093
0.447486 0.456279 0.462079
0.448808 0.459265 0.465065
0.450129 0.462251 0.468051
0.451451 0.465237 0.471037
0.452772 0.468223 0.474023
0.454094 0.471209 0.477009
0.455415 0.474194 0.479994
0.456737 0.477180 0.482980
0.458058 0.480166 0.485966
0.459380 0.483152 0.488952
0.460701 0.486138 0.491938
0.462023 0.489124 0.494924
0.463344 0.492110 0.497910
0.448062 0.448533 0.455998
0.449384 0.451519 0.458984
0.450705 0.454505 0.461969
0.452027 0.457491 0.464955
0.453348 0.460477 0.467941
0.454670 0.463463 0.470927
0.455991 0.466449 0.473913
0.457313 0.469434 0.476899
0.458634 0.472420 0.479885
0.459956 0.475406 0.482870
0.461277 0.478392 0.485856
0.462599 0.481378 0.488842
0.463920 0.484364 0.491828
0.465242 0.487349 0.494814
0.466563 0.490335 0.497800
0.467885 0.493321 0.500786
0.469206 0.496307 0.503771
0.453924 0.452731 0.461860
0.455245 0.455717 0.464845
0.456567 0.458703 0.467831
0.457888 0.461688 0.470817
0.459210 0.464674 0.473803
0.460531 0.467660 0.476789
0.461853 0.470646 0.479775
0.463174 0.473632 0.482761
0.464496 0.476618 0.485746
0.465817 0.479604 0.488732
0.467139 0.482589 0.491718
0.468460 0.485575 0.494704
0.469782 0.488561 0.497690
0.471103 0.491547 0.500676
0.472425 0.494533 0.503662
0.473746 0.497519 0.506647
0.475068 0.500505 0.509633
0.459786 0.456928 0.467721
0.461107 0.459914 0.470707
0.462429 0.462900 0.473693
0.463750 0.465886 0.476679
0.465072 0.468872 0.479665
0.466393 0.471858 0.482651
0.467715 0.474844 0.485637
0.469036 0.477829 0.488622
0.470358 0.480815 0.491608
0.471679 0.483801 0.494594
0.473001 0.486787 0.497580
0.474322 0.489773 0.500566
0.475644 0.492759 0.503552
0.476965 0.495744 0.506538
0.478287 0.498730 0.509523
0.479608 0.501716 0.512509
0.480930 0.504702 0.515495
0.465648 0.461126 0.473583
0.466969 0.464112 0.476569
0.468291 0.467098 0.479555
0.469612 0.470083 0.482541
0.470934 0.473069 0.485527
0.472255 0.476055 0.488513
0.473577 0.479041 0.491498
0.474898 0.482027 0.494484
0.476220 0.485013 0.497470
0.477541 0.487999 0.500456
0.478863 0.490984 0.503442
0.480184 0.493970 0.506428
0.481506 0.496956 0.509414
0.482827 0.499942 0.512399
0.484149 0.502928 0.515385
0.485470 0.505914 0.518371
0.486792 0.508900 0.521357
0.471510 0.465323 0.479445
0.472831 0.468309 0.482431
0.474153 0.471295 0.485417
0.475474 0.474281 0.488403
0.476796 0.477267 0.491389
0.478117 0.480253 0.494374
0.479439 0.483239 0.497360
0.480760 0.486224 0.500346
0.482082 0.489210 0.503332
0.483403 0.492196 0.506318
0.484725 0.495182 0.509304
0.486046 0.498168 0.512290
0.487368 0.501154 0.515275
0.488689 0.504139 0.518261
0.490011 0.507125 0.521247
0.491332 0.510111 0.524233
0.492654 0.513097 0.527219
0.477371 0.469521 0.485307
0.478693 0.472507 0.488293
0.480014 0.475493 0.491279
0.481336 0.478478 0.494265
0.482657 0.481464 0.497250
0.483979 0.484450 0.500236
0.485300 0.487436 0.503222
0.486622 0.490422 0.506208
0.487943 0.493408 0.509194
0.489265 0.496394 0.512180
0.490586 0.499379 0.515166
0.491908 0.502365 0.518151
0.493229 0.505351 0.521137
0.494551 0.508337 0.524123
0.495872 0.511323 0.527109
0.497194 0.514309 0.530095
0.498515 0.517295 0.533081
0.483233 0.473718 0.491169
0.484555 0.476704 0.494155
0.485876 0.479690 0.497141
0.487198 0.482676 0.500126
0.488519 0.485662 0.503112
0.489841 0.488648 0.506098
0.491162 0.491634 0.509084
0.492484 0.494619 0.512070
0.493805 0.497605 0.515056
0.495127 0.500591 0.518042
0.496448 0.503577 0.521027
0.497770 0.506563 0.524013
0.499091 0.509549 0.526999
0.500413 0.512534 0.529985
0.501734 0.515520 0.532971
0.503056 0.518506 0.535957
0.504377 0.521492 0.538943
0.489095 0.477916 0.497031
0.490417 0.480902 0.500017
0.491738 0.483888 0.503002
0.493060 0.486873 0.505988
0.494381 0.489859 0.508974
0.495703 0.492845 0.511960
0.497024 0.495831 0.514946
0.498346 0.498817 0.517932
0.499667 0.501803 0.520918
0.500989 0.504789 0.523903
0.502310 0.507774 0.526889
0.503632 0.510760 0.529875
0.504953 0.513746 0.532861
0.506275 0.516732 0.535847
0.507596 0.519718 0.538833
0.508918 0.522704 0.541819
0.510239 0.525690 0.544804
0.494957 0.482113 0.502893
0.496278 0.485099 0.505878
0.497600 0.488085 0.508864
0.498921 0.491071 0.511850
0.500243 0.494057 0.514836
0.501564 0.497043 0.517822
0.502886 0.500029 0.520808
0.504207 0.503014 0.523794
0.505529 0.506000 0.526779
0.506850 0.508986 0.529765
0.508172 0.511972 0.532751
0.509493 0.514958 0.535737
0.510815 0.517944 0.538723
0.512136 0.520930 0.541709
0.513458 0.523915 0.544695
0.514779 0.526901 0.547680
0.516101 0.529887 0.550666
0.500819 0.486311 0.508754
0.502140 0.489297 0.511740
0.503462 0.492283 0.514726
0.504783 0.495268 0.517712
0.506105 0.498254 0.520698
0.507426 0.501240 0.523684
0.508748 0.504226 0.526670
0.510069 0.507212 0.529655
0.511391 0.510198 0.532641
0.512712 0.513184 0.535627
0.514034 0.516169 0.538613
0.515355 0.519155 0.541599
0.516677 0.522141 0.544585
0.517998 0.525127 0.547571
0.519320 0.528113 0.550556
0.520641 0.531099 0.553542
0.521963 0.534085 0.556528
0.506681 0.490508 0.514616
0.508002 0.493494 0.517602
0.509324 0.496480 0.520588
0.510645 0.499466 0.523574
0.511967 0.502452 0.526560
0.513288 0.505438 0.529546
0.514610 0.508424 0.532531
0.515931 0.511409 0.535517
0.517253 0.514395 0.538503
0.518574 0.517381 0.541489
0.519896 0.520367 0.544475
0.521217 0.523353 0.547461
0.522539 0.526339 0.550447
0.523860 0.529325 0.553432
0.525182 0.532310 0.556418
0.526503 0.535296 0.559404
0.527825 0.538282 0.562390
0.512543 0.494706 0.520478
0.513864 0.497692 0.523464
0.515186 0.500678 0.526450
0.516507 0.503663 0.529436
0.517829 0.506649 0.532422
0.519150 0.509635 0.535407
0.520472 0.512621 0.538393
0.521793 0.515607 0.541379
0.523115 0.518593 0.544365
0.524436 0.521579 0.547351
0.525758 0.524564 0.550337
0.527079 0.527550 0.553323
0.528401 0.530536 0.556308
0.529722 0.533522 0.559294
0.531044 0.536508 0.562280
0.532365 0.539494 0.565266
0.533686 0.542480 0.568252
0.518404 0.498903 0.526340
0.519726 0.501889 0.529326
0.521047 0.504875 0.532312
0.522369 0.507861 0.535298
0.523690 0.510847 0.538283
0.525012 0.513833 0.541269
0.526333 0.516819 0.544255
0.527655 0.519804 0.547241
0.528976 0.522790 0.550227
0.530298 0.525776 0.553213
0.531619 0.528762 0.556199
0.532941 0.531748 0.559184
0.534262 0.534734 0.562170
0.535584 0.537720 0.565156
0.536905 0.540705 0.568142
0.538227 0.543691 0.571128
0.539548 0.546677 0.574114
0.524266 0.503101 0.532202
0.525588 0.506087 0.535188
0.526909 0.509073 0.538174
0.528231 0.512058 0.541159
0.529552 0.515044 0.544145
0.530874 0.518030 0.547131
0.532195 0.521016 0.550117
0.533517 0.524002 0.553103
0.534838 0.526988 0.556089
0.536160 0.529974 0.559075
0.537481 0.532959 0.562060
0.538803 0.535945 0.565046
0.540124 0.538931 0.568032
0.541446 0.541917 0.571018
0.542767 0.544903 0.574004
0.544089 0.547889 0.576990
0.545410 0.550875 0.579976
0.530128 0.507298 0.538064
0.531450 0.510284 0.541050
0.532771 0.513270 0.544035
0.534093 0.516256 0.547021
0.535414 0.519242 0.550007
0.536736 0.522228 0.552993
0.538057 0.525214 0.555979
0.539379 0.528199 0.558965
0.540700 0.531185 0.561951
0.542022 0.534171 0.564936
0.543343 0.537157 0.567922
0.544665 0.540143 0.570908
0.545986 0.543129 0.573894
0.547308 0.546115 0.576880
0.548629 0.549100 0.579866
0.549951 0.552086 0.582852
0.551272 0.555072 0.585837
0.437477 0.441277 0.443748
0.438798 0.444263 0.446734
0.440120 0.447249 0.449720
0.441441 0.450234 0.452706
0.442763 0.453220 0.455692
0.444084 0.456206 0.458677
0.445406 0.459192 0.461663
0.446727 0.462178 0.464649
0.448049 0.465164 0.467635
0.449370 0.468149 0.470621
0.450692 0.471135 0.473607
0.452013 0.474121 0.476592
0.453335 0.477107 0.479578
0.454656 0.480093 0.482564
0.455978 0.483079 0.485550
0.457299 0.486065 0.488536
0.458621 0.489050 0.491522
0.443339 0.445474 0.449610
0.444660 0.448460 0.452596
0.445982 0.451446 0.455582
0.447303 0.454432 0.458568
0.448625 0.457418 0.461553
0.449946 0.460404 0.464539
0.451268 0.463389 0.467525
0.452589 0.466375 0.470511
0.453911 0.469361 0.473497
0.455232 0.472347 0.476483
0.456554 0.475333 0.479468
0.457875 0.478319 0.482454
0.459197 0.481305 0.485440
0.460518 0.484290 0.488426
0.461840 0.487276 0.491412
0.463161 0.490262 0.494398
0.464483 0.493248 0.497384
0.449201 0.449672 0.455472
0.450522 0.452658 0.458458
0.451844 0.455644 0.461444
0.453165 0.458629 0.464429
0.454487 0.461615 0.467415
0.455808 0.464601 0.470401
0.457130 0.467587 0.473387
0.458451 0.470573 0.476373
0.459773 0.473559 0.479359
0.461094 0.476545 0.482345
0.462416 0.479530 0.485330
0.463737 0.482516 0.488316
0.465059 0.485502 0.491302
0.466380 0.488488 0.494288
0.467702 0.491474 0.497274
0.469023 0.494460 0.500260
0.470345 0.497445 0.503245
0.455062 0.453869 0.461334
0.456384 0.456855 0.464320
0.457705 0.459841 0.467305
0.459027 0.462827 0.470291
0.460348 0.465813 0.473277
0.461670 0.468799 0.476263
0.462991 0.471784 0.479249
0.464313 0.474770 0.482235
0.465634 0.477756 0.485221
0.466956 0.480742 0.488206
0.468277 0.483728 0.491192
0.469599 0.486714 0.494178
0.470920 0.489700 0.497164
0.472242 0.492685 0.500150
0.473563 0.495671 0.503136
0.474885 0.498657 0.506121
0.476206 0.501643 0.509107
0.460924 0.458067 0.467196
0.462246 0.461053 0.470181
0.463567 0.464039 0.473167
0.464889 0.467024 0.476153
0.466210 0.470010 0.479139
0.467532 0.472996 0.482125
0.468853 0.475982 0.485111
0.470175 0.478968 0.488097
0.471496 0.481954 0.491082
0.472818 0.484940 0.494068
0.474139 0.487925 0.497054
0.475461 0.490911 0.500040
0.476782 0.493897 0.503026
0.478104 0.496883 0.506012
0.479425 0.499869 0.508997
0.480747 0.502855 0.511983
0.482068 0.505840 0.514969
0.466786 0.462264 0.473057
0.468108 0.465250 0.476043
0.469429 0.468236 0.479029
0.470751 0.471222 0.482015
0.472072 0.474208 0.485001
0.473394 0.477194 0.487987
0.474715 0.480179 0.490973
0.476037 0.483165 0.493958
0.477358 0.486151 0.496944
0.478680 0.489137 0.499930
0.480001 0.492123 0.502916
0.481323 0.495109 0.505902
0.482644 0.498095 0.508888
0.483966 0.501080 0.511873
0.485287 0.504066 0.514859
0.486609 0.507052 0.517845
0.487930 0.510038 0.520831
0.472648 0.466462 0.478919
0.473969 0.469448 0.481905
0.475291 0.472434 0.484891
0.476612 0.475419 0.487877
0.477934 0.478405 0.490863
0.479255 0.481391 0.493849
0.480577 0.484377 0.496834
0.481898 0.487363 0.499820
0.483220 0.490349 0.502806
0.484541 0.493335 0.505792
0.485863 0.496320 0.508778
0.487184 0.499306 0.511764
0.488506 0.502292 0.514749
0.489827 0.505278 0.517735
0.491149 0.508264 0.520721
0.492470 0.511250 0.523707
0.493792 0.514235 0.526693
0.478510 0.470659 0.484781
0.479831 0.473645 0.487767
0.481153 0.476631 0.490753
0.482474 0.479617 0.493739
0.483796 0.482603 0.496725
0.485117 0.485589 0.499710
0.486439 0.488574 0.502696
0.487760 0.491560 0.505682
0.489082 0.494546 0.508668
0.490403 0.497532 0.511654
0.491725 0.500518 0.514640
0.493046 0.503504 0.517625
0.494368 0.506490 0.520611
0.495689 0.509475 0.523597
0.497011 0.512461 0.526583
0.498332 0.515447 0.529569
0.499654 0.518433 0.532555
0.484372 0.474857 0.490643
0.485693 0.477843 0.493629
0.487015 0.480829 0.496615
0.488336 0.483814 0.499601
0.489658 0.486800 0.502586
0.490979 0.489786 0.505572
0.492301 0.492772 0.508558
0.493622 0.495758 0.511544
0.494944 0.498744 0.514530
0.496265 0.501730 0.517516
0.497587 0.504715 0.520501
0.498908 0.507701 0.523487
0.500230 0.510687 0.526473
0.501551 0.513673 0.529459
0.502873 0.516659 0.532445
0.504194 0.519645 0.535431
0.505516 0.522630 0.538417
0.490234 0.479054 0.496505
0.491555 0.482040 0.499491
0.492877 0.485026 0.502477
0.494198 0.488012 0.505462
0.495520 0.490998 0.508448
0.496841 0.493984 0.511434
0.498163 0.496969 0.514420
0.499484 0.499955 0.517406
0.500806 0.502941 0.520392
0.502127 0.505927 0.523377
0.503449 0.508913 0.526363
0.504770 0.511899 0.529349
0.506092 0.514885 0.532335
0.507413 0.517870 0.535321
0.508734 0.520856 0.538307
0.510056 0.523842 0.541293
0.511377 0.526828 0.544278
0.496095 0.483252 0.502367
0.497417 0.486238 0.505353
0.498738 0.489224 0.508338
0.500060 0.492209 0.511324
0.501381 0.495195 0.514310
0.502703 0.498181 0.517296
0.504024 0.501167 0.520282
0.505346 0.504153 0.523268
0.506667 0.507139 0.526253
0.507989 0.510125 0.529239
0.509310 0.513110 0.532225
0.510632 0.516096 0.535211
0.511953 0.519082 0.538197
0.513275 0.522068 0.541183
0.514596 0.525054 0.544169
0.515918 0.528040 0.547154
0.517239 0.531025 0.550140
0.501957 0.487449 0.508229
0.503279 0.490435 0.511214
0.504600 0.493421 0.514200
0.505922 0.496407 0.517186
0.507243 0.499393 0.520172
0.508565 0.502379 0.523158
0.509886 0.505364 0.526144
0.511208 0.508350 0.529129
0.512529 0.511336 0.532115
0.513851 0.514322 0.535101
0.515172 0.517308 0.538087
0.516494 0.520294 0.541073
0.517815 0.523280 0.544059
0.519137 0.526265 0.547045
0.520458 0.529251 0.550030
0.521780 0.532237 0.553016
0.523101 0.535223 0.556002
0.507819 0.491647 0.514090
0.509141 0.494633 0.517076
0.510462 0.497619 0.520062
0.511784 0.500604 0.523048
0.513105 0.503590 0.526034
0.514427 0.506576 0.529020
0.515748 0.509562 0.532006
0.517070 0.512548 0.534991
0.518391 0.515534 0.537977
0.519713 0.518520 0.540963
0.521034 0.521505 0.543949
0.522356 0.524491 0.546935
0.523677 0.527477 0.549921
0.524999 0.530463 0.552906
0.526320 0.533449 0.555892
0.527642 0.536435 0.558878
0.528963 0.539420 0.561864
0.513681 0.495844 0.519952
0.515002 0.498830 0.522938
0.516324 0.501816 0.525924
0.517645 0.504802 0.528910
0.518967 0.507788 0.531896
0.520288 0.510774 0.534882
0.521610 0.513759 0.537867
0.522931 0.516745 0.540853
0.524253 0.519731 0.543839
0.525574 0.522717 0.546825
0.526896 0.525703 0.549811
0.528217 0.528689 0.552797
0.529539 0.531675 0.555782
0.530860 0.534660 0.558768
0.532182 0.537646 0.561754
0.533503 0.540632 0.564740
0.534825 0.543618 0.567726
0.519543 0.500042 0.525814
0.520864 0.503028 0.528800
0.522186 0.506014 0.531786
0.523507 0.508999 0.534772
0.524829 0.511985 0.537758
0.526150 0.514971 0.540743
0.527472 0.517957 0.543729
0.528793 0.520943 0.546715
0.530115 0.523929 0.549701
0.531436 0.526915 0.552687
0.532758 0.529900 0.555673
0.534079 0.532886 0.558658
0.535401 0.535872 0.561644
0.536722 0.538858 0.564630
0.538044 0.541844 0.567616
0.539365 0.544830 0.570602
0.540687 0.547815 0.573588
0.525405 0.504239 0.531676
0.526726 0.507225 0.534662
0.528048 0.510211 0.537648
0.529369 0.513197 0.540634
0.530691 0.516183 0.543619
0.532012 0.519169 0.546605
0.533334 0.522154 0.549591
0.534655 0.525140 0.552577
0.535977 0.528126 0.555563
0.537298 0.531112 0.558549
0.538620 0.534098 0.561534
0.539941 0.537084 0.564520
0.541263 0.540070 0.567506
0.542584 0.543055 0.570492
0.543906 0.546041 0.573478
0.545227 0.549027 0.576464
0.546549 0.552013 0.579450
0.531267 0.508437 0.537538
0.532588 0.511423 0.540524
0.533910 0.514409 0.543510
0.535231 0.517394 0.546495
0.536553 0.520380 0.549481
0.537874 0.523366 0.552467
0.539196 0.526352 0.555453
0.540517 0.529338 0.558439
0.541839 0.532324 0.561425
0.543160 0.535310 0.564410
0.544481 0.538295 0.567396
0.545803 0.541281 0.570382
0.547124 0.544267 0.573368
0.548446 0.547253 0.576354
0.549767 0.550239 0.579340
0.551089 0.553225 0.582326
0.552410 0.556210 0.585311
0.438615 0.442415 0.443222
0.439937 0.445401 0.446208
0.441258 0.448387 0.449194
0.442580 0.451373 0.452180
0.443901 0.454359 0.455166
0.445223 0.457345 0.458151
0.446544 0.460330 0.461137
0.447866 0.463316 0.464123
0.449187 0.466302 0.467109
0.450509 0.469288 0.470095
0.451830 0.472274 0.473081
0.453152 0.475260 0.476067
0.454473 0.478245 0.479052
0.455795 0.481231 0.482038
0.457116 0.484217 0.485024
0.458438 0.487203 0.488010
0.459759 0.490189 0.490996
0.444477 0.446613 0.449084
