shared/src/main/assets/luts/mv_warehouse_reality.cube
TITLE "DALUR Warehouse Reality"
LUT_3D_SIZE 9
DOMAIN_MIN 0.0 0.0 0.0
DOMAIN_MAX 1.0 1.0 1.0
0.443000 0.442000 0.437000
0.446317 0.446765 0.441765
0.449633 0.451531 0.446531
0.452950 0.456296 0.451296
0.456266 0.461062 0.456062
0.459583 0.465827 0.460827
0.462899 0.470593 0.465593
0.466216 0.475358 0.470358
0.469532 0.480124 0.475124
0.452356 0.449907 0.446356
0.455672 0.454672 0.451121
0.458989 0.459438 0.455886
0.462305 0.464203 0.460652
0.465622 0.468968 0.465417
0.468938 0.473734 0.470183
0.472255 0.478499 0.474948
0.475571 0.483265 0.479714
0.478888 0.488030 0.484479
0.461711 0.457813 0.455711
0.465028 0.462579 0.460477
0.468344 0.467344 0.465242
0.471661 0.472110 0.470007
0.474977 0.476875 0.474773
0.478294 0.481641 0.479538
0.481610 0.486406 0.484304
0.484927 0.491171 0.489069
0.488243 0.495937 0.493835
0.471067 0.465720 0.465067
0.474383 0.470485 0.469832
0.477700 0.475251 0.474598
0.481016 0.480016 0.479363
0.484333 0.484782 0.484129
0.487649 0.489547 0.488894
0.490966 0.494313 0.493659
0.494283 0.499078 0.498425
0.497599 0.503844 0.503190
0.480422 0.473627 0.474422
0.483739 0.478392 0.479188
0.487055 0.483158 0.483953
0.490372 0.487923 0.488719
0.493688 0.492688 0.493484
0.497005 0.497454 0.498250
0.500322 0.502219 0.503015
0.503638 0.506985 0.507780
0.506955 0.511750 0.512546
0.489778 0.481533 0.483778
0.493094 0.486299 0.488543
0.496411 0.491064 0.493309
0.499728 0.495830 0.498074
0.503044 0.500595 0.502840
0.506361 0.505361 0.507605
0.509677 0.510126 0.512371
0.512994 0.514891 0.517136
0.516310 0.519657 0.521901
0.499133 0.489440 0.493133
0.502450 0.494205 0.497899
0.505767 0.498971 0.502664
0.509083 0.503736 0.507430
0.512400 0.508502 0.512195
0.515716 0.513267 0.516961
0.519033 0.518033 0.521726
0.522349 0.522798 0.526492
0.525666 0.527564 0.531257
0.508489 0.497347 0.502489
0.511806 0.502112 0.507254
0.515122 0.506878 0.512020
0.518439 0.511643 0.516785
0.521755 0.516408 0.521551
0.525072 0.521174 0.526316
0.528388 0.525939 0.531082
0.531705 0.530705 0.535847
0.535021 0.535470 0.540613
0.517845 0.505253 0.511845
0.521161 0.510019 0.516610
0.524478 0.514784 0.521376
0.527794 0.519550 0.526141
0.531111 0.524315 0.530906
0.534427 0.529081 0.535672
0.537744 0.533846 0.540437
0.541060 0.538612 0.545203
0.544377 0.543377 0.549968
0.444817 0.443817 0.437368
0.448133 0.448582 0.442133
0.451450 0.453348 0.446899
0.454767 0.458113 0.451664
0.458083 0.462879 0.456430
0.461400 0.467644 0.461195
0.464716 0.472410 0.465961
0.468033 0.477175 0.470726
0.471349 0.481941 0.475492
0.454173 0.451724 0.446724
0.457489 0.456489 0.451489
0.460806 0.461254 0.456254
0.464122 0.466020 0.461020
0.467439 0.470785 0.465785
0.470755 0.475551 0.470551
0.474072 0.480316 0.475316
0.477388 0.485082 0.480082
0.480705 0.489847 0.484847
0.463528 0.459630 0.456079
0.466845 0.464396 0.460845
0.470161 0.469161 0.465610
0.473478 0.473927 0.470376
0.476794 0.478692 0.475141
0.480111 0.483458 0.479906
0.483427 0.488223 0.484672
0.486744 0.492988 0.489437
0.490060 0.497754 0.494203
0.472884 0.467537 0.465435
0.476200 0.472302 0.470200
0.479517 0.477068 0.474966
0.482833 0.481833 0.479731
0.486150 0.486599 0.484497
0.489466 0.491364 0.489262
0.492783 0.496130 0.494027
0.496099 0.500895 0.498793
0.499416 0.505661 0.503558
0.482239 0.475444 0.474790
0.485556 0.480209 0.479556
0.488872 0.484975 0.484321
0.492189 0.489740 0.489087
0.495505 0.494505 0.493852
0.498822 0.499271 0.498618
0.502138 0.504036 0.503383
0.505455 0.508802 0.508148
0.508772 0.513567 0.512914
0.491595 0.483350 0.484146
0.494911 0.488116 0.488911
0.498228 0.492881 0.493677
0.501544 0.497647 0.498442
0.504861 0.502412 0.503208
0.508178 0.507178 0.507973
0.511494 0.511943 0.512739
0.514811 0.516708 0.517504
0.518127 0.521474 0.522269
0.500950 0.491257 0.493501
0.504267 0.496022 0.498267
0.507583 0.500788 0.503032
0.510900 0.505553 0.507798
0.514217 0.510319 0.512563
0.517533 0.515084 0.517329
0.520850 0.519850 0.522094
0.524166 0.524615 0.526860
0.527483 0.529381 0.531625
0.510306 0.499164 0.502857
0.513623 0.503929 0.507623
0.516939 0.508695 0.512388
0.520256 0.513460 0.517153
0.523572 0.518225 0.521919
0.526889 0.522991 0.526684
0.530205 0.527756 0.531450
0.533522 0.532522 0.536215
0.536838 0.537287 0.540981
0.519662 0.507070 0.512213
0.522978 0.511836 0.516978
0.526295 0.516601 0.521744
0.529611 0.521367 0.526509
0.532928 0.526132 0.531274
0.536244 0.530898 0.536040
0.539561 0.535663 0.540805
0.542877 0.540428 0.545571
0.546194 0.545194 0.550336
0.446634 0.445634 0.437736
0.449950 0.450399 0.442501
0.453267 0.455165 0.447267
0.456583 0.459930 0.452032
0.459900 0.464696 0.456798
0.463217 0.469461 0.461563
0.466533 0.474227 0.466329
0.469850 0.478992 0.471094
0.473166 0.483757 0.475860
0.455989 0.453541 0.447092
0.459306 0.458306 0.451857
0.462623 0.463071 0.456623
0.465939 0.467837 0.461388
0.469256 0.472602 0.466153
0.472572 0.477368 0.470919
0.475889 0.482133 0.475684
0.479205 0.486899 0.480450
0.482522 0.491664 0.485215
0.465345 0.461447 0.456447
0.468662 0.466213 0.461213
0.471978 0.470978 0.465978
0.475295 0.475744 0.470744
0.478611 0.480509 0.475509
0.481928 0.485274 0.480274
0.485244 0.490040 0.485040
0.488561 0.494805 0.489805
0.491877 0.499571 0.494571
0.474701 0.469354 0.465803
0.478017 0.474119 0.470568
0.481334 0.478885 0.475334
0.484650 0.483650 0.480099
0.487967 0.488416 0.484865
0.491283 0.493181 0.489630
0.494600 0.497947 0.494395
0.497916 0.502712 0.499161
0.501233 0.507477 0.503926
0.484056 0.477261 0.475158
0.487373 0.482026 0.479924
0.490689 0.486791 0.484689
0.494006 0.491557 0.489455
0.497322 0.496322 0.494220
0.500639 0.501088 0.498986
0.503955 0.505853 0.503751
0.507272 0.510619 0.508516
0.510588 0.515384 0.513282
0.493412 0.485167 0.484514
0.496728 0.489933 0.489279
0.500045 0.494698 0.494045
0.503361 0.499464 0.498810
0.506678 0.504229 0.503576
0.509994 0.508994 0.508341
0.513311 0.513760 0.513107
0.516628 0.518525 0.517872
0.519944 0.523291 0.522638
0.502767 0.493074 0.493870
0.506084 0.497839 0.498635
0.509400 0.502605 0.503400
0.512717 0.507370 0.508166
0.516033 0.512136 0.512931
0.519350 0.516901 0.517697
0.522667 0.521667 0.522462
0.525983 0.526432 0.527228
0.529300 0.531197 0.531993
0.512123 0.500981 0.503225
0.515439 0.505746 0.507991
0.518756 0.510511 0.512756
0.522073 0.515277 0.517521
0.525389 0.520042 0.522287
0.528706 0.524808 0.527052
0.532022 0.529573 0.531818
0.535339 0.534339 0.536583
0.538655 0.539104 0.541349
0.521478 0.508887 0.512581
0.524795 0.513653 0.517346
0.528112 0.518418 0.522112
0.531428 0.523184 0.526877
0.534745 0.527949 0.531642
0.538061 0.532714 0.536408
0.541378 0.537480 0.541173
0.544694 0.542245 0.545939
0.548011 0.547011 0.550704
0.448451 0.447451 0.438104
0.451767 0.452216 0.442870
0.455084 0.456982 0.447635
0.458400 0.461747 0.452400
0.461717 0.466513 0.457166
0.465033 0.471278 0.461931
0.468350 0.476043 0.466697
0.471667 0.480809 0.471462
0.474983 0.485574 0.476228
0.457806 0.455357 0.447460
0.461123 0.460123 0.452225
0.464439 0.464888 0.456991
0.467756 0.469654 0.461756
0.471073 0.474419 0.466521
0.474389 0.479185 0.471287
0.477706 0.483950 0.476052
0.481022 0.488716 0.480818
0.484339 0.493481 0.485583
0.467162 0.463264 0.456815
0.470478 0.468030 0.461581
0.473795 0.472795 0.466346
0.477112 0.477560 0.471112
0.480428 0.482326 0.475877
0.483745 0.487091 0.480642
0.487061 0.491857 0.485408
0.490378 0.496622 0.490173
0.493694 0.501388 0.494939
0.476518 0.471171 0.466171
0.479834 0.475936 0.470936
0.483151 0.480702 0.475702
0.486467 0.485467 0.480467
0.489784 0.490233 0.485233
0.493100 0.494998 0.489998
0.496417 0.499763 0.494763
0.499733 0.504529 0.499529
0.503050 0.509294 0.504294
0.485873 0.479077 0.475526
0.489190 0.483843 0.480292
0.492506 0.488608 0.485057
0.495823 0.493374 0.489823
0.499139 0.498139 0.494588
0.502456 0.502905 0.499354
0.505772 0.507670 0.504119
0.509089 0.512436 0.508884
0.512405 0.517201 0.513650
0.495229 0.486984 0.484882
0.498545 0.491750 0.489647
0.501862 0.496515 0.494413
0.505178 0.501280 0.499178
0.508495 0.506046 0.503944
0.511811 0.510811 0.508709
0.515128 0.515577 0.513475
0.518444 0.520342 0.518240
0.521761 0.525108 0.523006
0.504584 0.494891 0.494238
0.507901 0.499656 0.499003
0.511217 0.504422 0.503768
0.514534 0.509187 0.508534
0.517850 0.513953 0.513299
0.521167 0.518718 0.518065
0.524483 0.523483 0.522830
0.527800 0.528249 0.527596
0.531117 0.533014 0.532361
0.513940 0.502797 0.503593
0.517256 0.507563 0.508359
0.520573 0.512328 0.513124
0.523889 0.517094 0.517889
0.527206 0.521859 0.522655
0.530523 0.526625 0.527420
0.533839 0.531390 0.532186
0.537156 0.536156 0.536951
0.540472 0.540921 0.541717
0.523295 0.510704 0.512949
0.526612 0.515470 0.517714
0.529928 0.520235 0.522480
0.533245 0.525000 0.527245
0.536562 0.529766 0.532010
0.539878 0.534531 0.536776
0.543195 0.539297 0.541541
0.546511 0.544062 0.546307
0.549828 0.548828 0.551072
0.450268 0.449268 0.438472
0.453584 0.454033 0.443238
0.456901 0.458799 0.448003
0.460217 0.463564 0.452768
0.463534 0.468329 0.457534
0.466850 0.473095 0.462299
0.470167 0.477860 0.467065
0.473484 0.482626 0.471830
0.476800 0.487391 0.476596
0.459623 0.457174 0.447828
0.462940 0.461940 0.452593
0.466256 0.466705 0.457359
0.469573 0.471471 0.462124
0.472889 0.476236 0.466889
0.476206 0.481002 0.471655
0.479523 0.485767 0.476420
0.482839 0.490533 0.481186
0.486156 0.495298 0.485951
0.468979 0.465081 0.457183
0.472295 0.469846 0.461949
0.475612 0.474612 0.466714
0.478928 0.479377 0.471480
0.482245 0.484143 0.476245
0.485562 0.488908 0.481010
0.488878 0.493674 0.485776
0.492195 0.498439 0.490541
0.495511 0.503205 0.495307
0.478334 0.472988 0.466539
0.481651 0.477753 0.471304
0.484968 0.482519 0.476070
0.488284 0.487284 0.480835
0.491601 0.492050 0.485601
0.494917 0.496815 0.490366
0.498234 0.501580 0.495131
0.501550 0.506346 0.499897
0.504867 0.511111 0.504662
0.487690 0.480894 0.475894
0.491007 0.485660 0.480660
0.494323 0.490425 0.485425
0.497640 0.495191 0.490191
0.500956 0.499956 0.494956
0.504273 0.504722 0.499722
0.507589 0.509487 0.504487
0.510906 0.514253 0.509253
0.514222 0.519018 0.514018
0.497046 0.488801 0.485250
0.500362 0.493567 0.490015
0.503679 0.498332 0.494781
0.506995 0.503097 0.499546
0.510312 0.507863 0.504312
0.513628 0.512628 0.509077
0.516945 0.517394 0.513843
0.520261 0.522159 0.518608
0.523578 0.526925 0.523374
0.506401 0.496708 0.494606
0.509718 0.501473 0.499371
0.513034 0.506239 0.504136
0.516351 0.511004 0.508902
0.519667 0.515770 0.513667
0.522984 0.520535 0.518433
0.526300 0.525300 0.523198
0.529617 0.530066 0.527964
0.532934 0.534831 0.532729
0.515757 0.504614 0.503961
0.519073 0.509380 0.508727
0.522390 0.514145 0.513492
0.525706 0.518911 0.518257
0.529023 0.523676 0.523023
0.532339 0.528442 0.527788
0.535656 0.533207 0.532554
0.538973 0.537973 0.537319
0.542289 0.542738 0.542085
0.525112 0.512521 0.513317
0.528429 0.517287 0.518082
0.531745 0.522052 0.522848
0.535062 0.526817 0.527613
0.538378 0.531583 0.532378
0.541695 0.536348 0.537144
0.545012 0.541114 0.541909
0.548328 0.545879 0.546675
0.551645 0.550645 0.551440
0.452085 0.451085 0.438840
0.455401 0.455850 0.443606
0.458718 0.460616 0.448371
0.462034 0.465381 0.453136
0.465351 0.470146 0.457902
0.468667 0.474912 0.462667
0.471984 0.479677 0.467433
0.475300 0.484443 0.472198
0.478617 0.489208 0.476964
0.461440 0.458991 0.448196
0.464757 0.463757 0.452961
0.468073 0.468522 0.457727
0.471390 0.473288 0.462492
0.474706 0.478053 0.467257
0.478023 0.482819 0.472023
0.481339 0.487584 0.476788
0.484656 0.492349 0.481554
0.487973 0.497115 0.486319
0.470796 0.466898 0.457551
0.474112 0.471663 0.462317
0.477429 0.476429 0.467082
0.480745 0.481194 0.471848
0.484062 0.485960 0.476613
0.487378 0.490725 0.481378
0.490695 0.495491 0.486144
0.494012 0.500256 0.490909
0.497328 0.505022 0.495675
0.480151 0.474805 0.466907
0.483468 0.479570 0.471672
0.486784 0.484336 0.476438
0.490101 0.489101 0.481203
0.493418 0.493866 0.485969
0.496734 0.498632 0.490734
0.500051 0.503397 0.495500
0.503367 0.508163 0.500265
0.506684 0.512928 0.505030
0.489507 0.482711 0.476262
0.492823 0.487477 0.481028
0.496140 0.492242 0.485793
0.499457 0.497008 0.490559
0.502773 0.501773 0.495324
0.506090 0.506539 0.500090
0.509406 0.511304 0.504855
0.512723 0.516069 0.509621
0.516039 0.520835 0.514386
0.498863 0.490618 0.485618
0.502179 0.495383 0.490383
0.505496 0.500149 0.495149
0.508812 0.504914 0.499914
0.512129 0.509680 0.504680
0.515445 0.514445 0.509445
0.518762 0.519211 0.514211
0.522078 0.523976 0.518976
0.525395 0.528742 0.523742
0.508218 0.498525 0.494974
0.511535 0.503290 0.499739
0.514851 0.508056 0.504504
0.518168 0.512821 0.509270
0.521484 0.517586 0.514035
0.524801 0.522352 0.518801
0.528117 0.527117 0.523566
0.531434 0.531883 0.528332
0.534750 0.536648 0.533097
0.517574 0.506431 0.504329
0.520890 0.511197 0.509095
0.524207 0.515962 0.513860
0.527523 0.520728 0.518625
0.530840 0.525493 0.523391
0.534156 0.530259 0.528156
0.537473 0.535024 0.532922
0.540789 0.539789 0.537687
0.544106 0.544555 0.542453
0.526929 0.514338 0.513685
0.530246 0.519103 0.518450
0.533562 0.523869 0.523216
0.536879 0.528634 0.527981
0.540195 0.533400 0.532747
0.543512 0.538165 0.537512
0.546828 0.542931 0.542277
0.550145 0.547696 0.547043
0.553462 0.552462 0.551808
0.453902 0.452902 0.439208
0.457218 0.457667 0.443974
0.460535 0.462432 0.448739
0.463851 0.467198 0.453504
0.467168 0.471963 0.458270
0.470484 0.476729 0.463035
0.473801 0.481494 0.467801
0.477117 0.486260 0.472566
0.480434 0.491025 0.477332
0.463257 0.460808 0.448564
0.466574 0.465574 0.453329
0.469890 0.470339 0.458095
0.473207 0.475105 0.462860
0.476523 0.479870 0.467625
0.479840 0.484635 0.472391
0.483156 0.489401 0.477156
0.486473 0.494166 0.481922
0.489789 0.498932 0.486687
0.472613 0.468715 0.457919
0.475929 0.473480 0.462685
0.479246 0.478246 0.467450
0.482562 0.483011 0.472216
0.485879 0.487777 0.476981
0.489195 0.492542 0.481747
0.492512 0.497308 0.486512
0.495829 0.502073 0.491277
0.499145 0.506838 0.496043
0.481968 0.476622 0.467275
0.485285 0.481387 0.472040
0.488601 0.486152 0.476806
0.491918 0.490918 0.481571
0.495234 0.495683 0.486337
0.498551 0.500449 0.491102
0.501868 0.505214 0.495868
0.505184 0.509980 0.500633
0.508501 0.514745 0.505398
0.491324 0.484528 0.476630
0.494640 0.489294 0.481396
0.497957 0.494059 0.486161
0.501273 0.498825 0.490927
0.504590 0.503590 0.495692
0.507907 0.508355 0.500458
0.511223 0.513121 0.505223
0.514540 0.517886 0.509989
0.517856 0.522652 0.514754
0.500679 0.492435 0.485986
0.503996 0.497200 0.490751
0.507313 0.501966 0.495517
0.510629 0.506731 0.500282
0.513946 0.511497 0.505048
0.517262 0.516262 0.509813
0.520579 0.521028 0.514579
0.523895 0.525793 0.519344
0.527212 0.530558 0.524110
0.510035 0.500342 0.495342
0.513352 0.505107 0.500107
0.516668 0.509872 0.504872
0.519985 0.514638 0.509638
0.523301 0.519403 0.514403
0.526618 0.524169 0.519169
0.529934 0.528934 0.523934
0.533251 0.533700 0.528700
0.536567 0.538465 0.533465
0.519391 0.508248 0.504697
0.522707 0.513014 0.509463
0.526024 0.517779 0.514228
0.529340 0.522545 0.518994
0.532657 0.527310 0.523759
0.535973 0.532075 0.528524
0.539290 0.536841 0.533290
0.542606 0.541606 0.538055
0.545923 0.546372 0.542821
0.528746 0.516155 0.514053
0.532063 0.520920 0.518818
0.535379 0.525686 0.523584
0.538696 0.530451 0.528349
0.542012 0.535217 0.533115
0.545329 0.539982 0.537880
0.548645 0.544748 0.542645
0.551962 0.549513 0.547411
0.555279 0.554279 0.552176
0.455718 0.454718 0.439576
0.459035 0.459484 0.444342
0.462352 0.464249 0.449107
0.465668 0.469015 0.453872
0.468985 0.473780 0.458638
0.472301 0.478546 0.463403
0.475618 0.483311 0.468169
0.478934 0.488077 0.472934
0.482251 0.492842 0.477700
0.465074 0.462625 0.448932
0.468391 0.467391 0.453697
0.471707 0.472156 0.458463
0.475024 0.476921 0.463228
0.478340 0.481687 0.467994
0.481657 0.486452 0.472759
0.484973 0.491218 0.477524
0.488290 0.495983 0.482290
0.491606 0.500749 0.487055
0.474430 0.470532 0.458287
0.477746 0.475297 0.463053
0.481063 0.480063 0.467818
0.484379 0.484828 0.472584
0.487696 0.489594 0.477349
0.491012 0.494359 0.482115
0.494329 0.499125 0.486880
0.497645 0.503890 0.491645
0.500962 0.508655 0.496411
0.483785 0.478438 0.467643
0.487102 0.483204 0.472408
0.490418 0.487969 0.477174
0.493735 0.492735 0.481939
0.497051 0.497500 0.486705
0.500368 0.502266 0.491470
0.503684 0.507031 0.496236
0.507001 0.511797 0.501001
0.510318 0.516562 0.505766
0.493141 0.486345 0.476998
0.496457 0.491111 0.481764
0.499774 0.495876 0.486529
0.503090 0.500642 0.491295
0.506407 0.505407 0.496060
0.509724 0.510172 0.500826
0.513040 0.514938 0.505591
0.516357 0.519703 0.510357
0.519673 0.524469 0.515122
0.502496 0.494252 0.486354
0.505813 0.499017 0.491119
0.509129 0.503783 0.495885
0.512446 0.508548 0.500650
0.515763 0.513314 0.505416
0.519079 0.518079 0.510181
0.522396 0.522845 0.514947
0.525712 0.527610 0.519712
0.529029 0.532375 0.524478
0.511852 0.502159 0.495710
0.515168 0.506924 0.500475
0.518485 0.511689 0.505241
0.521802 0.516455 0.510006
0.525118 0.521220 0.514771
0.528435 0.525986 0.519537
0.531751 0.530751 0.524302
0.535068 0.535517 0.529068
0.538384 0.540282 0.533833
0.521208 0.510065 0.505065
0.524524 0.514831 0.509831
0.527841 0.519596 0.514596
0.531157 0.524362 0.519362
0.534474 0.529127 0.524127
0.537790 0.533892 0.528892
0.541107 0.538658 0.533658
0.544423 0.543423 0.538423
0.547740 0.548189 0.543189
0.530563 0.517972 0.514421
0.533880 0.522737 0.519186
0.537196 0.527503 0.523952
0.540513 0.532268 0.528717
0.543829 0.537034 0.533483
0.547146 0.541799 0.538248
0.550462 0.546565 0.543013
0.553779 0.551330 0.547779
0.557095 0.556095 0.552544
0.457535 0.456535 0.439944
0.460852 0.461301 0.444710
0.464168 0.466066 0.449475
0.467485 0.470832 0.454241
0.470802 0.475597 0.459006
0.474118 0.480363 0.463771
0.477435 0.485128 0.468537
0.480751 0.489894 0.473302
0.484068 0.494659 0.478068
0.466891 0.464442 0.449300
0.470208 0.469208 0.454065
0.473524 0.473973 0.458831
0.476841 0.478738 0.463596
0.480157 0.483504 0.468362
0.483474 0.488269 0.473127
0.486790 0.493035 0.477892
0.490107 0.497800 0.482658
0.493423 0.502566 0.487423
0.476247 0.472349 0.458655
0.479563 0.477114 0.463421
0.482880 0.481880 0.468186
0.486196 0.486645 0.472952
0.489513 0.491411 0.477717
0.492829 0.496176 0.482483
0.496146 0.500941 0.487248
0.499462 0.505707 0.492013
0.502779 0.510472 0.496779
0.485602 0.480255 0.468011
0.488919 0.485021 0.472776
0.492235 0.489786 0.477542
0.495552 0.494552 0.482307
0.498868 0.499317 0.487073
0.502185 0.504083 0.491838
0.505501 0.508848 0.496604
0.508818 0.513614 0.501369
0.512134 0.518379 0.506134
0.494958 0.488162 0.477366
0.498274 0.492928 0.482132
0.501591 0.497693 0.486897
0.504907 0.502458 0.491663
0.508224 0.507224 0.496428
0.511540 0.511989 0.501194
0.514857 0.516755 0.505959
0.518174 0.521520 0.510725
0.521490 0.526286 0.515490
0.504313 0.496069 0.486722
0.507630 0.500834 0.491488
0.510946 0.505600 0.496253
0.514263 0.510365 0.501018
0.517579 0.515131 0.505784
0.520896 0.519896 0.510549
0.524213 0.524661 0.515315
0.527529 0.529427 0.520080
0.530846 0.534192 0.524846
0.513669 0.503975 0.496078
0.516985 0.508741 0.500843
0.520302 0.513506 0.505609
0.523618 0.518272 0.510374
0.526935 0.523037 0.515139
0.530252 0.527803 0.519905
0.533568 0.532568 0.524670
0.536885 0.537334 0.529436
0.540201 0.542099 0.534201
0.523024 0.511882 0.505433
0.526341 0.516648 0.510199
0.529658 0.521413 0.514964
0.532974 0.526178 0.519730
0.536291 0.530944 0.524495
0.539607 0.535709 0.529260
0.542924 0.540475 0.534026
0.546240 0.545240 0.538791
0.549557 0.550006 0.543557
0.532380 0.519789 0.514789
0.535697 0.524554 0.519554
0.539013 0.529320 0.524320
0.542330 0.534085 0.529085
0.545646 0.538851 0.533851
0.548963 0.543616 0.538616
0.552279 0.548381 0.543381
0.555596 0.553147 0.548147
0.558912 0.557912 0.552912
