shared/src/main/assets/luts/mv_warehouse_reality.cube
TITLE "DALUR Warehouse Reality"
LUT_3D_SIZE 5
DOMAIN_MIN 0.0 0.0 0.0
DOMAIN_MAX 1.0 1.0 1.0
0.443000 0.442000 0.437000
0.449633 0.451531 0.446531
0.456266 0.461062 0.456062
0.462899 0.470593 0.465593
0.469532 0.480124 0.475124
0.461711 0.457813 0.455711
0.468344 0.467344 0.465242
0.474977 0.476875 0.474773
0.481610 0.486406 0.484304
0.488243 0.495937 0.493835
0.480422 0.473627 0.474422
0.487055 0.483158 0.483953
0.493688 0.492688 0.493484
0.500322 0.502219 0.503015
0.506955 0.511750 0.512546
0.499133 0.489440 0.493133
0.505767 0.498971 0.502664
0.512400 0.508502 0.512195
0.519033 0.518033 0.521726
0.525666 0.527564 0.531257
0.517845 0.505253 0.511845
0.524478 0.514784 0.521376
0.531111 0.524315 0.530906
0.537744 0.533846 0.540437
0.544377 0.543377 0.549968
0.446634 0.445634 0.437736
0.453267 0.455165 0.447267
0.459900 0.464696 0.456798
0.466533 0.474227 0.466329
0.473166 0.483757 0.475860
0.465345 0.461447 0.456447
0.471978 0.470978 0.465978
0.478611 0.480509 0.475509
0.485244 0.490040 0.485040
0.491877 0.499571 0.494571
0.484056 0.477261 0.475158
0.490689 0.486791 0.484689
0.497322 0.496322 0.494220
0.503955 0.505853 0.503751
0.510588 0.515384 0.513282
0.502767 0.493074 0.493870
0.509400 0.502605 0.503400
0.516033 0.512136 0.512931
0.522667 0.521667 0.522462
0.529300 0.531197 0.531993
0.521478 0.508887 0.512581
0.528112 0.518418 0.522112
0.534745 0.527949 0.531642
0.541378 0.537480 0.541173
0.548011 0.547011 0.550704
0.450268 0.449268 0.438472
0.456901 0.458799 0.448003
0.463534 0.468329 0.457534
0.470167 0.477860 0.467065
0.476800 0.487391 0.476596
0.468979 0.465081 0.457183
0.475612 0.474612 0.466714
0.482245 0.484143 0.476245
0.488878 0.493674 0.485776
0.495511 0.503205 0.495307
0.487690 0.480894 0.475894
0.494323 0.490425 0.485425
0.500956 0.499956 0.494956
0.507589 0.509487 0.504487
0.514222 0.519018 0.514018
0.506401 0.496708 0.494606
0.513034 0.506239 0.504136
0.519667 0.515770 0.513667
0.526300 0.525300 0.523198
0.532934 0.534831 0.532729
0.525112 0.512521 0.513317
0.531745 0.522052 0.522848
0.538378 0.531583 0.532378
0.545012 0.541114 0.541909
0.551645 0.550645 0.551440
0.453902 0.452902 0.439208
0.460535 0.462432 0.448739
0.467168 0.471963 0.458270
0.473801 0.481494 0.467801
0.480434 0.491025 0.477332
0.472613 0.468715 0.457919
0.479246 0.478246 0.467450
0.485879 0.487777 0.476981
0.492512 0.497308 0.486512
0.499145 0.506838 0.496043
0.491324 0.484528 0.476630
0.497957 0.494059 0.486161
0.504590 0.503590 0.495692
0.511223 0.513121 0.505223
0.517856 0.522652 0.514754
0.510035 0.500342 0.495342
0.516668 0.509872 0.504872
0.523301 0.519403 0.514403
0.529934 0.528934 0.523934
0.536567 0.538465 0.533465
0.528746 0.516155 0.514053
0.535379 0.525686 0.523584
0.542012 0.535217 0.533115
0.548645 0.544748 0.542645
0.555279 0.554279 0.552176
0.457535 0.456535 0.439944
0.464168 0.466066 0.449475
0.470802 0.475597 0.459006
0.477435 0.485128 0.468537
0.484068 0.494659 0.478068
0.476247 0.472349 0.458655
0.482880 0.481880 0.468186
0.489513 0.491411 0.477717
0.496146 0.500941 0.487248
0.502779 0.510472 0.496779
0.494958 0.488162 0.477366
0.501591 0.497693 0.486897
0.508224 0.507224 0.496428
0.514857 0.516755 0.505959
0.521490 0.526286 0.515490
0.513669 0.503975 0.496078
0.520302 0.513506 0.505609
0.526935 0.523037 0.515139
0.533568 0.532568 0.524670
0.540201 0.542099 0.534201
0.532380 0.519789 0.514789
0.539013 0.529320 0.524320
0.545646 0.538851 0.533851
0.552279 0.548381 0.543381
0.558912 0.557912 0.552912
