shared/src/main/assets/luts/mv_white_fashion.cube
TITLE "DALUR White Fashion"
LUT_3D_SIZE 5
DOMAIN_MIN 0.0 0.0 0.0
DOMAIN_MAX 1.0 1.0 1.0
0.435200 0.439000 0.444800
0.440486 0.450943 0.456743
0.445772 0.462887 0.468687
0.451058 0.474830 0.480630
0.456344 0.486774 0.492574
0.458647 0.455790 0.468247
0.463933 0.467733 0.480191
0.469219 0.479677 0.492134
0.474505 0.491620 0.504078
0.479791 0.503564 0.516021
0.482095 0.472580 0.491695
0.487381 0.484523 0.503638
0.492667 0.496467 0.515582
0.497953 0.508410 0.527525
0.503239 0.520354 0.539468
0.505542 0.489370 0.515142
0.510828 0.501313 0.527086
0.516114 0.513257 0.539029
0.521400 0.525200 0.550972
0.526686 0.537144 0.562916
0.528990 0.506160 0.538590
0.534276 0.518103 0.550533
0.539562 0.530047 0.562476
0.544848 0.541990 0.574420
0.550134 0.553934 0.586363
0.439754 0.443554 0.442696
0.445040 0.455497 0.454640
0.450326 0.467440 0.466583
0.455612 0.479384 0.478526
0.460898 0.491327 0.490470
0.463201 0.460344 0.466144
0.468487 0.472287 0.478087
0.473773 0.484230 0.490030
0.479059 0.496174 0.501974
0.484345 0.508117 0.513917
0.486649 0.477134 0.489591
0.491935 0.489077 0.501535
0.497220 0.501020 0.513478
0.502506 0.512964 0.525421
0.507792 0.524907 0.537365
0.510096 0.493924 0.513039
0.515382 0.505867 0.524982
0.520668 0.517811 0.536925
0.525954 0.529754 0.548869
0.531240 0.541697 0.560812
0.533543 0.510714 0.536486
0.538829 0.522657 0.548429
0.544115 0.534601 0.560373
0.549401 0.546544 0.572316
0.554687 0.558487 0.584260
0.444307 0.448107 0.440593
0.449593 0.460051 0.452536
0.454879 0.471994 0.464479
0.460165 0.483938 0.476423
0.465451 0.495881 0.488366
0.467755 0.464897 0.464040
0.473041 0.476841 0.475983
0.478327 0.488784 0.487927
0.483613 0.500728 0.499870
0.488899 0.512671 0.511814
0.491202 0.481687 0.487487
0.496488 0.493631 0.499431
0.501774 0.505574 0.511374
0.507060 0.517518 0.523318
0.512346 0.529461 0.535261
0.514650 0.498477 0.510935
0.519936 0.510421 0.522878
0.525222 0.522364 0.534822
0.530508 0.534308 0.546765
0.535794 0.546251 0.558708
0.538097 0.515267 0.534382
0.543383 0.527211 0.546326
0.548669 0.539154 0.558269
0.553955 0.551098 0.570212
0.559241 0.563041 0.582156
0.448861 0.452661 0.438489
0.454147 0.464604 0.450432
0.459433 0.476548 0.462376
0.464719 0.488491 0.474319
0.470005 0.500435 0.486262
0.472308 0.469451 0.461936
0.477594 0.481394 0.473880
0.482880 0.493338 0.485823
0.488166 0.505281 0.497766
0.493452 0.517225 0.509710
0.495756 0.486241 0.485384
0.501042 0.498184 0.497327
0.506328 0.510128 0.509270
0.511614 0.522071 0.521214
0.516900 0.534015 0.533157
0.519203 0.503031 0.508831
0.524489 0.514974 0.520774
0.529775 0.526918 0.532718
0.535061 0.538861 0.544661
0.540347 0.550805 0.556605
0.542651 0.519821 0.532278
0.547937 0.531764 0.544222
0.553223 0.543708 0.556165
0.558509 0.555651 0.568109
0.563795 0.567595 0.580052
0.453415 0.457215 0.436385
0.458701 0.469158 0.448328
0.463987 0.481102 0.460272
0.469273 0.493045 0.472215
0.474559 0.504988 0.484159
0.476862 0.474005 0.459832
0.482148 0.485948 0.471776
0.487434 0.497892 0.483719
0.492720 0.509835 0.495663
0.498006 0.521778 0.507606
0.500310 0.490795 0.483280
0.505596 0.502738 0.495223
0.510882 0.514682 0.507167
0.516168 0.526625 0.519110
0.521453 0.538568 0.531053
0.523757 0.507585 0.506727
0.529043 0.519528 0.518671
0.534329 0.531472 0.530614
0.539615 0.543415 0.542558
0.544901 0.555358 0.554501
0.547204 0.524375 0.530175
0.552490 0.536318 0.542118
0.557776 0.548262 0.554062
0.563062 0.560205 0.566005
0.568348 0.572148 0.577948
