shared/src/main/assets/luts/mv_white_fashion.cube
TITLE "DALUR White Fashion"
LUT_3D_SIZE 9
DOMAIN_MIN 0.0 0.0 0.0
DOMAIN_MAX 1.0 1.0 1.0
0.435200 0.439000 0.444800
0.437843 0.444972 0.450772
0.440486 0.450943 0.456743
0.443129 0.456915 0.462715
0.445772 0.462887 0.468687
0.448415 0.468859 0.474659
0.451058 0.474830 0.480630
0.453701 0.480802 0.486602
0.456344 0.486774 0.492574
0.446924 0.447395 0.456524
0.449567 0.453367 0.462495
0.452210 0.459338 0.468467
0.454853 0.465310 0.474439
0.457496 0.471282 0.480411
0.460139 0.477254 0.486382
0.462782 0.483225 0.492354
0.465425 0.489197 0.498326
0.468068 0.495169 0.504297
0.458647 0.455790 0.468247
0.461290 0.461762 0.474219
0.463933 0.467733 0.480191
0.466576 0.473705 0.486163
0.469219 0.479677 0.492134
0.471862 0.485649 0.498106
0.474505 0.491620 0.504078
0.477148 0.497592 0.510049
0.479791 0.503564 0.516021
0.470371 0.464185 0.479971
0.473014 0.470157 0.485943
0.475657 0.476128 0.491915
0.478300 0.482100 0.497886
0.480943 0.488072 0.503858
0.483586 0.494044 0.509830
0.486229 0.500015 0.515801
0.488872 0.505987 0.521773
0.491515 0.511959 0.527745
0.482095 0.472580 0.491695
0.484738 0.478552 0.497667
0.487381 0.484523 0.503638
0.490024 0.490495 0.509610
0.492667 0.496467 0.515582
0.495310 0.502439 0.521553
0.497953 0.508410 0.527525
0.500596 0.514382 0.533497
0.503239 0.520354 0.539468
0.493819 0.480975 0.503419
0.496462 0.486947 0.509390
0.499105 0.492918 0.515362
0.501748 0.498890 0.521334
0.504391 0.504862 0.527305
0.507034 0.510834 0.533277
0.509677 0.516805 0.539249
0.512320 0.522777 0.545220
0.514963 0.528749 0.551192
0.505542 0.489370 0.515142
0.508185 0.495342 0.521114
0.510828 0.501313 0.527086
0.513471 0.507285 0.533057
0.516114 0.513257 0.539029
0.518757 0.519229 0.545001
0.521400 0.525200 0.550972
0.524043 0.531172 0.556944
0.526686 0.537144 0.562916
0.517266 0.497765 0.526866
0.519909 0.503737 0.532838
0.522552 0.509708 0.538809
0.525195 0.515680 0.544781
0.527838 0.521652 0.550753
0.530481 0.527624 0.556724
0.533124 0.533595 0.562696
0.535767 0.539567 0.568668
0.538410 0.545539 0.574640
0.528990 0.506160 0.538590
0.531633 0.512132 0.544561
0.534276 0.518103 0.550533
0.536919 0.524075 0.556505
0.539562 0.530047 0.562476
0.542205 0.536019 0.568448
0.544848 0.541990 0.574420
0.547491 0.547962 0.580392
0.550134 0.553934 0.586363
0.437477 0.441277 0.443748
0.440120 0.447249 0.449720
0.442763 0.453220 0.455692
0.445406 0.459192 0.461663
0.448049 0.465164 0.467635
0.450692 0.471135 0.473607
0.453335 0.477107 0.479578
0.455978 0.483079 0.485550
0.458621 0.489050 0.491522
0.449201 0.449672 0.455472
0.451844 0.455644 0.461444
0.454487 0.461615 0.467415
0.457130 0.467587 0.473387
0.459773 0.473559 0.479359
0.462416 0.479530 0.485330
0.465059 0.485502 0.491302
0.467702 0.491474 0.497274
0.470345 0.497445 0.503245
0.460924 0.458067 0.467196
0.463567 0.464039 0.473167
0.466210 0.470010 0.479139
0.468853 0.475982 0.485111
0.471496 0.481954 0.491082
0.474139 0.487925 0.497054
0.476782 0.493897 0.503026
0.479425 0.499869 0.508997
0.482068 0.505840 0.514969
0.472648 0.466462 0.478919
0.475291 0.472434 0.484891
0.477934 0.478405 0.490863
0.480577 0.484377 0.496834
0.483220 0.490349 0.502806
0.485863 0.496320 0.508778
0.488506 0.502292 0.514749
0.491149 0.508264 0.520721
0.493792 0.514235 0.526693
0.484372 0.474857 0.490643
0.487015 0.480829 0.496615
0.489658 0.486800 0.502586
0.492301 0.492772 0.508558
0.494944 0.498744 0.514530
0.497587 0.504715 0.520501
0.500230 0.510687 0.526473
0.502873 0.516659 0.532445
0.505516 0.522630 0.538417
0.496095 0.483252 0.502367
0.498738 0.489224 0.508338
0.501381 0.495195 0.514310
0.504024 0.501167 0.520282
0.506667 0.507139 0.526253
0.509310 0.513110 0.532225
0.511953 0.519082 0.538197
0.514596 0.525054 0.544169
0.517239 0.531025 0.550140
0.507819 0.491647 0.514090
0.510462 0.497619 0.520062
0.513105 0.503590 0.526034
0.515748 0.509562 0.532006
0.518391 0.515534 0.537977
0.521034 0.521505 0.543949
0.523677 0.527477 0.549921
0.526320 0.533449 0.555892
0.528963 0.539420 0.561864
0.519543 0.500042 0.525814
0.522186 0.506014 0.531786
0.524829 0.511985 0.537758
0.527472 0.517957 0.543729
0.530115 0.523929 0.549701
0.532758 0.529900 0.555673
0.535401 0.535872 0.561644
0.538044 0.541844 0.567616
0.540687 0.547815 0.573588
0.531267 0.508437 0.537538
0.533910 0.514409 0.543510
0.536553 0.520380 0.549481
0.539196 0.526352 0.555453
0.541839 0.532324 0.561425
0.544481 0.538295 0.567396
0.547124 0.544267 0.573368
0.549767 0.550239 0.579340
0.552410 0.556210 0.585311
0.439754 0.443554 0.442696
0.442397 0.449525 0.448668
0.445040 0.455497 0.454640
0.447683 0.461469 0.460611
0.450326 0.467440 0.466583
0.452969 0.473412 0.472555
0.455612 0.479384 0.478526
0.458255 0.485356 0.484498
0.460898 0.491327 0.490470
0.451477 0.451949 0.454420
0.454120 0.457920 0.460392
0.456763 0.463892 0.466363
0.459406 0.469864 0.472335
0.462049 0.475835 0.478307
0.464692 0.481807 0.484278
0.467335 0.487779 0.490250
0.469978 0.493751 0.496222
0.472621 0.499722 0.502194
0.463201 0.460344 0.466144
0.465844 0.466315 0.472115
0.468487 0.472287 0.478087
0.471130 0.478259 0.484059
0.473773 0.484230 0.490030
0.476416 0.490202 0.496002
0.479059 0.496174 0.501974
0.481702 0.502146 0.507946
0.484345 0.508117 0.513917
0.474925 0.468739 0.477867
0.477568 0.474710 0.483839
0.480211 0.480682 0.489811
0.482854 0.486654 0.495782
0.485497 0.492625 0.501754
0.488140 0.498597 0.507726
0.490783 0.504569 0.513698
0.493426 0.510541 0.519669
0.496069 0.516512 0.525641
0.486649 0.477134 0.489591
0.489292 0.483105 0.495563
0.491935 0.489077 0.501535
0.494578 0.495049 0.507506
0.497220 0.501020 0.513478
0.499863 0.506992 0.519450
0.502506 0.512964 0.525421
0.505149 0.518936 0.531393
0.507792 0.524907 0.537365
0.498372 0.485529 0.501315
0.501015 0.491500 0.507287
0.503658 0.497472 0.513258
0.506301 0.503444 0.519230
0.508944 0.509415 0.525202
0.511587 0.515387 0.531173
0.514230 0.521359 0.537145
0.516873 0.527331 0.543117
0.519516 0.533302 0.549088
0.510096 0.493924 0.513039
0.512739 0.499895 0.519010
0.515382 0.505867 0.524982
0.518025 0.511839 0.530954
0.520668 0.517811 0.536925
0.523311 0.523782 0.542897
0.525954 0.529754 0.548869
0.528597 0.535726 0.554840
0.531240 0.541697 0.560812
0.521820 0.502319 0.524762
0.524463 0.508290 0.530734
0.527106 0.514262 0.536706
0.529749 0.520234 0.542677
0.532392 0.526206 0.548649
0.535035 0.532177 0.554621
0.537678 0.538149 0.560592
0.540321 0.544121 0.566564
0.542964 0.550092 0.572536
0.533543 0.510714 0.536486
0.536186 0.516685 0.542458
0.538829 0.522657 0.548429
0.541472 0.528629 0.554401
0.544115 0.534601 0.560373
0.546758 0.540572 0.566344
0.549401 0.546544 0.572316
0.552044 0.552516 0.578288
0.554687 0.558487 0.584260
0.442031 0.445831 0.441644
0.444674 0.451802 0.447616
0.447316 0.457774 0.453588
0.449959 0.463746 0.459559
0.452602 0.469717 0.465531
0.455245 0.475689 0.471503
0.457888 0.481661 0.477475
0.460531 0.487632 0.483446
0.463174 0.493604 0.489418
0.453754 0.454226 0.453368
0.456397 0.460197 0.459340
0.459040 0.466169 0.465312
0.461683 0.472141 0.471283
0.464326 0.478112 0.477255
0.466969 0.484084 0.483227
0.469612 0.490056 0.489198
0.472255 0.496027 0.495170
0.474898 0.501999 0.501142
0.465478 0.462621 0.465092
0.468121 0.468592 0.471064
0.470764 0.474564 0.477035
0.473407 0.480536 0.483007
0.476050 0.486507 0.488979
0.478693 0.492479 0.494950
0.481336 0.498451 0.500922
0.483979 0.504422 0.506894
0.486622 0.510394 0.512865
0.477202 0.471016 0.476816
0.479845 0.476987 0.482787
0.482488 0.482959 0.488759
0.485131 0.488931 0.494731
0.487774 0.494902 0.500702
0.490417 0.500874 0.506674
0.493060 0.506846 0.512646
0.495703 0.512817 0.518617
0.498346 0.518789 0.524589
0.488925 0.479411 0.488539
0.491568 0.485382 0.494511
0.494211 0.491354 0.500483
0.496854 0.497326 0.506454
0.499497 0.503297 0.512426
0.502140 0.509269 0.518398
0.504783 0.515241 0.524369
0.507426 0.521212 0.530341
0.510069 0.527184 0.536313
0.500649 0.487806 0.500263
0.503292 0.493777 0.506235
0.505935 0.499749 0.512206
0.508578 0.505721 0.518178
0.511221 0.511692 0.524150
0.513864 0.517664 0.530121
0.516507 0.523636 0.536093
0.519150 0.529607 0.542065
0.521793 0.535579 0.548037
0.512373 0.496201 0.511987
0.515016 0.502172 0.517958
0.517659 0.508144 0.523930
0.520302 0.514116 0.529902
0.522945 0.520087 0.535873
0.525588 0.526059 0.541845
0.528231 0.532031 0.547817
0.530874 0.538002 0.553789
0.533517 0.543974 0.559760
0.524096 0.504596 0.523710
0.526739 0.510567 0.529682
0.529382 0.516539 0.535654
0.532025 0.522511 0.541625
0.534668 0.528482 0.547597
0.537311 0.534454 0.553569
0.539954 0.540426 0.559541
0.542597 0.546397 0.565512
0.545240 0.552369 0.571484
0.535820 0.512991 0.535434
0.538463 0.518962 0.541406
0.541106 0.524934 0.547377
0.543749 0.530906 0.553349
0.546392 0.536877 0.559321
0.549035 0.542849 0.565293
0.551678 0.548821 0.571264
0.554321 0.554792 0.577236
0.556964 0.560764 0.583208
0.444307 0.448107 0.440593
0.446950 0.454079 0.446564
0.449593 0.460051 0.452536
0.452236 0.466022 0.458508
0.454879 0.471994 0.464479
0.457522 0.477966 0.470451
0.460165 0.483938 0.476423
0.462808 0.489909 0.482394
0.465451 0.495881 0.488366
0.456031 0.456502 0.452316
0.458674 0.462474 0.458288
0.461317 0.468446 0.464260
0.463960 0.474417 0.470231
0.466603 0.480389 0.476203
0.469246 0.486361 0.482175
0.471889 0.492333 0.488146
0.474532 0.498304 0.494118
0.477175 0.504276 0.500090
0.467755 0.464897 0.464040
0.470398 0.470869 0.470012
0.473041 0.476841 0.475983
0.475684 0.482812 0.481955
0.478327 0.488784 0.487927
0.480970 0.494756 0.493898
0.483613 0.500728 0.499870
0.486256 0.506699 0.505842
0.488899 0.512671 0.511814
0.479478 0.473292 0.475764
0.482121 0.479264 0.481735
0.484764 0.485236 0.487707
0.487407 0.491207 0.493679
0.490050 0.497179 0.499650
0.492693 0.503151 0.505622
0.495336 0.509123 0.511594
0.497979 0.515094 0.517566
0.500622 0.521066 0.523537
0.491202 0.481687 0.487487
0.493845 0.487659 0.493459
0.496488 0.493631 0.499431
0.499131 0.499602 0.505402
0.501774 0.505574 0.511374
0.504417 0.511546 0.517346
0.507060 0.517518 0.523318
0.509703 0.523489 0.529289
0.512346 0.529461 0.535261
0.502926 0.490082 0.499211
0.505569 0.496054 0.505183
0.508212 0.502026 0.511154
0.510855 0.507997 0.517126
0.513498 0.513969 0.523098
0.516141 0.519941 0.529070
0.518784 0.525913 0.535041
0.521427 0.531884 0.541013
0.524070 0.537856 0.546985
0.514650 0.498477 0.510935
0.517293 0.504449 0.516906
0.519936 0.510421 0.522878
0.522579 0.516392 0.528850
0.525222 0.522364 0.534822
0.527865 0.528336 0.540793
0.530508 0.534308 0.546765
0.533151 0.540279 0.552737
0.535794 0.546251 0.558708
0.526373 0.506872 0.522658
0.529016 0.512844 0.528630
0.531659 0.518816 0.534602
0.534302 0.524787 0.540574
0.536945 0.530759 0.546545
0.539588 0.536731 0.552517
0.542231 0.542703 0.558489
0.544874 0.548674 0.564460
0.547517 0.554646 0.570432
0.538097 0.515267 0.534382
0.540740 0.521239 0.540354
0.543383 0.527211 0.546326
0.546026 0.533182 0.552297
0.548669 0.539154 0.558269
0.551312 0.545126 0.564241
0.553955 0.551098 0.570212
0.556598 0.557069 0.576184
0.559241 0.563041 0.582156
0.446584 0.450384 0.439541
0.449227 0.456356 0.445512
0.451870 0.462328 0.451484
0.454513 0.468299 0.457456
0.457156 0.474271 0.463427
0.459799 0.480243 0.469399
0.462442 0.486214 0.475371
0.465085 0.492186 0.481343
0.467728 0.498158 0.487314
0.458308 0.458779 0.451264
0.460951 0.464751 0.457236
0.463594 0.470723 0.463208
0.466237 0.476694 0.469179
0.468880 0.482666 0.475151
0.471523 0.488638 0.481123
0.474166 0.494609 0.487095
0.476809 0.500581 0.493066
0.479452 0.506553 0.499038
0.470032 0.467174 0.462988
0.472675 0.473146 0.468960
0.475318 0.479118 0.474931
0.477961 0.485089 0.480903
0.480604 0.491061 0.486875
0.483247 0.497033 0.492847
0.485890 0.503004 0.498818
0.488533 0.508976 0.504790
0.491176 0.514948 0.510762
0.481755 0.475569 0.474712
0.484398 0.481541 0.480683
0.487041 0.487513 0.486655
0.489684 0.493484 0.492627
0.492327 0.499456 0.498599
0.494970 0.505428 0.504570
0.497613 0.511399 0.510542
0.500256 0.517371 0.516514
0.502899 0.523343 0.522485
0.493479 0.483964 0.486435
0.496122 0.489936 0.492407
0.498765 0.495908 0.498379
0.501408 0.501879 0.504351
0.504051 0.507851 0.510322
0.506694 0.513823 0.516294
0.509337 0.519794 0.522266
0.511980 0.525766 0.528237
0.514623 0.531738 0.534209
0.505203 0.492359 0.498159
0.507846 0.498331 0.504131
0.510489 0.504303 0.510103
0.513132 0.510274 0.516074
0.515775 0.516246 0.522046
0.518418 0.522218 0.528018
0.521061 0.528189 0.533989
0.523704 0.534161 0.539961
0.526347 0.540133 0.545933
0.516926 0.500754 0.509883
0.519569 0.506726 0.515855
0.522212 0.512698 0.521826
0.524855 0.518669 0.527798
0.527498 0.524641 0.533770
0.530141 0.530613 0.539741
0.532784 0.536584 0.545713
0.535427 0.542556 0.551685
0.538070 0.548528 0.557657
0.528650 0.509149 0.521607
0.531293 0.515121 0.527578
0.533936 0.521093 0.533550
0.536579 0.527064 0.539522
0.539222 0.533036 0.545493
0.541865 0.539008 0.551465
0.544508 0.544979 0.557437
0.547151 0.550951 0.563409
0.549794 0.556923 0.569380
0.540374 0.517544 0.533330
0.543017 0.523516 0.539302
0.545660 0.529488 0.545274
0.548303 0.535459 0.551245
0.550946 0.541431 0.557217
0.553589 0.547403 0.563189
0.556232 0.553374 0.569161
0.558875 0.559346 0.575132
0.561518 0.565318 0.581104
0.448861 0.452661 0.438489
0.451504 0.458633 0.444460
0.454147 0.464604 0.450432
0.456790 0.470576 0.456404
0.459433 0.476548 0.462376
0.462076 0.482520 0.468347
0.464719 0.488491 0.474319
0.467362 0.494463 0.480291
0.470005 0.500435 0.486262
0.460585 0.461056 0.450212
0.463228 0.467028 0.456184
0.465871 0.472999 0.462156
0.468514 0.478971 0.468128
0.471157 0.484943 0.474099
0.473800 0.490915 0.480071
0.476443 0.496886 0.486043
0.479086 0.502858 0.492014
0.481729 0.508830 0.497986
0.472308 0.469451 0.461936
0.474951 0.475423 0.467908
0.477594 0.481394 0.473880
0.480237 0.487366 0.479851
0.482880 0.493338 0.485823
0.485523 0.499310 0.491795
0.488166 0.505281 0.497766
0.490809 0.511253 0.503738
0.493452 0.517225 0.509710
0.484032 0.477846 0.473660
0.486675 0.483818 0.479632
0.489318 0.489789 0.485603
0.491961 0.495761 0.491575
0.494604 0.501733 0.497547
0.497247 0.507705 0.503518
0.499890 0.513676 0.509490
0.502533 0.519648 0.515462
0.505176 0.525620 0.521434
0.495756 0.486241 0.485384
0.498399 0.492213 0.491355
0.501042 0.498184 0.497327
0.503685 0.504156 0.503299
0.506328 0.510128 0.509270
0.508971 0.516100 0.515242
0.511614 0.522071 0.521214
0.514257 0.528043 0.527186
0.516900 0.534015 0.533157
0.507480 0.494636 0.497107
0.510123 0.500608 0.503079
0.512766 0.506579 0.509051
0.515409 0.512551 0.515022
0.518052 0.518523 0.520994
0.520695 0.524495 0.526966
0.523338 0.530466 0.532938
0.525981 0.536438 0.538909
0.528624 0.542410 0.544881
0.519203 0.503031 0.508831
0.521846 0.509003 0.514803
0.524489 0.514974 0.520774
0.527132 0.520946 0.526746
0.529775 0.526918 0.532718
0.532418 0.532890 0.538690
0.535061 0.538861 0.544661
0.537704 0.544833 0.550633
0.540347 0.550805 0.556605
0.530927 0.511426 0.520555
0.533570 0.517398 0.526526
0.536213 0.523369 0.532498
0.538856 0.529341 0.538470
0.541499 0.535313 0.544442
0.544142 0.541285 0.550413
0.546785 0.547256 0.556385
0.549428 0.553228 0.562357
0.552071 0.559200 0.568328
0.542651 0.519821 0.532278
0.545294 0.525793 0.538250
0.547937 0.531764 0.544222
0.550580 0.537736 0.550194
0.553223 0.543708 0.556165
0.555866 0.549680 0.562137
0.558509 0.555651 0.568109
0.561152 0.561623 0.574080
0.563795 0.567595 0.580052
0.451138 0.454938 0.437437
0.453781 0.460910 0.443409
0.456424 0.466881 0.449380
0.459067 0.472853 0.455352
0.461710 0.478825 0.461324
0.464353 0.484796 0.467295
0.466996 0.490768 0.473267
0.469639 0.496740 0.479239
0.472282 0.502711 0.485211
0.462862 0.463333 0.449161
0.465505 0.469305 0.455132
0.468148 0.475276 0.461104
0.470791 0.481248 0.467076
0.473434 0.487220 0.473047
0.476077 0.493191 0.479019
0.478720 0.499163 0.484991
0.481363 0.505135 0.490963
0.484006 0.511106 0.496934
0.474585 0.471728 0.460884
0.477228 0.477700 0.466856
0.479871 0.483671 0.472828
0.482514 0.489643 0.478799
0.485157 0.495615 0.484771
0.487800 0.501586 0.490743
0.490443 0.507558 0.496715
0.493086 0.513530 0.502686
0.495729 0.519501 0.508658
0.486309 0.480123 0.472608
0.488952 0.486095 0.478580
0.491595 0.492066 0.484551
0.494238 0.498038 0.490523
0.496881 0.504010 0.496495
0.499524 0.509981 0.502467
0.502167 0.515953 0.508438
0.504810 0.521925 0.514410
0.507453 0.527896 0.520382
0.498033 0.488518 0.484332
0.500676 0.494490 0.490303
0.503319 0.500461 0.496275
0.505962 0.506433 0.502247
0.508605 0.512405 0.508219
0.511248 0.518376 0.514190
0.513891 0.524348 0.520162
0.516534 0.530320 0.526134
0.519177 0.536291 0.532105
0.509756 0.496913 0.496055
0.512399 0.502885 0.502027
0.515042 0.508856 0.507999
0.517685 0.514828 0.513971
0.520328 0.520800 0.519942
0.522971 0.526771 0.525914
0.525614 0.532743 0.531886
0.528257 0.538715 0.537857
0.530900 0.544686 0.543829
0.521480 0.505308 0.507779
0.524123 0.511280 0.513751
0.526766 0.517251 0.519723
0.529409 0.523223 0.525694
0.532052 0.529195 0.531666
0.534695 0.535166 0.537638
0.537338 0.541138 0.543609
0.539981 0.547110 0.549581
0.542624 0.553081 0.555553
0.533204 0.513703 0.519503
0.535847 0.519675 0.525475
0.538490 0.525646 0.531446
0.541133 0.531618 0.537418
0.543776 0.537590 0.543390
0.546419 0.543561 0.549361
0.549062 0.549533 0.555333
0.551705 0.555505 0.561305
0.554348 0.561476 0.567276
0.544928 0.522098 0.531227
0.547571 0.528070 0.537198
0.550214 0.534041 0.543170
0.552857 0.540013 0.549142
0.555500 0.545985 0.555113
0.558143 0.551956 0.561085
0.560786 0.557928 0.567057
0.563429 0.563900 0.573029
0.566072 0.569872 0.579000
0.453415 0.457215 0.436385
0.456058 0.463186 0.442357
0.458701 0.469158 0.448328
0.461344 0.475130 0.454300
0.463987 0.481102 0.460272
0.466630 0.487073 0.466244
0.469273 0.493045 0.472215
0.471916 0.499017 0.478187
0.474559 0.504988 0.484159
0.465138 0.465610 0.448109
0.467781 0.471581 0.454080
0.470424 0.477553 0.460052
0.473067 0.483525 0.466024
0.475710 0.489497 0.471996
0.478353 0.495468 0.477967
0.480996 0.501440 0.483939
0.483639 0.507412 0.489911
0.486282 0.513383 0.495882
0.476862 0.474005 0.459832
0.479505 0.479976 0.465804
0.482148 0.485948 0.471776
0.484791 0.491920 0.477748
0.487434 0.497892 0.483719
0.490077 0.503863 0.489691
0.492720 0.509835 0.495663
0.495363 0.515807 0.501634
0.498006 0.521778 0.507606
0.488586 0.482400 0.471556
0.491229 0.488371 0.477528
0.493872 0.494343 0.483500
0.496515 0.500315 0.489471
0.499158 0.506287 0.495443
0.501801 0.512258 0.501415
0.504444 0.518230 0.507386
0.507087 0.524202 0.513358
0.509730 0.530173 0.519330
0.500310 0.490795 0.483280
0.502953 0.496766 0.489252
0.505596 0.502738 0.495223
0.508239 0.508710 0.501195
0.510882 0.514682 0.507167
0.513525 0.520653 0.513138
0.516168 0.526625 0.519110
0.518810 0.532597 0.525082
0.521453 0.538568 0.531053
0.512033 0.499190 0.495004
0.514676 0.505161 0.500975
0.517319 0.511133 0.506947
0.519962 0.517105 0.512919
0.522605 0.523077 0.518890
0.525248 0.529048 0.524862
0.527891 0.535020 0.530834
0.530534 0.540992 0.536806
0.533177 0.546963 0.542777
0.523757 0.507585 0.506727
0.526400 0.513556 0.512699
0.529043 0.519528 0.518671
0.531686 0.525500 0.524642
0.534329 0.531472 0.530614
0.536972 0.537443 0.536586
0.539615 0.543415 0.542558
0.542258 0.549387 0.548529
0.544901 0.555358 0.554501
0.535481 0.515980 0.518451
0.538124 0.521951 0.524423
0.540767 0.527923 0.530394
0.543410 0.533895 0.536366
0.546053 0.539867 0.542338
0.548696 0.545838 0.548310
0.551339 0.551810 0.554281
0.553982 0.557782 0.560253
0.556625 0.563753 0.566225
0.547204 0.524375 0.530175
0.549847 0.530346 0.536146
0.552490 0.536318 0.542118
0.555133 0.542290 0.548090
0.557776 0.548262 0.554062
0.560419 0.554233 0.560033
0.563062 0.560205 0.566005
0.565705 0.566177 0.571977
0.568348 0.572148 0.577948
